EA 50 Cinematic Luts Pack/EA_Cinematic Lut (44).cube
TITLE "A superb, clear and strong colorization that will give your shots a truly modern and cinematic character."
LUT_3D_SIZE 9
0.0000 0.0000 0.0000
0.0547 0.0003 0.0019
0.1675 0.0012 0.0066
0.3184 0.0028 0.0150
0.4867 0.0058 0.0277
0.6560 0.0103 0.0430
0.8122 0.0174 0.0591
0.9341 0.0252 0.0753
0.9992 0.0342 0.0921
0.0036 0.0594 0.0177
0.0550 0.0617 0.0193
0.1543 0.0671 0.0422
0.3065 0.0695 0.0399
0.4921 0.0634 0.0188
0.6665 0.0616 0.0201
0.8222 0.0626 0.0326
0.9416 0.0638 0.0461
0.9999 0.0671 0.0631
0.0240 0.1651 0.0561
0.0657 0.1687 0.0406
0.1674 0.1708 0.0595
0.2948 0.1784 0.0957
0.4572 0.1860 0.1037
0.6313 0.1919 0.1033
0.8050 0.1879 0.0894
0.9393 0.1774 0.0620
0.9999 0.1749 0.0620
0.0572 0.3062 0.0983
0.0941 0.3089 0.0902
0.1738 0.3167 0.0292
0.3178 0.3168 0.1035
0.4615 0.3258 0.1482
0.6157 0.3380 0.1653
0.7784 0.3457 0.1693
0.9105 0.3541 0.1699
0.9958 0.3515 0.1588
0.1005 0.4691 0.1423
0.1337 0.4711 0.1357
0.2065 0.4762 0.1214
0.3260 0.4843 0.0288
0.4883 0.4832 0.1492
0.6333 0.4915 0.2002
0.7746 0.5039 0.2236
0.9016 0.5148 0.2344
0.9883 0.5234 0.2378
0.1525 0.6350 0.1874
0.1826 0.6365 0.1813
0.2489 0.6403 0.1718
0.3511 0.6478 0.1294
0.4979 0.6529 0.0846
0.6597 0.6520 0.1961
0.7932 0.6598 0.2531
0.9058 0.6708 0.2820
0.9838 0.6842 0.3000
0.2119 0.7911 0.2341
0.2390 0.7921 0.2287
0.2992 0.7947 0.2208
0.3925 0.7993 0.2043
0.5101 0.8070 0.1169
0.6698 0.8079 0.1443
0.8147 0.8076 0.2444
0.9197 0.8134 0.3066
0.9855 0.8246 0.3750
0.2764 0.9185 0.2819
0.3006 0.9191 0.2773
0.3553 0.9207 0.2696
0.4404 0.9233 0.2573
0.5476 0.9274 0.2217
0.6742 0.9334 0.1039
0.8242 0.9326 0.2004
0.9351 0.9330 0.2944
0.9879 0.9369 0.5195
0.5438 0.9910 0.4794
0.5557 0.9914 0.4769
0.5862 0.9924 0.4735
0.6403 0.9935 0.4760
0.7092 0.9953 0.4762
0.7674 0.9987 0.4057
0.8409 1.0000 0.2375
0.9601 0.9984 0.5843
0.9969 0.9987 0.7982
0.0005 0.0036 0.0245
0.0407 0.0059 0.0785
0.1349 0.0179 0.0928
0.2929 0.0202 0.1044
0.4823 0.0102 0.1047
0.6561 0.0111 0.1092
0.8124 0.0178 0.1178
0.9342 0.0257 0.1278
0.9992 0.0346 0.1388
0.0009 0.0611 0.0997
0.0542 0.0620 0.1049
0.1668 0.0637 0.1015
0.3167 0.0653 0.1048
0.4855 0.0677 0.1097
0.6556 0.0710 0.1162
0.8121 0.0755 0.1245
0.9340 0.0810 0.1340
0.9999 0.0677 0.1260
0.0266 0.1654 0.1124
0.0684 0.1677 0.1197
0.1707 0.1715 0.1008
0.3136 0.1741 0.1145
0.4845 0.1755 0.1148
0.6672 0.1713 0.1059
0.8234 0.1715 0.1098
0.9424 0.1722 0.1158
0.9999 0.1753 0.1253
0.0595 0.3064 0.1400
0.0937 0.3090 0.1427
0.1759 0.3160 0.1169
0.3208 0.3176 0.1260
0.4718 0.3238 0.1628
0.6318 0.3325 0.1744
0.7926 0.3382 0.1762
0.9241 0.3406 0.1722
0.9993 0.3327 0.1534
0.1026 0.4692 0.1749
0.1330 0.4712 0.1771
0.2046 0.4772 0.1534
0.3280 0.4837 0.1176
0.4906 0.4838 0.1661
0.6376 0.4912 0.2122
0.7811 0.5021 0.2325
0.9091 0.5104 0.2404
0.9927 0.5159 0.2347
0.1546 0.6350 0.2143
0.1815 0.6365 0.2161
0.2467 0.6411 0.1963
0.3495 0.6481 0.1702
0.4984 0.6536 0.1151
0.6615 0.6524 0.2096
0.7960 0.6596 0.2631
0.9092 0.6696 0.2898
0.9871 0.6811 0.2994
0.2139 0.7911 0.2572
0.2375 0.7921 0.2582
0.2968 0.7952 0.2414
0.3912 0.7998 0.2251
0.5092 0.8071 0.1618
0.6701 0.8085 0.1604
0.8159 0.8078 0.2555
0.9212 0.8133 0.3153
0.9860 0.8244 0.3872
0.2784 0.9185 0.3025
0.2988 0.9192 0.3023
0.3525 0.9211 0.2882
0.4390 0.9236 0.2742
0.5462 0.9275 0.2482
0.6753 0.9332 0.1581
0.8243 0.9330 0.2124
0.9358 0.9331 0.3039
0.9881 0.9370 0.5266
0.5488 0.9906 0.4933
0.5587 0.9912 0.4905
0.5873 0.9923 0.4842
0.6417 0.9935 0.4869
0.7108 0.9952 0.4877
0.7712 0.9986 0.4282
0.8416 1.0000 0.2658
0.9600 0.9985 0.5878
0.9970 0.9988 0.8015
0.0031 0.0168 0.0709
0.0278 0.0204 0.1455
0.1307 0.0267 0.1695
0.2484 0.0508 0.1819
0.4181 0.0625 0.1992
0.6017 0.0683 0.2126
0.7862 0.0600 0.2173
0.9289 0.0431 0.2168
0.9992 0.0365 0.2191
0.0117 0.0669 0.1411
0.0344 0.0742 0.1609
0.1548 0.0701 0.1932
0.2955 0.0772 0.1971
0.4687 0.0799 0.2032
0.6541 0.0738 0.2051
0.8120 0.0771 0.2098
0.9341 0.0823 0.2158
0.9999 0.0692 0.2127
0.0060 0.1694 0.2072
0.0508 0.1721 0.2093
0.1654 0.1716 0.2162
0.3128 0.1745 0.2113
0.4839 0.1762 0.2106
0.6551 0.1790 0.2145
0.8117 0.1826 0.2195
0.9339 0.1869 0.2254
0.9999 0.1763 0.2189
0.0635 0.3071 0.2151
0.0987 0.3088 0.2234
0.1846 0.3126 0.2286
0.3215 0.3181 0.2125
0.4956 0.3180 0.2081
0.6683 0.3181 0.2092
0.8236 0.3189 0.2108
0.9425 0.3195 0.2141
0.9999 0.3237 0.2220
0.1070 0.4698 0.2383
0.1366 0.4717 0.2399
0.2111 0.4750 0.2513
0.3284 0.4831 0.2228
0.4966 0.4848 0.2085
0.6543 0.4883 0.2410
0.8020 0.4948 0.2535
0.9284 0.4974 0.2554
0.9969 0.5063 0.2620
0.1586 0.6355 0.2689
0.1849 0.6370 0.2700
0.2482 0.6405 0.2743
0.3442 0.6492 0.2452
0.5004 0.6527 0.2230
0.6653 0.6536 0.2404
0.8030 0.6591 0.2877
0.9182 0.6663 0.3092
0.9912 0.6767 0.3256
0.2176 0.7914 0.3048
0.2410 0.7924 0.3059
0.2979 0.7948 0.3096
0.3854 0.8009 0.2822
0.5106 0.8066 0.2486
0.6715 0.8090 0.2208
0.8184 0.8086 0.2817
0.9251 0.8131 0.3369
0.9871 0.8242 0.4157
0.2817 0.9186 0.3445
0.3026 0.9193 0.3456
0.3536 0.9208 0.3489
0.4329 0.9245 0.3234
0.5436 0.9282 0.2952
0.6780 0.9327 0.2500
0.8248 0.9339 0.2408
0.9373 0.9336 0.3268
0.9886 0.9374 0.5446
0.5555 0.9903 0.5194
0.5674 0.9907 0.5198
0.5947 0.9918 0.5179
0.6448 0.9933 0.5135
0.7144 0.9950 0.5155
0.7803 0.9982 0.4799
0.8434 1.0000 0.3284
0.9596 0.9988 0.5965
0.9972 0.9989 0.8098
0.0116 0.0396 0.1204
0.0266 0.0462 0.1708
0.1238 0.0368 0.2716
0.2537 0.0570 0.2657
0.3844 0.0898 0.2758
0.5469 0.1142 0.2967
0.7293 0.1251 0.3144
0.8808 0.1348 0.3307
0.9865 0.1272 0.3378
0.0252 0.0819 0.1778
0.0392 0.0901 0.1975
0.1230 0.0854 0.2902
0.2823 0.0884 0.2884
0.4191 0.1136 0.2902
0.5840 0.1309 0.3046
0.7581 0.1388 0.3177
0.9040 0.1404 0.3278
0.9970 0.1151 0.3271
0.0374 0.1740 0.2582
0.0536 0.1801 0.2694
0.1220 0.1906 0.2803
0.2897 0.1859 0.3040
0.4799 0.1801 0.3126
0.6527 0.1824 0.3157
0.8110 0.1853 0.3185
0.9335 0.1892 0.3229
0.9998 0.1817 0.3216
0.0202 0.3138 0.3230
0.0621 0.3160 0.3246
0.1485 0.3215 0.3272
0.3147 0.3183 0.3375
0.4803 0.3228 0.3310
0.6537 0.3249 0.3286
0.8113 0.3277 0.3302
0.9336 0.3312 0.3346
0.9999 0.3226 0.3282
0.1102 0.4704 0.3328
0.1402 0.4715 0.3420
0.2112 0.4745 0.3569
0.3368 0.4795 0.3488
0.4917 0.4851 0.3342
0.6674 0.4850 0.3279
0.8238 0.4853 0.3279
0.9421 0.4865 0.3275
0.9992 0.4961 0.3413
0.1647 0.6361 0.3496
0.1930 0.6370 0.3556
0.2594 0.6391 0.3683
0.3663 0.6437 0.3713
0.4978 0.6527 0.3403
0.6676 0.6542 0.3291
0.8229 0.6547 0.3297
0.9371 0.6574 0.3416
0.9944 0.6724 0.3899
0.2234 0.7918 0.3781
0.2464 0.7929 0.3788
0.3018 0.7955 0.3810
0.3983 0.7980 0.3978
0.5130 0.8058 0.3602
0.6704 0.8087 0.3400
0.8245 0.8095 0.3255
0.9321 0.8124 0.3736
0.9891 0.8239 0.4623
0.2872 0.9188 0.4117
0.3077 0.9195 0.4124
0.3576 0.9212 0.4146
0.4396 0.9237 0.4202
0.5344 0.9292 0.3863
0.6790 0.9322 0.3612
0.8250 0.9341 0.3377
0.9398 0.9345 0.3648
0.9897 0.9380 0.5762
0.5674 0.9901 0.5632
0.5790 0.9904 0.5637
0.6076 0.9913 0.5648
0.6532 0.9929 0.5640
0.7201 0.9948 0.5613
0.7947 0.9970 0.5556
0.8468 1.0000 0.4206
0.9588 0.9992 0.6110
0.9976 0.9992 0.8243
0.0261 0.0673 0.1717
0.0389 0.0740 0.2055
0.0894 0.0772 0.3083
0.2621 0.0582 0.3869
0.3969 0.0941 0.3691
0.5321 0.1356 0.3776
0.6882 0.1688 0.4001
0.8425 0.1909 0.4229
0.9606 0.2045 0.4423
0.0400 0.1046 0.2181
0.0510 0.1125 0.2345
0.0973 0.1143 0.3355
0.2614 0.1045 0.3929
0.4209 0.1210 0.3876
0.5553 0.1587 0.3910
0.7104 0.1873 0.4096
0.8617 0.2038 0.4280
0.9745 0.2066 0.4445
0.0583 0.1895 0.2942
0.0716 0.1954 0.3062
0.1106 0.2083 0.3360
0.2514 0.2006 0.4221
0.4622 0.1929 0.4208
0.6105 0.2141 0.4177
0.7639 0.2310 0.4277
0.9041 0.2364 0.4369
0.9961 0.2197 0.4455
0.0669 0.3177 0.3838
0.0846 0.3219 0.3917
0.1242 0.3329 0.4113
0.2511 0.3435 0.4079
0.4500 0.3380 0.4305
0.6515 0.3280 0.4420
0.8089 0.3312 0.4445
0.9327 0.3342 0.4456
0.9990 0.3382 0.4470
0.0408 0.4795 0.4520
0.0790 0.4811 0.4533
0.1617 0.4851 0.4562
0.2810 0.4922 0.4584
0.4840 0.4853 0.4723
0.6498 0.4903 0.4635
0.8082 0.4931 0.4618
0.9331 0.4952 0.4587
0.9999 0.4881 0.4513
0.1623 0.6371 0.4627
0.1876 0.6381 0.4694
0.2476 0.6404 0.4865
0.3562 0.6448 0.4906
0.5056 0.6488 0.4814
0.6623 0.6542 0.4688
0.8220 0.6544 0.4606
0.9419 0.6540 0.4589
0.9979 0.6661 0.4702
0.2303 0.7922 0.4748
0.2544 0.7929 0.4790
0.3127 0.7943 0.4900
0.4078 0.7961 0.5105
0.5338 0.8000 0.5038
0.6671 0.8087 0.4706
0.8209 0.8097 0.4628
0.9421 0.8092 0.4564
0.9919 0.8227 0.5254
0.2943 0.9189 0.4998
0.3167 0.9192 0.5044
0.3698 0.9201 0.5138
0.4522 0.9223 0.5225
0.5635 0.9243 0.5287
0.6803 0.9314 0.4884
0.8246 0.9337 0.4712
0.9420 0.9347 0.4575
0.9913 0.9389 0.6218
0.5842 0.9899 0.6230
0.5956 0.9903 0.6236
0.6236 0.9912 0.6251
0.6695 0.9927 0.6273
0.7295 0.9948 0.6278
0.8049 0.9968 0.6261
0.8628 0.9996 0.5584
0.9568 0.9997 0.6300
0.9981 0.9995 0.8457
0.0442 0.1002 0.2244
0.0555 0.1065 0.2503
0.0881 0.1155 0.3308
0.2073 0.1110 0.4376
0.4071 0.0966 0.4953
0.5476 0.1391 0.4817
0.6807 0.1887 0.4895
0.8181 0.2286 0.5112
0.9322 0.2650 0.5370
0.0571 0.1338 0.2626
0.0665 0.1413 0.2765
0.1020 0.1495 0.3471
0.2119 0.1424 0.4702
0.4250 0.1241 0.5166
0.5670 0.1628 0.4971
0.6980 0.2092 0.5010
0.8331 0.2453 0.5197
0.9471 0.2708 0.5445
0.0806 0.2113 0.3355
0.0912 0.2172 0.3466
0.1200 0.2312 0.3748
0.2022 0.2266 0.5144
0.4199 0.2196 0.5265
0.6057 0.2236 0.5297
0.7357 0.2610 0.5263
0.8664 0.2875 0.5386
0.9795 0.2816 0.5596
0.1000 0.3317 0.4271
0.1115 0.3366 0.4349
0.1433 0.3479 0.4558
0.2283 0.3623 0.4783
0.3992 0.3538 0.5686
0.6137 0.3519 0.5465
0.7948 0.3451 0.5589
0.9162 0.3574 0.5632
0.9935 0.3685 0.5685
0.0981 0.4824 0.5205
0.1148 0.4855 0.5262
0.1568 0.4928 0.5409
0.2479 0.5037 0.5521
0.4054 0.5135 0.5445
0.6125 0.5073 0.5657
0.8083 0.4942 0.5807
0.9306 0.4981 0.5817
0.9970 0.5080 0.5788
0.0657 0.6473 0.5882
0.1010 0.6485 0.5892
0.1791 0.6515 0.5915
0.2947 0.6567 0.5949
0.4336 0.6647 0.5967
0.6540 0.6540 0.6137
0.8044 0.6596 0.6032
0.9358 0.6577 0.5919
0.9995 0.6545 0.5813
0.2155 0.7933 0.5998
0.2374 0.7941 0.6050
0.2897 0.7960 0.6181
0.3757 0.7992 0.6379
0.5113 0.8032 0.6279
0.6720 0.8052 0.6195
0.8157 0.8091 0.6101
0.9386 0.8098 0.5966
0.9965 0.8184 0.6102
0.3007 0.9192 0.6071
0.3215 0.9196 0.6105
0.3721 0.9207 0.6194
0.4550 0.9222 0.6362
0.5649 0.9237 0.6521
0.7121 0.9252 0.6425
0.8294 0.9313 0.6196
0.9398 0.9339 0.6120
0.9935 0.9398 0.6815
0.6053 0.9898 0.6954
0.6164 0.9902 0.6960
0.6435 0.9911 0.6975
0.6880 0.9925 0.7001
0.7474 0.9945 0.7040
0.8147 0.9968 0.7059
0.8868 0.9989 0.7000
0.9511 0.9998 0.6485
0.9987 0.9998 0.8741
0.0652 0.1384 0.2790
0.0754 0.1441 0.2999
0.1028 0.1556 0.3598
0.1754 0.1566 0.4926
0.3648 0.1383 0.5909
0.5550 0.1463 0.6057
0.6972 0.1911 0.5995
0.8154 0.2474 0.6058
0.9224 0.2947 0.6270
0.0772 0.1688 0.3111
0.0858 0.1758 0.3235
0.1156 0.1858 0.3793
0.1809 0.1842 0.5229
0.3697 0.1690 0.6114
0.5725 0.1684 0.6252
0.7118 0.2121 0.6124
0.8275 0.2656 0.6157
0.9361 0.3023 0.6376
0.1025 0.2398 0.3794
0.1115 0.2456 0.3897
0.1358 0.2598 0.4158
0.1994 0.2658 0.5198
0.3697 0.2477 0.6452
0.5920 0.2391 0.6517
0.7429 0.2656 0.6414
0.8544 0.3116 0.6387
0.9654 0.3218 0.6630
0.1281 0.3529 0.4693
0.1385 0.3574 0.4776
0.1658 0.3683 0.4986
0.2176 0.3853 0.5367
0.3498 0.3797 0.6611
0.5814 0.3710 0.6708
0.7855 0.3566 0.6819
0.8915 0.3910 0.6726
0.9866 0.3936 0.6874
0.1476 0.4930 0.5708
0.1586 0.4965 0.5766
0.1869 0.5051 0.5913
0.2388 0.5192 0.6176
0.3730 0.5320 0.6246
0.5528 0.5242 0.7170
0.7638 0.5237 0.6823
0.9261 0.5056 0.7038
0.9901 0.5306 0.6989
0.1317 0.6501 0.6626
0.1476 0.6524 0.6671
0.1872 0.6580 0.6785
0.2614 0.6666 0.6960
0.3966 0.6765 0.6968
0.5653 0.6851 0.6868
0.7749 0.6748 0.7115
0.9356 0.6590 0.7203
0.9960 0.6737 0.7098
0.0949 0.8034 0.7291
0.1275 0.8043 0.7298
0.2011 0.8063 0.7317
0.3117 0.8097 0.7348
0.4466 0.8149 0.7373
0.5969 0.8203 0.7393
0.8111 0.8094 0.7524
0.9359 0.8115 0.7292
0.9997 0.8093 0.7170
0.2635 0.9215 0.7406
0.2829 0.9220 0.7447
0.3298 0.9233 0.7551
0.4057 0.9254 0.7737
0.5184 0.9284 0.7792
0.6823 0.9295 0.7665
0.8338 0.9306 0.7496
0.9393 0.9342 0.7430
0.9966 0.9398 0.7575
0.6227 0.9901 0.7829
0.6342 0.9904 0.7832
0.6623 0.9912 0.7841
0.7076 0.9926 0.7830
0.7662 0.9944 0.7868
0.8321 0.9966 0.7917
0.8977 0.9987 0.7956
0.9500 0.9998 0.7461
0.9993 0.9999 0.9096
0.0892 0.1810 0.3357
0.0986 0.1863 0.3535
0.1230 0.1980 0.4025
0.1739 0.2072 0.5130
0.3113 0.2046 0.6291
0.5390 0.1672 0.7396
0.7026 0.2023 0.7221
0.8309 0.2488 0.7208
0.9239 0.3106 0.7257
0.1002 0.2089 0.3636
0.1084 0.2151 0.3750
0.1346 0.2256 0.4217
0.1861 0.2351 0.5246
0.3155 0.2295 0.6555
0.5403 0.2008 0.7458
0.7158 0.2221 0.7375
0.8411 0.2675 0.7316
0.9359 0.3193 0.7389
0.1260 0.2743 0.4276
0.1340 0.2800 0.4371
0.1552 0.2937 0.4613
0.2081 0.3040 0.5444
0.3218 0.2903 0.7155
0.5412 0.2789 0.7606
0.7446 0.2722 0.7734
0.8634 0.3148 0.7570
0.9620 0.3409 0.7710
0.1575 0.3788 0.5153
0.1663 0.3833 0.5230
0.1892 0.3942 0.5426
0.2318 0.4123 0.5778
0.3217 0.4154 0.7013
0.5340 0.3959 0.7974
0.7493 0.3891 0.7949
0.8933 0.3969 0.7948
0.9834 0.4091 0.8038
0.1819 0.5117 0.6132
0.1909 0.5152 0.6188
0.2151 0.5238 0.6336
0.2630 0.5367 0.6631
0.3556 0.5533 0.6912
0.5076 0.5491 0.8032
0.7343 0.5404 0.8129
0.9028 0.5322 0.8153
0.9865 0.5440 0.8136
0.1994 0.6578 0.7191
0.2097 0.6604 0.7236
0.2362 0.6669 0.7349
0.2832 0.6778 0.7550
0.3704 0.6915 0.7752
0.5090 0.7021 0.8021
0.7284 0.6918 0.8447
0.9025 0.6866 0.8268
0.9909 0.6884 0.8273
0.1691 0.8055 0.8067
0.1841 0.8070 0.8103
0.2211 0.8107 0.8193
0.2839 0.8170 0.8355
0.4108 0.8232 0.8417
0.5146 0.8347 0.8624
0.7291 0.8341 0.8523
0.9137 0.8251 0.8418
0.9958 0.8242 0.8438
0.1278 0.9291 0.8714
0.1579 0.9296 0.8720
0.2269 0.9308 0.8736
0.3321 0.9329 0.8762
0.4626 0.9359 0.8800
0.6218 0.9382 0.8784
0.7771 0.9411 0.8759
0.9389 0.9350 0.8734
0.9999 0.9352 0.8574
0.5661 0.9939 0.8825
0.5827 0.9940 0.8825
0.6224 0.9943 0.8827
0.6855 0.9948 0.8832
0.7642 0.9955 0.8845
0.8422 0.9969 0.8864
0.9117 0.9987 0.8885
0.9660 0.9999 0.8944
0.9998 0.9999 0.9516
0.1161 0.2277 0.3954
0.1248 0.2328 0.4111
0.1473 0.2440 0.4535
0.1903 0.2579 0.5382
0.2808 0.2567 0.6924
0.4744 0.2487 0.7807
0.7077 0.2043 0.8761
0.8343 0.2632 0.8414
0.9357 0.3109 0.8441
0.1262 0.2535 0.4201
0.1341 0.2585 0.4340
0.1578 0.2687 0.4756
0.2011 0.2817 0.5576
0.2872 0.2763 0.7246
0.4860 0.2664 0.8070
0.7240 0.2154 0.9031
0.8502 0.2715 0.8627
0.9462 0.3190 0.8597
0.1517 0.3138 0.4796
0.1580 0.3188 0.4903
0.1770 0.3299 0.5207
0.2238 0.3403 0.5988
0.3061 0.3350 0.7590
0.5079 0.3117 0.8702
0.7548 0.2531 0.9595
0.8863 0.2920 0.9158
0.9691 0.3390 0.8981
0.1859 0.4104 0.5631
0.1923 0.4146 0.5725
0.2092 0.4247 0.5975
0.2452 0.4390 0.6493
0.3307 0.4361 0.7875
0.5190 0.4086 0.9279
0.7537 0.3825 0.9608
0.9063 0.3844 0.9480
0.9846 0.4147 0.9303
0.2165 0.5344 0.6583
0.2228 0.5377 0.6661
0.2395 0.5459 0.6869
0.2722 0.5586 0.7273
0.3339 0.5702 0.8046
0.5313 0.5499 0.9258
0.7538 0.5342 0.9551
0.9122 0.5268 0.9572
0.9874 0.5487 0.9380
0.2419 0.6735 0.7640
0.2463 0.6765 0.7695
0.2581 0.6839 0.7839
0.2812 0.6961 0.8107
0.3346 0.7085 0.8652
0.4989 0.7095 0.9235
0.7545 0.6915 0.9475
0.9201 0.6764 0.9708
0.9912 0.6927 0.9489
0.2503 0.8105 0.8665
0.2546 0.8126 0.8712
0.2661 0.8178 0.8835
0.2844 0.8269 0.9060
0.3170 0.8394 0.9402
0.5129 0.8431 0.9417
0.7440 0.8376 0.9444
0.9220 0.8225 0.9787
0.9952 0.8290 0.9628
0.2083 0.9305 0.9520
0.2107 0.9320 0.9554
0.2172 0.9356 0.9641
0.3332 0.9372 0.9653
0.4790 0.9391 0.9663
0.6355 0.9412 0.9666
0.7864 0.9438 0.9676
0.9196 0.9444 0.9700
0.9985 0.9417 0.9798
0.5528 0.9958 0.9819
0.5673 0.9959 0.9822
0.6025 0.9963 0.9828
0.6598 0.9970 0.9840
0.7345 0.9978 0.9858
0.8180 0.9988 0.9883
0.8994 0.9997 0.9914
0.9665 1.0000 0.9953
1.0000 1.0000 0.9999
