EA 50 Cinematic Luts Pack/EA_Cinematic Lut (42).cube
TITLE "An energetic, fantasy look that extracts the contrast between shadows and highlights of the footage."
LUT_3D_SIZE 25
0.0000 0.0000 0.0000
0.0060 0.0013 0.0016
0.0154 0.0034 0.0038
0.0281 0.0067 0.0073
0.0435 0.0121 0.0124
0.0618 0.0191 0.0194
0.0835 0.0271 0.0271
0.1089 0.0363 0.0355
0.1383 0.0466 0.0447
0.1715 0.0579 0.0545
0.2077 0.0702 0.0650
0.2467 0.0838 0.0763
0.2877 0.0985 0.0884
0.3301 0.1145 0.1014
0.3731 0.1323 0.1152
0.4164 0.1518 0.1300
0.4596 0.1731 0.1466
0.5007 0.1958 0.1645
0.5402 0.2198 0.1837
0.5781 0.2448 0.2041
0.6129 0.2706 0.2255
0.6442 0.2971 0.2477
0.6743 0.3241 0.2707
0.7038 0.3514 0.2941
0.7330 0.3787 0.3180
0.0039 0.0102 0.0056
0.0135 0.0119 0.0004
0.0295 0.0120 0.0010
0.0448 0.0144 0.0036
0.0596 0.0192 0.0098
0.0765 0.0259 0.0186
0.0969 0.0337 0.0278
0.1218 0.0425 0.0365
0.1510 0.0525 0.0456
0.1837 0.0635 0.0554
0.2194 0.0757 0.0659
0.2577 0.0890 0.0772
0.2979 0.1036 0.0893
0.3395 0.1196 0.1023
0.3819 0.1374 0.1161
0.4244 0.1569 0.1310
0.4668 0.1782 0.1475
0.5071 0.2008 0.1655
0.5459 0.2246 0.1847
0.5831 0.2494 0.2051
0.6172 0.2751 0.2264
0.6479 0.3014 0.2486
0.6776 0.3282 0.2715
0.7069 0.3552 0.2950
0.7359 0.3824 0.3188
0.0098 0.0260 0.0142
0.0183 0.0278 0.0077
0.0309 0.0293 0.0009
0.0536 0.0288 0.0000
0.0734 0.0311 0.0055
0.0963 0.0349 0.0099
0.1185 0.0414 0.0204
0.1422 0.0501 0.0324
0.1696 0.0600 0.0439
0.2003 0.0710 0.0554
0.2347 0.0831 0.0666
0.2722 0.0962 0.0780
0.3115 0.1106 0.0902
0.3521 0.1267 0.1032
0.3935 0.1445 0.1171
0.4351 0.1640 0.1320
0.4762 0.1851 0.1486
0.5155 0.2076 0.1666
0.5535 0.2312 0.1859
0.5897 0.2558 0.2063
0.6228 0.2812 0.2276
0.6528 0.3073 0.2498
0.6822 0.3338 0.2727
0.7112 0.3605 0.2960
0.7398 0.3874 0.3198
0.0191 0.0468 0.0268
0.0265 0.0484 0.0212
0.0360 0.0507 0.0113
0.0533 0.0524 0.0018
0.0825 0.0517 0.0000
0.1100 0.0533 0.0058
0.1396 0.0568 0.0116
0.1704 0.0624 0.0204
0.2004 0.0705 0.0332
0.2295 0.0812 0.0475
0.2615 0.0932 0.0614
0.2960 0.1064 0.0753
0.3324 0.1212 0.0896
0.3707 0.1377 0.1040
0.4106 0.1554 0.1180
0.4509 0.1749 0.1332
0.4902 0.1958 0.1499
0.5280 0.2179 0.1680
0.5647 0.2412 0.1873
0.5994 0.2655 0.2078
0.6309 0.2905 0.2291
0.6601 0.3162 0.2513
0.6890 0.3422 0.2742
0.7175 0.3686 0.2975
0.7458 0.3949 0.3213
0.0304 0.0729 0.0413
0.0364 0.0747 0.0359
0.0459 0.0765 0.0298
0.0583 0.0798 0.0148
0.0817 0.0815 0.0030
0.1183 0.0803 0.0000
0.1555 0.0809 0.0036
0.1882 0.0849 0.0177
0.2278 0.0893 0.0207
0.2634 0.0969 0.0332
0.2987 0.1066 0.0472
0.3307 0.1198 0.0644
0.3646 0.1347 0.0809
0.3999 0.1513 0.0973
0.4361 0.1695 0.1142
0.4727 0.1894 0.1320
0.5084 0.2105 0.1510
0.5444 0.2322 0.1692
0.5794 0.2550 0.1888
0.6120 0.2788 0.2093
0.6416 0.3033 0.2308
0.6700 0.3283 0.2530
0.6982 0.3538 0.2759
0.7261 0.3795 0.2993
0.7539 0.4053 0.3230
0.0434 0.1045 0.0579
0.0479 0.1066 0.0517
0.0576 0.1079 0.0477
0.0701 0.1107 0.0376
0.0858 0.1152 0.0179
0.1162 0.1166 0.0045
0.1615 0.1149 0.0000
0.2081 0.1144 0.0000
0.2456 0.1184 0.0161
0.2860 0.1237 0.0273
0.3299 0.1299 0.0319
0.3670 0.1402 0.0476
0.4044 0.1524 0.0630
0.4366 0.1688 0.0831
0.4698 0.1870 0.1025
0.5026 0.2064 0.1218
0.5351 0.2271 0.1420
0.5674 0.2491 0.1638
0.5984 0.2720 0.1864
0.6272 0.2958 0.2102
0.6549 0.3196 0.2321
0.6824 0.3439 0.2545
0.7098 0.3686 0.2776
0.7370 0.3935 0.3010
0.7641 0.4184 0.3248
0.0585 0.1430 0.0765
0.0612 0.1457 0.0692
0.0712 0.1467 0.0663
0.0841 0.1492 0.0590
0.1000 0.1534 0.0448
0.1192 0.1593 0.0206
0.1581 0.1603 0.0064
0.2112 0.1580 0.0000
0.2622 0.1575 0.0000
0.3075 0.1602 0.0123
0.3473 0.1664 0.0339
0.3926 0.1728 0.0383
0.4356 0.1816 0.0467
0.4724 0.1942 0.0640
0.5080 0.2084 0.0809
0.5371 0.2273 0.1038
0.5667 0.2475 0.1263
0.5953 0.2688 0.1497
0.6225 0.2910 0.1741
0.6480 0.3140 0.1992
0.6733 0.3377 0.2249
0.6987 0.3619 0.2510
0.7241 0.3863 0.2775
0.7502 0.4105 0.3023
0.7765 0.4344 0.3263
0.0758 0.1891 0.0975
0.0765 0.1925 0.0887
0.0866 0.1933 0.0864
0.1000 0.1953 0.0809
0.1164 0.1989 0.0698
0.1363 0.2043 0.0513
0.1593 0.2115 0.0227
0.2065 0.2117 0.0088
0.2655 0.2089 0.0000
0.3199 0.2083 0.0000
0.3717 0.2095 0.0074
0.4130 0.2158 0.0313
0.4550 0.2233 0.0468
0.4984 0.2311 0.0507
0.5358 0.2420 0.0633
0.5690 0.2562 0.0825
0.6003 0.2718 0.1014
0.6252 0.2919 0.1269
0.6485 0.3133 0.1537
0.6720 0.3354 0.1811
0.6957 0.3582 0.2091
0.7197 0.3813 0.2372
0.7439 0.4048 0.2653
0.7681 0.4284 0.2936
0.7925 0.4519 0.3217
0.0955 0.2411 0.1209
0.0961 0.2443 0.1125
0.1041 0.2457 0.1085
0.1180 0.2473 0.1042
0.1351 0.2503 0.0954
0.1552 0.2551 0.0803
0.1793 0.2613 0.0575
0.2065 0.2691 0.0260
0.2600 0.2689 0.0117
0.3230 0.2662 0.0000
0.3801 0.2653 0.0000
0.4367 0.2648 0.0007
0.4774 0.2708 0.0270
0.5149 0.2786 0.0524
0.5550 0.2864 0.0597
0.5933 0.2953 0.0646
0.6238 0.3081 0.0820
0.6502 0.3232 0.1031
0.6764 0.3395 0.1243
0.6990 0.3597 0.1532
0.7211 0.3814 0.1845
0.7436 0.4034 0.2155
0.7664 0.4257 0.2464
0.7894 0.4481 0.2770
0.8125 0.4702 0.3071
0.1179 0.2972 0.1480
0.1185 0.3002 0.1395
0.1241 0.3025 0.1330
0.1385 0.3037 0.1294
0.1562 0.3062 0.1222
0.1769 0.3102 0.1098
0.2004 0.3160 0.0906
0.2276 0.3230 0.0631
0.2603 0.3304 0.0309
0.3174 0.3301 0.0152
0.3824 0.3273 0.0000
0.4406 0.3260 0.0000
0.4946 0.3255 0.0000
0.5372 0.3290 0.0210
0.5731 0.3364 0.0492
0.6068 0.3449 0.0701
0.6403 0.3531 0.0741
0.6715 0.3625 0.0800
0.6973 0.3766 0.1027
0.7226 0.3920 0.1262
0.7479 0.4082 0.1505
0.7701 0.4278 0.1828
0.7914 0.4488 0.2178
0.8130 0.4696 0.2519
0.8347 0.4900 0.2853
0.1434 0.3561 0.1793
0.1441 0.3587 0.1709
0.1468 0.3617 0.1614
0.1613 0.3627 0.1583
0.1795 0.3646 0.1520
0.2005 0.3678 0.1409
0.2242 0.3726 0.1240
0.2507 0.3788 0.1005
0.2799 0.3864 0.0683
0.3176 0.3928 0.0359
0.3766 0.3925 0.0191
0.4417 0.3897 0.0009
0.4985 0.3879 0.0000
0.5491 0.3874 0.0000
0.5930 0.3889 0.0126
0.6248 0.3956 0.0446
0.6530 0.4038 0.0738
0.6833 0.4119 0.0851
0.7141 0.4204 0.0901
0.7434 0.4305 0.0998
0.7680 0.4446 0.1257
0.7925 0.4595 0.1526
0.8170 0.4747 0.1801
0.8388 0.4923 0.2150
0.8593 0.5111 0.2532
0.1717 0.4152 0.2139
0.1724 0.4175 0.2059
0.1728 0.4207 0.1942
0.1864 0.4218 0.1904
0.2046 0.4233 0.1851
0.2259 0.4258 0.1756
0.2496 0.4296 0.1603
0.2756 0.4348 0.1384
0.3045 0.4412 0.1099
0.3349 0.4490 0.0733
0.3766 0.4542 0.0411
0.4360 0.4539 0.0234
0.4985 0.4511 0.0026
0.5529 0.4490 0.0000
0.5998 0.4487 0.0000
0.6412 0.4481 0.0034
0.6701 0.4540 0.0379
0.6978 0.4613 0.0699
0.7251 0.4693 0.0975
0.7556 0.4766 0.1016
0.7853 0.4848 0.1076
0.8125 0.4949 0.1229
0.8364 0.5079 0.1522
0.8602 0.5213 0.1823
0.8840 0.5349 0.2127
0.2023 0.4724 0.2512
0.2029 0.4743 0.2435
0.2035 0.4770 0.2325
0.2133 0.4787 0.2253
0.2315 0.4798 0.2208
0.2527 0.4817 0.2126
0.2763 0.4846 0.1994
0.3020 0.4886 0.1797
0.3296 0.4938 0.1529
0.3602 0.4998 0.1190
0.3909 0.5072 0.0778
0.4357 0.5111 0.0466
0.4929 0.5106 0.0274
0.5516 0.5081 0.0044
0.6031 0.5059 0.0000
0.6438 0.5057 0.0000
0.6825 0.5053 0.0000
0.7140 0.5085 0.0299
0.7414 0.5145 0.0643
0.7678 0.5216 0.0979
0.7960 0.5286 0.1144
0.8254 0.5355 0.1196
0.8542 0.5432 0.1268
0.8797 0.5533 0.1491
0.9030 0.5650 0.1820
0.2348 0.5249 0.2902
0.2354 0.5265 0.2830
0.2360 0.5287 0.2727
0.2419 0.5309 0.2620
0.2597 0.5317 0.2582
0.2806 0.5331 0.2514
0.3040 0.5353 0.2401
0.3294 0.5384 0.2230
0.3565 0.5426 0.1990
0.3852 0.5477 0.1671
0.4164 0.5534 0.1277
0.4468 0.5602 0.0819
0.4926 0.5628 0.0520
0.5464 0.5623 0.0318
0.6011 0.5602 0.0069
0.6468 0.5579 0.0000
0.6850 0.5577 0.0000
0.7228 0.5574 0.0000
0.7569 0.5586 0.0193
0.7841 0.5637 0.0573
0.8103 0.5696 0.0935
0.8359 0.5763 0.1292
0.8651 0.5820 0.1334
0.8935 0.5881 0.1401
0.9213 0.5946 0.1483
0.2689 0.5729 0.3305
0.2696 0.5742 0.3238
0.2702 0.5760 0.3144
0.2720 0.5786 0.3004
0.2893 0.5791 0.2971
0.3098 0.5802 0.2914
0.3328 0.5818 0.2820
0.3577 0.5841 0.2674
0.3842 0.5872 0.2465
0.4118 0.5910 0.2180
0.4412 0.5955 0.1811
0.4714 0.6004 0.1360
0.5003 0.6059 0.0859
0.5461 0.6074 0.0577
0.5965 0.6071 0.0364
0.6444 0.6054 0.0098
0.6881 0.6033 0.0000
0.7255 0.6031 0.0000
0.7626 0.6029 0.0000
0.7991 0.6025 0.0056
0.8260 0.6065 0.0487
0.8520 0.6110 0.0871
0.8771 0.6160 0.1254
0.9035 0.6211 0.1491
0.9316 0.6260 0.1547
0.3043 0.6139 0.3712
0.3049 0.6149 0.3652
0.3055 0.6163 0.3565
0.3061 0.6184 0.3424
0.3201 0.6192 0.3367
0.3399 0.6200 0.3320
0.3624 0.6211 0.3240
0.3866 0.6228 0.3119
0.4123 0.6251 0.2940
0.4391 0.6280 0.2693
0.4666 0.6316 0.2367
0.4950 0.6354 0.1948
0.5232 0.6400 0.1440
0.5508 0.6454 0.0895
0.5962 0.6463 0.0636
0.6404 0.6461 0.0413
0.6849 0.6445 0.0133
0.7283 0.6424 0.0000
0.7654 0.6421 0.0000
0.8016 0.6418 0.0000
0.8376 0.6413 0.0000
0.8667 0.6435 0.0384
0.8924 0.6475 0.0793
0.9173 0.6521 0.1198
0.9397 0.6582 0.1752
0.3405 0.6508 0.4119
0.3411 0.6517 0.4064
0.3417 0.6529 0.3985
0.3424 0.6548 0.3858
0.3516 0.6561 0.3765
0.3707 0.6567 0.3725
0.3923 0.6576 0.3659
0.4159 0.6590 0.3558
0.4407 0.6609 0.3409
0.4664 0.6634 0.3198
0.4921 0.6663 0.2915
0.5182 0.6698 0.2546
0.5459 0.6738 0.2080
0.5724 0.6786 0.1517
0.5981 0.6840 0.0927
0.6400 0.6843 0.0698
0.6809 0.6839 0.0462
0.7245 0.6823 0.0175
0.7670 0.6802 0.0000
0.8040 0.6795 0.0000
0.8396 0.6792 0.0000
0.8749 0.6788 0.0000
0.9066 0.6796 0.0249
0.9321 0.6833 0.0700
0.9468 0.6912 0.1857
0.3772 0.6867 0.4515
0.3777 0.6875 0.4466
0.3783 0.6886 0.4395
0.3790 0.6903 0.4283
0.3837 0.6921 0.4158
0.4019 0.6926 0.4125
0.4226 0.6934 0.4071
0.4452 0.6945 0.3987
0.4689 0.6961 0.3862
0.4929 0.6980 0.3685
0.5174 0.7005 0.3445
0.5421 0.7036 0.3126
0.5676 0.7072 0.2718
0.5934 0.7113 0.2208
0.6169 0.7161 0.1591
0.6405 0.7209 0.0985
0.6802 0.7209 0.0761
0.7204 0.7205 0.0514
0.7631 0.7189 0.0215
0.8050 0.7169 0.0000
0.8420 0.7160 0.0000
0.8770 0.7157 0.0000
0.9117 0.7153 0.0000
0.9458 0.7149 0.0081
0.9533 0.7241 0.2119
0.4137 0.7215 0.4886
0.4142 0.7222 0.4843
0.4148 0.7233 0.4784
0.4155 0.7249 0.4687
0.4160 0.7271 0.4541
0.4330 0.7275 0.4511
0.4527 0.7281 0.4466
0.4739 0.7290 0.4397
0.4960 0.7301 0.4294
0.5187 0.7317 0.4147
0.5419 0.7338 0.3945
0.5656 0.7366 0.3677
0.5890 0.7399 0.3327
0.6124 0.7435 0.2881
0.6350 0.7476 0.2324
0.6559 0.7524 0.1661
0.6806 0.7565 0.1064
0.7196 0.7565 0.0823
0.7591 0.7561 0.0565
0.8011 0.7546 0.0260
0.8424 0.7526 0.0000
0.8795 0.7515 0.0000
0.9139 0.7512 0.0000
0.9480 0.7509 0.0000
0.9554 0.7571 0.2537
0.4495 0.7551 0.5228
0.4500 0.7557 0.5192
0.4505 0.7567 0.5141
0.4512 0.7581 0.5057
0.4518 0.7602 0.4933
0.4637 0.7611 0.4870
0.4817 0.7615 0.4834
0.5015 0.7622 0.4778
0.5224 0.7632 0.4697
0.5441 0.7647 0.4580
0.5663 0.7666 0.4414
0.5884 0.7690 0.4192
0.6100 0.7719 0.3898
0.6308 0.7753 0.3520
0.6519 0.7789 0.3036
0.6730 0.7831 0.2437
0.6937 0.7878 0.1728
0.7200 0.7913 0.1145
0.7582 0.7913 0.0891
0.7971 0.7908 0.0619
0.8385 0.7893 0.0304
0.8792 0.7875 0.0000
0.9164 0.7862 0.0000
0.9503 0.7859 0.0000
0.9554 0.7913 0.3099
0.4841 0.7878 0.5544
0.4845 0.7884 0.5513
0.4850 0.7892 0.5469
0.4856 0.7904 0.5396
0.4863 0.7923 0.5291
0.4932 0.7937 0.5203
0.5100 0.7940 0.5174
0.5285 0.7945 0.5129
0.5483 0.7955 0.5064
0.5689 0.7968 0.4972
0.5897 0.7986 0.4841
0.6101 0.8009 0.4664
0.6299 0.8034 0.4424
0.6491 0.8064 0.4109
0.6688 0.8098 0.3703
0.6898 0.8134 0.3186
0.7104 0.8176 0.2543
0.7308 0.8223 0.1790
0.7586 0.8251 0.1230
0.7962 0.8251 0.0958
0.8346 0.8247 0.0677
0.8753 0.8232 0.0346
0.9156 0.8215 0.0000
0.9531 0.8201 0.0000
0.9554 0.8246 0.3849
0.5175 0.8197 0.5827
0.5178 0.8203 0.5801
0.5183 0.8210 0.5765
0.5188 0.8221 0.5706
0.5194 0.8237 0.5618
0.5221 0.8255 0.5511
0.5376 0.8258 0.5487
0.5551 0.8264 0.5452
0.5737 0.8271 0.5399
0.5928 0.8283 0.5326
0.6118 0.8298 0.5223
0.6304 0.8318 0.5082
0.6488 0.8342 0.4892
0.6675 0.8370 0.4642
0.6865 0.8400 0.4307
0.7063 0.8434 0.3877
0.7271 0.8471 0.3331
0.7471 0.8513 0.2643
0.7674 0.8559 0.1851
0.7968 0.8582 0.1316
0.8339 0.8583 0.1027
0.8718 0.8579 0.0734
0.9120 0.8566 0.0393
0.9519 0.8550 0.0000
0.9554 0.8566 0.4725
0.5497 0.8510 0.6085
0.5500 0.8515 0.6062
0.5505 0.8522 0.6030
0.5510 0.8532 0.5978
0.5516 0.8547 0.5905
0.5520 0.8567 0.5803
0.5651 0.8572 0.5772
0.5811 0.8577 0.5745
0.5981 0.8584 0.5705
0.6154 0.8593 0.5647
0.6327 0.8606 0.5566
0.6498 0.8622 0.5453
0.6675 0.8642 0.5302
0.6858 0.8668 0.5103
0.7045 0.8698 0.4841
0.7234 0.8730 0.4497
0.7434 0.8764 0.4043
0.7641 0.8801 0.3470
0.7837 0.8845 0.2743
0.8037 0.8890 0.1908
0.8346 0.8907 0.1408
0.8711 0.8908 0.1100
0.9086 0.8904 0.0794
0.9483 0.8892 0.0446
0.9551 0.8878 0.5351
0.6389 0.8716 0.6757
0.6400 0.8718 0.6748
0.6414 0.8722 0.6736
0.6434 0.8728 0.6718
0.6462 0.8736 0.6693
0.6495 0.8747 0.6659
0.6559 0.8756 0.6639
0.6649 0.8764 0.6628
0.6748 0.8774 0.6610
0.6853 0.8787 0.6581
0.6964 0.8804 0.6537
0.7078 0.8825 0.6473
0.7195 0.8851 0.6379
0.7314 0.8882 0.6248
0.7436 0.8919 0.6061
0.7559 0.8963 0.5795
0.7686 0.9013 0.5356
0.7827 0.9075 0.4530
0.8002 0.9125 0.3599
0.8197 0.9167 0.2840
0.8395 0.9212 0.1962
0.8718 0.9224 0.1504
0.9078 0.9225 0.1177
0.9449 0.9221 0.0857
0.9551 0.9175 0.6253
0.7192 0.8899 0.7436
0.7200 0.8901 0.7433
0.7212 0.8904 0.7428
0.7229 0.8909 0.7421
0.7251 0.8917 0.7411
0.7279 0.8926 0.7397
0.7320 0.8936 0.7388
0.7387 0.8944 0.7393
0.7461 0.8954 0.7397
0.7542 0.8967 0.7398
0.7628 0.8982 0.7394
0.7719 0.9001 0.7384
0.7813 0.9024 0.7365
0.7910 0.9050 0.7335
0.8011 0.9081 0.7291
0.8115 0.9116 0.7228
0.8221 0.9156 0.7140
0.8332 0.9201 0.7018
0.8451 0.9250 0.6840
0.8571 0.9306 0.6581
0.8694 0.9370 0.6196
0.8828 0.9439 0.5588
0.9098 0.9472 0.5123
0.9411 0.9499 0.4270
0.9537 0.9435 0.7460
0.0007 0.0005 0.0037
0.0104 0.0004 0.0168
0.0156 0.0038 0.0136
0.0509 0.0000 0.0150
0.0781 0.0000 0.0126
0.1092 0.0007 0.0108
0.1354 0.0059 0.0138
0.1587 0.0172 0.0227
0.1829 0.0304 0.0340
0.2113 0.0438 0.0454
0.2437 0.0576 0.0570
0.2794 0.0720 0.0690
0.3174 0.0874 0.0816
0.3569 0.1040 0.0951
0.3975 0.1217 0.1091
0.4383 0.1415 0.1242
0.4787 0.1631 0.1407
0.5176 0.1860 0.1587
0.5554 0.2101 0.1780
0.5911 0.2357 0.1986
0.6240 0.2618 0.2201
0.6538 0.2888 0.2425
0.6831 0.3161 0.2656
0.7120 0.3439 0.2893
0.7406 0.3717 0.3134
0.0012 0.0118 0.0165
0.0111 0.0122 0.0222
0.0297 0.0122 0.0149
0.0451 0.0145 0.0174
0.0596 0.0196 0.0219
0.0773 0.0260 0.0277
0.0985 0.0337 0.0345
0.1236 0.0424 0.0423
0.1528 0.0524 0.0509
0.1854 0.0634 0.0603
0.2210 0.0756 0.0705
0.2592 0.0890 0.0815
0.2993 0.1035 0.0934
0.3408 0.1195 0.1062
0.3831 0.1374 0.1199
0.4255 0.1569 0.1348
0.4678 0.1781 0.1513
0.5080 0.2007 0.1692
0.5467 0.2245 0.1884
0.5838 0.2494 0.2087
0.6178 0.2751 0.2300
0.6484 0.3014 0.2521
0.6781 0.3282 0.2749
0.7074 0.3552 0.2982
0.7366 0.3821 0.3210
0.0056 0.0274 0.0262
0.0165 0.0282 0.0247
0.0311 0.0291 0.0199
0.0509 0.0292 0.0238
0.0727 0.0313 0.0232
0.0940 0.0357 0.0274
0.1153 0.0427 0.0349
0.1405 0.0510 0.0430
0.1693 0.0605 0.0517
0.2013 0.0711 0.0612
0.2362 0.0830 0.0715
0.2736 0.0961 0.0826
0.3128 0.1105 0.0945
0.3534 0.1266 0.1073
0.3947 0.1444 0.1210
0.4362 0.1640 0.1360
0.4772 0.1851 0.1526
0.5164 0.2075 0.1705
0.5543 0.2311 0.1897
0.5903 0.2557 0.2100
0.6233 0.2812 0.2312
0.6533 0.3072 0.2533
0.6826 0.3338 0.2760
0.7116 0.3605 0.2993
0.7405 0.3871 0.3220
0.0173 0.0473 0.0395
0.0233 0.0494 0.0349
0.0347 0.0510 0.0280
0.0527 0.0524 0.0218
0.0816 0.0516 0.0227
0.1078 0.0537 0.0283
0.1391 0.0569 0.0290
0.1684 0.0630 0.0366
0.1952 0.0722 0.0485
0.2251 0.0828 0.0603
0.2584 0.0944 0.0718
0.2947 0.1072 0.0832
0.3326 0.1215 0.0954
0.3718 0.1376 0.1083
0.4117 0.1554 0.1222
0.4519 0.1748 0.1374
0.4910 0.1957 0.1540
0.5288 0.2179 0.1720
0.5655 0.2412 0.1913
0.6000 0.2654 0.2116
0.6314 0.2905 0.2328
0.6606 0.3161 0.2549
0.6894 0.3422 0.2776
0.7180 0.3685 0.3008
0.7465 0.3947 0.3235
0.0296 0.0732 0.0530
0.0341 0.0753 0.0485
0.0417 0.0779 0.0404
0.0566 0.0803 0.0308
0.0808 0.0816 0.0230
0.1192 0.0799 0.0179
0.1521 0.0814 0.0296
0.1876 0.0850 0.0342
0.2274 0.0894 0.0361
0.2625 0.0972 0.0468
0.2940 0.1083 0.0615
0.3267 0.1214 0.0765
0.3612 0.1362 0.0916
0.3970 0.1527 0.1072
0.4341 0.1707 0.1228
0.4723 0.1899 0.1383
0.5092 0.2104 0.1553
0.5451 0.2321 0.1735
0.5800 0.2550 0.1929
0.6125 0.2788 0.2133
0.6420 0.3032 0.2346
0.6705 0.3283 0.2567
0.6986 0.3538 0.2794
0.7266 0.3795 0.3027
0.7546 0.4050 0.3252
0.0431 0.1046 0.0687
0.0469 0.1068 0.0643
0.0528 0.1096 0.0558
0.0671 0.1117 0.0487
0.0841 0.1157 0.0334
0.1153 0.1167 0.0245
0.1623 0.1145 0.0175
0.2051 0.1148 0.0275
0.2426 0.1190 0.0391
0.2856 0.1238 0.0420
0.3288 0.1302 0.0465
0.3663 0.1405 0.0599
0.4005 0.1541 0.0765
0.4334 0.1704 0.0947
0.4671 0.1885 0.1130
0.5003 0.2078 0.1316
0.5332 0.2285 0.1516
0.5658 0.2503 0.1729
0.5976 0.2728 0.1939
0.6276 0.2958 0.2146
0.6553 0.3196 0.2361
0.6828 0.3439 0.2584
0.7102 0.3686 0.2812
0.7374 0.3935 0.3045
0.7648 0.4182 0.3270
0.0584 0.1430 0.0867
0.0617 0.1452 0.0824
0.0659 0.1487 0.0730
0.0805 0.1505 0.0678
0.0975 0.1542 0.0558
0.1177 0.1597 0.0357
0.1572 0.1603 0.0263
0.2119 0.1576 0.0174
0.2636 0.1570 0.0168
0.3048 0.1608 0.0369
0.3463 0.1666 0.0493
0.3922 0.1729 0.0516
0.4348 0.1819 0.0596
0.4718 0.1945 0.0754
0.5051 0.2100 0.0936
0.5347 0.2288 0.1152
0.5646 0.2489 0.1370
0.5936 0.2701 0.1599
0.6211 0.2922 0.1837
0.6468 0.3152 0.2083
0.6722 0.3388 0.2335
0.6977 0.3629 0.2592
0.7242 0.3866 0.2824
0.7505 0.4105 0.3059
0.7771 0.4342 0.3286
0.0758 0.1890 0.1071
0.0789 0.1913 0.1030
0.0809 0.1954 0.0922
0.0960 0.1968 0.0883
0.1134 0.2000 0.0789
0.1341 0.2050 0.0623
0.1579 0.2119 0.0376
0.2057 0.2118 0.0285
0.2663 0.2085 0.0177
0.3223 0.2075 0.0117
0.3693 0.2100 0.0334
0.4108 0.2163 0.0512
0.4547 0.2234 0.0595
0.4981 0.2312 0.0630
0.5352 0.2423 0.0751
0.5685 0.2565 0.0932
0.5987 0.2730 0.1129
0.6235 0.2933 0.1383
0.6470 0.3146 0.1646
0.6706 0.3366 0.1915
0.6945 0.3593 0.2187
0.7187 0.3824 0.2462
0.7429 0.4058 0.2738
0.7673 0.4293 0.3014
0.7926 0.4521 0.3257
0.0956 0.2410 0.1303
0.0985 0.2431 0.1262
0.0993 0.2474 0.1147
0.1135 0.2489 0.1105
0.1317 0.2515 0.1031
0.1525 0.2559 0.0895
0.1772 0.2620 0.0683
0.2062 0.2691 0.0415
0.2593 0.2690 0.0309
0.3224 0.2663 0.0189
0.3825 0.2646 0.0100
0.4346 0.2652 0.0289
0.4756 0.2713 0.0481
0.5134 0.2790 0.0690
0.5547 0.2865 0.0715
0.5931 0.2954 0.0761
0.6234 0.3083 0.0930
0.6499 0.3235 0.1133
0.6757 0.3401 0.1347
0.6976 0.3610 0.1649
0.7199 0.3825 0.1953
0.7425 0.4045 0.2256
0.7654 0.4267 0.2558
0.7885 0.4490 0.2857
0.8126 0.4704 0.3114
0.1181 0.2972 0.1575
0.1208 0.2992 0.1533
0.1218 0.3031 0.1418
0.1336 0.3054 0.1353
0.1524 0.3075 0.1291
0.1739 0.3112 0.1177
0.1981 0.3166 0.0998
0.2261 0.3235 0.0741
0.2601 0.3303 0.0457
0.3167 0.3302 0.0337
0.3817 0.3274 0.0199
0.4428 0.3254 0.0084
0.4968 0.3246 0.0100
0.5356 0.3295 0.0437
0.5717 0.3368 0.0669
0.6066 0.3450 0.0816
0.6401 0.3532 0.0853
0.6714 0.3626 0.0908
0.6970 0.3769 0.1132
0.7224 0.3922 0.1361
0.7477 0.4084 0.1602
0.7689 0.4289 0.1944
0.7904 0.4497 0.2284
0.8120 0.4704 0.2618
0.8348 0.4901 0.2898
0.1436 0.3560 0.1887
0.1463 0.3578 0.1846
0.1473 0.3613 0.1732
0.1563 0.3642 0.1638
0.1754 0.3658 0.1585
0.1973 0.3688 0.1485
0.2216 0.3733 0.1323
0.2487 0.3794 0.1096
0.2786 0.3867 0.0792
0.3174 0.3928 0.0501
0.3760 0.3926 0.0367
0.4411 0.3898 0.0213
0.5005 0.3874 0.0070
0.5522 0.3863 0.0021
0.5917 0.3892 0.0379
0.6237 0.3960 0.0630
0.6521 0.4042 0.0895
0.6831 0.4119 0.0959
0.7139 0.4205 0.1007
0.7431 0.4307 0.1106
0.7677 0.4448 0.1360
0.7923 0.4597 0.1626
0.8168 0.4748 0.1898
0.8378 0.4931 0.2263
0.8594 0.5113 0.2580
