EA 50 Cinematic Luts Pack/EA_Cinematic Lut (18).CUBE
#Created by: Adobe Photoshop Export Color Lookup Plugin
#Copyright: (C) Copyright 2018 Navpreet Singh
TITLE "orange and teal"
#LUT size
LUT_3D_SIZE 32
#data domain
DOMAIN_MIN 0.0 0.0 0.0
DOMAIN_MAX 1.0 1.0 1.0
#LUT data points
0.000000 0.000000 0.000000
0.032257 0.010742 0.000000
0.064514 0.021484 0.000000
0.096771 0.032257 0.000000
0.129028 0.042999 0.000000
0.161285 0.053741 0.000000
0.193542 0.064484 0.000000
0.225800 0.075256 0.000000
0.258057 0.085999 0.000000
0.290314 0.096741 0.000000
0.322571 0.107483 0.000000
0.354828 0.118256 0.000000
0.387085 0.128998 0.000000
0.419342 0.139740 0.000000
0.451599 0.150482 0.000000
0.483856 0.161255 0.000000
0.516144 0.171997 0.000000
0.548401 0.182770 0.000000
0.580658 0.193512 0.000000
0.612915 0.204254 0.000000
0.645172 0.214996 0.000000
0.677429 0.225769 0.000000
0.709686 0.236511 0.000000
0.741943 0.247253 0.000000
0.774200 0.257996 0.000000
0.806458 0.268768 0.000000
0.838715 0.279510 0.000000
0.870972 0.290253 0.000000
0.903229 0.300995 0.000000
0.935486 0.311768 0.000000
0.967743 0.322510 0.000000
1.000000 0.333252 0.000000
0.000000 0.024231 0.024231
0.032257 0.032257 0.032257
0.088257 0.035065 0.008484
0.129028 0.042999 0.000000
0.161285 0.053741 0.000000
0.193542 0.064484 0.000000
0.225800 0.075256 0.000000
0.258057 0.085999 0.000000
0.290314 0.096741 0.000000
0.322571 0.107483 0.000000
0.354828 0.118256 0.000000
0.387085 0.128998 0.000000
0.419342 0.139740 0.000000
0.451599 0.150482 0.000000
0.483856 0.161255 0.000000
0.516113 0.171997 0.000000
0.548401 0.182770 0.000000
0.580658 0.193512 0.000000
0.612915 0.204254 0.000000
0.645172 0.214996 0.000000
0.677429 0.225769 0.000000
0.709686 0.236511 0.000000
0.741943 0.247253 0.000000
0.774200 0.257996 0.000000
0.806458 0.268768 0.000000
0.838715 0.279510 0.000000
0.870972 0.290253 0.000000
0.903229 0.300995 0.000000
0.935486 0.311768 0.000000
0.967743 0.322510 0.000000
1.000000 0.333252 0.000000
1.000000 0.354767 0.032257
0.000000 0.048431 0.048431
0.014404 0.074310 0.074310
0.064514 0.064514 0.064514
0.120514 0.067322 0.040741
0.176514 0.070160 0.016998
0.225800 0.075256 0.000000
0.258057 0.085999 0.000000
0.290314 0.096741 0.000000
0.322571 0.107483 0.000000
0.354828 0.118256 0.000000
0.387085 0.128998 0.000000
0.419342 0.139740 0.000000
0.451599 0.150482 0.000000
0.483856 0.161255 0.000000
0.516113 0.171997 0.000000
0.548370 0.182739 0.000000
0.580658 0.193512 0.000000
0.612915 0.204254 0.000000
0.645172 0.214996 0.000000
0.677429 0.225769 0.000000
0.709686 0.236511 0.000000
0.741943 0.247253 0.000000
0.774200 0.257996 0.000000
0.806458 0.268768 0.000000
0.838715 0.279510 0.000000
0.870972 0.290253 0.000000
0.903229 0.300995 0.000000
0.935486 0.311768 0.000000
0.967743 0.322510 0.000000
1.000000 0.333252 0.000000
1.000000 0.354767 0.032257
1.000000 0.376282 0.064514
0.000000 0.072632 0.072632
0.000000 0.112946 0.112946
0.046661 0.106567 0.106567
0.096771 0.096771 0.096771
0.152771 0.099579 0.072998
0.208771 0.102417 0.049255
0.264801 0.105255 0.025513
0.320801 0.108093 0.001770
0.354828 0.118256 0.000000
0.387085 0.128998 0.000000
0.419342 0.139740 0.000000
0.451599 0.150482 0.000000
0.483856 0.161255 0.000000
0.516113 0.171997 0.000000
0.548370 0.182739 0.000000
0.580627 0.193481 0.000000
0.612915 0.204254 0.000000
0.645172 0.214996 0.000000
0.677429 0.225769 0.000000
0.709686 0.236511 0.000000
0.741943 0.247253 0.000000
0.774200 0.257996 0.000000
0.806458 0.268768 0.000000
0.838715 0.279510 0.000000
0.870972 0.290253 0.000000
0.903229 0.300995 0.000000
0.935486 0.311768 0.000000
0.967743 0.322510 0.000000
1.000000 0.333252 0.000000
1.000000 0.354767 0.032257
1.000000 0.376282 0.064514
1.000000 0.397766 0.096771
0.000000 0.096832 0.096832
0.000000 0.137146 0.137146
0.028839 0.148590 0.148590
0.078918 0.138824 0.138824
0.129028 0.129028 0.129028
0.185028 0.131836 0.105255
0.241028 0.134674 0.081512
0.297058 0.137512 0.057770
0.353058 0.140350 0.034027
0.409058 0.143158 0.010254
0.451599 0.150482 0.000000
0.483856 0.161255 0.000000
0.516113 0.171997 0.000000
0.548370 0.182739 0.000000
0.580627 0.193481 0.000000
0.612885 0.204254 0.000000
0.645172 0.214996 0.000000
0.677429 0.225769 0.000000
0.709686 0.236511 0.000000
0.741943 0.247253 0.000000
0.774200 0.257996 0.000000
0.806458 0.268768 0.000000
0.838715 0.279510 0.000000
0.870972 0.290253 0.000000
0.903229 0.300995 0.000000
0.935486 0.311768 0.000000
0.967743 0.322510 0.000000
1.000000 0.333252 0.000000
1.000000 0.354767 0.032257
1.000000 0.376282 0.064514
1.000000 0.397766 0.096771
1.000000 0.419281 0.129028
0.000000 0.121002 0.121002
0.000000 0.161346 0.161346
0.011017 0.190613 0.190613
0.061096 0.180847 0.180847
0.111176 0.171082 0.171082
0.161285 0.161285 0.161285
0.217285 0.164093 0.137512
0.273285 0.166931 0.113770
0.329315 0.169769 0.090027
0.385315 0.172607 0.066284
0.441315 0.175415 0.042511
0.497345 0.178253 0.018768
0.548370 0.182739 0.000000
0.580627 0.193481 0.000000
0.612885 0.204254 0.000000
0.645142 0.214996 0.000000
0.677429 0.225769 0.000000
0.709686 0.236511 0.000000
0.741943 0.247253 0.000000
0.774200 0.257996 0.000000
0.806458 0.268768 0.000000
0.838715 0.279510 0.000000
0.870972 0.290253 0.000000
0.903229 0.300995 0.000000
0.935486 0.311768 0.000000
0.967743 0.322510 0.000000
1.000000 0.333252 0.000000
1.000000 0.354767 0.032257
1.000000 0.376282 0.064514
1.000000 0.397766 0.096771
1.000000 0.419281 0.129028
1.000000 0.440796 0.161285
0.000000 0.145203 0.145203
0.000000 0.185516 0.185516
0.000000 0.225861 0.225861
0.043274 0.222870 0.222870
0.093353 0.213104 0.213104
0.143433 0.203339 0.203339
0.193542 0.193542 0.193542
0.249542 0.196350 0.169769
0.305542 0.199188 0.146027
0.361572 0.202026 0.122284
0.417572 0.204865 0.098541
0.473572 0.207672 0.074768
0.529602 0.210510 0.051025
0.585602 0.213348 0.027283
0.641602 0.216156 0.003510
0.677399 0.225739 0.000000
0.709686 0.236511 0.000000
0.741943 0.247253 0.000000
0.774200 0.257996 0.000000
0.806458 0.268768 0.000000
0.838715 0.279510 0.000000
0.870972 0.290253 0.000000
0.903229 0.300995 0.000000
0.935486 0.311768 0.000000
0.967743 0.322510 0.000000
1.000000 0.333252 0.000000
1.000000 0.354767 0.032257
1.000000 0.376282 0.064514
1.000000 0.397766 0.096771
1.000000 0.419281 0.129028
1.000000 0.440796 0.161285
1.000000 0.462311 0.193542
0.000000 0.169403 0.169403
0.000000 0.209717 0.209717
0.000000 0.250031 0.250031
0.025452 0.264893 0.264893
0.075531 0.255127 0.255127
0.125610 0.245361 0.245361
0.175690 0.235596 0.235596
0.225800 0.225800 0.225800
0.281799 0.228607 0.202026
0.337799 0.231445 0.178284
0.393829 0.234283 0.154541
0.449829 0.237122 0.130798
0.505829 0.239929 0.107025
0.561859 0.242767 0.083282
0.617859 0.245605 0.059540
0.673859 0.248413 0.035767
0.729919 0.251251 0.011993
0.774200 0.257996 0.000000
0.806458 0.268768 0.000000
0.838715 0.279510 0.000000
0.870972 0.290253 0.000000
0.903229 0.300995 0.000000
0.935486 0.311768 0.000000
0.967743 0.322510 0.000000
1.000000 0.333252 0.000000
1.000000 0.354767 0.032257
1.000000 0.376282 0.064514
1.000000 0.397766 0.096771
1.000000 0.419281 0.129028
1.000000 0.440796 0.161285
1.000000 0.462311 0.193542
1.000000 0.483795 0.225800
0.000000 0.193604 0.193604
0.000000 0.233917 0.233917
0.000000 0.274231 0.274231
0.007660 0.306854 0.306854
0.057709 0.297150 0.297150
0.107788 0.287384 0.287384
0.157867 0.277618 0.277618
0.207947 0.267853 0.267853
0.258057 0.258057 0.258057
0.314056 0.260864 0.234283
0.370056 0.263702 0.210541
0.426086 0.266541 0.186798
0.482086 0.269379 0.163055
0.538086 0.272186 0.139282
0.594116 0.275024 0.115540
0.650116 0.277863 0.091797
0.706177 0.280701 0.068024
0.762177 0.283508 0.044250
0.818176 0.286346 0.020508
0.870972 0.290253 0.000000
0.903229 0.300995 0.000000
0.935486 0.311768 0.000000
0.967743 0.322510 0.000000
1.000000 0.333252 0.000000
1.000000 0.354767 0.032257
1.000000 0.376282 0.064514
1.000000 0.397766 0.096771
1.000000 0.419281 0.129028
1.000000 0.440796 0.161285
1.000000 0.462311 0.193542
1.000000 0.483795 0.225800
1.000000 0.505310 0.258057
0.000000 0.217804 0.217804
0.000000 0.258118 0.258118
0.000000 0.298431 0.298431
0.000000 0.338745 0.338745
0.039917 0.339111 0.339111
0.089966 0.329407 0.329407
0.140045 0.319641 0.319641
0.190125 0.309875 0.309875
0.240204 0.300110 0.300110
0.290314 0.290314 0.290314
0.346313 0.293121 0.266541
0.402313 0.295959 0.242798
0.458344 0.298798 0.219055
0.514343 0.301636 0.195313
0.570343 0.304443 0.171539
0.626373 0.307281 0.147797
0.682434 0.310120 0.124023
0.738434 0.312958 0.100281
0.794434 0.315765 0.076508
0.850433 0.318604 0.052765
0.906464 0.321442 0.029022
0.962463 0.324249 0.005249
1.000000 0.333252 0.000000
1.000000 0.354767 0.032257
1.000000 0.376282 0.064514
1.000000 0.397766 0.096771
1.000000 0.419281 0.129028
1.000000 0.440796 0.161285
1.000000 0.462311 0.193542
1.000000 0.483795 0.225800
1.000000 0.505310 0.258057
1.000000 0.526825 0.290314
0.000000 0.242004 0.242004
0.000000 0.282318 0.282318
0.000000 0.322632 0.322632
0.000000 0.362946 0.362946
0.022095 0.381134 0.381134
0.072174 0.371368 0.371368
0.122223 0.361664 0.361664
0.172302 0.351898 0.351898
0.222382 0.342133 0.342133
0.272461 0.332367 0.332367
0.322571 0.322571 0.322571
0.378571 0.325378 0.298798
0.434570 0.328217 0.275055
0.490601 0.331055 0.251312
0.546600 0.333893 0.227570
0.602600 0.336700 0.203796
0.658661 0.339539 0.180023
0.714691 0.342377 0.156281
0.770691 0.345215 0.132538
0.826691 0.348022 0.108765
0.882690 0.350861 0.085022
0.938721 0.353699 0.061279
0.994720 0.356506 0.037506
1.000000 0.376282 0.064514
1.000000 0.397766 0.096771
1.000000 0.419281 0.129028
1.000000 0.440796 0.161285
1.000000 0.462311 0.193542
1.000000 0.483795 0.225800
1.000000 0.505310 0.258057
1.000000 0.526825 0.290314
1.000000 0.548340 0.322571
0.000000 0.266205 0.266205
0.000000 0.306519 0.306519
0.000000 0.346832 0.346832
0.000000 0.387146 0.387146
0.004272 0.423157 0.423157
0.054352 0.413391 0.413391
0.104431 0.403625 0.403625
0.154480 0.393921 0.393921
0.204559 0.384155 0.384155
0.254639 0.374390 0.374390
0.304718 0.364624 0.364624
0.354828 0.354828 0.354828
0.410828 0.357635 0.331055
0.466827 0.360474 0.307312
0.522858 0.363312 0.283569
0.578857 0.366150 0.259827
0.634918 0.368988 0.236053
0.690918 0.371796 0.212280
0.746948 0.374634 0.188538
0.802948 0.377472 0.164795
0.858948 0.380280 0.141022
0.914948 0.383118 0.117279
0.970978 0.385956 0.093536
1.000000 0.397766 0.096771
1.000000 0.419281 0.129028
1.000000 0.440796 0.161285
1.000000 0.462311 0.193542
1.000000 0.483795 0.225800
1.000000 0.505310 0.258057
1.000000 0.526825 0.290314
1.000000 0.548340 0.322571
1.000000 0.569824 0.354828
0.000000 0.290405 0.290405
0.000000 0.330719 0.330719
0.000000 0.371033 0.371033
0.000000 0.411346 0.411346
0.000000 0.451660 0.451660
0.036530 0.455414 0.455414
0.086609 0.445648 0.445648
0.136688 0.435883 0.435883
0.186737 0.426178 0.426178
0.236816 0.416412 0.416412
0.286896 0.406647 0.406647
0.336975 0.396881 0.396881
0.387085 0.387085 0.387085
0.443085 0.389893 0.363312
0.499084 0.392731 0.339569
0.555115 0.395569 0.315826
0.611176 0.398407 0.292053
0.667175 0.401245 0.268311
0.723175 0.404053 0.244537
0.779205 0.406891 0.220795
0.835205 0.409729 0.197052
0.891205 0.412537 0.173279
0.947205 0.415375 0.149536
1.000000 0.419281 0.129028
1.000000 0.440796 0.161285
1.000000 0.462311 0.193542
1.000000 0.483795 0.225800
1.000000 0.505310 0.258057
1.000000 0.526825 0.290314
1.000000 0.548340 0.322571
1.000000 0.569824 0.354828
1.000000 0.591339 0.387085
0.000000 0.314575 0.314575
0.000000 0.354919 0.354919
0.000000 0.395233 0.395233
0.000000 0.435547 0.435547
0.000000 0.475861 0.475861
0.018707 0.497437 0.497437
0.068787 0.487671 0.487671
0.118866 0.477905 0.477905
0.168945 0.468140 0.468140
0.218994 0.458435 0.458435
0.269073 0.448669 0.448669
0.319153 0.438904 0.438904
0.369232 0.429138 0.429138
0.419342 0.419342 0.419342
0.475342 0.422150 0.395569
0.531342 0.424988 0.371826
0.587402 0.427826 0.348053
0.643433 0.430664 0.324310
0.699432 0.433502 0.300568
0.755432 0.436310 0.276794
0.811462 0.439148 0.253052
0.867462 0.441986 0.229309
0.923462 0.444794 0.205536
0.979462 0.447632 0.181793
1.000000 0.462311 0.193542
1.000000 0.483795 0.225800
1.000000 0.505310 0.258057
1.000000 0.526825 0.290314
1.000000 0.548340 0.322571
1.000000 0.569824 0.354828
1.000000 0.591339 0.387085
1.000000 0.612854 0.419342
0.000000 0.338776 0.338776
0.000000 0.379089 0.379089
0.000000 0.419434 0.419434
0.000000 0.459747 0.459747
0.000000 0.500061 0.500061
0.000916 0.539459 0.539459
0.050964 0.529694 0.529694
0.101044 0.519928 0.519928
0.151123 0.510162 0.510162
0.201202 0.500397 0.500397
0.251251 0.490692 0.490692
0.301331 0.480927 0.480927
0.351410 0.471161 0.471161
0.401489 0.461395 0.461395
0.451599 0.451599 0.451599
0.507599 0.454407 0.427826
0.563660 0.457245 0.404053
0.619659 0.460083 0.380310
0.675690 0.462921 0.356567
0.731689 0.465759 0.332825
0.787689 0.468567 0.309052
0.843719 0.471405 0.285309
0.899719 0.474243 0.261566
0.955719 0.477051 0.237793
1.000000 0.483795 0.225800
1.000000 0.505310 0.258057
1.000000 0.526825 0.290314
1.000000 0.548340 0.322571
1.000000 0.569824 0.354828
1.000000 0.591339 0.387085
1.000000 0.612854 0.419342
1.000000 0.634369 0.451599
0.000000 0.362976 0.362976
0.000000 0.403290 0.403290
0.000000 0.443604 0.443604
0.000000 0.483948 0.483948
0.000000 0.524261 0.524261
0.000000 0.564575 0.564575
0.033173 0.571716 0.571716
0.083221 0.561951 0.561951
0.133301 0.552185 0.552185
0.183380 0.542419 0.542419
0.233459 0.532654 0.532654
0.283508 0.522949 0.522949
0.333588 0.513184 0.513184
0.383667 0.503418 0.503418
0.433746 0.493652 0.493652
0.483856 0.483856 0.483856
0.539917 0.486694 0.460083
0.595917 0.489502 0.436310
0.651917 0.492340 0.412567
0.707947 0.495178 0.388824
0.763947 0.498016 0.365082
0.819946 0.500824 0.341309
0.875977 0.503662 0.317566
0.931976 0.506500 0.293823
0.987976 0.509308 0.270050
1.000000 0.526825 0.290314
1.000000 0.548340 0.322571
1.000000 0.569824 0.354828
1.000000 0.591339 0.387085
1.000000 0.612854 0.419342
1.000000 0.634369 0.451599
1.000000 0.655853 0.483856
0.000000 0.387207 0.387207
0.000000 0.427521 0.427521
0.000000 0.467834 0.467834
0.000000 0.508148 0.508148
0.000000 0.548462 0.548462
0.000000 0.588776 0.588776
0.015320 0.613800 0.613800
0.065399 0.604034 0.604034
0.115479 0.594269 0.594269
0.165558 0.584503 0.584503
0.215637 0.574738 0.574738
0.265686 0.564972 0.564972
0.315765 0.555206 0.555206
0.365845 0.545441 0.545441
0.415894 0.535736 0.535736
0.465973 0.525970 0.525970
0.516144 0.516144 0.516144
0.572144 0.518951 0.492371
0.628143 0.521790 0.468628
0.684174 0.524628 0.444885
0.740173 0.527466 0.421143
0.796173 0.530273 0.397369
0.852203 0.533112 0.373627
0.908203 0.535950 0.349884
0.964203 0.538757 0.326111
1.000000 0.548340 0.322601
1.000000 0.569855 0.354858
1.000000 0.591370 0.387115
1.000000 0.612854 0.419373
1.000000 0.634369 0.451630
1.000000 0.655884 0.483887
1.000000 0.677399 0.516144
0.000000 0.411407 0.411407
0.000000 0.451721 0.451721
0.000000 0.492035 0.492035
0.000000 0.532349 0.532349
0.000000 0.572662 0.572662
0.000000 0.612976 0.612976
0.000000 0.653290 0.653290
0.047577 0.646057 0.646057
0.097656 0.636292 0.636292
0.147736 0.626526 0.626526
0.197815 0.616760 0.616760
0.247894 0.606995 0.606995
0.297943 0.597229 0.597229
0.348022 0.587463 0.587463
0.398102 0.577698 0.577698
0.448151 0.567993 0.567993
0.498291 0.558197 0.558197
0.548401 0.548401 0.548401
0.604401 0.551208 0.524628
0.660400 0.554047 0.500885
0.716431 0.556885 0.477142
0.772430 0.559723 0.453400
0.828430 0.562531 0.429626
0.884460 0.565369 0.405884
0.940460 0.568207 0.382141
0.996460 0.571014 0.358368
1.000000 0.591370 0.387115
1.000000 0.612854 0.419373
1.000000 0.634369 0.451630
1.000000 0.655884 0.483887
1.000000 0.677399 0.516144
1.000000 0.698883 0.548401
0.000000 0.435608 0.435608
0.000000 0.475922 0.475922
0.000000 0.516235 0.516235
0.000000 0.556549 0.556549
0.000000 0.596863 0.596863
0.000000 0.637177 0.637177
0.000000 0.677490 0.677490
0.029785 0.688019 0.688019
0.079834 0.678314 0.678314
0.129913 0.668549 0.668549
0.179993 0.658783 0.658783
0.230072 0.649017 0.649017
0.280151 0.639252 0.639252
0.330200 0.629486 0.629486
0.380280 0.619720 0.619720
0.430359 0.609955 0.609955
0.480469 0.600220 0.600220
0.530548 0.590454 0.590454
0.580658 0.580658 0.580658
0.636658 0.583466 0.556885
0.692657 0.586304 0.533142
0.748688 0.589142 0.509399
0.804688 0.591980 0.485657
0.860687 0.594788 0.461884
0.916718 0.597626 0.438141
0.972717 0.600464 0.414398
1.000000 0.612854 0.419373
1.000000 0.634369 0.451630
1.000000 0.655884 0.483887
1.000000 0.677399 0.516144
1.000000 0.698883 0.548401
1.000000 0.720398 0.580658
0.000000 0.459778 0.459778
0.000000 0.500122 0.500122
0.000000 0.540436 0.540436
0.000000 0.580750 0.580750
0.000000 0.621063 0.621063
0.000000 0.661377 0.661377
0.000000 0.701691 0.701691
0.011963 0.730042 0.730042
0.062042 0.720276 0.720276
0.112091 0.710571 0.710571
0.162170 0.700806 0.700806
0.212250 0.691040 0.691040
0.262329 0.681274 0.681274
0.312408 0.671509 0.671509
0.362457 0.661743 0.661743
0.412537 0.651978 0.651978
0.462646 0.642242 0.642242
0.512726 0.632477 0.632477
0.562805 0.622711 0.622711
0.612915 0.612915 0.612915
0.668915 0.615723 0.589142
0.724915 0.618561 0.565399
0.780945 0.621399 0.541656
0.836945 0.624237 0.517914
0.892944 0.627045 0.494141
0.948975 0.629883 0.470398
1.000000 0.634369 0.451630
1.000000 0.655884 0.483887
1.000000 0.677399 0.516144
1.000000 0.698883 0.548401
1.000000 0.720398 0.580658
1.000000 0.741913 0.612915
0.000000 0.483978 0.483978
0.000000 0.524292 0.524292
0.000000 0.564636 0.564636
0.000000 0.604950 0.604950
0.000000 0.645264 0.645264
0.000000 0.685577 0.685577
0.000000 0.725891 0.725891
0.000000 0.766205 0.766205
0.044220 0.762299 0.762299
0.094299 0.752533 0.752533
0.144348 0.742828 0.742828
0.194427 0.733063 0.733063
0.244507 0.723297 0.723297
0.294586 0.713531 0.713531
0.344666 0.703766 0.703766
0.394714 0.694000 0.694000
0.444824 0.684265 0.684265
0.494904 0.674500 0.674500
0.544983 0.664734 0.664734
0.595062 0.654968 0.654968
0.645172 0.645172 0.645172
0.701172 0.647980 0.621399
0.757172 0.650818 0.597656
0.813202 0.653656 0.573914
0.869202 0.656494 0.550171
0.925201 0.659302 0.526398
0.981232 0.662140 0.502655
1.000000 0.677399 0.516144
1.000000 0.698883 0.548401
1.000000 0.720398 0.580658
1.000000 0.741913 0.612915
1.000000 0.763428 0.645172
0.000000 0.508179 0.508179
0.000000 0.548492 0.548492
0.000000 0.588806 0.588806
0.000000 0.629150 0.629150
0.000000 0.669464 0.669464
0.000000 0.709778 0.709778
0.000000 0.750092 0.750092
0.000000 0.790405 0.790405
0.026398 0.804321 0.804321
0.076477 0.794556 0.794556
0.126556 0.784790 0.784790
0.176605 0.775085 0.775085
0.226685 0.765320 0.765320
0.276764 0.755554 0.755554
0.326843 0.745789 0.745789
0.376923 0.736023 0.736023
0.427032 0.726227 0.726227
0.477081 0.716522 0.716522
0.527161 0.706757 0.706757
0.577240 0.696991 0.696991
0.627319 0.687225 0.687225
0.677429 0.677429 0.677429
0.733429 0.680237 0.653656
0.789429 0.683075 0.629913
0.845459 0.685913 0.606171
0.901459 0.688751 0.582428
0.957458 0.691559 0.558655
1.000000 0.698883 0.548401
1.000000 0.720398 0.580658
1.000000 0.741913 0.612915
1.000000 0.763428 0.645172
1.000000 0.784912 0.677429
0.000000 0.532379 0.532379
0.000000 0.572693 0.572693
0.000000 0.613007 0.613007
0.000000 0.653320 0.653320
0.000000 0.693665 0.693665
0.000000 0.733978 0.733978
0.000000 0.774292 0.774292
0.000000 0.814606 0.814606
0.008575 0.846313 0.846313
0.058655 0.836578 0.836578
0.108734 0.826813 0.826813
0.158813 0.817047 0.817047
0.208862 0.807343 0.807343
0.258942 0.797577 0.797577
0.309021 0.787811 0.787811
0.359100 0.778046 0.778046
0.409210 0.768250 0.768250
0.459290 0.758484 0.758484
0.509338 0.748779 0.748779
0.559418 0.739014 0.739014
0.609497 0.729248 0.729248
0.659576 0.719482 0.719482
0.709686 0.709686 0.709686
0.765686 0.712494 0.685913
0.821686 0.715332 0.662170
0.877716 0.718170 0.638428
0.933716 0.721008 0.614685
0.989716 0.723816 0.590912
1.000000 0.741913 0.612915
1.000000 0.763428 0.645172
1.000000 0.784912 0.677429
1.000000 0.806427 0.709686
0.000000 0.556580 0.556580
0.000000 0.596893 0.596893
0.000000 0.637207 0.637207
0.000000 0.677521 0.677521
0.000000 0.717834 0.717834
0.000000 0.758179 0.758179
0.000000 0.798492 0.798492
0.000000 0.838806 0.838806
0.000000 0.879120 0.879120
0.040833 0.878571 0.878571
0.090912 0.868835 0.868835
0.140991 0.859070 0.859070
0.191071 0.849304 0.849304
0.241119 0.839600 0.839600
0.291199 0.829834 0.829834
0.341278 0.820068 0.820068
0.391388 0.810272 0.810272
0.441467 0.800507 0.800507
0.491547 0.790741 0.790741
0.541595 0.781036 0.781036
0.591675 0.771271 0.771271
0.641754 0.761505 0.761505
0.691833 0.751740 0.751740
0.741943 0.741943 0.741943
0.797943 0.744751 0.718170
0.853943 0.747589 0.694427
0.909973 0.750427 0.670685
0.965973 0.753265 0.646942
1.000000 0.763428 0.645172
1.000000 0.784912 0.677429
1.000000 0.806427 0.709686
1.000000 0.827942 0.741943
0.000000 0.580780 0.580780
0.000000 0.621094 0.621094
0.000000 0.661407 0.661407
0.000000 0.701721 0.701721
0.000000 0.742035 0.742035
0.000000 0.782349 0.782349
0.000000 0.822693 0.822693
0.000000 0.863007 0.863007
0.000000 0.903320 0.903320
0.023010 0.920593 0.920593
0.073090 0.910828 0.910828
0.123169 0.901093 0.901093
0.173248 0.891327 0.891327
0.223328 0.881561 0.881561
0.273376 0.871857 0.871857
0.323456 0.862091 0.862091
0.373566 0.852295 0.852295
0.423645 0.842529 0.842529
0.473724 0.832764 0.832764
0.523804 0.822998 0.822998
0.573853 0.813293 0.813293
0.623932 0.803528 0.803528
0.674011 0.793762 0.793762
0.724091 0.783997 0.783997
0.774200 0.774200 0.774200
0.830200 0.777008 0.750427
0.886200 0.779846 0.726685
0.942230 0.782684 0.702942
0.998230 0.785522 0.679199
1.000000 0.806427 0.709686
1.000000 0.827942 0.741943
1.000000 0.849457 0.774200
0.000000 0.604980 0.604980
0.000000 0.645294 0.645294
0.000000 0.685608 0.685608
0.000000 0.725922 0.725922
0.000000 0.766235 0.766235
0.000000 0.806549 0.806549
0.000000 0.846863 0.846863
0.000000 0.887207 0.887207
0.000000 0.927521 0.927521
0.005188 0.962616 0.962616
0.055267 0.952850 0.952850
0.105347 0.943085 0.943085
0.155426 0.933350 0.933350
0.205505 0.923584 0.923584
0.255585 0.913818 0.913818
0.305634 0.904114 0.904114
0.355774 0.894318 0.894318
0.405823 0.884552 0.884552
0.455902 0.874786 0.874786
0.505981 0.865021 0.865021
0.556061 0.855255 0.855255
0.606110 0.845551 0.845551
0.656189 0.835785 0.835785
0.706268 0.826019 0.826019
0.756348 0.816254 0.816254
0.806458 0.806458 0.806458
0.862457 0.809265 0.782684
0.918457 0.812103 0.758942
0.974487 0.814941 0.735199
1.000000 0.827942 0.741943
1.000000 0.849457 0.774200
1.000000 0.870941 0.806458
0.000000 0.629181 0.629181
0.000000 0.669495 0.669495
0.000000 0.709808 0.709808
0.000000 0.750122 0.750122
0.000000 0.790436 0.790436
0.000000 0.830750 0.830750
0.000000 0.871063 0.871063
0.000000 0.911377 0.911377
0.000000 0.951721 0.951721
0.000000 0.992035 0.992035
0.037445 0.994873 0.994873
0.087524 0.985107 0.985107
0.137604 0.975342 0.975342
0.187683 0.965607 0.965607
0.237762 0.955841 0.955841
0.287842 0.946075 0.946075
0.337952 0.936340 0.936340
0.388031 0.926575 0.926575
0.438080 0.916809 0.916809
0.488159 0.907043 0.907043
0.538239 0.897278 0.897278
0.588318 0.887512 0.887512
0.638367 0.877808 0.877808
0.688446 0.868042 0.868042
0.738525 0.858276 0.858276
0.788605 0.848511 0.848511
0.838715 0.838715 0.838715
0.894714 0.841522 0.814941
0.950714 0.844360 0.791199
1.000000 0.849457 0.774200
1.000000 0.870941 0.806458
1.000000 0.892456 0.838715
0.000000 0.653351 0.653351
0.000000 0.693695 0.693695
0.000000 0.734009 0.734009
0.000000 0.774323 0.774323
0.000000 0.814636 0.814636
0.000000 0.854950 0.854950
0.000000 0.895264 0.895264
0.000000 0.935577 0.935577
0.000000 0.975891 0.975891
0.016235 1.000000 1.000000
0.056549 1.000000 1.000000
0.096863 1.000000 1.000000
0.137177 1.000000 1.000000
0.177490 1.000000 1.000000
0.219940 0.997864 0.997864
0.270020 0.988098 0.988098
