EA 50 Cinematic Luts Pack/EA_Cinematic Lut (33).cube
TITLE "A classic science fiction look that will bring to mind all the finest cinematic productions set in the futuristic environment."
LUT_3D_SIZE 25
0.0000 0.0000 0.0000
0.0000 0.0000 0.0000
0.0000 0.0000 0.0000
0.0000 0.0000 0.0000
0.0000 0.0000 0.0000
0.0000 0.0000 0.0000
0.0000 0.0000 0.0000
0.0000 0.0000 0.0000
0.0000 0.0000 0.0000
0.0000 0.0000 0.0000
0.0000 0.0000 0.0000
0.0000 0.0000 0.0000
0.0000 0.0000 0.0000
0.1099 0.0084 0.0000
0.1882 0.0214 0.0000
0.2441 0.0351 0.0000
0.3002 0.0528 0.0000
0.3544 0.0760 0.0069
0.4071 0.1027 0.0232
0.4597 0.1306 0.0473
0.5109 0.1594 0.0734
0.5624 0.1892 0.0997
0.6152 0.2203 0.1268
0.6677 0.2519 0.1544
0.7198 0.2839 0.1824
0.0000 0.0000 0.0000
0.0000 0.0000 0.0000
0.0000 0.0000 0.0000
0.0000 0.0000 0.0000
0.0000 0.0000 0.0000
0.0000 0.0000 0.0000
0.0000 0.0000 0.0000
0.0000 0.0000 0.0000
0.0000 0.0000 0.0000
0.0000 0.0000 0.0000
0.0000 0.0000 0.0000
0.0000 0.0000 0.0000
0.0000 0.0000 0.0000
0.1321 0.0133 0.0000
0.1996 0.0272 0.0000
0.2536 0.0425 0.0000
0.3087 0.0610 0.0004
0.3609 0.0857 0.0110
0.4131 0.1117 0.0283
0.4651 0.1390 0.0528
0.5158 0.1674 0.0783
0.5672 0.1968 0.1042
0.6196 0.2273 0.1308
0.6718 0.2584 0.1581
0.7238 0.2901 0.1860
0.0000 0.0000 0.0000
0.0000 0.0000 0.0000
0.0000 0.0000 0.0000
0.0000 0.0000 0.0000
0.0000 0.0000 0.0000
0.0000 0.0000 0.0000
0.0000 0.0000 0.0000
0.0000 0.0000 0.0000
0.0000 0.0000 0.0000
0.0000 0.0000 0.0000
0.0000 0.0000 0.0000
0.0000 0.0000 0.0000
0.0590 0.0051 0.0000
0.1556 0.0212 0.0000
0.2132 0.0362 0.0000
0.2660 0.0533 0.0000
0.3183 0.0744 0.0048
0.3696 0.0984 0.0169
0.4210 0.1237 0.0358
0.4722 0.1504 0.0601
0.5224 0.1780 0.0848
0.5736 0.2068 0.1102
0.6256 0.2367 0.1364
0.6774 0.2673 0.1632
0.7290 0.2984 0.1908
0.0000 0.0000 0.0000
0.0000 0.0000 0.0000
0.0000 0.0000 0.0000
0.0000 0.0000 0.0000
0.0000 0.0000 0.0000
0.0000 0.0000 0.0000
0.0000 0.0000 0.0000
0.0000 0.0000 0.0000
0.0000 0.0000 0.0000
0.0000 0.0000 0.0000
0.0000 0.0000 0.0000
0.0000 0.0000 0.0000
0.1182 0.0182 0.0000
0.1823 0.0355 0.0000
0.2326 0.0523 0.0000
0.2822 0.0721 0.0039
0.3322 0.0939 0.0126
0.3822 0.1170 0.0269
0.4327 0.1414 0.0476
0.4828 0.1671 0.0705
0.5322 0.1938 0.0943
0.5831 0.2218 0.1190
0.6345 0.2508 0.1446
0.6857 0.2805 0.1710
0.7369 0.3108 0.1981
0.0000 0.0000 0.0000
0.0000 0.0000 0.0000
0.0000 0.0000 0.0000
0.0000 0.0000 0.0000
0.0000 0.0000 0.0000
0.0000 0.0000 0.0000
0.0000 0.0000 0.0000
0.0000 0.0000 0.0000
0.0000 0.0000 0.0000
0.0000 0.0000 0.0000
0.0000 0.0000 0.0000
0.0989 0.0211 0.0000
0.1612 0.0419 0.0000
0.2089 0.0592 0.0000
0.2554 0.0774 0.0033
0.3024 0.0978 0.0118
0.3499 0.1193 0.0253
0.3987 0.1413 0.0424
0.4479 0.1647 0.0628
0.4966 0.1892 0.0843
0.5453 0.2148 0.1069
0.5958 0.2418 0.1308
0.6464 0.2697 0.1557
0.6969 0.2983 0.1814
0.7474 0.3275 0.2080
0.0000 0.0000 0.0000
0.0000 0.0000 0.0000
0.0000 0.0000 0.0000
0.0000 0.0000 0.0000
0.0000 0.0000 0.0000
0.0000 0.0000 0.0000
0.0000 0.0000 0.0000
0.0000 0.0000 0.0000
0.0000 0.0000 0.0000
0.0294 0.0084 0.0000
0.1051 0.0340 0.0000
0.1541 0.0567 0.0000
0.1950 0.0743 0.0000
0.2385 0.0904 0.0011
0.2826 0.1086 0.0074
0.3276 0.1278 0.0180
0.3734 0.1481 0.0341
0.4200 0.1698 0.0555
0.4671 0.1926 0.0777
0.5135 0.2166 0.1008
0.5619 0.2411 0.1227
0.6115 0.2668 0.1456
0.6612 0.2933 0.1697
0.7109 0.3207 0.1947
0.7606 0.3486 0.2205
0.0000 0.0000 0.0000
0.0000 0.0000 0.0000
0.0000 0.0000 0.0000
0.0000 0.0000 0.0000
0.0000 0.0000 0.0000
0.0000 0.0000 0.0000
0.0000 0.0000 0.0000
0.0285 0.0178 0.0000
0.0799 0.0433 0.0000
0.1214 0.0644 0.0000
0.1577 0.0804 0.0000
0.1946 0.0942 0.0000
0.2337 0.1090 0.0000
0.2733 0.1261 0.0026
0.3121 0.1458 0.0146
0.3555 0.1636 0.0277
0.4000 0.1826 0.0465
0.4453 0.2029 0.0675
0.4904 0.2243 0.0894
0.5359 0.2468 0.1121
0.5832 0.2707 0.1358
0.6309 0.2956 0.1604
0.6788 0.3213 0.1857
0.7274 0.3473 0.2106
0.7764 0.3738 0.2358
0.0014 0.0095 0.0029
0.0027 0.0161 0.0046
0.0045 0.0252 0.0063
0.0080 0.0389 0.0077
0.0185 0.0545 0.0123
0.0363 0.0700 0.0185
0.0623 0.0841 0.0240
0.0925 0.0965 0.0201
0.1290 0.1053 0.0048
0.1638 0.1146 0.0000
0.1984 0.1258 0.0000
0.2341 0.1385 0.0000
0.2719 0.1520 0.0007
0.3116 0.1659 0.0049
0.3509 0.1824 0.0162
0.3895 0.2015 0.0365
0.4289 0.2222 0.0611
0.4724 0.2411 0.0818
0.5162 0.2609 0.1031
0.5615 0.2820 0.1255
0.6078 0.3043 0.1490
0.6544 0.3275 0.1732
0.7013 0.3516 0.1982
0.7484 0.3764 0.2242
0.7957 0.4018 0.2507
0.0238 0.1153 0.0467
0.0264 0.1180 0.0458
0.0295 0.1216 0.0438
0.0342 0.1270 0.0396
0.0488 0.1328 0.0402
0.0709 0.1388 0.0474
0.0931 0.1465 0.0559
0.1213 0.1547 0.0593
0.1541 0.1636 0.0489
0.1950 0.1710 0.0210
0.2341 0.1792 0.0096
0.2724 0.1887 0.0060
0.3095 0.2004 0.0092
0.3466 0.2141 0.0195
0.3866 0.2278 0.0305
0.4278 0.2425 0.0463
0.4672 0.2603 0.0693
0.5056 0.2802 0.0938
0.5449 0.3016 0.1186
0.5890 0.3216 0.1411
0.6343 0.3421 0.1641
0.6800 0.3635 0.1880
0.7260 0.3857 0.2127
0.7721 0.4088 0.2382
0.8185 0.4324 0.2645
0.0519 0.1808 0.0852
0.0552 0.1830 0.0840
0.0590 0.1862 0.0818
0.0644 0.1910 0.0777
0.0726 0.1975 0.0713
0.0969 0.2025 0.0784
0.1224 0.2086 0.0861
0.1487 0.2159 0.0952
0.1806 0.2237 0.0962
0.2169 0.2320 0.0836
0.2616 0.2384 0.0531
0.3041 0.2455 0.0336
0.3451 0.2539 0.0309
0.3840 0.2649 0.0371
0.4224 0.2777 0.0526
0.4613 0.2918 0.0708
0.5024 0.3059 0.0867
0.5439 0.3214 0.1054
0.5836 0.3405 0.1299
0.6234 0.3610 0.1551
0.6635 0.3826 0.1806
0.7072 0.4030 0.2047
0.7524 0.4233 0.2291
0.7977 0.4443 0.2542
0.8432 0.4659 0.2801
0.0842 0.2472 0.1252
0.0874 0.2492 0.1239
0.0912 0.2519 0.1217
0.0964 0.2561 0.1177
0.1032 0.2620 0.1109
0.1213 0.2676 0.1103
0.1487 0.2726 0.1187
0.1763 0.2788 0.1273
0.2067 0.2857 0.1358
0.2418 0.2932 0.1342
0.2811 0.3009 0.1204
0.3290 0.3065 0.0909
0.3745 0.3128 0.0700
0.4175 0.3206 0.0701
0.4587 0.3306 0.0770
0.4976 0.3426 0.0917
0.5358 0.3564 0.1109
0.5773 0.3704 0.1289
0.6200 0.3852 0.1475
0.6622 0.4015 0.1688
0.7018 0.4208 0.1941
0.7416 0.4411 0.2200
0.7816 0.4623 0.2464
0.8244 0.4821 0.2719
0.8691 0.5014 0.2974
0.1182 0.3138 0.1665
0.1212 0.3155 0.1652
0.1250 0.3179 0.1632
0.1300 0.3216 0.1593
0.1366 0.3268 0.1532
0.1457 0.3334 0.1445
0.1740 0.3376 0.1521
0.2037 0.3426 0.1608
0.2328 0.3489 0.1705
0.2670 0.3553 0.1779
0.3048 0.3623 0.1736
0.3467 0.3697 0.1594
0.3974 0.3749 0.1313
0.4460 0.3806 0.1088
0.4900 0.3877 0.1112
0.5320 0.3965 0.1186
0.5728 0.4076 0.1328
0.6128 0.4205 0.1517
0.6526 0.4347 0.1727
0.6957 0.4484 0.1915
0.7385 0.4633 0.2122
0.7798 0.4797 0.2357
0.8191 0.4983 0.2618
0.8586 0.5178 0.2885
0.8982 0.5382 0.3156
0.1538 0.3797 0.2092
0.1566 0.3812 0.2079
0.1604 0.3833 0.2060
0.1651 0.3866 0.2025
0.1715 0.3911 0.1969
0.1793 0.3971 0.1884
0.1992 0.4024 0.1871
0.2299 0.4067 0.1960
0.2615 0.4118 0.2048
0.2918 0.4182 0.2157
0.3295 0.4241 0.2216
0.3701 0.4309 0.2147
0.4140 0.4376 0.2004
0.4667 0.4421 0.1738
0.5165 0.4469 0.1495
0.5620 0.4534 0.1537
0.6071 0.4612 0.1623
0.6486 0.4713 0.1763
0.6893 0.4828 0.1947
0.7290 0.4959 0.2162
0.7704 0.5093 0.2372
0.8133 0.5229 0.2580
0.8559 0.5377 0.2805
0.8965 0.5551 0.3057
0.9358 0.5742 0.3327
0.1913 0.4446 0.2535
0.1939 0.4459 0.2523
0.1975 0.4477 0.2505
0.2022 0.4506 0.2473
0.2082 0.4547 0.2422
0.2157 0.4599 0.2347
0.2254 0.4662 0.2245
0.2561 0.4697 0.2323
0.2885 0.4738 0.2418
0.3212 0.4788 0.2508
0.3533 0.4847 0.2623
0.3934 0.4901 0.2666
0.4363 0.4962 0.2568
0.4813 0.5021 0.2430
0.5344 0.5058 0.2179
0.5877 0.5101 0.1920
0.6347 0.5161 0.1977
0.6807 0.5232 0.2075
0.7236 0.5323 0.2214
0.7650 0.5432 0.2398
0.8053 0.5558 0.2612
0.8448 0.5698 0.2846
0.8880 0.5831 0.3056
0.9305 0.5974 0.3283
0.9570 0.6195 0.3831
0.2301 0.5064 0.2989
0.2326 0.5075 0.2977
0.2360 0.5091 0.2960
0.2405 0.5115 0.2931
0.2462 0.5150 0.2884
0.2534 0.5195 0.2817
0.2619 0.5252 0.2721
0.2827 0.5299 0.2702
0.3152 0.5334 0.2792
0.3488 0.5375 0.2886
0.3820 0.5427 0.2987
0.4175 0.5482 0.3094
0.4584 0.5537 0.3126
0.5024 0.5593 0.3001
0.5484 0.5649 0.2871
0.6043 0.5687 0.2638
0.6597 0.5726 0.2361
0.7077 0.5784 0.2435
0.7545 0.5852 0.2542
0.7987 0.5938 0.2683
0.8407 0.6042 0.2869
0.8814 0.6160 0.3081
0.9209 0.6291 0.3313
0.9547 0.6451 0.3704
0.9570 0.6740 0.4657
0.2703 0.5669 0.3452
0.2726 0.5679 0.3441
0.2758 0.5694 0.3425
0.2803 0.5716 0.3399
0.2856 0.5748 0.3356
0.2925 0.5789 0.3296
0.3006 0.5841 0.3212
0.3105 0.5903 0.3099
0.3425 0.5935 0.3178
0.3764 0.5971 0.3276
0.4111 0.6014 0.3369
0.4446 0.6066 0.3481
0.4825 0.6115 0.3575
0.5231 0.6167 0.3596
0.5697 0.6221 0.3445
0.6178 0.6277 0.3329
0.6748 0.6311 0.3113
0.7315 0.6348 0.2846
0.7807 0.6402 0.2907
0.8279 0.6466 0.3025
0.8733 0.6541 0.3172
0.9152 0.6640 0.3354
0.9534 0.6759 0.3641
0.9557 0.7010 0.4673
0.9574 0.7269 0.5434
0.3118 0.6270 0.3927
0.3140 0.6279 0.3916
0.3169 0.6292 0.3901
0.3213 0.6312 0.3877
0.3264 0.6340 0.3839
0.3328 0.6378 0.3784
0.3406 0.6425 0.3709
0.3497 0.6481 0.3606
0.3709 0.6528 0.3583
0.4043 0.6560 0.3673
0.4391 0.6596 0.3772
0.4743 0.6638 0.3862
0.5071 0.6689 0.3985
0.5476 0.6733 0.4063
0.5898 0.6788 0.4077
0.6386 0.6841 0.3902
0.6875 0.6892 0.3800
0.7452 0.6924 0.3600
0.8025 0.6956 0.3358
0.8528 0.7005 0.3390
0.9003 0.7066 0.3517
0.9465 0.7137 0.3672
0.9539 0.7331 0.4750
0.9574 0.7549 0.5570
0.9608 0.7782 0.6242
0.3544 0.6859 0.4409
0.3565 0.6868 0.4400
0.3592 0.6880 0.4386
0.3634 0.6898 0.4364
0.3684 0.6923 0.4329
0.3745 0.6957 0.4279
0.3819 0.7000 0.4211
0.3905 0.7052 0.4121
0.4005 0.7113 0.4002
0.4329 0.7142 0.4080
0.4675 0.7173 0.4180
0.5021 0.7208 0.4276
0.5366 0.7249 0.4374
0.5708 0.7301 0.4498
0.6146 0.7343 0.4560
0.6576 0.7395 0.4559
0.7073 0.7446 0.4366
0.7569 0.7494 0.4280
0.8151 0.7524 0.4097
0.8731 0.7555 0.3879
0.9247 0.7601 0.3885
0.9478 0.7716 0.4811
0.9548 0.7884 0.5755
0.9606 0.8080 0.6465
0.9653 0.8294 0.7059
0.3980 0.7437 0.4892
0.3999 0.7445 0.4883
0.4025 0.7456 0.4871
0.4064 0.7472 0.4850
0.4113 0.7495 0.4820
0.4170 0.7527 0.4775
0.4240 0.7566 0.4716
0.4322 0.7613 0.4637
0.4416 0.7669 0.4531
0.4627 0.7714 0.4504
0.4955 0.7740 0.4591
0.5298 0.7768 0.4688
0.5656 0.7805 0.4780
0.6007 0.7849 0.4887
0.6371 0.7898 0.5001
0.6816 0.7940 0.5050
0.7260 0.7991 0.5031
0.7763 0.8043 0.4832
0.8265 0.8091 0.4768
0.8853 0.8120 0.4606
0.9320 0.8166 0.4914
0.9486 0.8277 0.5930
0.9581 0.8431 0.6740
0.9655 0.8608 0.7370
0.9716 0.8804 0.7897
0.4421 0.8003 0.5372
0.4439 0.8010 0.5364
0.4463 0.8020 0.5352
0.4500 0.8035 0.5333
0.4548 0.8056 0.5306
0.4602 0.8085 0.5265
0.4667 0.8121 0.5211
0.4743 0.8164 0.5140
0.4831 0.8216 0.5048
0.4928 0.8276 0.4930
0.5243 0.8300 0.5002
0.5586 0.8328 0.5098
0.5944 0.8360 0.5194
0.6308 0.8399 0.5284
0.6656 0.8446 0.5403
0.7047 0.8492 0.5510
0.7493 0.8536 0.5552
0.7949 0.8587 0.5514
0.8458 0.8640 0.5305
0.8934 0.8683 0.5530
0.9277 0.8730 0.6458
0.9510 0.8826 0.7142
0.9650 0.8963 0.7749
0.9735 0.9127 0.8291
0.9805 0.9311 0.8754
0.4867 0.8567 0.5870
0.4883 0.8574 0.5862
0.4906 0.8583 0.5851
0.4939 0.8597 0.5833
0.4985 0.8616 0.5808
0.5034 0.8642 0.5770
0.5095 0.8675 0.5719
0.5168 0.8715 0.5653
0.5251 0.8762 0.5570
0.5344 0.8818 0.5463
0.5552 0.8862 0.5433
0.5939 0.8879 0.5583
0.6382 0.8887 0.5822
0.6806 0.8902 0.6061
0.7207 0.8926 0.6305
0.7584 0.8958 0.6600
0.7972 0.8996 0.6846
0.8348 0.9047 0.7036
0.8714 0.9112 0.7155
0.9097 0.9190 0.7136
0.9381 0.9253 0.7828
0.9606 0.9349 0.8372
0.9760 0.9479 0.8833
0.9864 0.9636 0.9256
0.9936 0.9812 0.9649
0.5706 0.9066 0.6598
0.5747 0.9068 0.6609
0.5801 0.9070 0.6622
0.5881 0.9073 0.6643
0.5989 0.9079 0.6673
0.6114 0.9088 0.6707
0.6261 0.9100 0.6749
0.6428 0.9115 0.6801
0.6614 0.9134 0.6865
0.6815 0.9157 0.6941
0.7028 0.9185 0.7031
0.7304 0.9205 0.7189
0.7594 0.9227 0.7373
0.7884 0.9255 0.7568
0.8168 0.9292 0.7771
0.8443 0.9338 0.7993
0.8707 0.9393 0.8237
0.8979 0.9455 0.8463
0.9233 0.9532 0.8688
0.9473 0.9621 0.8908
0.9696 0.9723 0.9148
0.9860 0.9834 0.9566
0.9981 0.9971 0.9934
1.0000 0.9999 0.9999
1.0000 0.9999 0.9999
0.7479 0.9367 0.7922
0.7503 0.9370 0.7932
0.7536 0.9373 0.7947
0.7585 0.9379 0.7968
0.7651 0.9387 0.7999
0.7732 0.9397 0.8037
0.7828 0.9412 0.8084
0.7940 0.9430 0.8141
0.8067 0.9452 0.8211
0.8208 0.9478 0.8293
0.8360 0.9509 0.8389
0.8535 0.9541 0.8511
0.8731 0.9575 0.8661
0.8933 0.9615 0.8828
0.9136 0.9662 0.9006
0.9337 0.9718 0.9196
0.9532 0.9783 0.9404
0.9720 0.9858 0.9625
0.9902 0.9944 0.9855
0.9999 0.9999 0.9999
0.9999 0.9999 0.9999
0.9999 0.9999 0.9999
0.9999 0.9999 0.9999
1.0000 0.9999 0.9999
1.0000 0.9999 0.9999
0.8908 0.9695 0.9079
0.8924 0.9698 0.9090
0.8946 0.9702 0.9104
0.8980 0.9709 0.9126
0.9025 0.9719 0.9156
0.9083 0.9731 0.9196
0.9152 0.9748 0.9245
0.9233 0.9768 0.9305
0.9326 0.9792 0.9377
0.9431 0.9821 0.9461
0.9547 0.9854 0.9560
0.9673 0.9892 0.9673
0.9811 0.9934 0.9805
0.9954 0.9983 0.9951
0.9999 0.9999 0.9999
0.9999 0.9999 0.9999
0.9999 0.9999 0.9999
0.9999 0.9999 0.9999
0.9999 0.9999 0.9999
0.9999 0.9999 0.9999
0.9999 0.9999 0.9999
0.9999 0.9999 0.9999
0.9999 0.9999 0.9999
0.9999 0.9999 0.9999
1.0000 0.9999 0.9999
0.9999 1.0000 0.9999
0.9999 1.0000 0.9999
0.9999 1.0000 0.9999
0.9999 1.0000 0.9999
0.9999 1.0000 0.9999
0.9999 0.9999 0.9999
0.9999 0.9999 0.9999
0.9999 0.9999 0.9999
0.9999 0.9999 0.9999
0.9999 0.9999 0.9999
0.9999 0.9999 0.9999
0.9999 0.9999 0.9999
0.9999 0.9999 0.9999
0.9999 0.9999 0.9999
0.9999 0.9999 0.9999
0.9999 0.9999 0.9999
0.9999 0.9999 0.9999
0.9999 0.9999 0.9999
0.9999 0.9999 0.9999
0.9999 0.9999 0.9999
0.9999 0.9999 0.9999
0.9999 0.9999 0.9999
0.9999 0.9999 0.9999
0.9999 0.9999 0.9999
0.9999 0.9999 0.9999
0.0000 0.0000 0.0000
0.0000 0.0000 0.0000
0.0000 0.0000 0.0000
0.0000 0.0000 0.0000
0.0000 0.0000 0.0000
0.0000 0.0000 0.0000
0.0000 0.0000 0.0000
0.0000 0.0000 0.0000
0.0000 0.0000 0.0000
0.0000 0.0000 0.0000
0.0000 0.0000 0.0000
0.0000 0.0000 0.0000
0.0000 0.0000 0.0000
0.1144 0.0073 0.0000
0.1920 0.0187 0.0000
0.2478 0.0313 0.0000
0.3039 0.0481 0.0000
0.3585 0.0707 0.0057
0.4109 0.0978 0.0219
0.4633 0.1264 0.0464
0.5143 0.1557 0.0729
0.5657 0.1860 0.0995
0.6183 0.2173 0.1267
0.6706 0.2493 0.1544
0.7227 0.2816 0.1825
0.0000 0.0000 0.0000
0.0000 0.0000 0.0000
0.0000 0.0000 0.0000
0.0000 0.0000 0.0000
0.0000 0.0000 0.0000
0.0000 0.0000 0.0000
0.0000 0.0000 0.0000
0.0000 0.0000 0.0000
0.0000 0.0000 0.0000
0.0000 0.0000 0.0000
0.0000 0.0000 0.0000
0.0000 0.0000 0.0000
0.0000 0.0000 0.0000
0.1350 0.0130 0.0000
0.2016 0.0265 0.0000
0.2555 0.0414 0.0000
0.3086 0.0631 0.0049
0.3608 0.0877 0.0164
0.4129 0.1136 0.0346
0.4649 0.1407 0.0585
0.5156 0.1690 0.0830
0.5670 0.1982 0.1083
0.6194 0.2286 0.1344
0.6716 0.2596 0.1613
0.7264 0.2880 0.1859
0.0000 0.0000 0.0000
0.0000 0.0000 0.0000
0.0000 0.0000 0.0000
0.0000 0.0000 0.0000
0.0000 0.0000 0.0000
0.0000 0.0000 0.0000
0.0000 0.0000 0.0000
0.0000 0.0000 0.0000
0.0000 0.0000 0.0000
0.0000 0.0000 0.0000
0.0000 0.0000 0.0000
0.0000 0.0000 0.0000
0.0639 0.0054 0.0000
0.1581 0.0208 0.0000
0.2152 0.0354 0.0000
0.2669 0.0539 0.0020
0.3182 0.0764 0.0096
0.3695 0.1002 0.0225
0.4208 0.1254 0.0422
0.4720 0.1519 0.0654
0.5222 0.1795 0.0893
0.5734 0.2082 0.1141
0.6254 0.2380 0.1398
0.6772 0.2684 0.1663
0.7316 0.2963 0.1908
0.0000 0.0000 0.0000
0.0000 0.0000 0.0000
0.0000 0.0000 0.0000
0.0000 0.0000 0.0000
0.0000 0.0000 0.0000
0.0000 0.0000 0.0000
0.0000 0.0000 0.0000
0.0000 0.0000 0.0000
0.0000 0.0000 0.0000
0.0000 0.0000 0.0000
0.0000 0.0000 0.0000
0.0000 0.0000 0.0000
0.1212 0.0181 0.0000
0.1844 0.0350 0.0000
0.2330 0.0535 0.0026
0.2822 0.0738 0.0081
0.3321 0.0955 0.0177
0.3821 0.1186 0.0328
0.4325 0.1429 0.0534
0.4826 0.1685 0.0755
0.5320 0.1952 0.0985
0.5830 0.2231 0.1227
0.6343 0.2520 0.1479
0.6855 0.2816 0.1740
0.7394 0.3089 0.1981
0.0000 0.0000 0.0000
0.0000 0.0000 0.0000
0.0000 0.0000 0.0000
0.0000 0.0000 0.0000
0.0000 0.0000 0.0000
0.0000 0.0000 0.0000
0.0000 0.0000 0.0000
0.0000 0.0000 0.0000
0.0000 0.0000 0.0000
0.0000 0.0000 0.0000
0.0000 0.0000 0.0000
0.1020 0.0213 0.0002
0.1625 0.0424 0.0017
0.2085 0.0612 0.0050
0.2543 0.0801 0.0106
0.3018 0.0998 0.0185
0.3499 0.1206 0.0307
0.3986 0.1427 0.0482
0.4478 0.1660 0.0678
0.4965 0.1905 0.0887
0.5451 0.2160 0.1109
0.5957 0.2430 0.1344
0.6462 0.2708 0.1589
0.6968 0.2994 0.1843
0.7499 0.3258 0.2080
0.0000 0.0000 0.0000
0.0000 0.0000 0.0000
0.0000 0.0000 0.0000
0.0000 0.0000 0.0000
0.0000 0.0000 0.0000
0.0000 0.0000 0.0000
0.0000 0.0000 0.0000
0.0000 0.0000 0.0000
0.0000 0.0000 0.0000
0.0334 0.0096 0.0000
0.1070 0.0349 0.0000
0.1547 0.0578 0.0012
0.1951 0.0755 0.0042
0.2374 0.0926 0.0087
0.2814 0.1109 0.0165
0.3263 0.1301 0.0286
0.3721 0.1505 0.0459
0.4187 0.1721 0.0656
0.4662 0.1945 0.0852
0.5134 0.2177 0.1050
0.5618 0.2422 0.1263
0.6113 0.2678 0.1489
0.6610 0.2943 0.1727
0.7107 0.3216 0.1974
0.7631 0.3470 0.2206
0.0000 0.0000 0.0000
0.0000 0.0000 0.0000
0.0000 0.0000 0.0000
0.0000 0.0000 0.0000
0.0000 0.0000 0.0000
0.0000 0.0000 0.0000
0.0000 0.0000 0.0000
0.0299 0.0196 0.0013
0.0805 0.0452 0.0013
0.1217 0.0658 0.0009
0.1579 0.0815 0.0015
0.1948 0.0952 0.0020
0.2328 0.1109 0.0052
0.2707 0.1292 0.0136
0.3109 0.1476 0.0253
0.3543 0.1655 0.0398
0.3988 0.1846 0.0578
0.4440 0.2049 0.0772
0.4893 0.2262 0.0978
0.5347 0.2487 0.1195
0.5820 0.2725 0.1424
0.6297 0.2973 0.1663
0.6785 0.3224 0.1893
0.7273 0.3481 0.2132
0.7788 0.3723 0.2359
0.0016 0.0117 0.0039
0.0032 0.0183 0.0059
0.0052 0.0273 0.0079
0.0088 0.0408 0.0096
0.0187 0.0564 0.0136
0.0365 0.0714 0.0205
0.0615 0.0855 0.0280
0.0908 0.0979 0.0265
0.1278 0.1066 0.0104
0.1624 0.1162 0.0071
0.1970 0.1275 0.0059
0.2321 0.1407 0.0084
0.2697 0.1543 0.0123
0.3093 0.1685 0.0181
0.3483 0.1851 0.0311
0.3870 0.2043 0.0515
0.4274 0.2241 0.0721
0.4713 0.2428 0.0910
0.5151 0.2625 0.1112
0.5603 0.2837 0.1328
0.6066 0.3059 0.1554
0.6533 0.3290 0.1790
0.7002 0.3531 0.2036
0.7474 0.3778 0.2289
0.7976 0.4009 0.2517
0.0228 0.1163 0.0499
0.0273 0.1186 0.0499
0.0311 0.1221 0.0486
0.0366 0.1273 0.0454
0.0482 0.1337 0.0431
0.0705 0.1397 0.0501
0.0929 0.1474 0.0591
0.1203 0.1557 0.0646
0.1519 0.1650 0.0580
0.1925 0.1726 0.0364
0.2324 0.1807 0.0210
0.2699 0.1907 0.0195
0.3069 0.2027 0.0245
0.3438 0.2165 0.0361
0.3845 0.2299 0.0468
0.4256 0.2448 0.0613
0.4649 0.2627 0.0817
0.5034 0.2826 0.1041
0.5430 0.3036 0.1270
0.5880 0.3230 0.1481
0.6333 0.3435 0.1704
0.6790 0.3648 0.1937
0.7250 0.3870 0.2179
0.7712 0.4100 0.2429
0.8204 0.4315 0.2655
0.0505 0.1817 0.0884
0.0563 0.1835 0.0882
0.0607 0.1865 0.0865
0.0670 0.1912 0.0832
0.0740 0.1978 0.0765
0.0962 0.2033 0.0809
0.1219 0.2094 0.0891
0.1470 0.2170 0.0992
0.1796 0.2246 0.1017
0.2147 0.2332 0.0925
0.2590 0.2398 0.0691
0.3025 0.2469 0.0480
0.3431 0.2556 0.0476
0.3815 0.2668 0.0545
0.4198 0.2798 0.0682
0.4593 0.2936 0.0833
0.5004 0.3078 0.0982
0.5417 0.3234 0.1157
0.5814 0.3425 0.1388
0.6213 0.3630 0.1627
0.6615 0.3845 0.1873
0.7063 0.4041 0.2103
0.7515 0.4244 0.2341
0.7968 0.4454 0.2588
0.8450 0.4652 0.2810
0.0828 0.2480 0.1283
0.0884 0.2496 0.1280
0.0927 0.2522 0.1261
0.0989 0.2563 0.1229
0.1057 0.2621 0.1167
0.1206 0.2683 0.1132
0.1481 0.2733 0.1212
0.1759 0.2795 0.1302
0.2049 0.2867 0.1401
0.2408 0.2939 0.1397
0.2789 0.3020 0.1289
0.3265 0.3078 0.1046
0.3730 0.3140 0.0817
0.4157 0.3220 0.0831
0.4564 0.3324 0.0902
0.4953 0.3444 0.1039
0.5334 0.3583 0.1218
0.5754 0.3721 0.1380
0.6181 0.3868 0.1559
0.6602 0.4033 0.1765
0.6998 0.4225 0.2009
0.7397 0.4428 0.2261
0.7798 0.4639 0.2518
0.8235 0.4830 0.2764
0.8708 0.5008 0.2983
