EA 50 Cinematic Luts Pack/EA_Cinematic Lut (40).cube
TITLE "This grading effect will turn your footage into a contrasted, warmish, powerful, action film. "
LUT_3D_SIZE 25
0.0000 0.0000 0.0000
0.0438 0.0000 0.0000
0.0899 0.0000 0.0000
0.1383 0.0000 0.0000
0.1882 0.0000 0.0000
0.2394 0.0000 0.0000
0.2962 0.0000 0.0000
0.3576 0.0000 0.0000
0.4212 0.0000 0.0000
0.4849 0.0000 0.0000
0.5467 0.0000 0.0000
0.6075 0.0000 0.0000
0.6644 0.0000 0.0000
0.7156 0.0000 0.0000
0.7608 0.0000 0.0000
0.8013 0.0000 0.0000
0.8377 0.0000 0.0000
0.8699 0.0000 0.0000
0.8983 0.0000 0.0000
0.9230 0.0000 0.0000
0.9444 0.0000 0.0000
0.9630 0.0000 0.0000
0.9789 0.0000 0.0000
0.9924 0.0000 0.0000
1.0000 0.0013 0.0015
0.0081 0.0305 0.0066
0.0431 0.0325 0.0070
0.0797 0.0352 0.0132
0.1252 0.0377 0.0145
0.1756 0.0394 0.0133
0.2317 0.0379 0.0087
0.2952 0.0338 0.0014
0.3575 0.0329 0.0000
0.4212 0.0330 0.0000
0.4847 0.0329 0.0000
0.5465 0.0329 0.0000
0.6074 0.0328 0.0000
0.6642 0.0328 0.0000
0.7155 0.0325 0.0000
0.7607 0.0326 0.0000
0.8013 0.0324 0.0000
0.8378 0.0323 0.0000
0.8700 0.0324 0.0000
0.8983 0.0327 0.0000
0.9230 0.0324 0.0000
0.9445 0.0326 0.0000
0.9630 0.0326 0.0000
0.9789 0.0326 0.0000
0.9924 0.0324 0.0000
1.0000 0.0343 0.0022
0.0193 0.0659 0.0157
0.0446 0.0699 0.0010
0.0886 0.0693 0.0164
0.1266 0.0721 0.0285
0.1694 0.0761 0.0334
0.2189 0.0787 0.0340
0.2734 0.0813 0.0328
0.3394 0.0803 0.0269
0.4100 0.0773 0.0176
0.4815 0.0723 0.0054
0.5463 0.0698 0.0000
0.6072 0.0697 0.0000
0.6641 0.0697 0.0000
0.7153 0.0696 0.0000
0.7607 0.0694 0.0000
0.8013 0.0695 0.0000
0.8378 0.0695 0.0000
0.8700 0.0696 0.0000
0.8984 0.0693 0.0000
0.9231 0.0693 0.0000
0.9445 0.0693 0.0000
0.9630 0.0693 0.0000
0.9789 0.0694 0.0000
0.9924 0.0697 0.0000
1.0000 0.0709 0.0020
0.0363 0.1064 0.0294
0.0599 0.1092 0.0194
0.0898 0.1123 0.0000
0.1369 0.1113 0.0307
0.1762 0.1141 0.0477
0.2176 0.1184 0.0538
0.2681 0.1219 0.0561
0.3252 0.1251 0.0565
0.3866 0.1280 0.0557
0.4566 0.1274 0.0511
0.5260 0.1251 0.0432
0.5949 0.1213 0.0299
0.6597 0.1158 0.0122
0.7151 0.1116 0.0000
0.7606 0.1114 0.0000
0.8014 0.1114 0.0000
0.8378 0.1116 0.0000
0.8701 0.1115 0.0000
0.8984 0.1117 0.0000
0.9231 0.1116 0.0000
0.9445 0.1117 0.0000
0.9630 0.1118 0.0000
0.9789 0.1118 0.0000
0.9924 0.1118 0.0000
1.0000 0.1129 0.0031
0.0584 0.1500 0.0464
0.0785 0.1521 0.0392
0.0999 0.1555 0.0193
0.1390 0.1574 0.0079
0.1866 0.1564 0.0480
0.2264 0.1590 0.0638
0.2708 0.1631 0.0703
0.3196 0.1682 0.0740
0.3819 0.1704 0.0747
0.4428 0.1741 0.0751
0.5041 0.1777 0.0747
0.5718 0.1773 0.0711
0.6375 0.1757 0.0656
0.6976 0.1727 0.0575
0.7506 0.1684 0.0445
0.7975 0.1626 0.0222
0.8380 0.1567 0.0000
0.8702 0.1568 0.0000
0.8985 0.1567 0.0000
0.9231 0.1568 0.0000
0.9446 0.1569 0.0000
0.9630 0.1570 0.0000
0.9789 0.1569 0.0000
0.9925 0.1571 0.0000
1.0000 0.1581 0.0035
0.0814 0.1960 0.0612
0.0987 0.1976 0.0567
0.1170 0.2002 0.0473
0.1421 0.2045 0.0101
0.1893 0.2044 0.0251
0.2368 0.2036 0.0628
0.2809 0.2061 0.0782
0.3281 0.2103 0.0858
0.3795 0.2152 0.0905
0.4374 0.2194 0.0933
0.5012 0.2215 0.0935
0.5596 0.2258 0.0940
0.6177 0.2300 0.0939
0.6787 0.2300 0.0903
0.7335 0.2290 0.0853
0.7820 0.2267 0.0787
0.8249 0.2233 0.0700
0.8625 0.2185 0.0574
0.8951 0.2125 0.0356
0.9232 0.2048 0.0011
0.9446 0.2047 0.0000
0.9631 0.2048 0.0000
0.9789 0.2048 0.0000
0.9925 0.2048 0.0000
1.0000 0.2059 0.0040
0.1048 0.2436 0.0745
0.1200 0.2449 0.0712
0.1364 0.2470 0.0655
0.1583 0.2505 0.0498
0.1879 0.2549 0.0000
0.2407 0.2532 0.0467
0.2923 0.2527 0.0762
0.3400 0.2551 0.0930
0.3886 0.2595 0.1028
0.4418 0.2640 0.1095
0.4941 0.2696 0.1145
0.5552 0.2723 0.1163
0.6159 0.2751 0.1166
0.6695 0.2799 0.1173
0.7182 0.2847 0.1175
0.7674 0.2851 0.1135
0.8114 0.2843 0.1077
0.8502 0.2826 0.1006
0.8842 0.2797 0.0920
0.9137 0.2758 0.0819
0.9389 0.2707 0.0691
0.9604 0.2644 0.0497
0.9785 0.2568 0.0115
0.9925 0.2547 0.0000
1.0000 0.2558 0.0054
0.1289 0.2924 0.0878
0.1423 0.2935 0.0849
0.1569 0.2952 0.0807
0.1764 0.2981 0.0718
0.2011 0.3023 0.0451
0.2386 0.3056 0.0000
0.2976 0.3032 0.0643
0.3519 0.3031 0.0900
0.4020 0.3054 0.1101
0.4519 0.3095 0.1228
0.5037 0.3139 0.1312
0.5551 0.3195 0.1373
0.6093 0.3245 0.1415
0.6669 0.3271 0.1426
0.7174 0.3305 0.1430
0.7606 0.3353 0.1437
0.7997 0.3403 0.1440
0.8388 0.3411 0.1402
0.8737 0.3406 0.1345
0.9042 0.3393 0.1272
0.9307 0.3369 0.1180
0.9533 0.3336 0.1070
0.9724 0.3294 0.0946
0.9886 0.3239 0.0803
0.9998 0.3174 0.0617
0.1532 0.3421 0.1028
0.1653 0.3429 0.0999
0.1783 0.3444 0.0961
0.1960 0.3468 0.0889
0.2177 0.3503 0.0753
0.2458 0.3551 0.0298
0.2947 0.3569 0.0000
0.3582 0.3541 0.0793
0.4146 0.3543 0.1058
0.4659 0.3566 0.1297
0.5146 0.3605 0.1442
0.5651 0.3650 0.1541
0.6152 0.3703 0.1614
0.6626 0.3764 0.1672
0.7126 0.3799 0.1699
0.7593 0.3824 0.1705
0.7991 0.3863 0.1712
0.8338 0.3910 0.1719
0.8649 0.3959 0.1722
0.8954 0.3973 0.1687
0.9227 0.3970 0.1630
0.9461 0.3960 0.1559
0.9662 0.3941 0.1471
0.9832 0.3913 0.1365
0.9972 0.3877 0.1239
0.1779 0.3919 0.1205
0.1886 0.3927 0.1177
0.2005 0.3939 0.1139
0.2167 0.3960 0.1071
0.2375 0.3990 0.0958
0.2641 0.4031 0.0741
0.2952 0.4086 0.0009
0.3566 0.4080 0.0297
0.4214 0.4056 0.0945
0.4784 0.4057 0.1243
0.5282 0.4078 0.1502
0.5767 0.4116 0.1665
0.6234 0.4165 0.1779
0.6712 0.4210 0.1863
0.7137 0.4267 0.1929
0.7539 0.4321 0.1979
0.7956 0.4348 0.1996
0.8333 0.4370 0.1997
0.8644 0.4414 0.2008
0.8919 0.4461 0.2014
0.9162 0.4509 0.2017
0.9395 0.4527 0.1986
0.9603 0.4525 0.1930
0.9780 0.4518 0.1860
0.9930 0.4502 0.1775
0.2028 0.4417 0.1395
0.2123 0.4423 0.1370
0.2237 0.4434 0.1334
0.2392 0.4451 0.1276
0.2594 0.4476 0.1175
0.2836 0.4512 0.1010
0.3147 0.4556 0.0684
0.3559 0.4596 0.0000
0.4212 0.4584 0.0585
0.4850 0.4562 0.1122
0.5404 0.4562 0.1438
0.5901 0.4584 0.1717
0.6362 0.4620 0.1896
0.6793 0.4665 0.2023
0.7215 0.4707 0.2118
0.7589 0.4758 0.2192
0.7933 0.4815 0.2254
0.8285 0.4852 0.2289
0.8620 0.4876 0.2301
0.8915 0.4900 0.2302
0.9157 0.4943 0.2313
0.9370 0.4987 0.2320
0.9556 0.5032 0.2322
0.9730 0.5052 0.2295
0.9886 0.5052 0.2240
0.2282 0.4895 0.1595
0.2372 0.4901 0.1571
0.2484 0.4909 0.1537
0.2634 0.4923 0.1486
0.2828 0.4944 0.1401
0.3064 0.4973 0.1263
0.3349 0.5009 0.1014
0.3682 0.5056 0.0558
0.4194 0.5079 0.0000
0.4858 0.5061 0.0786
0.5467 0.5042 0.1318
0.6016 0.5044 0.1643
0.6483 0.5064 0.1938
0.6905 0.5097 0.2131
0.7287 0.5138 0.2271
0.7657 0.5178 0.2376
0.7992 0.5225 0.2458
0.8298 0.5277 0.2526
0.8582 0.5330 0.2582
0.8878 0.5355 0.2605
0.9141 0.5377 0.2612
0.9366 0.5404 0.2615
0.9551 0.5447 0.2626
0.9712 0.5491 0.2632
0.9852 0.5536 0.2635
0.2551 0.5352 0.1802
0.2636 0.5356 0.1780
0.2747 0.5363 0.1747
0.2890 0.5375 0.1701
0.3076 0.5394 0.1628
0.3304 0.5418 0.1511
0.3566 0.5451 0.1330
0.3890 0.5491 0.0979
0.4235 0.5541 0.0236
0.4833 0.5548 0.0000
0.5488 0.5521 0.0980
0.6075 0.5509 0.1524
0.6589 0.5511 0.1856
0.7014 0.5530 0.2165
0.7387 0.5562 0.2371
0.7728 0.5602 0.2522
0.8041 0.5649 0.2638
0.8353 0.5688 0.2728
0.8624 0.5738 0.2801
0.8869 0.5793 0.2865
0.9111 0.5833 0.2907
0.9341 0.5857 0.2923
0.9544 0.5878 0.2927
0.9711 0.5910 0.2933
0.9850 0.5952 0.2943
0.2834 0.5809 0.2016
0.2914 0.5813 0.1995
0.3021 0.5819 0.1965
0.3160 0.5830 0.1923
0.3339 0.5846 0.1858
0.3558 0.5868 0.1758
0.3811 0.5896 0.1606
0.4105 0.5931 0.1355
0.4446 0.5973 0.0902
0.4835 0.6016 0.0000
0.5460 0.6012 0.0155
0.6108 0.5985 0.1204
0.6645 0.5976 0.1739
0.7109 0.5979 0.2076
0.7485 0.5996 0.2397
0.7819 0.6026 0.2615
0.8123 0.6064 0.2775
0.8401 0.6109 0.2900
0.8674 0.6146 0.2997
0.8912 0.6194 0.3076
0.9127 0.6246 0.3144
0.9319 0.6301 0.3204
0.9519 0.6326 0.3229
0.9695 0.6347 0.3241
0.9846 0.6365 0.3240
0.3129 0.6259 0.2235
0.3205 0.6262 0.2216
0.3306 0.6268 0.2189
0.3443 0.6277 0.2149
0.3613 0.6291 0.2091
0.3822 0.6310 0.2004
0.4065 0.6335 0.1874
0.4337 0.6366 0.1682
0.4660 0.6402 0.1335
0.4996 0.6445 0.0773
0.5460 0.6473 0.0000
0.6085 0.6466 0.0592
0.6686 0.6440 0.1442
0.7159 0.6433 0.1960
0.7570 0.6436 0.2301
0.7906 0.6453 0.2631
0.8204 0.6481 0.2859
0.8474 0.6517 0.3029
0.8719 0.6559 0.3160
0.8958 0.6596 0.3264
0.9165 0.6641 0.3349
0.9351 0.6689 0.3420
0.9516 0.6740 0.3482
0.9674 0.6780 0.3526
0.9825 0.6801 0.3544
0.3433 0.6698 0.2459
0.3505 0.6702 0.2442
0.3600 0.6706 0.2416
0.3735 0.6714 0.2378
0.3896 0.6727 0.2326
0.4095 0.6743 0.2249
0.4328 0.6765 0.2137
0.4589 0.6792 0.1974
0.4872 0.6823 0.1725
0.5202 0.6860 0.1273
0.5538 0.6906 0.0544
0.6075 0.6921 0.0000
0.6666 0.6908 0.0851
0.7202 0.6884 0.1686
0.7613 0.6880 0.2187
0.7981 0.6883 0.2530
0.8281 0.6899 0.2868
0.8546 0.6925 0.3104
0.8784 0.6959 0.3280
0.8998 0.6997 0.3417
0.9195 0.7038 0.3527
0.9383 0.7073 0.3614
0.9543 0.7117 0.3688
0.9686 0.7165 0.3752
0.9812 0.7216 0.3810
0.3745 0.7127 0.2686
0.3812 0.7130 0.2670
0.3903 0.7134 0.2647
0.4034 0.7141 0.2609
0.4187 0.7152 0.2562
0.4376 0.7166 0.2494
0.4597 0.7185 0.2396
0.4840 0.7207 0.2255
0.5104 0.7235 0.2056
0.5409 0.7267 0.1719
0.5741 0.7308 0.1165
0.6077 0.7355 0.0000
0.6649 0.7356 0.0000
0.7187 0.7338 0.1106
0.7660 0.7315 0.1935
0.8019 0.7314 0.2418
0.8347 0.7315 0.2762
0.8612 0.7329 0.3104
0.8844 0.7353 0.3345
0.9052 0.7383 0.3526
0.9240 0.7419 0.3667
0.9407 0.7460 0.3781
0.9572 0.7491 0.3873
0.9710 0.7533 0.3949
0.9832 0.7578 0.4016
0.4063 0.7542 0.2914
0.4126 0.7545 0.2900
0.4211 0.7548 0.2878
0.4335 0.7554 0.2844
0.4483 0.7564 0.2800
0.4660 0.7576 0.2739
0.4865 0.7591 0.2651
0.5095 0.7610 0.2529
0.5347 0.7634 0.2358
0.5622 0.7665 0.2116
0.5944 0.7700 0.1679
0.6262 0.7741 0.1000
0.6649 0.7774 0.0000
0.7163 0.7774 0.0000
0.7644 0.7751 0.1383
0.8060 0.7729 0.2178
0.8377 0.7728 0.2650
0.8667 0.7729 0.2992
0.8901 0.7742 0.3337
0.9105 0.7764 0.3583
0.9287 0.7793 0.3767
0.9449 0.7827 0.3912
0.9594 0.7865 0.4028
0.9735 0.7895 0.4123
0.9833 0.7949 0.4395
0.4382 0.7941 0.3143
0.4442 0.7943 0.3129
0.4520 0.7947 0.3110
0.4637 0.7952 0.3077
0.4776 0.7958 0.3035
0.4940 0.7968 0.2980
0.5132 0.7981 0.2902
0.5350 0.7997 0.2795
0.5594 0.8019 0.2647
0.5853 0.8046 0.2443
0.6141 0.8077 0.2121
0.6448 0.8112 0.1596
0.6745 0.8154 0.0779
0.7161 0.8172 0.0000
0.7621 0.8169 0.0458
0.8051 0.8145 0.1660
0.8413 0.8126 0.2418
0.8693 0.8126 0.2883
0.8949 0.8127 0.3223
0.9154 0.8139 0.3568
0.9333 0.8160 0.3816
0.9490 0.8187 0.4003
0.9631 0.8218 0.4149
0.9755 0.8254 0.4267
0.9828 0.8311 0.4786
0.4698 0.8320 0.3368
0.4752 0.8322 0.3356
0.4824 0.8324 0.3337
0.4930 0.8327 0.3308
0.5066 0.8333 0.3267
0.5219 0.8342 0.3217
0.5400 0.8353 0.3148
0.5610 0.8369 0.3054
0.5840 0.8389 0.2925
0.6085 0.8412 0.2750
0.6339 0.8440 0.2511
0.6630 0.8470 0.2094
0.6914 0.8506 0.1466
0.7183 0.8548 0.0335
0.7615 0.8553 0.0000
0.8031 0.8544 0.0836
0.8411 0.8522 0.1938
0.8726 0.8506 0.2660
0.8972 0.8506 0.3117
0.9196 0.8507 0.3452
0.9375 0.8519 0.3796
0.9530 0.8538 0.4044
0.9666 0.8563 0.4231
0.9787 0.8592 0.4377
0.9829 0.8649 0.5170
0.5007 0.8679 0.3591
0.5057 0.8680 0.3579
0.5124 0.8682 0.3563
0.5223 0.8685 0.3536
0.5354 0.8690 0.3497
0.5500 0.8699 0.3452
0.5673 0.8710 0.3390
0.5869 0.8724 0.3307
0.6085 0.8741 0.3194
0.6315 0.8762 0.3042
0.6554 0.8786 0.2837
0.6808 0.8813 0.2531
0.7077 0.8844 0.2033
0.7333 0.8880 0.1280
0.7613 0.8913 0.0000
0.8020 0.8913 0.0000
0.8395 0.8901 0.1155
0.8730 0.8879 0.2217
0.9001 0.8867 0.2903
0.9216 0.8867 0.3349
0.9412 0.8868 0.3679
0.9567 0.8879 0.4019
0.9701 0.8898 0.4266
0.9804 0.8922 0.4708
0.9840 0.8965 0.5570
0.5313 0.9019 0.3811
0.5360 0.9021 0.3801
0.5422 0.9023 0.3786
0.5517 0.9026 0.3761
0.5643 0.9031 0.3725
0.5782 0.9039 0.3683
0.5943 0.9049 0.3628
0.6126 0.9061 0.3553
0.6327 0.9076 0.3454
0.6542 0.9094 0.3321
0.6764 0.9115 0.3145
0.6989 0.9139 0.2909
0.7236 0.9166 0.2517
0.7480 0.9197 0.1934
0.7713 0.9232 0.1019
0.8018 0.9252 0.0000
0.8380 0.9252 0.0000
0.8716 0.9236 0.1484
0.9009 0.9217 0.2495
0.9242 0.9208 0.3145
0.9430 0.9209 0.3581
0.9600 0.9211 0.3905
0.9734 0.9222 0.4239
0.9821 0.9231 0.5108
0.9860 0.9260 0.5976
0.5621 0.9341 0.4028
0.5665 0.9343 0.4018
0.5723 0.9345 0.4004
0.5811 0.9348 0.3982
0.5927 0.9352 0.3950
0.6060 0.9358 0.3909
0.6209 0.9367 0.3859
0.6379 0.9378 0.3793
0.6565 0.9391 0.3705
0.6763 0.9406 0.3589
0.6968 0.9424 0.3436
0.7176 0.9445 0.3234
0.7390 0.9469 0.2946
0.7623 0.9496 0.2474
0.7847 0.9526 0.1788
0.8060 0.9561 0.0685
0.8381 0.9570 0.0000
0.8701 0.9571 0.0000
0.9001 0.9553 0.1807
0.9255 0.9535 0.2773
0.9453 0.9529 0.3388
0.9615 0.9530 0.3811
0.9762 0.9531 0.4126
0.9845 0.9516 0.5489
0.9888 0.9529 0.6418
0.5964 0.9639 0.4269
0.5995 0.9641 0.4254
0.6038 0.9644 0.4233
0.6101 0.9648 0.4199
0.6206 0.9652 0.4169
0.6333 0.9657 0.4130
0.6470 0.9665 0.4086
0.6626 0.9674 0.4027
0.6797 0.9686 0.3949
0.6979 0.9699 0.3848
0.7168 0.9715 0.3714
0.7360 0.9733 0.3540
0.7554 0.9755 0.3310
0.7765 0.9778 0.2946
0.7978 0.9803 0.2399
0.8182 0.9833 0.1589
0.8382 0.9864 0.0000
0.8703 0.9864 0.0000
0.8988 0.9861 0.0726
0.9248 0.9844 0.2126
0.9468 0.9828 0.3049
0.9645 0.9805 0.4315
0.9776 0.9780 0.5331
0.9877 0.9775 0.5927
0.9924 0.9771 0.6943
0.7852 0.9739 0.5653
0.7867 0.9740 0.5651
0.7886 0.9743 0.5647
0.7914 0.9746 0.5641
0.7952 0.9751 0.5631
0.8000 0.9758 0.5617
0.8056 0.9766 0.5609
0.8121 0.9776 0.5596
0.8191 0.9788 0.5575
0.8266 0.9803 0.5546
0.8344 0.9821 0.5503
0.8422 0.9842 0.5440
0.8499 0.9868 0.5350
0.8571 0.9901 0.5210
0.8620 0.9944 0.4884
0.8645 0.9980 0.4273
0.8632 1.0000 0.2835
0.8704 0.9999 0.0000
0.8985 0.9999 0.0000
0.9307 1.0000 0.3069
0.9583 0.9980 0.5316
0.9748 0.9954 0.6232
0.9848 0.9946 0.6808
0.9918 0.9952 0.7279
0.9968 0.9966 0.7706
0.0025 0.0018 0.0105
0.0293 0.0043 0.0248
0.0636 0.0089 0.0294
0.1139 0.0112 0.0363
0.1696 0.0111 0.0408
0.2288 0.0075 0.0407
0.2947 0.0012 0.0374
0.3574 0.0000 0.0366
0.4211 0.0000 0.0367
0.4849 0.0000 0.0367
0.5466 0.0000 0.0366
0.6075 0.0000 0.0365
0.6643 0.0000 0.0365
0.7155 0.0000 0.0362
0.7608 0.0000 0.0363
0.8013 0.0000 0.0361
0.8377 0.0000 0.0360
0.8700 0.0000 0.0361
0.8982 0.0000 0.0364
0.9230 0.0000 0.0361
0.9445 0.0000 0.0363
0.9630 0.0000 0.0363
0.9788 0.0000 0.0363
0.9924 0.0000 0.0361
1.0000 0.0018 0.0379
0.0000 0.0330 0.0367
0.0438 0.0330 0.0367
0.0898 0.0330 0.0367
0.1384 0.0330 0.0367
0.1883 0.0329 0.0366
0.2397 0.0328 0.0366
0.2965 0.0328 0.0365
0.3577 0.0327 0.0364
0.4215 0.0326 0.0364
0.4850 0.0325 0.0362
0.5469 0.0323 0.0360
0.6078 0.0321 0.0358
0.6646 0.0319 0.0356
0.7158 0.0317 0.0354
0.7611 0.0315 0.0351
0.8016 0.0312 0.0348
0.8381 0.0310 0.0346
0.8703 0.0308 0.0344
0.8986 0.0305 0.0341
0.9233 0.0302 0.0338
0.9447 0.0299 0.0335
0.9632 0.0296 0.0332
0.9791 0.0293 0.0328
0.9926 0.0289 0.0324
1.0000 0.0343 0.0381
0.0203 0.0663 0.0427
0.0438 0.0701 0.0367
0.0898 0.0701 0.0367
0.1384 0.0701 0.0367
0.1883 0.0701 0.0367
0.2397 0.0701 0.0366
0.2965 0.0700 0.0366
0.3577 0.0700 0.0365
0.4212 0.0699 0.0364
0.4847 0.0697 0.0362
0.5466 0.0695 0.0360
0.6076 0.0693 0.0358
0.6645 0.0691 0.0356
0.7157 0.0689 0.0353
0.7610 0.0687 0.0351
0.8017 0.0685 0.0349
0.8381 0.0684 0.0346
0.8703 0.0683 0.0344
0.8986 0.0681 0.0341
0.9233 0.0680 0.0338
0.9447 0.0678 0.0335
0.9632 0.0675 0.0332
0.9791 0.0673 0.0328
0.9926 0.0671 0.0324
1.0000 0.0710 0.0383
0.0396 0.1064 0.0534
0.0438 0.1123 0.0367
0.0898 0.1124 0.0367
0.1386 0.1124 0.0367
0.1826 0.1135 0.0518
0.2282 0.1159 0.0555
0.2844 0.1167 0.0554
0.3434 0.1183 0.0543
0.4113 0.1168 0.0497
0.4811 0.1138 0.0418
0.5463 0.1117 0.0360
0.6073 0.1115 0.0358
0.6642 0.1113 0.0356
0.7155 0.1111 0.0353
0.7609 0.1109 0.0351
0.8017 0.1109 0.0349
0.8382 0.1108 0.0346
0.8704 0.1107 0.0344
0.8986 0.1106 0.0341
0.9233 0.1105 0.0338
0.9448 0.1104 0.0335
0.9632 0.1102 0.0332
0.9791 0.1100 0.0328
0.9926 0.1099 0.0324
1.0000 0.1129 0.0387
0.0614 0.1500 0.0638
0.0650 0.1548 0.0511
0.0920 0.1574 0.0393
0.1386 0.1579 0.0367
0.1874 0.1574 0.0518
0.2296 0.1592 0.0667
0.2775 0.1620 0.0720
0.3316 0.1650 0.0743
0.3951 0.1662 0.0741
0.4555 0.1696 0.0740
0.5216 0.1696 0.0712
0.5890 0.1678 0.0664
0.6533 0.1648 0.0591
0.7113 0.1603 0.0479
0.7609 0.1563 0.0352
0.8018 0.1563 0.0350
0.8383 0.1562 0.0347
0.8704 0.1561 0.0344
0.8987 0.1561 0.0341
0.9234 0.1560 0.0338
0.9448 0.1559 0.0335
0.9633 0.1558 0.0332
0.9791 0.1557 0.0328
0.9926 0.1556 0.0324
1.0000 0.1581 0.0392
0.0835 0.1960 0.0743
0.0866 0.1999 0.0644
0.1101 0.2019 0.0575
0.1383 0.2055 0.0366
0.1882 0.2055 0.0366
0.2375 0.2044 0.0654
0.2836 0.2063 0.0805
0.3341 0.2094 0.0875
0.3854 0.2141 0.0917
0.4474 0.2166 0.0932
0.5108 0.2182 0.0929
0.5691 0.2221 0.0931
0.6303 0.2237 0.0911
0.6901 0.2227 0.0868
0.7434 0.2207 0.0810
0.7907 0.2175 0.0734
0.8324 0.2131 0.0630
0.8689 0.2073 0.0466
0.8988 0.2041 0.0343
0.9234 0.2041 0.0339
0.9448 0.2040 0.0335
0.9633 0.2039 0.0332
0.9791 0.2038 0.0328
0.9926 0.2037 0.0324
1.0000 0.2059 0.0399
0.1060 0.2436 0.0852
0.1091 0.2468 0.0770
0.1297 0.2485 0.0720
0.1539 0.2517 0.0600
0.1879 0.2550 0.0364
0.2395 0.2544 0.0480
0.2930 0.2534 0.0783
0.3423 0.2553 0.0952
0.3918 0.2593 0.1047
0.4467 0.2632 0.1109
0.5010 0.2678 0.1151
0.5631 0.2698 0.1161
0.6232 0.2724 0.1160
0.6761 0.2768 0.1164
0.7264 0.2796 0.1149
0.7748 0.2793 0.1101
0.8179 0.2779 0.1038
0.8559 0.2754 0.0962
0.8891 0.2719 0.0871
0.9178 0.2672 0.0761
0.9424 0.2613 0.0613
0.9633 0.2542 0.0345
0.9791 0.2539 0.0330
0.9927 0.2538 0.0325
1.0000 0.2558 0.0408
0.1292 0.2926 0.0976
0.1323 0.2953 0.0902
0.1505 0.2966 0.0859
0.1727 0.2992 0.0773
0.1972 0.3034 0.0590
0.2386 0.3056 0.0362
0.2965 0.3042 0.0653
0.3527 0.3036 0.0920
0.4039 0.3056 0.1125
0.4539 0.3096 0.1247
0.5076 0.3133 0.1326
0.5590 0.3187 0.1384
0.6155 0.3227 0.1416
0.6727 0.3249 0.1423
0.7224 0.3282 0.1425
0.7650 0.3327 0.1429
0.8048 0.3364 0.1420
0.8437 0.3364 0.1373
0.8780 0.3354 0.1311
0.9079 0.3335 0.1232
0.9338 0.3307 0.1134
0.9559 0.3268 0.1019
0.9746 0.3220 0.0890
0.9904 0.3161 0.0739
1.0000 0.3098 0.0555
0.1527 0.3423 0.1124
0.1561 0.3445 0.1052
0.1722 0.3457 0.1011
0.1925 0.3478 0.0935
0.2146 0.3512 0.0814
0.2426 0.3560 0.0496
0.2947 0.3569 0.0360
0.3569 0.3551 0.0798
0.4153 0.3547 0.1078
0.4663 0.3571 0.1314
0.5163 0.3606 0.1460
0.5686 0.3645 0.1556
0.6183 0.3698 0.1625
0.6657 0.3756 0.1680
0.7169 0.3782 0.1699
0.7633 0.3804 0.1701
0.8024 0.3843 0.1706
0.8368 0.3889 0.1711
0.8679 0.3932 0.1708
0.8987 0.3934 0.1662
0.9255 0.3927 0.1601
0.9486 0.3913 0.1525
0.9683 0.3890 0.1432
0.9849 0.3858 0.1321
0.9984 0.3811 0.1170
0.1767 0.3923 0.1291
0.1804 0.3941 0.1228
0.1947 0.3951 0.1189
0.2134 0.3969 0.1116
0.2346 0.3998 0.1007
0.2606 0.4039 0.0820
0.2949 0.4087 0.0360
0.3557 0.4087 0.0360
0.4203 0.4064 0.0950
0.4790 0.4061 0.1262
0.5285 0.4082 0.1518
0.5781 0.4117 0.1682
0.6256 0.4163 0.1794
0.6737 0.4206 0.1874
0.7160 0.4262 0.1937
0.7572 0.4308 0.1981
0.7986 0.4333 0.1995
0.8361 0.4353 0.1993
0.8667 0.4397 0.2002
0.8939 0.4443 0.2007
0.9180 0.4489 0.2008
0.9417 0.4494 0.1964
0.9621 0.4490 0.1905
0.9796 0.4479 0.1832
0.9944 0.4457 0.1731
0.2009 0.4421 0.1471
0.2050 0.4435 0.1417
0.2178 0.4444 0.1381
0.2359 0.4459 0.1316
0.2565 0.4484 0.1222
0.2812 0.4518 0.1063
0.3118 0.4562 0.0774
0.3559 0.4597 0.0358
0.4202 0.4591 0.0592
0.4841 0.4570 0.1128
0.5409 0.4565 0.1456
0.5904 0.4587 0.1731
0.6374 0.4621 0.1912
0.6804 0.4665 0.2037
0.7234 0.4703 0.2129
0.7607 0.4754 0.2201
0.7949 0.4810 0.2261
0.8309 0.4841 0.2290
0.8641 0.4863 0.2299
0.8933 0.4886 0.2299
0.9173 0.4928 0.2308
0.9383 0.4971 0.2313
0.9568 0.5016 0.2315
0.9745 0.5026 0.2276
0.9899 0.5022 0.2211
