EA 50 Cinematic Luts Pack/EA_Cinematic Lut (21).CUBE
#Created by: Adobe Photoshop Export Color Lookup Plugin
#Copyright: (C) Copyright 2018 Navpreet Singh
TITLE "Orange and Teal 4"
#LUT size
LUT_3D_SIZE 32
#data domain
DOMAIN_MIN 0.0 0.0 0.0
DOMAIN_MAX 1.0 1.0 1.0
#LUT data points
0.000000 0.000000 0.000000
0.012085 0.000000 0.000000
0.026947 0.000000 0.000000
0.044586 0.000000 0.000000
0.065002 0.000000 0.000000
0.088226 0.000000 0.000000
0.114197 0.000000 0.000000
0.142975 0.000000 0.000000
0.174530 0.000000 0.000000
0.208893 0.000000 0.000000
0.246033 0.000000 0.000000
0.285919 0.000000 0.000000
0.328644 0.000000 0.000000
0.374115 0.000000 0.000000
0.422363 0.000000 0.000000
0.473389 0.000000 0.000000
0.526611 0.000000 0.000000
0.577637 0.000000 0.000000
0.625916 0.000000 0.000000
0.671387 0.000000 0.000000
0.714081 0.000000 0.000000
0.753998 0.000000 0.000000
0.791107 0.000000 0.000000
0.825470 0.000000 0.000000
0.857025 0.000000 0.000000
0.885803 0.000000 0.000000
0.911774 0.000000 0.000000
0.934998 0.000000 0.000000
0.955414 0.000000 0.000000
0.973053 0.000000 0.000000
0.987946 0.000000 0.000000
1.000000 0.000000 0.000000
0.000000 0.011810 0.011810
0.012085 0.012085 0.012085
0.029480 0.010040 0.010040
0.050598 0.008057 0.008057
0.073059 0.007416 0.007416
0.097260 0.007416 0.007416
0.124268 0.007416 0.007416
0.154053 0.007416 0.007416
0.186615 0.007416 0.007416
0.221954 0.007416 0.007416
0.260101 0.007416 0.007416
0.300995 0.007416 0.007416
0.344696 0.007416 0.007416
0.391174 0.007416 0.007416
0.440460 0.007416 0.007416
0.492493 0.007416 0.007416
0.545319 0.007416 0.007416
0.595367 0.007416 0.007416
0.642609 0.007416 0.007416
0.687073 0.007416 0.007416
0.728790 0.007416 0.007416
0.767670 0.007416 0.007416
0.803833 0.007416 0.007416
0.837158 0.007416 0.007416
0.867706 0.007416 0.007416
0.895477 0.007416 0.007416
0.920471 0.007416 0.007416
0.942688 0.007416 0.007416
0.962097 0.007416 0.007416
0.978760 0.007416 0.007416
0.992615 0.007416 0.007416
1.000000 0.012085 0.012085
0.000000 0.026245 0.026245
0.007416 0.032623 0.032623
0.026947 0.026947 0.026947
0.047546 0.024475 0.024475
0.071869 0.022064 0.022064
0.099884 0.019714 0.019714
0.131622 0.017426 0.017426
0.165497 0.015930 0.015930
0.199036 0.015930 0.015930
0.235413 0.015930 0.015930
0.274536 0.015930 0.015930
0.316467 0.015930 0.015930
0.361176 0.015930 0.015930
0.408661 0.015930 0.015930
0.458954 0.015930 0.015930
0.511841 0.015930 0.015930
0.563721 0.015930 0.015930
0.612762 0.015930 0.015930
0.658997 0.015930 0.015930
0.702484 0.015930 0.015930
0.743164 0.015930 0.015930
0.781067 0.015930 0.015930
0.816193 0.015930 0.015930
0.848511 0.015930 0.015930
0.878082 0.015930 0.015930
0.904846 0.015930 0.015930
0.928833 0.015930 0.015930
0.950012 0.015930 0.015930
0.968445 0.015930 0.015930
0.984070 0.015930 0.015930
0.992615 0.021271 0.021271
1.000000 0.026947 0.026947
0.000000 0.043365 0.043365
0.007416 0.050781 0.050781
0.015930 0.058563 0.058563
0.044586 0.044586 0.044586
0.068390 0.041687 0.041687
0.095917 0.038849 0.038849
0.127167 0.036072 0.036072
0.162109 0.033356 0.033356
0.200775 0.030731 0.030731
0.243134 0.028137 0.028137
0.289246 0.025665 0.025665
0.332245 0.025635 0.025635
0.377960 0.025635 0.025635
0.426453 0.025635 0.025635
0.477753 0.025635 0.025635
0.530853 0.025635 0.025635
0.581726 0.025635 0.025635
0.629761 0.025635 0.025635
0.674988 0.025635 0.025635
0.717468 0.025635 0.025635
0.757141 0.025635 0.025635
0.794037 0.025635 0.025635
0.828156 0.025635 0.025635
0.859497 0.025635 0.025635
0.888031 0.025635 0.025635
0.913818 0.025635 0.025635
0.936798 0.025635 0.025635
0.957001 0.025635 0.025635
0.974396 0.025635 0.025635
0.984070 0.031555 0.031555
0.992615 0.037903 0.037903
1.000000 0.044586 0.044586
0.000000 0.063141 0.063141
0.007416 0.071594 0.071594
0.015930 0.080444 0.080444
0.025635 0.089752 0.089752
0.065002 0.065002 0.065002
0.092041 0.061676 0.061676
0.122803 0.058411 0.058411
0.157227 0.055176 0.055176
0.195404 0.052032 0.052032
0.237274 0.049011 0.049011
0.282837 0.045990 0.045990
0.332153 0.043060 0.043060
0.385193 0.040192 0.040192
0.441895 0.037384 0.037384
0.496887 0.036438 0.036438
0.549500 0.036438 0.036438
0.599365 0.036438 0.036438
0.646393 0.036438 0.036438
0.690613 0.036438 0.036438
0.732086 0.036438 0.036438
0.770752 0.036438 0.036438
0.806641 0.036438 0.036438
0.839783 0.036438 0.036438
0.870087 0.036438 0.036438
0.897644 0.036438 0.036438
0.922394 0.036438 0.036438
0.944397 0.036438 0.036438
0.963593 0.036438 0.036438
0.974396 0.043030 0.043030
0.984070 0.049988 0.049988
0.992615 0.057312 0.057312
1.000000 0.065002 0.065002
0.000000 0.085571 0.085571
0.007416 0.095062 0.095062
0.015930 0.104980 0.104980
0.025635 0.115295 0.115295
0.036438 0.126038 0.126038
0.088226 0.088226 0.088226
0.118469 0.084473 0.084473
0.152405 0.080750 0.080750
0.190094 0.077087 0.077087
0.231476 0.073547 0.073547
0.276550 0.070038 0.070038
0.325348 0.066620 0.066620
0.377869 0.063232 0.063232
0.434082 0.059967 0.059967
0.494019 0.056732 0.056732
0.554626 0.053558 0.053558
0.611603 0.050446 0.050446
0.662689 0.048340 0.048340
0.705933 0.048340 0.048340
0.746399 0.048340 0.048340
0.784058 0.048340 0.048340
0.818939 0.048340 0.048340
0.851044 0.048340 0.048340
0.880402 0.048340 0.048340
0.906921 0.048340 0.048340
0.930664 0.048340 0.048340
0.951660 0.048340 0.048340
0.963593 0.055603 0.055603
0.974396 0.063202 0.063202
0.984070 0.071198 0.071198
0.992615 0.079529 0.079529
1.000000 0.088226 0.088226
0.000000 0.110687 0.110687
0.007416 0.121216 0.121216
0.015930 0.132172 0.132172
0.025635 0.143524 0.143524
0.036438 0.155273 0.155273
0.049286 0.165985 0.165985
0.114197 0.114197 0.114197
0.147675 0.110016 0.110016
0.184845 0.105896 0.105896
0.225708 0.101807 0.101807
0.270325 0.097839 0.097839
0.318604 0.093903 0.093903
0.370605 0.090027 0.090027
0.426361 0.086243 0.086243
0.485779 0.082520 0.082520
0.546722 0.078857 0.078857
0.604187 0.075256 0.075256
0.657928 0.071716 0.071716
0.707947 0.068268 0.068268
0.754242 0.064850 0.064850
0.796814 0.061523 0.061523
0.830841 0.061462 0.061462
0.861938 0.061462 0.061462
0.890259 0.061462 0.061462
0.915802 0.061462 0.061462
0.938538 0.061462 0.061462
0.951660 0.069336 0.069336
0.963593 0.077606 0.077606
0.974396 0.086212 0.086212
0.984070 0.095154 0.095154
0.992615 0.104523 0.104523
1.000000 0.114197 0.114197
0.000000 0.138489 0.138489
0.007416 0.150055 0.150055
0.015930 0.162018 0.162018
0.025635 0.174408 0.174408
0.036438 0.187225 0.187225
0.048340 0.200439 0.200439
0.070374 0.199585 0.199585
0.142975 0.142975 0.142975
0.179657 0.138367 0.138367
0.220032 0.133820 0.133820
0.264130 0.129272 0.129272
0.311951 0.124878 0.124878
0.363434 0.120514 0.120514
0.418671 0.116241 0.116241
0.477661 0.112030 0.112030
0.538757 0.107849 0.107849
0.596741 0.103760 0.103760
0.650940 0.099731 0.099731
0.701447 0.095764 0.095764
0.748291 0.091888 0.091888
0.791351 0.088074 0.088074
0.830719 0.084290 0.084290
0.866364 0.080597 0.080597
0.898346 0.076965 0.076965
0.924347 0.075684 0.075684
0.938538 0.084198 0.084198
0.951660 0.093079 0.093079
0.963593 0.102356 0.102356
0.974396 0.111969 0.111969
0.984070 0.121948 0.121948
0.992615 0.132294 0.132294
1.000000 0.142975 0.142975
0.000000 0.168884 0.168884
0.007416 0.181519 0.181519
0.015930 0.194550 0.194550
0.025635 0.207977 0.207977
0.036438 0.221802 0.221802
0.048340 0.236084 0.236084
0.061462 0.250732 0.250732
0.094269 0.235992 0.235992
0.174530 0.174530 0.174530
0.214447 0.169495 0.169495
0.258026 0.164520 0.164520
0.305328 0.159576 0.159576
0.356354 0.154724 0.154724
0.411072 0.149933 0.149933
0.469482 0.145203 0.145203
0.530762 0.140564 0.140564
0.589203 0.135986 0.135986
0.643921 0.131470 0.131470
0.694916 0.127014 0.127014
0.742218 0.122589 0.122589
0.785797 0.118286 0.118286
0.825684 0.114014 0.114014
0.861847 0.109833 0.109833
0.894287 0.105713 0.105713
0.923035 0.101654 0.101654
0.938538 0.109741 0.109741
0.951660 0.119598 0.119598
0.963593 0.129913 0.129913
0.974396 0.140503 0.140503
0.984070 0.151489 0.151489
0.992615 0.162842 0.162842
1.000000 0.174530 0.174530
0.000000 0.202026 0.202026
0.007416 0.215668 0.215668
0.015930 0.229736 0.229736
0.025635 0.244202 0.244202
0.036438 0.259064 0.259064
0.048340 0.274384 0.274384
0.061462 0.290070 0.290070
0.075684 0.306183 0.306183
0.120911 0.275146 0.275146
0.208893 0.208893 0.208893
0.251984 0.203430 0.203430
0.298798 0.197998 0.197998
0.349335 0.192627 0.192627
0.403564 0.187347 0.187347
0.461487 0.182129 0.182129
0.522614 0.176971 0.176971
0.581635 0.171906 0.171906
0.636810 0.166901 0.166901
0.688324 0.161926 0.161926
0.736084 0.157074 0.157074
0.780182 0.152222 0.152222
0.820557 0.147461 0.147461
0.857208 0.142792 0.142792
0.890167 0.138153 0.138153
0.919403 0.133636 0.133636
0.938538 0.138062 0.138062
0.951660 0.148956 0.148956
0.963593 0.160217 0.160217
0.974396 0.171844 0.171844
0.984070 0.183807 0.183807
0.992615 0.196198 0.196198
1.000000 0.208893 0.208893
0.000000 0.237793 0.237793
0.007416 0.252472 0.252472
0.015930 0.267578 0.267578
0.025635 0.283112 0.283112
0.036438 0.299042 0.299042
0.048340 0.315369 0.315369
0.061462 0.332092 0.332092
0.075684 0.349243 0.349243
0.091034 0.366791 0.366791
0.150360 0.317108 0.317108
0.246033 0.246033 0.246033
0.292328 0.240112 0.240112
0.342346 0.234283 0.234283
0.396088 0.228455 0.228455
0.453522 0.222748 0.222748
0.514465 0.217102 0.217102
0.573975 0.211548 0.211548
0.629669 0.206024 0.206024
0.681671 0.200592 0.200592
0.729919 0.195221 0.195221
0.774506 0.189880 0.189880
0.815338 0.184631 0.184631
0.852539 0.179443 0.179443
0.885986 0.174316 0.174316
0.915710 0.169281 0.169281
0.938538 0.169159 0.169159
0.951660 0.181061 0.181061
0.963593 0.193359 0.193359
0.974396 0.205963 0.205963
0.984070 0.218933 0.218933
0.992615 0.232330 0.232330
1.000000 0.246033 0.246033
0.000000 0.276184 0.276184
0.007416 0.291931 0.291931
0.015930 0.308075 0.308075
0.025635 0.324646 0.324646
0.036438 0.341614 0.341614
0.048340 0.359009 0.359009
0.061462 0.376770 0.376770
0.075684 0.394958 0.394958
0.091034 0.413574 0.413574
0.107544 0.432556 0.432556
0.182617 0.361877 0.361877
0.285919 0.285919 0.285919
0.335480 0.279602 0.279602
0.388702 0.273315 0.273315
0.445618 0.267059 0.267059
0.506256 0.260956 0.260956
0.566254 0.254883 0.254883
0.622437 0.248871 0.248871
0.674896 0.242920 0.242920
0.723694 0.237061 0.237061
0.768738 0.231262 0.231262
0.810120 0.225525 0.225525
0.847748 0.219788 0.219788
0.881714 0.214203 0.214203
0.911957 0.208649 0.208649
0.938477 0.203186 0.203186
0.951660 0.215942 0.215942
0.963593 0.229248 0.229248
0.974396 0.242859 0.242859
0.984070 0.256836 0.256836
0.992615 0.271240 0.271240
1.000000 0.285919 0.285919
0.000000 0.317291 0.317291
0.007416 0.334045 0.334045
0.015930 0.351257 0.351257
0.025635 0.368896 0.368896
0.036438 0.386902 0.386902
0.048340 0.405304 0.405304
0.061462 0.424103 0.424103
0.075684 0.443329 0.443329
0.091034 0.463013 0.463013
0.107544 0.483032 0.483032
0.127899 0.498322 0.498322
0.217621 0.409393 0.409393
0.328644 0.328644 0.328644
0.381348 0.321838 0.321838
0.437805 0.315155 0.315155
0.497955 0.308502 0.308502
0.558472 0.301941 0.301941
0.615143 0.295410 0.295410
0.668121 0.288971 0.288971
0.717407 0.282623 0.282623
0.762970 0.276306 0.276306
0.804779 0.270081 0.270081
0.842926 0.263916 0.263916
0.877380 0.257751 0.257751
0.908112 0.251740 0.251740
0.935150 0.245758 0.245758
0.951660 0.253601 0.253601
0.963593 0.267914 0.267914
0.974396 0.282532 0.282532
0.984070 0.297516 0.297516
0.992615 0.312927 0.312927
1.000000 0.328644 0.328644
0.000000 0.361053 0.361053
0.007416 0.378906 0.378906
0.015930 0.397156 0.397156
0.025635 0.415771 0.415771
0.036438 0.434814 0.434814
0.048340 0.454254 0.454254
0.061462 0.474152 0.474152
0.075684 0.494415 0.494415
0.091034 0.514862 0.514862
0.107544 0.534943 0.534943
0.125153 0.554626 0.554626
0.158051 0.550842 0.550842
0.255432 0.459717 0.459717
0.374115 0.374115 0.374115
0.430054 0.366913 0.366913
0.489716 0.359802 0.359802
0.550598 0.352661 0.352661
0.607788 0.345673 0.345673
0.661255 0.338745 0.338745
0.711029 0.331879 0.331879
0.757080 0.325104 0.325104
0.799408 0.318359 0.318359
0.838074 0.311676 0.311676
0.872986 0.305084 0.305084
0.904205 0.298523 0.298523
0.931732 0.292053 0.292053
0.951660 0.294067 0.294067
0.963593 0.309387 0.309387
0.974396 0.325012 0.325012
0.984070 0.341003 0.341003
0.992615 0.357391 0.357391
1.000000 0.374115 0.374115
0.000000 0.407471 0.407471
0.007416 0.426300 0.426300
0.015930 0.445618 0.445618
0.025635 0.465302 0.465302
0.036438 0.485382 0.485382
0.048340 0.505829 0.505829
0.061462 0.526154 0.526154
0.075684 0.545990 0.545990
0.091034 0.565430 0.565430
0.107544 0.584473 0.584473
0.125153 0.603149 0.603149
0.143921 0.621368 0.621368
0.190979 0.600586 0.600586
0.296021 0.512665 0.512665
0.422363 0.422363 0.422363
0.481537 0.414764 0.414764
0.542633 0.407135 0.407135
0.600372 0.399658 0.399658
0.654327 0.392242 0.392242
0.704590 0.384857 0.384857
0.751129 0.377563 0.377563
0.793976 0.370331 0.370331
0.833099 0.363190 0.363190
0.868561 0.356079 0.356079
0.900269 0.349060 0.349060
0.928284 0.342041 0.342041
0.951660 0.337311 0.337311
0.963593 0.353607 0.353607
0.974396 0.370239 0.370239
0.984070 0.387268 0.387268
0.992615 0.404663 0.404663
1.000000 0.422363 0.422363
0.000000 0.456604 0.456604
0.007416 0.476471 0.476471
0.015930 0.496796 0.496796
0.025635 0.517212 0.517212
0.036438 0.537262 0.537262
0.048340 0.556885 0.556885
0.061462 0.576141 0.576141
0.075684 0.594940 0.594940
0.091034 0.613342 0.613342
0.107544 0.631317 0.631317
0.125153 0.648926 0.648926
0.143921 0.666168 0.666168
0.163849 0.682922 0.682922
0.226685 0.647552 0.647552
0.339386 0.564453 0.564453
0.473389 0.473389 0.473389
0.534668 0.465363 0.465363
0.592834 0.457306 0.457306
0.647339 0.449402 0.449402
0.698059 0.441528 0.441528
0.745117 0.433746 0.433746
0.788452 0.426025 0.426025
0.828094 0.418396 0.418396
0.864014 0.410797 0.410797
0.896240 0.403290 0.403290
0.924744 0.395813 0.395813
0.949524 0.388367 0.388367
0.963593 0.400665 0.400665
0.974396 0.418304 0.418304
0.984070 0.436279 0.436279
0.992615 0.454681 0.454681
1.000000 0.473389 0.473389
0.000000 0.508331 0.508331
0.007416 0.528534 0.528534
0.015930 0.548340 0.548340
0.025635 0.567719 0.567719
0.036438 0.586761 0.586761
0.048340 0.605347 0.605347
0.061462 0.623505 0.623505
0.075684 0.641266 0.641266
0.091034 0.658630 0.658630
0.107544 0.675568 0.675568
0.125153 0.692169 0.692169
0.143921 0.708313 0.708313
0.163849 0.724060 0.724060
0.184906 0.739380 0.739380
0.265076 0.691803 0.691803
0.385468 0.613525 0.613525
0.526611 0.526611 0.526611
0.585266 0.518494 0.518494
0.640228 0.510284 0.510284
0.691467 0.501984 0.501984
0.739014 0.493713 0.493713
0.782867 0.485504 0.485504
0.822998 0.477356 0.477356
0.859436 0.469269 0.469269
0.892151 0.461243 0.461243
0.921143 0.453278 0.453278
0.946442 0.445374 0.445374
0.963593 0.450531 0.450531
0.974396 0.469177 0.469177
0.984070 0.488159 0.488159
0.992615 0.507507 0.507507
1.000000 0.526611 0.526611
0.000000 0.559235 0.559235
0.007416 0.578400 0.578400
0.015930 0.597137 0.597137
0.025635 0.615509 0.615509
0.036438 0.633453 0.633453
0.048340 0.651031 0.651031
0.061462 0.668182 0.668182
0.075684 0.684875 0.684875
0.091034 0.701202 0.701202
0.107544 0.717163 0.717163
0.125153 0.732666 0.732666
0.143921 0.747772 0.747772
0.163849 0.762451 0.762451
0.184906 0.776764 0.776764
0.207062 0.790649 0.790649
0.306335 0.733215 0.733215
0.434509 0.659668 0.659668
0.577637 0.577637 0.577637
0.633087 0.569946 0.569946
0.684845 0.562195 0.562195
0.732910 0.554321 0.554321
0.777222 0.546417 0.546417
0.817841 0.538483 0.538483
0.854767 0.530457 0.530457
0.887970 0.522369 0.522369
0.917480 0.514221 0.514221
0.943268 0.506012 0.506012
0.963593 0.503113 0.503113
0.974396 0.522247 0.522247
0.984070 0.541077 0.541077
0.992615 0.559570 0.559570
1.000000 0.577637 0.577637
0.000000 0.607452 0.607452
0.007416 0.625610 0.625610
0.015930 0.643311 0.643311
0.025635 0.660675 0.660675
0.036438 0.677551 0.677551
0.048340 0.694061 0.694061
0.061462 0.710144 0.710144
0.075684 0.725830 0.725830
0.091034 0.741119 0.741119
0.107544 0.756042 0.756042
0.125153 0.770477 0.770477
0.143921 0.784546 0.784546
0.163849 0.798187 0.798187
0.184906 0.811432 0.811432
0.216980 0.815094 0.815094
0.255524 0.815094 0.815094
0.350525 0.771759 0.771759
0.486237 0.703125 0.703125
0.625916 0.625916 0.625916
0.678162 0.618652 0.618652
0.726685 0.611328 0.611328
0.771515 0.603882 0.603882
0.812622 0.596405 0.596405
0.850037 0.588898 0.588898
0.883759 0.581299 0.581299
0.913757 0.573639 0.573639
0.940063 0.565918 0.565918
0.962616 0.558105 0.558105
0.974396 0.573547 0.573547
0.984070 0.591339 0.591339
0.992615 0.608826 0.608826
1.000000 0.625916 0.625916
0.000000 0.653046 0.653046
0.007416 0.670105 0.670105
0.015930 0.686829 0.686829
0.025635 0.703125 0.703125
0.036438 0.718994 0.718994
0.048340 0.734436 0.734436
0.061462 0.749481 0.749481
0.075684 0.764160 0.764160
0.091034 0.778412 0.778412
0.107544 0.792236 0.792236
0.125153 0.805664 0.805664
0.143921 0.818665 0.818665
0.163849 0.831268 0.831268
0.192780 0.836151 0.836151
0.229462 0.836151 0.836151
0.269012 0.836151 0.836151
0.311523 0.836151 0.836151
0.397369 0.807587 0.807587
0.539215 0.743744 0.743744
0.671387 0.671387 0.671387
0.720398 0.664551 0.664551
0.765747 0.657654 0.657654
0.807343 0.650635 0.650635
0.845245 0.643616 0.643616
0.879456 0.636536 0.636536
0.909943 0.629364 0.629364
0.936768 0.622131 0.622131
0.959808 0.614838 0.614838
0.974396 0.622040 0.622040
0.984070 0.638824 0.638824
0.992615 0.655304 0.655304
1.000000 0.671387 0.671387
0.000000 0.695953 0.695953
0.007416 0.712006 0.712006
0.015930 0.727661 0.727661
0.025635 0.742889 0.742889
0.036438 0.757721 0.757721
0.048340 0.772125 0.772125
0.061462 0.786163 0.786163
0.075684 0.799744 0.799744
0.091034 0.812988 0.812988
0.107544 0.825775 0.825775
0.125153 0.838135 0.838135
0.143921 0.850128 0.850128
0.169922 0.856079 0.856079
0.204620 0.856079 0.856079
0.242249 0.856079 0.856079
0.282776 0.856079 0.856079
0.326233 0.856079 0.856079
0.372589 0.856079 0.856079
0.446991 0.840607 0.840607
0.589569 0.781616 0.781616
0.714081 0.714081 0.714081
0.759888 0.707672 0.707672
0.802002 0.701202 0.701202
0.840393 0.694641 0.694641
0.875092 0.688019 0.688019
0.906097 0.681366 0.681366
0.933350 0.674622 0.674622
0.956940 0.667847 0.667847
0.974396 0.667755 0.667755
0.984070 0.683533 0.683533
0.992615 0.699005 0.699005
1.000000 0.714081 0.714081
0.000000 0.736237 0.736237
0.007416 0.751251 0.751251
0.015930 0.765839 0.765839
0.025635 0.780029 0.780029
0.036438 0.793823 0.793823
0.048340 0.807190 0.807190
0.061462 0.820190 0.820190
0.075684 0.832733 0.832733
0.091034 0.844910 0.844910
0.107544 0.856659 0.856659
0.125153 0.867981 0.867981
0.148346 0.874847 0.874847
0.181122 0.874847 0.874847
0.216797 0.874847 0.874847
0.255371 0.874847 0.874847
0.296875 0.874847 0.874847
0.341339 0.874847 0.874847
0.388641 0.874847 0.874847
0.438812 0.874847 0.874847
0.499390 0.870880 0.870880
0.637177 0.816681 0.816681
0.753998 0.753998 0.753998
0.796570 0.748016 0.748016
0.835480 0.741974 0.741974
0.870697 0.735840 0.735840
0.902161 0.729645 0.729645
0.929932 0.723419 0.723419
0.954010 0.717133 0.717133
0.974365 0.710754 0.710754
0.984070 0.725464 0.725464
0.992615 0.739899 0.739899
1.000000 0.753998 0.753998
0.000000 0.773804 0.773804
0.007416 0.787811 0.787811
0.015930 0.801331 0.801331
0.025635 0.814484 0.814484
0.036438 0.827240 0.827240
0.048340 0.839600 0.839600
0.061462 0.851532 0.851532
0.075684 0.863037 0.863037
0.091034 0.874146 0.874146
0.107544 0.884857 0.884857
0.128082 0.892456 0.892456
0.158905 0.892456 0.892456
0.192657 0.892456 0.892456
0.229309 0.892456 0.892456
0.268829 0.892456 0.892456
0.311279 0.892456 0.892456
0.356689 0.892456 0.892456
0.404968 0.892456 0.892456
0.456146 0.892456 0.892456
0.510132 0.892456 0.892456
0.563110 0.892456 0.892456
0.681976 0.848999 0.848999
0.791107 0.791107 0.791107
0.830505 0.785583 0.785583
0.866180 0.779968 0.779968
0.898163 0.774261 0.774261
0.926422 0.768494 0.768494
0.950989 0.762695 0.762695
0.971863 0.756836 0.756836
0.984070 0.764587 0.764587
0.992615 0.778046 0.778046
1.000000 0.791107 0.791107
0.000000 0.808746 0.808746
0.007416 0.821655 0.821655
0.015930 0.834167 0.834167
0.025635 0.846283 0.846283
0.036438 0.858002 0.858002
0.048340 0.869293 0.869293
0.061462 0.880219 0.880219
0.075684 0.890686 0.890686
0.091034 0.900757 0.900757
0.109100 0.908966 0.908966
0.137970 0.908966 0.908966
0.169769 0.908966 0.908966
0.204498 0.908966 0.908966
0.242096 0.908966 0.908966
0.282623 0.908966 0.908966
0.326050 0.908966 0.908966
0.372437 0.908966 0.908966
0.421661 0.908966 0.908966
0.473755 0.908966 0.908966
0.528046 0.908966 0.908966
0.580078 0.908966 0.908966
0.629211 0.908966 0.908966
0.723999 0.878510 0.878510
0.825470 0.825470 0.825470
0.861633 0.820343 0.820343
0.894104 0.815155 0.815155
0.922882 0.809875 0.809875
0.947937 0.804565 0.804565
0.969269 0.799194 0.799194
0.984070 0.800964 0.800964
0.992615 0.813385 0.813385
1.000000 0.825470 0.825470
0.000000 0.841003 0.841003
0.007416 0.852875 0.852875
0.015930 0.864349 0.864349
0.025635 0.875458 0.875458
0.036438 0.886108 0.886108
0.048340 0.896362 0.896362
0.061462 0.906219 0.906219
0.075684 0.915649 0.915649
0.091400 0.924347 0.924347
0.118347 0.924347 0.924347
0.148224 0.924347 0.924347
0.181000 0.924347 0.924347
0.216675 0.924347 0.924347
0.255219 0.924347 0.924347
0.296692 0.924347 0.924347
0.341095 0.924347 0.924347
0.388428 0.924347 0.924347
0.438629 0.924347 0.924347
0.491730 0.924347 0.924347
0.545654 0.924347 0.924347
0.596741 0.924347 0.924347
0.644867 0.924347 0.924347
0.690155 0.924347 0.924347
0.763245 0.905212 0.905212
0.857025 0.857025 0.857025
0.889984 0.852325 0.852325
0.919250 0.847595 0.847595
0.944794 0.842743 0.842743
0.966644 0.837860 0.837860
0.984070 0.834503 0.834503
0.992615 0.845978 0.845978
1.000000 0.857025 0.857025
0.000000 0.870605 0.870605
0.007416 0.881439 0.881439
0.015930 0.891846 0.891846
0.025635 0.901886 0.901886
0.036438 0.911530 0.911530
0.048340 0.920746 0.920746
0.061462 0.929535 0.929535
0.075684 0.937958 0.937958
0.100037 0.938538 0.938538
0.127930 0.938538 0.938538
0.158783 0.938538 0.938538
0.192474 0.938538 0.938538
0.229126 0.938538 0.938538
0.268677 0.938538 0.938538
0.311127 0.938538 0.938538
0.356476 0.938538 0.938538
0.404785 0.938538 0.938538
0.455902 0.938538 0.938538
0.509888 0.938538 0.938538
0.562927 0.938538 0.938538
0.613037 0.938538 0.938538
0.660248 0.938538 0.938538
0.704559 0.938538 0.938538
0.745911 0.938538 0.938538
0.799683 0.929169 0.929169
0.885803 0.885803 0.885803
0.915558 0.881531 0.881531
0.941589 0.877228 0.877228
0.963928 0.872803 0.872803
0.982574 0.868347 0.868347
0.992615 0.875732 0.875732
1.000000 0.885803 0.885803
0.000000 0.897522 0.897522
0.007416 0.907318 0.907318
0.015930 0.916718 0.916718
0.025635 0.925720 0.925720
0.036438 0.934296 0.934296
0.048340 0.942474 0.942474
0.061462 0.950226 0.950226
0.083008 0.951660 0.951660
0.108978 0.951660 0.951660
0.137848 0.951660 0.951660
0.169647 0.951660 0.951660
0.204346 0.951660 0.951660
0.241943 0.951660 0.951660
0.282410 0.951660 0.951660
0.325836 0.951660 0.951660
0.372162 0.951660 0.951660
0.421417 0.951660 0.951660
0.473541 0.951660 0.951660
0.527832 0.951660 0.951660
0.579895 0.951660 0.951660
0.629059 0.951660 0.951660
0.675232 0.951660 0.951660
0.718567 0.951660 0.951660
0.759033 0.951660 0.951660
0.796539 0.951660 0.951660
0.833344 0.950317 0.950317
0.911774 0.911774 0.911774
0.938324 0.907959 0.907959
0.961182 0.904083 0.904083
0.980286 0.900085 0.900085
0.992615 0.902740 0.902740
1.000000 0.911774 0.911774
0.000000 0.921783 0.921783
0.007416 0.930573 0.930573
0.015930 0.938934 0.938934
0.025635 0.946869 0.946869
0.036438 0.954407 0.954407
0.048340 0.961517 0.961517
0.067291 0.963593 0.963593
0.091309 0.963593 0.963593
0.118256 0.963593 0.963593
0.148102 0.963593 0.963593
0.180817 0.963593 0.963593
0.216492 0.963593 0.963593
0.255066 0.963593 0.963593
0.296539 0.963593 0.963593
0.340912 0.963593 0.963593
0.388184 0.963593 0.963593
