EA 50 Cinematic Luts Pack/EA_Cinematic Lut (47).cube
TITLE "Another marvellous grade that turns plain videos and images into a blockbuster cinema production."
LUT_3D_SIZE 5
0.0000 0.0000 0.0000
0.1782 0.0000 0.0000
0.4225 0.0197 0.0000
0.6843 0.0668 0.0000
0.9242 0.1230 0.0000
0.0255 0.2372 0.0535
0.1926 0.2413 0.0105
0.4531 0.2315 0.0000
0.7209 0.2221 0.0000
0.9757 0.2453 0.0032
0.1053 0.5510 0.1578
0.2183 0.5551 0.1146
0.4522 0.5575 0.0436
0.7170 0.5568 0.0000
0.9755 0.5584 0.2140
0.1984 0.7645 0.2634
0.2833 0.7660 0.2485
0.4560 0.7735 0.0027
0.7236 0.7706 0.0919
0.9756 0.7742 0.0627
0.4310 0.9439 0.4853
0.4734 0.9454 0.4820
0.5766 0.9521 0.4448
0.7249 0.9684 0.0000
0.9686 0.9570 0.7563
0.0000 0.0156 0.0751
0.1409 0.0423 0.1940
0.4484 0.0000 0.1954
0.7152 0.0000 0.1314
0.9757 0.0192 0.0854
0.0000 0.2448 0.2438
0.2029 0.2385 0.2500
0.4945 0.1947 0.2145
0.7605 0.1482 0.1289
0.9758 0.2521 0.2006
0.0977 0.5527 0.2924
0.1994 0.5602 0.2424
0.4603 0.5551 0.2742
0.7574 0.5326 0.2177
0.9756 0.5582 0.3383
0.1931 0.7653 0.3516
0.2624 0.7692 0.3104
0.4519 0.7750 0.2301
0.7265 0.7698 0.2860
0.9757 0.7740 0.2847
0.4368 0.9433 0.5284
0.4762 0.9450 0.5258
0.5852 0.9507 0.5049
0.7149 0.9715 0.0969
0.9689 0.9577 0.7865
0.0232 0.1022 0.2032
0.0854 0.1460 0.2798
0.3480 0.1675 0.3937
0.7201 0.0000 0.4345
0.9757 0.0579 0.3905
0.0333 0.2760 0.3525
0.1727 0.2861 0.3562
0.3941 0.2988 0.4298
0.7887 0.0725 0.4338
0.9757 0.2738 0.4000
0.0357 0.5617 0.4721
0.1972 0.5634 0.4658
0.4728 0.5537 0.4825
0.7832 0.5167 0.4533
0.9755 0.5638 0.4834
0.1642 0.7684 0.5122
0.2383 0.7724 0.4945
0.4740 0.7731 0.4635
0.7346 0.7681 0.4948
0.9754 0.7733 0.5192
0.4400 0.9445 0.6515
0.4854 0.9452 0.6571
0.5995 0.9492 0.6595
0.7197 0.9695 0.4956
0.9701 0.9602 0.8720
0.0635 0.2102 0.3199
0.1023 0.2444 0.3638
0.2521 0.3126 0.4688
0.5722 0.3170 0.5838
0.9755 0.0910 0.6689
0.0827 0.3401 0.4243
0.1708 0.3554 0.4340
0.3064 0.3998 0.5265
0.6079 0.4028 0.6187
0.9756 0.2882 0.6831
0.0698 0.5775 0.6050
0.1986 0.5799 0.6067
0.4251 0.5846 0.6139
0.6853 0.5837 0.7036
0.9752 0.5710 0.7345
0.0845 0.7762 0.7607
0.2206 0.7769 0.7542
0.4498 0.7771 0.7679
0.7430 0.7670 0.7908
0.9754 0.7748 0.8154
0.3945 0.9525 0.8571
0.4493 0.9528 0.8643
0.5928 0.9534 0.8851
0.7624 0.9583 0.9078
0.9723 0.9647 0.9692
0.1081 0.3275 0.4263
0.1364 0.3531 0.4568
0.2363 0.4150 0.5439
0.4416 0.4853 0.6520
0.7828 0.4660 0.8787
0.1277 0.4238 0.5048
0.1559 0.4422 0.5306
0.2608 0.4855 0.6194
0.4791 0.5308 0.7447
0.8237 0.4949 0.9313
0.1350 0.6063 0.7217
0.1578 0.6144 0.7552
0.2657 0.6330 0.8607
0.5492 0.6375 0.9655
0.8728 0.6243 0.9734
0.1228 0.7867 0.9560
0.1263 0.7927 0.9667
0.1499 0.8099 0.9858
0.5691 0.8072 0.9865
0.9071 0.7965 0.9863
0.3429 0.9622 0.9869
0.4010 0.9627 0.9870
0.5512 0.9640 0.9867
0.7456 0.9670 0.9850
0.9756 0.9715 0.9797
