EA 50 Cinematic Luts Pack/EA_Cinematic Lut (46).cube
TITLE "This look turns saturated hues into bleak, cold tones that make the whole picture a little more obscure."
LUT_3D_SIZE 25
0.0000 0.0000 0.0000
0.0072 0.0015 0.0015
0.0169 0.0041 0.0041
0.0299 0.0096 0.0094
0.0439 0.0198 0.0202
0.0596 0.0320 0.0332
0.0780 0.0452 0.0468
0.1000 0.0595 0.0611
0.1254 0.0748 0.0759
0.1518 0.0909 0.0911
0.1788 0.1080 0.1066
0.2064 0.1261 0.1226
0.2346 0.1452 0.1388
0.2633 0.1650 0.1552
0.2923 0.1850 0.1718
0.3218 0.2050 0.1885
0.3518 0.2252 0.2055
0.3820 0.2454 0.2225
0.4123 0.2656 0.2395
0.4424 0.2857 0.2565
0.4722 0.3057 0.2735
0.5018 0.3255 0.2906
0.5319 0.3451 0.3080
0.5634 0.3646 0.3256
0.5962 0.3839 0.3435
0.0079 0.0107 0.0041
0.0197 0.0131 0.0044
0.0320 0.0164 0.0092
0.0435 0.0230 0.0179
0.0556 0.0322 0.0287
0.0704 0.0430 0.0405
0.0883 0.0551 0.0532
0.1102 0.0685 0.0667
0.1348 0.0831 0.0809
0.1601 0.0986 0.0955
0.1863 0.1152 0.1106
0.2132 0.1328 0.1262
0.2408 0.1515 0.1420
0.2690 0.1709 0.1582
0.2976 0.1904 0.1745
0.3266 0.2099 0.1910
0.3563 0.2298 0.2078
0.3862 0.2497 0.2247
0.4162 0.2696 0.2415
0.4460 0.2894 0.2583
0.4755 0.3092 0.2752
0.5049 0.3287 0.2922
0.5348 0.3481 0.3095
0.5664 0.3675 0.3270
0.5992 0.3865 0.3449
0.0182 0.0330 0.0133
0.0275 0.0355 0.0131
0.0402 0.0377 0.0145
0.0546 0.0412 0.0257
0.0698 0.0474 0.0369
0.0853 0.0564 0.0484
0.1029 0.0675 0.0605
0.1243 0.0800 0.0734
0.1471 0.0938 0.0870
0.1708 0.1088 0.1010
0.1959 0.1248 0.1157
0.2220 0.1419 0.1308
0.2489 0.1601 0.1463
0.2764 0.1787 0.1621
0.3045 0.1976 0.1781
0.3331 0.2167 0.1944
0.3624 0.2360 0.2109
0.3919 0.2555 0.2275
0.4214 0.2750 0.2441
0.4508 0.2945 0.2608
0.4799 0.3138 0.2775
0.5091 0.3331 0.2944
0.5389 0.3523 0.3115
0.5704 0.3713 0.3289
0.6031 0.3902 0.3467
0.0312 0.0601 0.0308
0.0381 0.0623 0.0301
0.0483 0.0645 0.0308
0.0641 0.0672 0.0324
0.0823 0.0709 0.0448
0.1027 0.0768 0.0570
0.1244 0.0852 0.0693
0.1444 0.0963 0.0818
0.1649 0.1092 0.0949
0.1874 0.1232 0.1085
0.2110 0.1386 0.1226
0.2356 0.1552 0.1372
0.2610 0.1727 0.1523
0.2873 0.1904 0.1676
0.3147 0.2084 0.1833
0.3427 0.2267 0.1992
0.3713 0.2454 0.2154
0.4002 0.2642 0.2317
0.4290 0.2831 0.2480
0.4580 0.3021 0.2644
0.4865 0.3209 0.2809
0.5154 0.3397 0.2976
0.5451 0.3585 0.3145
0.5765 0.3772 0.3318
0.6091 0.3957 0.3494
0.0450 0.0915 0.0497
0.0505 0.0935 0.0487
0.0592 0.0956 0.0487
0.0734 0.0982 0.0498
0.0939 0.1013 0.0514
0.1177 0.1051 0.0647
0.1419 0.1109 0.0777
0.1656 0.1188 0.0906
0.1882 0.1292 0.1037
0.2088 0.1424 0.1171
0.2303 0.1571 0.1309
0.2537 0.1724 0.1451
0.2781 0.1885 0.1597
0.3032 0.2051 0.1746
0.3291 0.2223 0.1899
0.3558 0.2400 0.2054
0.3830 0.2580 0.2212
0.4111 0.2760 0.2371
0.4392 0.2941 0.2530
0.4674 0.3123 0.2691
0.4954 0.3305 0.2853
0.5239 0.3488 0.3018
0.5536 0.3670 0.3186
0.5848 0.3852 0.3357
0.6173 0.4032 0.3531
0.0599 0.1271 0.0695
0.0646 0.1289 0.0680
0.0726 0.1308 0.0679
0.0852 0.1335 0.0680
0.1049 0.1363 0.0694
0.1308 0.1396 0.0710
0.1565 0.1437 0.0850
0.1822 0.1494 0.0988
0.2073 0.1573 0.1123
0.2316 0.1671 0.1260
0.2552 0.1788 0.1398
0.2763 0.1930 0.1537
0.2983 0.2081 0.1680
0.3225 0.2233 0.1826
0.3476 0.2394 0.1976
0.3733 0.2559 0.2128
0.3995 0.2728 0.2281
0.4259 0.2901 0.2435
0.4525 0.3077 0.2591
0.4791 0.3253 0.2749
0.5065 0.3428 0.2908
0.5346 0.3603 0.3070
0.5643 0.3778 0.3236
0.5953 0.3953 0.3404
0.6278 0.4128 0.3576
0.0766 0.1665 0.0899
0.0805 0.1683 0.0879
0.0884 0.1699 0.0879
0.1006 0.1723 0.0877
0.1185 0.1753 0.0880
0.1422 0.1783 0.0895
0.1697 0.1816 0.0912
0.1965 0.1857 0.1057
0.2236 0.1911 0.1202
0.2498 0.1982 0.1343
0.2758 0.2069 0.1484
0.3004 0.2175 0.1625
0.3241 0.2299 0.1768
0.3461 0.2444 0.1912
0.3687 0.2597 0.2059
0.3935 0.2749 0.2207
0.4185 0.2906 0.2357
0.4439 0.3068 0.2508
0.4695 0.3233 0.2661
0.4951 0.3399 0.2815
0.5213 0.3568 0.2971
0.5487 0.3738 0.3131
0.5775 0.3909 0.3293
0.6081 0.4078 0.3459
0.6405 0.4245 0.3629
0.0956 0.2073 0.1109
0.0988 0.2090 0.1084
0.1068 0.2104 0.1084
0.1187 0.2124 0.1081
0.1348 0.2150 0.1079
0.1558 0.2179 0.1088
0.1808 0.2211 0.1099
0.2097 0.2244 0.1117
0.2375 0.2282 0.1267
0.2656 0.2332 0.1418
0.2930 0.2398 0.1564
0.3201 0.2479 0.1709
0.3464 0.2575 0.1853
0.3716 0.2686 0.1998
0.3951 0.2816 0.2144
0.4173 0.2961 0.2290
0.4398 0.3112 0.2437
0.4641 0.3262 0.2585
0.4885 0.3414 0.2735
0.5134 0.3570 0.2886
0.5392 0.3728 0.3041
0.5667 0.3889 0.3198
0.5954 0.4052 0.3357
0.6254 0.4215 0.3521
0.6569 0.4379 0.3688
0.1173 0.2485 0.1323
0.1196 0.2502 0.1293
0.1271 0.2513 0.1293
0.1380 0.2530 0.1291
0.1523 0.2554 0.1285
0.1708 0.2582 0.1284
0.1944 0.2609 0.1298
0.2207 0.2642 0.1307
0.2508 0.2675 0.1325
0.2796 0.2713 0.1480
0.3086 0.2762 0.1635
0.3370 0.2823 0.1785
0.3648 0.2897 0.1933
0.3923 0.2982 0.2080
0.4180 0.3084 0.2225
0.4432 0.3196 0.2371
0.4658 0.3329 0.2517
0.4874 0.3471 0.2663
0.5096 0.3619 0.2811
0.5339 0.3764 0.2960
0.5600 0.3912 0.3113
0.5873 0.4063 0.3267
0.6158 0.4215 0.3425
0.6458 0.4370 0.3587
0.6774 0.4527 0.3752
0.1397 0.2900 0.1540
0.1410 0.2917 0.1506
0.1478 0.2927 0.1505
0.1579 0.2942 0.1503
0.1711 0.2964 0.1498
0.1881 0.2989 0.1494
0.2083 0.3020 0.1489
0.2342 0.3046 0.1509
0.2619 0.3078 0.1519
0.2929 0.3110 0.1536
0.3224 0.3147 0.1694
0.3520 0.3192 0.1852
0.3812 0.3248 0.2004
0.4094 0.3316 0.2153
0.4370 0.3394 0.2301
0.4638 0.3484 0.2447
0.4886 0.3587 0.2592
0.5136 0.3698 0.2737
0.5357 0.3831 0.2884
0.5590 0.3971 0.3033
0.5833 0.4115 0.3184
0.6101 0.4257 0.3337
0.6387 0.4400 0.3493
0.6689 0.4546 0.3653
0.7004 0.4692 0.3816
0.1623 0.3319 0.1760
0.1628 0.3336 0.1721
0.1689 0.3345 0.1719
0.1783 0.3358 0.1717
0.1907 0.3376 0.1713
0.2059 0.3399 0.1704
0.2252 0.3425 0.1702
0.2479 0.3454 0.1704
0.2748 0.3481 0.1719
0.3037 0.3513 0.1729
0.3355 0.3544 0.1745
0.3655 0.3578 0.1905
0.3954 0.3621 0.2065
0.4249 0.3672 0.2219
0.4533 0.3734 0.2369
0.4808 0.3805 0.2516
0.5080 0.3884 0.2662
0.5342 0.3976 0.2806
0.5609 0.4079 0.2952
0.5879 0.4191 0.3099
0.6123 0.4323 0.3250
0.6378 0.4461 0.3402
0.6648 0.4602 0.3558
0.6942 0.4739 0.3717
0.7257 0.4875 0.3879
0.1850 0.3736 0.1980
0.1852 0.3751 0.1942
0.1901 0.3760 0.1933
0.1989 0.3772 0.1931
0.2105 0.3787 0.1928
0.2249 0.3808 0.1920
0.2425 0.3832 0.1912
0.2633 0.3859 0.1907
0.2883 0.3885 0.1916
0.3160 0.3913 0.1928
0.3459 0.3943 0.1937
0.3782 0.3973 0.1953
0.4086 0.4005 0.2113
0.4383 0.4046 0.2272
0.4679 0.4093 0.2427
0.4963 0.4147 0.2575
0.5245 0.4211 0.2721
0.5533 0.4284 0.2867
0.5827 0.4365 0.3012
0.6112 0.4461 0.3159
0.6406 0.4563 0.3308
0.6695 0.4676 0.3459
0.6966 0.4804 0.3615
0.7247 0.4936 0.3774
0.7540 0.5072 0.3937
0.2075 0.4148 0.2198
0.2077 0.4162 0.2163
0.2112 0.4172 0.2145
0.2195 0.4182 0.2143
0.2304 0.4196 0.2140
0.2440 0.4214 0.2133
0.2602 0.4236 0.2122
0.2800 0.4261 0.2117
0.3020 0.4289 0.2108
0.3293 0.4312 0.2126
0.3576 0.4340 0.2131
0.3882 0.4369 0.2141
0.4207 0.4398 0.2153
0.4511 0.4429 0.2312
0.4805 0.4467 0.2469
0.5102 0.4508 0.2622
0.5398 0.4559 0.2769
0.5702 0.4619 0.2917
0.6010 0.4685 0.3063
0.6327 0.4757 0.3210
0.6643 0.4840 0.3358
0.6959 0.4933 0.3508
0.7285 0.5031 0.3662
0.7589 0.5145 0.3820
0.7879 0.5272 0.3984
0.2298 0.4560 0.2412
0.2299 0.4572 0.2380
0.2323 0.4584 0.2354
0.2399 0.4593 0.2351
0.2503 0.4605 0.2348
0.2632 0.4621 0.2342
0.2786 0.4640 0.2331
0.2967 0.4663 0.2319
0.3180 0.4688 0.2312
0.3417 0.4715 0.2304
0.3703 0.4736 0.2323
0.3991 0.4764 0.2323
0.4301 0.4791 0.2331
0.4626 0.4818 0.2341
0.4926 0.4845 0.2497
0.5222 0.4880 0.2652
0.5536 0.4918 0.2805
0.5855 0.4964 0.2955
0.6177 0.5018 0.3103
0.6509 0.5079 0.3250
0.6851 0.5145 0.3399
0.7203 0.5218 0.3549
0.7538 0.5304 0.3703
0.7877 0.5395 0.3859
0.8222 0.5493 0.4019
0.2512 0.4964 0.2619
0.2513 0.4975 0.2587
0.2526 0.4987 0.2554
0.2596 0.4995 0.2550
0.2695 0.5006 0.2546
0.2818 0.5020 0.2540
0.2965 0.5038 0.2530
0.3134 0.5059 0.2514
0.3336 0.5082 0.2504
0.3560 0.5107 0.2492
0.3818 0.5131 0.2492
0.4108 0.5154 0.2505
0.4399 0.5181 0.2502
0.4712 0.5206 0.2509
0.5034 0.5230 0.2515
0.5342 0.5256 0.2669
0.5655 0.5291 0.2824
0.5990 0.5327 0.2980
0.6331 0.5369 0.3130
0.6678 0.5420 0.3280
0.7035 0.5477 0.3430
0.7399 0.5539 0.3581
0.7767 0.5606 0.3733
0.8129 0.5682 0.3889
0.8479 0.5769 0.4051
0.2717 0.5369 0.2819
0.2718 0.5379 0.2789
0.2720 0.5392 0.2746
0.2785 0.5400 0.2741
0.2879 0.5410 0.2737
0.2997 0.5423 0.2731
0.3139 0.5439 0.2721
0.3302 0.5459 0.2706
0.3488 0.5482 0.2688
0.3707 0.5505 0.2678
0.3942 0.5532 0.2661
0.4218 0.5554 0.2670
0.4509 0.5577 0.2676
0.4801 0.5603 0.2670
0.5117 0.5625 0.2676
0.5451 0.5649 0.2680
0.5781 0.5677 0.2835
0.6112 0.5711 0.2989
0.6468 0.5746 0.3147
0.6833 0.5785 0.3300
0.7203 0.5830 0.3450
0.7577 0.5882 0.3603
0.7957 0.5938 0.3756
0.8339 0.6000 0.3913
0.8723 0.6066 0.4074
0.2915 0.5786 0.3015
0.2916 0.5795 0.2985
0.2916 0.5808 0.2943
0.2968 0.5817 0.2927
0.3058 0.5826 0.2923
0.3172 0.5838 0.2916
0.3308 0.5852 0.2907
0.3466 0.5870 0.2892
0.3644 0.5892 0.2873
0.3851 0.5914 0.2857
0.4080 0.5938 0.2842
0.4321 0.5965 0.2820
0.4616 0.5983 0.2839
0.4903 0.6005 0.2837
0.5202 0.6030 0.2829
0.5535 0.6052 0.2835
0.5890 0.6075 0.2837
0.6237 0.6100 0.2992
0.6588 0.6131 0.3146
0.6964 0.6162 0.3306
0.7350 0.6198 0.3461
0.7740 0.6240 0.3615
0.8130 0.6287 0.3771
0.8521 0.6339 0.3930
0.8874 0.6405 0.4172
0.3105 0.6205 0.3208
0.3105 0.6214 0.3178
0.3105 0.6226 0.3137
0.3143 0.6237 0.3110
0.3229 0.6245 0.3104
0.3339 0.6255 0.3098
0.3471 0.6268 0.3088
0.3625 0.6285 0.3074
0.3798 0.6304 0.3054
0.3990 0.6326 0.3029
0.4214 0.6348 0.3016
0.4449 0.6372 0.2996
0.4708 0.6394 0.2983
0.5003 0.6409 0.2999
0.5297 0.6430 0.2989
0.5614 0.6454 0.2980
0.5968 0.6475 0.2986
0.6342 0.6497 0.2987
0.6712 0.6521 0.3142
0.7085 0.6550 0.3299
0.7477 0.6580 0.3461
0.7881 0.6613 0.3621
0.8285 0.6651 0.3779
0.8684 0.6695 0.3941
0.8939 0.6773 0.4475
0.3287 0.6625 0.3398
0.3286 0.6633 0.3368
0.3286 0.6644 0.3328
0.3311 0.6656 0.3288
0.3392 0.6664 0.3281
0.3499 0.6673 0.3274
0.3627 0.6685 0.3264
0.3776 0.6699 0.3250
0.3945 0.6716 0.3231
0.4130 0.6736 0.3206
0.4339 0.6756 0.3184
0.4571 0.6778 0.3165
0.4811 0.6801 0.3139
0.5087 0.6818 0.3137
0.5392 0.6833 0.3148
0.5706 0.6857 0.3137
0.6045 0.6880 0.3128
0.6420 0.6900 0.3133
0.6817 0.6921 0.3133
0.7207 0.6943 0.3291
0.7597 0.6971 0.3452
0.8002 0.7000 0.3618
0.8417 0.7031 0.3783
0.8829 0.7066 0.3949
0.9004 0.7146 0.4832
0.3460 0.7044 0.3586
0.3460 0.7051 0.3557
0.3459 0.7062 0.3515
0.3471 0.7075 0.3464
0.3548 0.7083 0.3455
0.3651 0.7091 0.3448
0.3776 0.7102 0.3438
0.3922 0.7115 0.3424
0.4086 0.7130 0.3406
0.4267 0.7149 0.3382
0.4463 0.7169 0.3351
0.4688 0.7188 0.3333
0.4924 0.7208 0.3309
0.5172 0.7231 0.3277
0.5477 0.7246 0.3291
0.5801 0.7264 0.3297
0.6134 0.7287 0.3284
0.6495 0.7308 0.3277
0.6894 0.7327 0.3283
0.7312 0.7347 0.3282
0.7717 0.7369 0.3444
0.8120 0.7395 0.3609
0.8531 0.7424 0.3780
0.8933 0.7454 0.4046
0.9068 0.7523 0.5251
0.3629 0.7466 0.3776
0.3629 0.7474 0.3746
0.3628 0.7484 0.3706
0.3627 0.7499 0.3641
0.3699 0.7506 0.3630
0.3801 0.7514 0.3623
0.3923 0.7524 0.3613
0.4064 0.7535 0.3600
0.4224 0.7550 0.3582
0.4400 0.7566 0.3559
0.4592 0.7586 0.3529
0.4802 0.7604 0.3500
0.5036 0.7622 0.3480
0.5283 0.7643 0.3452
0.5556 0.7665 0.3426
0.5888 0.7679 0.3447
0.6227 0.7698 0.3448
0.6582 0.7721 0.3434
0.6968 0.7741 0.3431
0.7387 0.7759 0.3438
0.7819 0.7779 0.3439
0.8236 0.7799 0.3605
0.8649 0.7826 0.3778
0.8989 0.7858 0.4414
0.9134 0.7911 0.5788
0.3797 0.7895 0.3973
0.3796 0.7902 0.3942
0.3796 0.7912 0.3901
0.3794 0.7927 0.3836
0.3851 0.7936 0.3811
0.3948 0.7944 0.3802
0.4067 0.7953 0.3793
0.4204 0.7965 0.3780
0.4361 0.7979 0.3763
0.4533 0.7995 0.3740
0.4720 0.8013 0.3713
0.4919 0.8033 0.3678
0.5147 0.8051 0.3654
0.5394 0.8072 0.3630
0.5661 0.8097 0.3598
0.5967 0.8118 0.3590
0.6319 0.8133 0.3612
0.6676 0.8155 0.3607
0.7053 0.8180 0.3595
0.7462 0.8203 0.3598
0.7896 0.8224 0.3613
0.8340 0.8246 0.3632
0.8761 0.8270 0.3829
0.9047 0.8287 0.5094
0.9200 0.8336 0.6459
0.3966 0.8371 0.4183
0.3965 0.8379 0.4151
0.3965 0.8389 0.4108
0.3963 0.8405 0.4042
0.4005 0.8418 0.4001
0.4097 0.8427 0.3991
0.4212 0.8437 0.3981
0.4346 0.8448 0.3969
0.4499 0.8463 0.3953
0.4667 0.8479 0.3932
0.4848 0.8497 0.3905
0.5044 0.8518 0.3872
0.5261 0.8540 0.3838
0.5510 0.8563 0.3818
0.5778 0.8589 0.3792
0.6063 0.8618 0.3761
0.6405 0.8637 0.3780
0.6783 0.8654 0.3815
0.7159 0.8678 0.3821
0.7554 0.8704 0.3833
0.7976 0.8727 0.3866
0.8417 0.8748 0.3912
0.8860 0.8772 0.3959
0.9124 0.8745 0.6083
0.9296 0.8785 0.7244
0.4482 0.8817 0.4826
0.4495 0.8821 0.4816
0.4514 0.8827 0.4801
0.4542 0.8836 0.4780
0.4591 0.8846 0.4764
0.4672 0.8853 0.4770
0.4777 0.8859 0.4785
0.4901 0.8867 0.4803
0.5041 0.8876 0.4823
0.5199 0.8888 0.4846
0.5373 0.8901 0.4872
0.5567 0.8919 0.4901
0.5777 0.8939 0.4934
0.6021 0.8956 0.5001
0.6286 0.8973 0.5089
0.6566 0.8993 0.5187
0.6863 0.9016 0.5302
0.7224 0.9022 0.5536
0.7582 0.9036 0.5773
0.7926 0.9060 0.6000
0.8268 0.9088 0.6249
0.8614 0.9117 0.6539
0.8946 0.9152 0.6840
0.9253 0.9197 0.7181
0.9440 0.9228 0.8127
0.5761 0.9040 0.6465
0.5774 0.9043 0.6465
0.5790 0.9048 0.6463
0.5816 0.9055 0.6462
0.5853 0.9064 0.6464
0.5916 0.9072 0.6484
0.6000 0.9079 0.6514
0.6099 0.9088 0.6551
0.6216 0.9098 0.6593
0.6347 0.9111 0.6643
0.6496 0.9127 0.6699
0.6659 0.9144 0.6761
0.6838 0.9165 0.6832
0.7032 0.9187 0.6915
0.7253 0.9208 0.7024
0.7483 0.9233 0.7144
0.7721 0.9261 0.7276
0.7976 0.9289 0.7436
0.8253 0.9314 0.7634
0.8519 0.9348 0.7836
0.8773 0.9390 0.8045
0.9017 0.9440 0.8271
0.9253 0.9495 0.8518
0.9470 0.9560 0.8778
0.9659 0.9638 0.9053
0.0014 0.0005 0.0015
0.0086 0.0020 0.0047
0.0183 0.0048 0.0077
0.0317 0.0104 0.0146
0.0460 0.0205 0.0253
0.0621 0.0322 0.0370
0.0810 0.0452 0.0498
0.1029 0.0594 0.0637
0.1281 0.0747 0.0782
0.1543 0.0909 0.0932
0.1810 0.1080 0.1086
0.2084 0.1260 0.1243
0.2364 0.1450 0.1404
0.2650 0.1649 0.1567
0.2939 0.1849 0.1732
0.3233 0.2049 0.1899
0.3532 0.2251 0.2067
0.3833 0.2453 0.2237
0.4135 0.2655 0.2406
0.4435 0.2856 0.2575
0.4733 0.3056 0.2745
0.5028 0.3254 0.2916
0.5328 0.3450 0.3089
0.5644 0.3645 0.3265
0.5972 0.3838 0.3444
0.0073 0.0118 0.0132
0.0199 0.0139 0.0154
0.0328 0.0172 0.0201
0.0449 0.0236 0.0269
0.0577 0.0324 0.0357
0.0726 0.0430 0.0462
0.0908 0.0551 0.0581
0.1128 0.0684 0.0710
0.1371 0.0830 0.0848
0.1622 0.0985 0.0990
0.1882 0.1151 0.1138
0.2150 0.1327 0.1291
0.2424 0.1514 0.1448
0.2704 0.1708 0.1607
0.2990 0.1902 0.1769
0.3279 0.2098 0.1932
0.3575 0.2297 0.2099
0.3874 0.2496 0.2266
0.4172 0.2695 0.2433
0.4470 0.2893 0.2601
0.4764 0.3090 0.2769
0.5058 0.3286 0.2938
0.5357 0.3480 0.3110
0.5672 0.3673 0.3286
0.6005 0.3863 0.3457
0.0182 0.0338 0.0255
0.0281 0.0360 0.0265
0.0403 0.0384 0.0281
0.0542 0.0422 0.0353
0.0687 0.0487 0.0442
0.0848 0.0575 0.0544
0.1035 0.0682 0.0656
0.1253 0.0804 0.0779
0.1485 0.0940 0.0909
0.1726 0.1088 0.1047
0.1977 0.1247 0.1190
0.2237 0.1418 0.1338
0.2505 0.1600 0.1491
0.2779 0.1786 0.1646
0.3059 0.1975 0.1805
0.3344 0.2166 0.1966
0.3636 0.2359 0.2130
0.3930 0.2554 0.2295
0.4224 0.2749 0.2460
0.4518 0.2944 0.2625
0.4808 0.3137 0.2792
0.5100 0.3330 0.2960
0.5398 0.3522 0.3131
0.5712 0.3712 0.3305
0.6044 0.3899 0.3476
0.0315 0.0607 0.0409
0.0384 0.0628 0.0409
0.0482 0.0651 0.0412
0.0639 0.0678 0.0435
0.0819 0.0717 0.0530
0.1017 0.0779 0.0636
0.1229 0.0865 0.0748
0.1430 0.0976 0.0865
0.1645 0.1101 0.0990
0.1871 0.1240 0.1122
0.2110 0.1392 0.1259
0.2361 0.1556 0.1403
0.2621 0.1727 0.1551
0.2887 0.1903 0.1702
0.3159 0.2083 0.1857
0.3439 0.2266 0.2015
0.3724 0.2453 0.2175
0.4012 0.2641 0.2336
0.4300 0.2830 0.2498
0.4589 0.3019 0.2662
0.4874 0.3208 0.2826
0.5162 0.3396 0.2992
0.5460 0.3584 0.3161
0.5773 0.3771 0.3334
0.6104 0.3954 0.3503
0.0453 0.0920 0.0583
0.0512 0.0938 0.0582
0.0586 0.0964 0.0568
0.0733 0.0988 0.0587
0.0939 0.1018 0.0608
0.1173 0.1058 0.0719
0.1414 0.1117 0.0838
0.1644 0.1199 0.0958
0.1870 0.1303 0.1082
0.2075 0.1435 0.1210
0.2299 0.1578 0.1344
0.2535 0.1731 0.1483
0.2778 0.1891 0.1626
0.3030 0.2057 0.1772
0.3291 0.2228 0.1923
0.3564 0.2402 0.2077
0.3841 0.2579 0.2233
0.4121 0.2759 0.2391
0.4402 0.2940 0.2549
0.4683 0.3122 0.2709
0.4962 0.3304 0.2871
0.5247 0.3487 0.3035
0.5544 0.3669 0.3202
0.5856 0.3851 0.3373
0.6186 0.4029 0.3539
0.0602 0.1275 0.0770
0.0656 0.1290 0.0767
0.0720 0.1315 0.0749
0.0843 0.1342 0.0747
0.1050 0.1367 0.0773
0.1307 0.1400 0.0791
0.1562 0.1442 0.0914
0.1818 0.1501 0.1043
0.2069 0.1579 0.1172
0.2306 0.1680 0.1302
0.2539 0.1798 0.1435
0.2751 0.1940 0.1571
0.2980 0.2087 0.1710
0.3223 0.2239 0.1854
0.3474 0.2399 0.2001
0.3731 0.2564 0.2151
0.3993 0.2733 0.2303
0.4257 0.2906 0.2455
0.4527 0.3079 0.2610
0.4799 0.3252 0.2767
0.5073 0.3427 0.2926
0.5354 0.3601 0.3087
0.5651 0.3777 0.3252
0.5961 0.3952 0.3420
0.6290 0.4125 0.3585
0.0769 0.1668 0.0966
0.0821 0.1682 0.0962
0.0878 0.1705 0.0940
0.0996 0.1730 0.0936
0.1181 0.1758 0.0944
0.1424 0.1786 0.0966
0.1697 0.1820 0.0983
0.1962 0.1862 0.1116
0.2232 0.1916 0.1253
0.2494 0.1987 0.1389
0.2751 0.2076 0.1524
0.2995 0.2183 0.1661
0.3231 0.2308 0.1800
0.3451 0.2453 0.1942
0.3685 0.2602 0.2086
0.3932 0.2754 0.2232
0.4183 0.2911 0.2380
0.4437 0.3072 0.2529
0.4693 0.3237 0.2680
0.4949 0.3403 0.2833
0.5212 0.3571 0.2989
0.5485 0.3741 0.3148
0.5781 0.3909 0.3310
0.6090 0.4076 0.3476
0.6418 0.4243 0.3638
0.0959 0.2075 0.1169
0.1011 0.2087 0.1165
0.1062 0.2109 0.1139
0.1178 0.2130 0.1134
0.1337 0.2157 0.1131
0.1555 0.2183 0.1146
0.1810 0.2213 0.1164
0.2097 0.2246 0.1181
0.2371 0.2287 0.1320
0.2653 0.2337 0.1465
0.2927 0.2403 0.1606
0.3197 0.2484 0.1747
0.3456 0.2582 0.1888
0.3708 0.2693 0.2029
0.3942 0.2823 0.2172
0.4164 0.2968 0.2316
0.4394 0.3117 0.2460
0.4639 0.3266 0.2607
0.4883 0.3418 0.2755
0.5133 0.3574 0.2906
0.5391 0.3732 0.3059
0.5665 0.3893 0.3216
0.5952 0.4055 0.3375
0.6252 0.4218 0.3538
0.6578 0.4378 0.3697
0.1176 0.2487 0.1377
0.1225 0.2497 0.1374
0.1265 0.2517 0.1343
0.1371 0.2536 0.1338
0.1515 0.2559 0.1333
0.1699 0.2587 0.1332
0.1942 0.2613 0.1352
0.2209 0.2644 0.1367
0.2508 0.2678 0.1383
0.2796 0.2716 0.1531
0.3084 0.2765 0.1679
0.3367 0.2827 0.1825
0.3645 0.2901 0.1969
0.3919 0.2986 0.2112
0.4173 0.3090 0.2255
0.4425 0.3202 0.2398
0.4650 0.3335 0.2542
0.4867 0.3478 0.2686
0.5091 0.3624 0.2833
0.5337 0.3768 0.2981
0.5598 0.3915 0.3132
0.5871 0.4066 0.3286
0.6156 0.4218 0.3444
0.6456 0.4373 0.3605
0.6782 0.4526 0.3761
0.1400 0.2902 0.1590
0.1445 0.2911 0.1586
0.1474 0.2931 0.1551
0.1570 0.2947 0.1546
0.1704 0.2968 0.1542
0.1871 0.2994 0.1536
0.2079 0.3023 0.1537
0.2343 0.3048 0.1562
0.2621 0.3080 0.1574
0.2929 0.3112 0.1589
0.3224 0.3149 0.1741
0.3518 0.3195 0.1893
0.3809 0.3251 0.2041
0.4091 0.3319 0.2188
0.4367 0.3398 0.2332
0.4632 0.3489 0.2476
0.4880 0.3592 0.2619
0.5130 0.3703 0.2762
0.5350 0.3836 0.2907
0.5583 0.3976 0.3055
0.5827 0.4120 0.3205
0.6099 0.4260 0.3357
0.6385 0.4403 0.3513
0.6687 0.4549 0.3672
0.7013 0.4692 0.3825
0.1627 0.3320 0.1806
0.1667 0.3328 0.1802
0.1686 0.3347 0.1762
0.1774 0.3362 0.1756
0.1899 0.3380 0.1753
0.2053 0.3403 0.1746
0.2244 0.3430 0.1742
0.2476 0.3457 0.1749
0.2749 0.3483 0.1769
0.3038 0.3514 0.1780
0.3354 0.3545 0.1795
0.3655 0.3580 0.1949
0.3952 0.3624 0.2103
0.4247 0.3675 0.2254
0.4530 0.3737 0.2401
0.4805 0.3808 0.2546
0.5078 0.3887 0.2689
0.5337 0.3980 0.2832
0.5604 0.4083 0.2977
0.5872 0.4196 0.3123
0.6115 0.4328 0.3272
0.6371 0.4466 0.3424
0.6641 0.4607 0.3579
0.6940 0.4741 0.3737
0.7265 0.4874 0.3888
