EA 50 Cinematic Luts Pack/EA_Cinematic Lut (27).cube
TITLE "Generated by Resolve"
LUT_3D_SIZE 9
0 0.0127108 0
0 0.00296025 0
0.104768 0 0
0.266926 0 0
0.411902 0 0
0.552956 0 0
0.6795 0 0
0.789395 0 0
0.892378 0 0
0 0.0936294 0
0 0.0839551 0
0.116167 0.0763867 0
0.276692 0.0626993 0
0.420874 0.0513008 0
0.562417 0.0422522 0
0.690486 0.0377661 0
0.802945 0.0392615 0
0.909712 0.0441138 0
0 0.204273 0
0 0.180011 0
0.140139 0.172656 0
0.28365 0.166262 0
0.430457 0.158251 0
0.575509 0.153201 0
0.708507 0.15407 0
0.825498 0.160464 0
0.936553 0.169986 0
0 0.32372 0
0 0.303532 0
0.139071 0.294499 0
0.285222 0.291905 0
0.436301 0.289296 0
0.584787 0.288502 0
0.720363 0.292531 0
0.839689 0.301717 0
0.952377 0.313252 0
0 0.458335 0
0 0.442618 0
0.133745 0.436576 0
0.283223 0.437278 0
0.436164 0.437415 0
0.586374 0.439277 0
0.722698 0.4448 0
0.842664 0.455253 0
0.955306 0.467262 0
0 0.607614 0
0 0.593957 0
0.131121 0.589364 0
0.282445 0.591287 0
0.436347 0.592554 0
0.586206 0.594766 0
0.722011 0.60058 0
0.840391 0.610101 0
0.951385 0.621073 0
0 0.760571 0
0 0.747097 0
0.137575 0.742641 0
0.288685 0.743557 0
0.441932 0.743832 0
0.589944 0.744457 0
0.723354 0.748425 0
0.838834 0.755734 0
0.9467 0.764172 0
0 0.909041 0
0 0.894377 0
0.15021 0.887892 0
0.299977 0.886687 0
0.450782 0.883955 0
0.596307 0.881926 0
0.726345 0.88278 0
0.839048 0.887816 0
0.944045 0.89395 0
0 1 0
0 1 0
0.156435 1 0
0.303899 1 0
0.452598 1 0
0.596292 1 0
0.724743 1 0
0.836088 1 0
0.939986 1 0
0 0.0224918 0.0205692
0 0.00280766 0
0.0978103 0 0
0.274189 0 0
0.418952 0 0
0.559731 0 0
0.686549 0 0
0.796445 0 0
0.899931 0 0
0 0.100572 0.0597238
0 0.0847944 0.0505379
0.0938277 0.0826734 0.0364996
0.262989 0.0644541 0.00634775
0.426886 0.047364 0
0.567956 0.0381628 0
0.696193 0.0341802 0
0.809003 0.036347 0
0.916167 0.0419318 0
0 0.199161 0.087068
0.0319982 0.167941 0.104189
0.144656 0.167376 0.0978714
0.271748 0.167315 0.0471199
0.438209 0.155764 0.000869764
0.583307 0.150713 0
0.716442 0.15172 0
0.833906 0.158633 0
0.945174 0.168399 0
0 0.323003 0.0691081
0 0.295476 0.0745403
0.163241 0.285725 0.0827649
0.293095 0.289982 0.0575418
0.445945 0.289158 0.0193332
0.593774 0.287572 0.00581369
0.729305 0.291478 0
0.848554 0.300587 0
0.961501 0.312413 0
0 0.458824 0.0608682
0 0.44303 0.0509194
0.143832 0.436988 0.0439918
0.293645 0.437644 0.0384527
0.446448 0.437903 0.0285344
0.595895 0.439094 0.0180056
0.732052 0.44445 0.0112917
0.851926 0.454749 0.00946059
0.964416 0.46659 0.00917067
0 0.608865 0.0587015
0 0.59472 0.0493782
0.14078 0.589731 0.0442512
0.29279 0.591516 0.0418708
0.446296 0.592447 0.0347295
0.595819 0.594583 0.0262303
0.730983 0.599863 0.0197452
0.849287 0.609384 0.0171206
0.959792 0.619852 0.0153201
0 0.762036 0.0682994
0 0.747997 0.0582895
0.146685 0.742779 0.0533913
0.298451 0.743328 0.0510872
0.451575 0.743252 0.04477
0.59913 0.743587 0.0360266
0.731975 0.747265 0.0287785
0.846952 0.754223 0.0239261
0.954391 0.76231 0.019791
0 0.910079 0.0870222
0 0.894636 0.0749676
0.158602 0.887541 0.068513
0.308522 0.885405 0.0644236
0.459495 0.882399 0.0565957
0.60441 0.879774 0.0464027
0.734249 0.880674 0.037583
0.846372 0.885344 0.0311437
0.951217 0.891508 0.0254063
0 1 0.101228
0 1 0.0862745
0.163684 1 0.0767987
0.31162 1 0.0706798
0.460533 1 0.0610819
0.604166 1 0.05037
0.732403 1 0.0410468
0.843473 1 0.0347753
0.947143 1 0.0289616
0 0.0246433 0.183169
0 0 0.133349
0.121935 0 0.100557
0.281697 0 0.094789
0.426139 0 0.0723583
0.56672 0 0.0510872
0.693507 0 0.0340887
0.803433 0 0.0218509
0.907057 0 0.0123598
0 0.120424 0.136629
0 0.0912032 0.118746
0.106081 0.0829175 0.0949111
0.256519 0.0664225 0.104356
0.434867 0.0434424 0.0929885
0.575814 0.0340124 0.072221
0.704448 0.0302892 0.0572061
0.817792 0.0328527 0.0484779
0.925887 0.0392462 0.0435645
0 0.201221 0.174151
0.0108339 0.172885 0.152407
0.156863 0.169787 0.155901
0.251606 0.175799 0.149996
0.4271 0.160128 0.122393
0.592065 0.149523 0.099855
0.724544 0.150195 0.0886091
0.842283 0.157702 0.084184
0.953429 0.167697 0.0822461
0 0.318349 0.163745
0.00643931 0.291844 0.171084
0.201999 0.276844 0.20444
0.301183 0.288273 0.210117
0.437354 0.293492 0.164645
0.604562 0.288121 0.124559
0.73904 0.290929 0.115648
0.85832 0.300069 0.113069
0.971374 0.312047 0.113344
0 0.456382 0.157946
0 0.444144 0.157397
0.172 0.431617 0.177829
0.320226 0.431281 0.195453
0.45658 0.438254 0.172946
0.607233 0.440635 0.137957
0.742428 0.444892 0.130282
0.861524 0.454368 0.127794
0.974166 0.466346 0.12784
0 0.608698 0.159533
0 0.59649 0.158358
0.150393 0.591897 0.159609
0.304448 0.593484 0.160311
0.458305 0.5944 0.155047
0.60708 0.596063 0.146502
0.7411 0.60029 0.139025
0.858839 0.609201 0.135866
0.968948 0.619226 0.133761
0 0.762844 0.171527
0 0.749935 0.168856
0.1552 0.74406 0.167819
0.308583 0.744167 0.167758
0.461891 0.74345 0.16289
0.609232 0.743648 0.155016
0.741024 0.746517 0.14725
0.855695 0.753292 0.14226
0.962509 0.7608 0.137621
0 0.91136 0.191928
0 0.896056 0.186206
0.166461 0.888273 0.182467
0.317403 0.885328 0.179828
0.468757 0.881651 0.173312
0.613489 0.878614 0.164034
0.742885 0.879271 0.155596
0.854505 0.883696 0.149111
0.95906 0.889723 0.143313
0 1 0.206806
0 1 0.197375
0.170535 1 0.189929
0.319219 1 0.184833
0.46894 1 0.176761
0.612558 1 0.166995
0.74081 1 0.158618
0.851575 1 0.152712
0.955062 1 0.147112
0 0.0247807 0.354498
0 0 0.330846
0.140673 0 0.274067
0.287617 0 0.2327
0.431708 0 0.205921
0.572351 0 0.184894
0.699153 0 0.16817
0.809171 0 0.156283
0.912978 0 0.147234
0 0.12079 0.304326
0 0.0832227 0.292165
0.125353 0.063447 0.258366
0.277928 0.0553597 0.233204
0.440528 0.0375677 0.22649
0.581521 0.028336 0.206012
0.710689 0.0252995 0.191806
0.82446 0.0284428 0.18381
0.933181 0.035584 0.179812
0 0.210086 0.260304
0 0.183505 0.241001
0.122133 0.171756 0.240604
0.26334 0.17554 0.22884
0.421027 0.162478 0.241718
0.600534 0.14609 0.236957
0.732784 0.146426 0.225956
0.850828 0.154116 0.222339
0.962432 0.164416 0.221347
0 0.303456 0.282078
0 0.286336 0.27155
0.178378 0.279347 0.271153
0.314351 0.291661 0.290059
0.417731 0.30251 0.288991
0.593805 0.292836 0.267384
0.747341 0.289281 0.251896
0.865782 0.297902 0.248585
0.978576 0.309926 0.248692
0 0.443442 0.267796
0 0.434775 0.268269
0.178027 0.426535 0.293858
0.359014 0.422431 0.338109
0.464591 0.436469 0.346395
0.598337 0.444678 0.303929
0.752453 0.444694 0.269215
0.869932 0.452476 0.265293
0.982269 0.464149 0.265248
0 0.600656 0.271427
0 0.590051 0.272374
0.147265 0.591669 0.285679
0.331502 0.587015 0.314
0.484047 0.587182 0.332143
0.615961 0.595148 0.310613
0.751125 0.600519 0.278614
0.866835 0.607279 0.273442
0.97641 0.616709 0.270909
0 0.758007 0.286839
0 0.746578 0.287449
0.154894 0.743725 0.295613
0.316411 0.744549 0.302296
0.471626 0.743496 0.300374
0.619135 0.743496 0.294163
0.749905 0.745617 0.286091
0.863066 0.750973 0.279744
0.969039 0.75761 0.274311
0 0.907637 0.309331
0 0.893843 0.307362
0.167361 0.887327 0.311086
0.323415 0.884092 0.312688
0.476097 0.879713 0.308156
0.621317 0.87631 0.300603
0.750103 0.876432 0.292653
0.861189 0.880583 0.286168
0.965362 0.886351 0.280171
0 1 0.325795
0 1 0.319661
0.172168 1 0.319158
0.324331 1 0.316991
0.475227 1 0.310521
0.619379 1 0.302235
0.747753 1 0.295064
0.858091 1 0.28954
0.961501 1 0.284337
0 0.0254826 0.520027
0 0 0.501778
0.123125 0 0.455604
0.288594 0 0.402319
0.436271 0 0.362905
0.576669 0 0.33666
0.703395 0 0.319615
0.813764 0 0.308293
0.917617 0 0.299565
0 0.117189 0.465766
0 0.0733806 0.472419
0.101091 0.0439612 0.465919
0.291905 0.0348363 0.420859
0.444327 0.0287785 0.38117
0.585931 0.0210727 0.357336
0.715801 0.0188754 0.344015
0.830289 0.0228733 0.33695
0.939437 0.0305943 0.333669
0 0.207034 0.401434
0 0.173602 0.41735
0.068452 0.154772 0.423911
0.278462 0.151904 0.407034
0.442237 0.151232 0.389288
0.606241 0.140261 0.389395
0.739071 0.141344 0.379232
0.85713 0.149172 0.375891
0.969238 0.160128 0.375692
0 0.302312 0.380163
0 0.28658 0.367971
0.0715953 0.283009 0.371695
0.27657 0.290562 0.3906
0.429709 0.302495 0.386969
0.587671 0.295125 0.405554
0.755413 0.285451 0.407492
0.873274 0.293385 0.404089
0.986206 0.305425 0.404837
0 0.426368 0.405386
0 0.410513 0.396124
0.100862 0.412726 0.404929
0.332433 0.421958 0.420768
0.477287 0.439368 0.444755
0.578592 0.45359 0.447044
0.740871 0.448569 0.430106
0.877211 0.449821 0.419425
0.988006 0.460258 0.417945
0 0.584802 0.400793
0 0.569329 0.393362
0.103014 0.576288 0.40943
0.335134 0.579538 0.44654
0.521843 0.577356 0.492699
0.622705 0.592111 0.501701
0.740856 0.603189 0.462104
0.874998 0.605219 0.429419
0.982391 0.612406 0.424872
0 0.745632 0.41474
0 0.732601 0.412299
0.125978 0.73286 0.424109
0.310567 0.741588 0.444541
0.497139 0.735485 0.471397
0.642924 0.734325 0.488212
0.756817 0.742733 0.467124
0.87071 0.748821 0.435843
0.974594 0.753231 0.428305
0 0.897871 0.438575
0 0.88423 0.43679
0.147677 0.879728 0.444343
0.320073 0.88072 0.456352
0.481163 0.877317 0.458808
0.628626 0.87393 0.454551
0.757595 0.873854 0.44828
0.867796 0.877409 0.441627
0.970275 0.881559 0.434073
0 1 0.456397
0 1 0.45185
0.157763 1 0.455528
0.322637 1 0.461936
0.478889 1 0.459937
0.624628 0.998062 0.45388
0.753689 0.996979 0.448646
0.863722 1 0.443915
0.966613 1 0.438712
0 0.0267643 0.689876
0 0 0.6748
0.0945296 0 0.639323
0.279408 0 0.585412
0.438544 0 0.534676
0.581506 0 0.498436
0.707683 0 0.475563
0.818326 0 0.463554
0.922454 0 0.455283
0 0.118181 0.63566
0 0.0699321 0.637125
0.0570993 0.0352636 0.632868
0.268727 0.0207218 0.600092
0.443015 0.0160372 0.551843
0.590646 0.0128023 0.517784
0.720638 0.0119783 0.499611
0.836103 0.0170138 0.493324
0.945571 0.0251774 0.490562
0 0.208103 0.568902
0 0.164172 0.576288
0.0142672 0.137285 0.599863
0.247807 0.126024 0.611521
0.454658 0.129152 0.578714
0.611002 0.132433 0.548363
0.744823 0.135409 0.53521
0.863386 0.143908 0.53257
0.975937 0.155428 0.533043
0 0.313085 0.502708
0 0.278401 0.507301
0 0.265949 0.544213
0.216144 0.266835 0.570504
0.442725 0.276738 0.566369
0.608972 0.28397 0.556542
0.761715 0.280217 0.563851
0.879744 0.288472 0.560876
0.992721 0.30071 0.561929
0 0.428748 0.519814
0 0.403128 0.491295
0 0.4047 0.496422
0.218555 0.41854 0.51754
0.436179 0.434958 0.545312
0.590661 0.453635 0.548424
0.734508 0.450629 0.571374
0.884993 0.445686 0.578042
0.994415 0.454658 0.575692
0 0.569848 0.545281
0 0.544945 0.52697
0.0224765 0.542367 0.530968
0.250294 0.558038 0.553246
0.492042 0.573678 0.575463
0.635386 0.594995 0.603372
0.720653 0.611643 0.608087
0.862684 0.608362 0.592889
0.988373 0.608423 0.581033
0 0.728771 0.549599
0 0.70985 0.538094
0.0581064 0.70428 0.540566
0.26006 0.719951 0.565362
0.498329 0.725567 0.604822
0.679484 0.723247 0.650858
0.762692 0.738811 0.66067
0.859022 0.750072 0.621241
0.981369 0.749783 0.586236
0 0.88249 0.569009
0 0.866133 0.562295
0.0993973 0.860349 0.567117
0.286549 0.865248 0.583566
0.473152 0.872206 0.602213
0.652873 0.864652 0.627634
0.780362 0.863691 0.644633
0.873915 0.873732 0.625208
0.977172 0.87866 0.592752
0 1 0.586038
0 1 0.579736
0.122362 1 0.583871
0.299931 1 0.595483
0.473747 0.998795 0.605127
0.62916 0.995148 0.607324
0.760342 0.993957 0.605249
0.871061 0.997604 0.602716
0.972992 1 0.597269
0 0.0285649 0.848173
0 0 0.835401
0.0622873 0 0.808103
0.260639 0 0.760067
0.434684 0 0.703899
0.585351 0 0.657923
0.713832 0 0.62707
0.823987 0 0.609415
0.928466 0 0.599741
0 0.120806 0.795026
0 0.0721294 0.795392
0.0199283 0.0346685 0.792187
0.237552 0.0134279 0.768734
0.432486 0.00480659 0.721126
0.593713 0.00332647 0.677882
0.727642 0.00555428 0.651072
0.843046 0.0120851 0.639414
0.952819 0.0206302 0.636027
0 0.211917 0.728496
0 0.166629 0.735149
0 0.132052 0.750301
0.200229 0.113741 0.762402
0.429114 0.112657 0.743084
0.610529 0.120531 0.707393
0.751934 0.129534 0.685588
0.870817 0.139605 0.678294
0.983688 0.151522 0.678889
0 0.320485 0.654902
0 0.280995 0.663844
0 0.25333 0.687465
0.156054 0.243442 0.728038
0.406744 0.245533 0.753063
0.620111 0.260609 0.732204
0.767437 0.273335 0.711299
0.886381 0.283436 0.705272
1 0.296605 0.707301
0 0.445457 0.612085
0 0.413718 0.601175
0 0.391852 0.618601
0.126467 0.394095 0.670192
0.368902 0.404364 0.705867
0.601129 0.425345 0.712825
0.756298 0.439963 0.710369
0.891691 0.440848 0.722316
1 0.450004 0.720241
0 0.571099 0.654078
0 0.544594 0.626169
0 0.528344 0.60705
0.126024 0.541741 0.623972
0.37084 0.562936 0.652445
0.591043 0.587335 0.688212
0.732448 0.611414 0.696742
0.856474 0.610574 0.721843
0.99556 0.603708 0.726589
0 0.715221 0.683833
0 0.689693 0.664897
0 0.672282 0.654078
0.169802 0.67631 0.664698
0.405432 0.696025 0.691005
0.646616 0.716518 0.71809
0.775219 0.741558 0.749722
0.838682 0.758389 0.75462
0.968826 0.752697 0.737011
0 0.865721 0.694118
0 0.843214 0.678645
0.0254215 0.830716 0.673564
0.210788 0.828779 0.679667
0.41706 0.844984 0.704982
0.652033 0.852705 0.746548
0.817243 0.852934 0.795132
0.880079 0.8701 0.806546
0.966354 0.880781 0.766552
0 1 0.704875
0 0.988113 0.692836
0.0629892 0.977615 0.691997
0.24712 0.976257 0.701244
0.437125 0.980224 0.716762
0.620676 0.989548 0.737789
0.785275 0.985351 0.766552
0.894896 0.988495 0.787655
0.980179 0.999771 0.769451
0 0.0323033 0.991287
0 0 0.979538
0.0293584 0 0.957885
0.235752 0 0.917586
0.423651 0 0.861753
0.585275 0 0.809003
0.719707 0 0.770199
0.831724 0 0.745739
0.936187 0 0.731228
0 0.124559 0.938338
0 0.0756085 0.93785
0 0.0370947 0.935805
0.204608 0.0116884 0.919326
0.413352 0 0.877882
0.590585 0 0.83032
0.733791 0 0.795361
0.852293 0.00755322 0.776516
0.96173 0.0174258 0.767605
0 0.21706 0.872862
0 0.171756 0.87953
0 0.136873 0.89369
0.164416 0.114504 0.905562
0.397421 0.10486 0.893706
0.600763 0.110048 0.859922
0.756725 0.121798 0.829892
0.880339 0.135683 0.814755
0.992676 0.148638 0.809522
0 0.328069 0.799084
0 0.288655 0.809766
0 0.258839 0.831876
0.113558 0.237629 0.860395
0.355276 0.229358 0.882551
0.591546 0.241093 0.876036
0.766796 0.26128 0.852659
0.894896 0.278965 0.839536
1 0.293706 0.836912
0 0.458534 0.730907
0 0.42298 0.737713
0 0.395438 0.758618
0.0686809 0.377035 0.791516
0.302388 0.374548 0.83949
0.558724 0.387717 0.875578
0.765591 0.414755 0.866667
0.897475 0.434043 0.852323
1 0.445563 0.84773
0 0.589273 0.72166
0 0.561196 0.700832
0 0.538125 0.698589
0.0467079 0.523308 0.723064
0.270542 0.530282 0.779385
0.515984 0.548974 0.823484
0.739528 0.579736 0.840223
0.877745 0.59939 0.842802
1 0.598474 0.852964
0 0.715816 0.780331
0 0.688472 0.753704
0 0.668055 0.731884
0.0705882 0.655421 0.716381
0.271962 0.670497 0.734997
0.517784 0.698131 0.769909
0.726925 0.729946 0.813092
0.850355 0.758038 0.82562
0.962325 0.754635 0.848157
0 0.853101 0.812222
0 0.825025 0.790722
0 0.804593 0.776883
0.123384 0.788556 0.767437
0.316777 0.791302 0.776776
0.55108 0.815106 0.807172
0.781598 0.843412 0.842054
0.893095 0.873335 0.878584
0.946899 0.889982 0.883299
0 0.99266 0.814969
0 0.966293 0.795407
0 0.949386 0.785504
0.166812 0.940307 0.783841
0.354696 0.937087 0.788663
0.55996 0.957717 0.818418
0.784131 0.973114 0.867658
0.933104 0.97908 0.921981
0.988159 0.997955 0.935103
0 0.0363928 1
0 0 1
0 0 1
0.206989 0 1
0.405798 0 1
0.579171 0 0.960159
0.722057 0 0.914794
0.838758 0 0.883528
0.945235 0 0.863554
0 0.128634 1
0 0.0793469 1
0 0.0404517 1
0.170977 0.0124361 1
0.387655 0 1
0.579141 0 0.981826
0.734859 0 0.941649
0.8598 0.0015259 0.915328
0.972 0.0136873 0.900526
0 0.222538 1
0 0.177386 1
0 0.142535 1
0.131762 0.118669 1
0.365042 0.103685 1
0.581628 0.102937 1
0.754086 0.113512 0.976883
0.887434 0.129656 0.95404
1 0.145296 0.941848
0 0.335805 0.939116
0 0.296666 0.951034
0 0.266606 0.972961
0.0841077 0.244877 1
0.319112 0.22977 1
0.557961 0.231388 1
0.755337 0.249104 0.997543
0.899794 0.271321 0.977996
1 0.290181 0.967834
0 0.468467 0.865965
0 0.432166 0.877577
0 0.40473 0.900221
0.0359655 0.383444 0.930861
0.257053 0.365911 0.963058
0.501366 0.365652 0.993225
0.732052 0.390265 0.999603
0.894469 0.419593 0.985351
1 0.440421 0.975387
0 0.606195 0.816205
0 0.574289 0.813733
0 0.547799 0.829587
0.00263981 0.525628 0.855863
0.206958 0.507424 0.88896
0.440726 0.510399 0.942397
0.689158 0.534142 0.989059
0.883055 0.570199 0.989166
1 0.58996 0.975311
0 0.732387 0.841672
0 0.704738 0.813443
0 0.682521 0.798489
0 0.662333 0.79913
0.184939 0.644388 0.820447
0.407385 0.655375 0.880796
0.6421 0.681819 0.932647
0.852522 0.721447 0.958251
0.981704 0.741543 0.961273
0 0.852461 0.905303
0 0.822003 0.877653
0 0.798703 0.85507
0.0420844 0.779339 0.834318
0.209033 0.761898 0.813993
0.407614 0.779599 0.835233
0.644236 0.816495 0.879423
0.840528 0.857466 0.931731
0.958068 0.889143 0.94786
0 0.979736 0.927001
0 0.948638 0.902495
0 0.925612 0.886061
0.0868544 0.907469 0.874525
0.259052 0.888624 0.862257
0.449409 0.893767 0.873991
0.675227 0.927565 0.914382
0.894606 0.96669 0.960113
1 1 1
