EA 50 Cinematic Luts Pack/EA_Cinematic Lut (19).CUBE
#Created by: Adobe Photoshop Export Color Lookup Plugin
#Copyright: (C) Copyright 2018 Navpreet Singh
TITLE "Orange and Teal 2"
#LUT size
LUT_3D_SIZE 5
#data domain
#LUT data points
DOMAIN_MIN 0.000000 0.000000 0.000000
DOMAIN_MAX 0.903226 0.903226 0.903226
0.000000 0.000000 0.000000
0.178223 0.019043 0.000000
0.438080 0.039551 0.000000
0.728912 0.061493 0.000000
0.937744 0.084869 0.000000
0.000000 0.178223 0.178223
0.178223 0.178223 0.178223
0.728882 0.061493 0.000000
0.937744 0.084869 0.000000
1.000000 0.197266 0.091858
0.000000 0.438080 0.438080
0.000000 0.728882 0.728882
0.438080 0.438080 0.438080
1.000000 0.197266 0.091858
1.000000 0.423828 0.316742
0.000000 0.728912 0.728912
0.000000 0.937744 0.937744
0.091858 1.000000 1.000000
0.728912 0.728912 0.728912
1.000000 0.681641 0.612579
0.000000 0.937744 0.937744
0.091858 1.000000 1.000000
0.316742 1.000000 1.000000
0.612579 1.000000 1.000000
0.937744 0.937744 0.937744
0.000000 0.000000 0.000000
0.178223 0.019043 0.000000
0.438080 0.039551 0.000000
0.728912 0.061493 0.000000
0.937744 0.084869 0.000000
0.000000 0.178223 0.178223
0.178223 0.178223 0.178223
0.728882 0.061493 0.000000
0.937744 0.084869 0.000000
1.000000 0.197266 0.091858
0.000000 0.438080 0.438080
0.000000 0.728882 0.728882
0.438080 0.438080 0.438080
1.000000 0.197266 0.091858
1.000000 0.423828 0.316742
0.000000 0.728912 0.728912
0.000000 0.937744 0.937744
0.091858 1.000000 1.000000
0.728912 0.728912 0.728912
1.000000 0.681641 0.612579
0.000000 0.937744 0.937744
0.091858 1.000000 1.000000
0.316742 1.000000 1.000000
0.612579 1.000000 1.000000
0.937744 0.937744 0.937744
0.000000 0.000000 0.000000
0.178223 0.019043 0.000000
0.438080 0.039551 0.000000
0.728912 0.061493 0.000000
0.937744 0.084869 0.000000
0.000000 0.178223 0.178223
0.178223 0.178223 0.178223
0.728882 0.061493 0.000000
0.937744 0.084869 0.000000
1.000000 0.197266 0.091858
0.000000 0.438080 0.438080
0.000000 0.728882 0.728882
0.438080 0.438080 0.438080
1.000000 0.197266 0.091858
1.000000 0.423828 0.316742
0.000000 0.728912 0.728912
0.000000 0.937744 0.937744
0.091858 1.000000 1.000000
0.728912 0.728912 0.728912
1.000000 0.681641 0.612579
0.000000 0.937744 0.937744
0.091858 1.000000 1.000000
0.316742 1.000000 1.000000
0.612579 1.000000 1.000000
0.937744 0.937744 0.937744
0.000000 0.000000 0.000000
0.178223 0.019043 0.000000
0.438080 0.039551 0.000000
0.728912 0.061493 0.000000
0.937744 0.084869 0.000000
0.000000 0.178223 0.178223
0.178223 0.178223 0.178223
0.728882 0.061493 0.000000
0.937744 0.084869 0.000000
1.000000 0.197266 0.091858
0.000000 0.438080 0.438080
0.000000 0.728882 0.728882
0.438080 0.438080 0.438080
1.000000 0.197266 0.091858
1.000000 0.423828 0.316742
0.000000 0.728912 0.728912
0.000000 0.937744 0.937744
0.091858 1.000000 1.000000
0.728912 0.728912 0.728912
1.000000 0.681641 0.612579
0.000000 0.937744 0.937744
0.091858 1.000000 1.000000
0.316742 1.000000 1.000000
0.612579 1.000000 1.000000
0.937744 0.937744 0.937744
0.000000 0.000000 0.000000
0.178223 0.019043 0.000000
0.438080 0.039551 0.000000
0.728912 0.061493 0.000000
0.937744 0.084869 0.000000
0.000000 0.178223 0.178223
0.178223 0.178223 0.178223
0.728882 0.061493 0.000000
0.937744 0.084869 0.000000
1.000000 0.197266 0.091858
0.000000 0.438080 0.438080
0.000000 0.728882 0.728882
0.438080 0.438080 0.438080
1.000000 0.197266 0.091858
1.000000 0.423828 0.316742
0.000000 0.728912 0.728912
0.000000 0.937744 0.937744
0.091858 1.000000 1.000000
0.728912 0.728912 0.728912
1.000000 0.681641 0.612579
0.000000 0.937744 0.937744
0.091858 1.000000 1.000000
0.316742 1.000000 1.000000
0.612579 1.000000 1.000000
0.937744 0.937744 0.937744
