EA 50 Cinematic Luts Pack/EA_Cinematic Lut (27).cube
TITLE "Generated by Resolve"
LUT_3D_SIZE 33
0 0.0127108 0
0 0.0162509 0
0 0.0171817 0
0 0.0143587 0
0 0.00296025 0
0 0 0
0.0134432 0 0
0.0593729 0 0
0.104768 0 0
0.14963 0 0
0.193881 0 0
0.230671 0 0
0.266926 0 0
0.303212 0 0
0.339513 0 0
0.37583 0 0
0.411902 0 0
0.447898 0 0
0.483497 0 0
0.518578 0 0
0.552956 0 0
0.586297 0 0
0.61857 0 0
0.649668 0 0
0.6795 0 0
0.708171 0 0
0.735775 0 0
0.762921 0 0
0.789395 0 0
0.815457 0 0
0.841245 0 0
0.866972 0 0
0.892378 0 0
0 0.0289616 0
0 0.0324407 0
0 0.0346838 0
0 0.0333867 0
0 0.0234684 0
0 0.0177157 0
0.0174716 0.0135195 0
0.0613565 0.00926223 0
0.105623 0.00480659 0
0.150149 0.000167849 0
0.19443 0 0
0.234882 0 0
0.270924 0 0
0.307042 0 0
0.343267 0 0
0.379507 0 0
0.415518 0 0
0.451469 0 0
0.487068 0 0
0.522286 0 0
0.556573 0 0
0.589944 0 0
0.622248 0 0
0.653407 0 0
0.683314 0 0
0.712108 0 0
0.739803 0 0
0.76701 0 0
0.793652 0 0
0.819867 0 0
0.845869 0 0
0.871748 0 0
0.897322 0 0
0 0.047715 0
0 0.0498512 0
0 0.0518044 0
0 0.0518349 0
0 0.0434119 0
0 0.0394598 0
0.024918 0.0364385 0
0.0658274 0.0330968 0
0.10782 0.0292973 0
0.15079 0.0250858 0
0.194461 0.0205539 0
0.237675 0.0162203 0
0.273548 0.0133822 0
0.30956 0.0104829 0
0.345678 0.00756847 0
0.381872 0.004654 0
0.417823 0.0018616 0
0.453742 0 0
0.489372 0 0
0.524544 0 0
0.558846 0 0
0.592279 0 0
0.624643 0 0
0.655848 0 0
0.685832 0 0
0.714702 0 0
0.742702 0 0
0.769955 0 0
0.796658 0 0
0.823011 0 0
0.849195 0 0
0.875319 0 0
0.901106 0 0
0 0.0693217 0
0 0.070161 0
0 0.0715343 0
0 0.0714885 0
0 0.0636301 0
0 0.0605478 0
0.033814 0.0585336 0
0.0715953 0.0561837 0
0.110994 0.0532235 0
0.152026 0.0496376 0
0.194568 0.0456092 0
0.23743 0.0413214 0
0.275029 0.0380407 0
0.310979 0.0351263 0
0.347066 0.0321965 0
0.3832 0.0292668 0
0.419135 0.0264744 0
0.4551 0.0238193 0
0.490898 0.0214542 0
0.525979 0.0191043 0
0.560327 0.016968 0
0.59382 0.0151369 0
0.626307 0.0136416 0
0.657649 0.0125277 0
0.687755 0.0117647 0
0.716747 0.0113527 0
0.744945 0.0115511 0
0.772381 0.0118105 0
0.799313 0.012253 0
0.825864 0.0128481 0
0.852232 0.013611 0
0.87863 0.0145571 0
0.904753 0.0157168 0
0 0.0936294 0
0 0.0929122 0.00491341
0 0.0930037 0.00621042
0 0.0919356 0.000869764
0 0.0839551 0
0.0101778 0.0813153 0
0.044419 0.0800336 0
0.0793622 0.0785077 0
0.116167 0.0763867 0
0.155169 0.07364 0
0.196124 0.0701762 0
0.237949 0.0661784 0
0.276692 0.0626993 0
0.312642 0.0598001 0
0.348745 0.0569162 0
0.384924 0.0540627 0
0.420874 0.0513008 0
0.456825 0.048661 0
0.492714 0.0464332 0
0.527932 0.0442206 0
0.562417 0.0422522 0
0.596017 0.0405432 0
0.628626 0.0392004 0
0.660151 0.0382696 0
0.690486 0.0377661 0
0.719829 0.0377356 0
0.748074 0.0380102 0
0.775708 0.0384833 0
0.802945 0.0392615 0
0.829862 0.040238 0
0.856535 0.0413214 0
0.883177 0.0425422 0
0.909712 0.0441138 0
0 0.119448 0.000350958
0 0.117632 0.00611887
0 0.116228 0.00816358
0 0.113954 0.00434882
0 0.105333 0
0.0223545 0.102617 0
0.0551614 0.101686 0
0.0880446 0.100786 0
0.122606 0.0993515 0
0.159487 0.0972763 0
0.198795 0.0944686 0
0.23946 0.0909895 0
0.278523 0.0876173 0
0.314488 0.0847791 0
0.350622 0.0819562 0
0.386862 0.0791943 0
0.42295 0.0766155 0
0.459174 0.0742657 0
0.494987 0.0719615 0
0.530312 0.0699168 0
0.564996 0.0681621 0
0.59884 0.0667277 0
0.631632 0.0655985 0
0.66334 0.0648661 0
0.694041 0.064744 0
0.723674 0.0650339 0
0.752194 0.0655833 0
0.780087 0.0663615 0
0.807614 0.0674296 0
0.834897 0.0688029 0
0.862058 0.0703899 0
0.889128 0.0720531 0
0.915908 0.0738994 0
0 0.146578 0
0 0.143725 0.00256352
0 0.141222 0.00509651
0 0.137835 0.0024567
0 0.128328 0
0.0320134 0.125139 0
0.0646372 0.124163 0
0.0964218 0.123552 0
0.129503 0.122713 0
0.164736 0.121294 0
0.202335 0.118959 0
0.241733 0.115984 0
0.280446 0.112947 0
0.316533 0.110292 0
0.352758 0.107607 0
0.38909 0.104967 0
0.425467 0.102724 0
0.461738 0.10045 0
0.497734 0.0983597 0
0.533242 0.0965133 0
0.568109 0.0949721 0
0.602213 0.0938277 0
0.63537 0.09308 0
0.667384 0.0926833 0
0.698299 0.0928054 0
0.728283 0.0934615 0
0.757229 0.0944533 0
0.785611 0.0957351 0
0.813489 0.0972 0
0.841016 0.0988479 0
0.868406 0.100694 0
0.895827 0.102708 0
0.923079 0.105058 0
0 0.175006 0
0 0.17142 0
0 0.167941 0
0 0.163592 0
0 0.153231 0
0.038117 0.149416 0
0.0715648 0.148104 0
0.103227 0.147494 0
0.135653 0.147051 0
0.169635 0.145968 0
0.205997 0.144167 0
0.244282 0.141695 0
0.282139 0.13904 0
0.318379 0.136599 0
0.354833 0.134188 0
0.391348 0.131792 0
0.427848 0.129702 0
0.464347 0.127703 0
0.500633 0.125933 0
0.536477 0.124453 0
0.571618 0.123217 0
0.605966 0.122347 0
0.63946 0.121965 0
0.672038 0.122164 0
0.703456 0.122805 0
0.733608 0.123659 0
0.762783 0.12491 0
0.791424 0.126482 0
0.819608 0.128267 0
0.847395 0.13019 0
0.874968 0.132235 0
0.902754 0.134661 0
0.930007 0.137026 0
0 0.204273 0
0 0.20029 0
0 0.196246 0
0 0.19115 0
0 0.180011 0
0.0404669 0.17554 0
0.0754406 0.173831 0
0.107836 0.173098 0
0.140139 0.172656 0
0.173602 0.171832 0
0.209186 0.170474 0
0.246693 0.168521 0
0.28365 0.166262 0
0.320043 0.16405 0
0.35671 0.161913 0
0.393729 0.160067 0
0.430457 0.158251 0
0.46714 0.156466 0
0.50367 0.155001 0
0.539879 0.153933 0
0.575509 0.153201 0
0.610254 0.152758 0
0.644007 0.152667 0
0.676951 0.153277 0
0.708507 0.15407 0
0.738964 0.155261 0
0.768353 0.156756 0
0.797147 0.158495 0
0.825498 0.160464 0
0.853498 0.162631 0
0.881239 0.164889 0
0.909148 0.167422 0
0.936553 0.169986 0
0 0.234226 0
0 0.230213 0
0 0.225895 0
0 0.220386 0
0 0.208682 0
0.0392615 0.203647 0
0.0760815 0.201556 0
0.109834 0.200717 0
0.142596 0.200122 0
0.176059 0.19942 0
0.211307 0.198306 0
0.248325 0.196796 0
0.28481 0.194965 0
0.321477 0.193103 0
0.358373 0.191272 0
0.395758 0.189853 0
0.432853 0.188449 0
0.469978 0.187182 0
0.506844 0.186084 0
0.543297 0.18529 0
0.579141 0.184833 0
0.614176 0.18471 0
0.64828 0.184985 0
0.681346 0.185733 0
0.713039 0.186725 0
0.743664 0.188098 0
0.773266 0.189837 0
0.802228 0.19176 0
0.830686 0.193881 0
0.858824 0.196201 0
0.886992 0.198886 0
0.914885 0.201465 0
0.942382 0.204105 0
0 0.264866 0
0 0.261082 0
0 0.256809 0
0 0.251164 0
0 0.239216 0
0.0349889 0.233845 0
0.0735485 0.231342 0
0.108782 0.230304 0
0.142611 0.229694 0
0.176654 0.229145 0
0.212039 0.22826 0
0.248447 0.226856 0
0.285237 0.225437 0
0.322362 0.224109 0
0.359838 0.222934 0
0.39736 0.221729 0
0.434669 0.2206 0
0.472038 0.219638 0
0.509209 0.218891 0
0.545892 0.218357 0
0.581872 0.218097 0
0.617151 0.218235 0
0.651545 0.21886 0
0.684627 0.219654 0
0.716457 0.220798 0
0.747204 0.222324 0
0.776944 0.224231 0
0.806073 0.226368 0
0.834699 0.228672 0
0.862943 0.231113 0
0.891264 0.233982 0
0.919249 0.236667 0
0.946883 0.23949 0
0 0.293828 0
0 0.291661 0
0 0.28867 0
0 0.283207 0
0 0.27126 0
0.0288548 0.265858 0
0.0692607 0.263447 0
0.10573 0.262074 0
0.140673 0.261387 0
0.175647 0.260945 0
0.211627 0.26009 0
0.24831 0.259052 0
0.285328 0.257954 0
0.322835 0.257084 0
0.360525 0.256199 0
0.39823 0.255238 0
0.435721 0.254368 0
0.473243 0.25362 0
0.510567 0.253071 0
0.547448 0.252811 0
0.583612 0.25275 0
0.618952 0.25301 0
0.653513 0.253834 0
0.686748 0.25481 0
0.718761 0.256184 0
0.74963 0.257877 0
0.779461 0.259907 0
0.808713 0.262165 0
0.837476 0.264637 0
0.866041 0.267445 0
0.89427 0.270237 0
0.922316 0.273014 0
0.950042 0.275959 0
0 0.32372 0
0 0.321859 0
0 0.319234 0
0 0.314748 0
0 0.303532 0
0.0239109 0.298802 0
0.0651865 0.296529 0
0.102983 0.295277 0
0.139071 0.294499 0
0.174731 0.293935 0
0.210956 0.293355 0
0.247929 0.292668 0
0.285222 0.291905 0
0.322835 0.291218 0
0.360723 0.290608 0
0.398596 0.289891 0
0.436301 0.289296 0
0.473991 0.288762 0
0.511421 0.288396 0
0.548424 0.288289 0
0.584787 0.288502 0
0.620478 0.289158 0
0.654917 0.289906 0
0.688243 0.291005 0
0.720363 0.292531 0
0.751385 0.294392 0
0.781323 0.296559 0
0.810651 0.298939 0
0.839689 0.301717 0
0.868254 0.304555 0
0.896468 0.307393 0
0.924605 0.310262 0
0.952377 0.313252 0
0 0.355138 0
0 0.353536 0
0 0.351263 0
0 0.347265 0
0 0.336477 0
0.0216526 0.332021 0
0.0632792 0.330022 0
0.101396 0.32903 0
0.137865 0.328573 0
0.173785 0.328267 0
0.210193 0.327886 0
0.247333 0.327398 0
0.284962 0.327016 0
0.322805 0.326635 0
0.360662 0.326055 0
0.398642 0.325536 0
0.4365 0.325154 0
0.474372 0.324865 0
0.511955 0.324712 0
0.549035 0.324742 0
0.585733 0.325338 0
0.621332 0.325933 0
0.655879 0.326848 0
0.689296 0.328099 0
0.721477 0.329717 0
0.752575 0.331685 0
0.78262 0.334005 0
0.812039 0.336507 0
0.841077 0.339315 0
0.869734 0.342275 0
0.898024 0.34519 0
0.926192 0.34815 0
0.954009 0.351217 0
0 0.388266 0
0 0.387045 0
0 0.385031 0
0 0.381262 0
0 0.370962 0
0.0195773 0.366659 0
0.0614176 0.364797 0
0.0997635 0.363958 0
0.136461 0.363684 0
0.172656 0.363622 0
0.209277 0.363439 0
0.246571 0.363119 0
0.284474 0.363073 0
0.322347 0.362753 0
0.360388 0.362432 0
0.398505 0.362097 0
0.436454 0.361883 0
0.474418 0.361776 0
0.512154 0.361822 0
0.549355 0.362036 0
0.586084 0.362707 0
0.621775 0.36347 0
0.656428 0.364508 0
0.689937 0.365896 0
0.722194 0.36762 0
0.753323 0.369696 0
0.783398 0.372076 0
0.813031 0.374823 0
0.84213 0.377722 0
0.870665 0.380591 0
0.898939 0.383536 0
0.927138 0.386542 0
0.954971 0.389654 0
0 0.422766 0
0 0.421836 0
0 0.420081 0
0 0.416464 0
0 0.406394 0
0.0174105 0.402213 0
0.0595254 0.400565 0
0.0981003 0.399878 0
0.134981 0.399741 0
0.171374 0.399817 0
0.208225 0.399847 0
0.245808 0.399832 0
0.283772 0.399847 0
0.321752 0.39968 0
0.35993 0.399542 0
0.398199 0.39942 0
0.436271 0.39939 0
0.474327 0.39942 0
0.512123 0.399603 0
0.549661 0.400198 0
0.586282 0.400824 0
0.621973 0.401633 0
0.656657 0.402762 0
0.690196 0.404242 0
0.722515 0.406073 0
0.753689 0.408209 0
0.783795 0.410651 0
0.81355 0.413596 0
0.842512 0.416388 0
0.871077 0.419287 0
0.899351 0.422278 0
0.92752 0.425299 0
0.955306 0.428412 0
0 0.458335 0
0 0.457557 0
0 0.456001 0
0 0.452735 0
0 0.442618 0
0.0154726 0.43856 0
0.0578317 0.437064 0
0.0966506 0.436576 0
0.133745 0.436576 0
0.170306 0.436774 0
0.207416 0.437034 0
0.245289 0.437278 0
0.283223 0.437278 0
0.321324 0.437263 0
0.359594 0.437247 0
0.397986 0.437278 0
0.436164 0.437415 0
0.474311 0.437598 0
0.512154 0.437858 0
0.549767 0.438605 0
0.586374 0.439277 0
0.622126 0.440208 0
0.656825 0.441413 0
0.690379 0.442924 0
0.722698 0.4448 0
0.753872 0.446998 0
0.7841 0.449607 0
0.813733 0.452461 0
0.842664 0.455253 0
0.871183 0.458167 0
0.899428 0.461143 0
0.92755 0.464164 0
0.955306 0.467262 0
0 0.494835 0
0 0.494179 0
0 0.492927 0
0 0.489754 0
0 0.479698 0
0.0137179 0.475761 0
0.0562295 0.474342 0
0.0952316 0.47396 0
0.13254 0.474128 0
0.169299 0.474464 0
0.2065 0.474769 0
0.244541 0.475166 0
0.282628 0.475303 0
0.320867 0.475441 0
0.359243 0.475547 0
0.397696 0.475685 0
0.435935 0.475914 0
0.474128 0.476188 0
0.512215 0.476768 0
0.549645 0.477378 0
0.586252 0.478096 0
0.622003 0.479072 0
0.656718 0.480339 0
0.690257 0.48191 0
0.722545 0.483818 0
0.753811 0.486137 0
0.78407 0.488807 0
0.813489 0.491478 0
0.842359 0.49427 0
0.870832 0.497169 0
0.899001 0.500114 0
0.927031 0.503075 0
0.954711 0.506127 0
0 0.531991 0
0 0.531502 0
0 0.530327 0
0 0.527321 0
0 0.517388 0
0.0123293 0.513588 0
0.0549935 0.512276 0
0.0941329 0.511971 0
0.131579 0.5122 0
0.168551 0.512703 0
0.206104 0.513329 0
0.244038 0.513558 0
0.282216 0.513771 0
0.320546 0.513985 0
0.359014 0.514214 0
0.397528 0.514427 0
0.435798 0.514717 0
0.474205 0.515236 0
0.512169 0.515755 0
0.549508 0.516335 0
0.586114 0.517098 0
0.621836 0.51809 0
0.656504 0.519356 0
0.690013 0.520943 0
0.722255 0.52285 0
0.753429 0.525109 0
0.783658 0.527825 0
0.812985 0.530449 0
0.841779 0.533196 0
0.870161 0.536049 0
0.898253 0.538949 0
0.926192 0.541833 0
0.953735 0.544793 0
0 0.569604 0
0 0.569436 0
0 0.568429 0
0 0.565377 0
0 0.55552 0
0.0113832 0.551812 0
0.0542306 0.550622 0
0.0935378 0.550408 0
0.131106 0.550698 0
0.168414 0.551492 0
0.205844 0.551934 0
0.243885 0.552239 0
0.282139 0.552514 0
0.320531 0.552758 0
0.35903 0.553017 0
0.397559 0.553277 0
0.435843 0.553597 0
0.474205 0.554101 0
0.512215 0.554681 0
0.549508 0.555261 0
0.586069 0.556039 0
0.621744 0.557031 0
0.656352 0.558297 0
0.689769 0.559853 0
0.721996 0.561791 0
0.753246 0.564187 0
0.783169 0.566613 0
0.812421 0.569192 0
0.841093 0.571862 0
0.869337 0.574624 0
0.897307 0.577432 0
0.925139 0.580255 0
0.952773 0.583337 0
0 0.607614 0
0 0.607691 0
0 0.606653 0
0 0.603723 0
0 0.593957 0
0.0110323 0.590295 0
0.0540017 0.589151 0
0.093431 0.589014 0
0.131121 0.589364 0
0.168475 0.590143 0
0.206027 0.590661 0
0.244129 0.590982 0
0.282445 0.591287 0
0.320882 0.591562 0
0.359396 0.591821 0
0.397925 0.592065 0
0.436347 0.592554 0
0.474662 0.593042 0
0.512474 0.593469 0
0.549737 0.594034 0
0.586206 0.594766 0
0.62179 0.595728 0
0.656321 0.596948 0
0.689677 0.598459 0
0.722011 0.60058 0
0.752895 0.602655 0
0.782696 0.605005 0
0.811826 0.607507 0
0.840391 0.610101 0
0.868482 0.612757 0
0.896284 0.615442 0
0.923949 0.618128 0
0.951385 0.621073 0
0 0.645945 0
0 0.646006 0
0 0.645029 0
0 0.642161 0
0 0.632471 0
0.011368 0.62887 0
0.0543984 0.627756 0
0.0939193 0.627649 0
0.13193 0.62826 0
0.169162 0.62887 0
0.206729 0.629328 0
0.244862 0.629648 0
0.283207 0.629938 0
0.321645 0.630182 0
0.360159 0.630426 0
0.398672 0.630655 0
0.437186 0.631251 0
0.475303 0.63154 0
0.513054 0.631922 0
0.550225 0.632441 0
0.586633 0.633127 0
0.622095 0.634028 0
0.656504 0.635157 0
0.689738 0.636622 0
0.721935 0.638605 0
0.752712 0.640635 0
0.782345 0.642863 0
0.811292 0.645228 0
0.839704 0.647715 0
0.867674 0.650278 0
0.895308 0.652842 0
0.922927 0.655528 0
0.950118 0.658228 0
0 0.684413 0
0 0.684367 0
0 0.683436 0
0 0.680598 0
0 0.670924 0
0.0123903 0.667353 0
0.0555123 0.666255 0
0.0950637 0.666133 0
0.133165 0.666789 0
0.170397 0.667323 0
0.20798 0.667765 0
0.246128 0.668055 0
0.284489 0.668299 0
0.322896 0.668513 0
0.361395 0.668666 0
0.399969 0.668956 0
0.438315 0.669383 0
0.476356 0.669627 0
0.514015 0.669917 0
0.551064 0.670329 0
0.587366 0.670939 0
0.622736 0.671763 0
0.657023 0.672831 0
0.690303 0.674372 0
0.722103 0.67602 0
0.752712 0.677913 0
0.782193 0.680049 0
0.810971 0.682277 0
0.839155 0.684596 0
0.866941 0.687007 0
0.894423 0.689433 0
0.921965 0.692103 0
0.948806 0.694499 0
0 0.722591 0
0 0.722576 0
0 0.721675 0
0 0.718853 0
0 0.709178 0
0.0141909 0.705592 0
0.0573281 0.704479 0
0.0971237 0.70454 0
0.135042 0.704967 0
0.172274 0.70544 0
0.209842 0.705821 0
0.247974 0.70605 0
0.286305 0.706218 0
0.324712 0.706355 0
0.363256 0.706569 0
0.401816 0.706798 0
0.439887 0.706935 0
0.477836 0.707088 0
0.515389 0.707301 0
0.5523 0.707607 0
0.588449 0.708064 0
0.623652 0.708766 0
0.657801 0.709712 0
0.690974 0.711192 0
0.72256 0.712642 0
0.752956 0.714382 0
0.782269 0.716381 0
0.81088 0.718486 0
0.83888 0.720653 0
0.866392 0.722866 0
0.893767 0.725231 0
0.921019 0.727611 0
0.947677 0.72987 0
0 0.760571 0
0 0.760525 0
0 0.759625 0
0 0.756786 0
0 0.747097 0
0.0167544 0.743481 0
0.0601053 0.742519 0
0.0997635 0.742382 0
0.137575 0.742641 0
0.174792 0.743069 0
0.212345 0.743374 0
0.250431 0.743496 0
0.288685 0.743557 0
0.327001 0.743587 0
0.365438 0.743664 0
0.403967 0.743832 0
0.441932 0.743832 0
0.479728 0.743832 0
0.517174 0.743923 0
0.553964 0.744121 0
0.589944 0.744457 0
0.624964 0.744961 0
0.659129 0.745968 0
0.691936 0.747097 0
0.723354 0.748425 0
0.753552 0.749966 0
0.782589 0.751766 0
0.811002 0.753704 0
0.838834 0.755734 0
0.86627 0.757916 0
0.8934 0.760067 0
0.920241 0.762081 0
0.9467 0.764172 0
0 0.79823 0
0 0.798169 0
0 0.797223 0
0 0.794339 0
0 0.784588 0
0.0198825 0.780911 0
0.0631723 0.779843 0
0.102846 0.779675 0
0.140581 0.779828 0
0.177737 0.780118 0
0.215244 0.780331 0
0.2533 0.780362 0
0.291463 0.780285 0
0.329732 0.78024 0
0.3682 0.780301 0
0.406424 0.780133 0
0.444266 0.780011 0
0.481941 0.779843 0
0.519188 0.779736 0
0.555825 0.779782 0
0.591669 0.779995 0
0.626734 0.780575 0
0.660517 0.781216 0
0.693019 0.782071 0
0.724254 0.783246 0
0.754269 0.784665 0
0.783123 0.786267 0
0.811261 0.787976 0
0.838834 0.789807 0
0.866041 0.791775 0
0.893034 0.793851 0
0.919661 0.795697 0
0.945907 0.797589 0
0 0.835508 0
0 0.835386 0
0 0.834394 0
0 0.831434 0
0 0.821607 0
0.0236057 0.817975 0
0.0667887 0.816754 0
0.106294 0.816373 0
0.143999 0.816419 0
0.181048 0.816587 0
0.218448 0.816617 0
0.256382 0.81651 0
0.294484 0.816327 0
0.332891 0.816342 0
0.370977 0.816007 0
0.409033 0.815641 0
0.446769 0.815366 0
0.484306 0.815061 0
0.521385 0.814786 0
0.557809 0.814603 0
0.593454 0.814603 0
0.628321 0.815 0
0.661967 0.815518 0
0.69424 0.816175 0
0.7252 0.817105 0
0.755016 0.818341 0
0.783688 0.819806 0
0.811643 0.821378 0
0.839078 0.823087 0
0.866163 0.824979 0
0.892821 0.826734 0
0.919295 0.828473 0
0.945373 0.830243 0
0 0.87248 0
0 0.872267 0
0 0.871153 0
0 0.868116 0
0 0.858183 0
0.0273136 0.854566 0
0.0702525 0.853086 0
0.109636 0.852537 0
0.14725 0.852445 0
