EA 50 Cinematic Luts Pack/EA_Cinematic Lut (51).cube
TITLE "This sharp and contrasted colorization turns the edited material into a beautiful, well-balanced shot."
LUT_3D_SIZE 5
0.0000 0.0000 0.0000
0.2050 0.0482 0.0462
0.4312 0.1299 0.1216
0.7199 0.2015 0.1788
0.9683 0.1824 0.1869
0.0000 0.2401 0.2249
0.2315 0.2425 0.1786
0.5062 0.2405 0.1429
0.7895 0.2613 0.1706
0.9994 0.2512 0.1795
0.0000 0.4811 0.4538
0.0000 0.4968 0.4628
0.4847 0.4796 0.3441
0.8555 0.4637 0.1612
1.0000 0.4910 0.3418
0.0000 0.7220 0.6813
0.0000 0.7314 0.6877
0.0000 0.7623 0.6903
0.7895 0.7085 0.4821
0.9829 0.7403 0.5422
0.0000 0.9625 0.9032
0.0000 0.9691 0.9087
0.0000 0.9901 0.9203
0.8263 0.9314 0.8389
0.9807 0.9625 0.9296
0.0032 0.0501 0.1084
0.1740 0.0952 0.1783
0.4303 0.1442 0.1993
0.7220 0.2087 0.2321
0.9692 0.1878 0.2631
0.0000 0.2496 0.2609
0.1979 0.2531 0.2917
0.4986 0.2494 0.2286
0.7826 0.2737 0.2392
0.9988 0.2581 0.2645
0.0000 0.4859 0.4632
0.0000 0.4995 0.4900
0.4697 0.4815 0.4113
0.8628 0.4593 0.2494
1.0000 0.4935 0.3872
0.0000 0.7249 0.6863
0.0000 0.7334 0.7022
0.0000 0.7636 0.7108
0.7832 0.7071 0.5250
0.9843 0.7414 0.5654
0.0000 0.9646 0.9068
0.0000 0.9711 0.9121
0.0000 0.9921 0.9243
0.8099 0.9393 0.8500
0.9819 0.9645 0.9340
0.0155 0.1364 0.2412
0.1039 0.1628 0.3534
0.3699 0.2135 0.3551
0.7176 0.2384 0.3505
0.9666 0.2191 0.4153
0.0000 0.2737 0.3775
0.1644 0.2823 0.3985
0.4204 0.2982 0.4022
0.7787 0.2940 0.3674
0.9953 0.2796 0.4360
0.0000 0.4980 0.5179
0.0000 0.5106 0.5475
0.4074 0.4973 0.5589
0.8696 0.4589 0.4066
0.9999 0.5007 0.5035
0.0000 0.7338 0.7076
0.0000 0.7423 0.7218
0.0000 0.7668 0.7820
0.7472 0.7100 0.6409
0.9920 0.7436 0.6312
0.0000 0.9710 0.9209
0.0000 0.9775 0.9258
0.0000 0.9981 0.9417
0.6902 0.9752 0.8952
0.9854 0.9708 0.9480
0.0339 0.2218 0.3733
0.0889 0.2428 0.4400
0.3009 0.2629 0.5950
0.6131 0.3243 0.5185
0.9244 0.3282 0.5746
0.0000 0.3194 0.4872
0.1414 0.3288 0.5004
0.3263 0.3385 0.6465
0.6669 0.3754 0.5496
0.9758 0.3340 0.6347
0.0000 0.5150 0.6481
0.0000 0.5266 0.6750
0.3539 0.5234 0.6778
0.7463 0.5143 0.6161
0.9936 0.5195 0.6725
0.0000 0.7471 0.7754
0.0000 0.7549 0.7915
0.0000 0.7778 0.8526
0.7035 0.7357 0.7913
0.9991 0.7497 0.7502
0.0000 0.9822 0.9587
0.0000 0.9886 0.9636
0.2932 0.9978 0.9643
0.7089 0.9921 0.9518
0.9919 0.9826 0.9742
0.0470 0.3069 0.5062
0.0860 0.3224 0.5520
0.2152 0.3511 0.6976
0.5316 0.3690 0.7733
0.8648 0.4182 0.6948
0.0000 0.3806 0.6002
0.0268 0.3925 0.6465
0.1865 0.4090 0.7928
0.5638 0.4101 0.9169
0.8997 0.4439 0.7638
0.0000 0.5482 0.7499
0.0000 0.5572 0.7838
0.0000 0.5747 0.9421
0.6278 0.5665 0.9808
0.9381 0.5670 0.8571
0.0000 0.7624 0.9007
0.0000 0.7695 0.9208
0.0000 0.7898 0.9999
0.6826 0.7795 0.9996
0.9614 0.7709 0.9111
0.4987 0.9712 1.0000
0.5520 0.9724 0.9997
0.7033 0.9773 0.9998
0.8569 0.9863 0.9999
1.0000 0.9999 0.9999
