EA 50 Cinematic Luts Pack/EA_Cinematic Lut (33).cube
TITLE "A classic science fiction look that will bring to mind all the finest cinematic productions set in the futuristic environment."
LUT_3D_SIZE 5
0.0000 0.0000 0.0000
0.0000 0.0000 0.0000
0.0000 0.0000 0.0000
0.4071 0.1027 0.0232
0.7198 0.2839 0.1824
0.0000 0.0000 0.0000
0.0000 0.0000 0.0000
0.2337 0.1090 0.0000
0.4904 0.2243 0.0894
0.7764 0.3738 0.2358
0.1538 0.3797 0.2092
0.1992 0.4024 0.1871
0.4140 0.4376 0.2004
0.6893 0.4828 0.1947
0.9358 0.5742 0.3327
0.3980 0.7437 0.4892
0.4240 0.7566 0.4716
0.5656 0.7805 0.4780
0.8265 0.8091 0.4768
0.9716 0.8804 0.7897
0.9999 1.0000 0.9999
0.9999 0.9999 0.9999
0.9999 0.9999 0.9999
0.9999 0.9999 0.9999
0.9999 0.9999 0.9999
0.0000 0.0000 0.0000
0.0000 0.0000 0.0000
0.0205 0.0000 0.0024
0.4579 0.0100 0.0415
0.7660 0.2375 0.1843
0.0000 0.0000 0.0000
0.0094 0.0208 0.0106
0.2243 0.1322 0.0775
0.4850 0.2433 0.1536
0.8176 0.3454 0.2370
0.1329 0.3889 0.2516
0.2081 0.4069 0.2461
0.3922 0.4494 0.2757
0.6609 0.5014 0.2849
0.9516 0.5717 0.3495
0.3862 0.7483 0.5196
0.4375 0.7571 0.5146
0.5590 0.7851 0.5024
0.8054 0.8164 0.5344
0.9731 0.8838 0.8006
0.9999 1.0000 0.9999
0.9999 1.0000 0.9999
0.9999 0.9999 0.9999
0.9999 0.9999 0.9999
0.9999 0.9999 0.9999
0.0000 0.0000 0.0000
0.0000 0.0000 0.0000
0.1249 0.0439 0.1169
0.4483 0.1252 0.2554
0.7888 0.2497 0.3351
0.0073 0.0269 0.0513
0.0611 0.0899 0.1060
0.2211 0.1759 0.2092
0.5594 0.2082 0.2715
0.8954 0.2844 0.3348
0.0779 0.4147 0.3531
0.1891 0.4310 0.3485
0.3311 0.4864 0.3489
0.6477 0.5268 0.3917
0.9613 0.5804 0.4995
0.3375 0.7641 0.6064
0.3893 0.7736 0.6021
0.5371 0.7995 0.5863
0.7965 0.8299 0.6121
0.9772 0.8947 0.8354
0.9999 1.0000 0.9999
0.9999 1.0000 0.9999
0.9999 1.0000 0.9999
0.9999 0.9999 0.9999
0.9999 0.9999 0.9999
0.0000 0.0000 0.0000
0.0002 0.0003 0.0009
0.1627 0.1339 0.2217
0.4236 0.2447 0.4034
0.7458 0.3650 0.5413
0.0705 0.1274 0.1955
0.1149 0.1606 0.2168
0.2430 0.2402 0.3248
0.4789 0.3430 0.4575
0.8369 0.4048 0.5895
0.2058 0.4399 0.4923
0.2615 0.4576 0.4887
0.3929 0.5083 0.4865
0.6076 0.5710 0.5797
0.9509 0.6128 0.6888
0.3001 0.7876 0.7345
0.3742 0.7954 0.7295
0.5278 0.8217 0.7112
0.7234 0.8667 0.7432
0.9849 0.9149 0.9002
0.9999 1.0000 0.9999
0.9999 1.0000 0.9999
0.9999 1.0000 0.9999
0.9999 1.0000 0.9999
0.9999 0.9999 0.9999
0.0783 0.1160 0.1971
0.1119 0.1458 0.2504
0.2256 0.2299 0.3690
0.4261 0.3548 0.5059
0.7277 0.4604 0.6963
0.1504 0.2262 0.3302
0.1817 0.2499 0.3741
0.2931 0.3135 0.4907
0.4930 0.4196 0.5914
0.7940 0.5049 0.7603
0.3010 0.4872 0.6112
0.3276 0.5011 0.6443
0.4293 0.5349 0.7587
0.6594 0.5879 0.8351
0.9045 0.6759 0.8753
0.4470 0.8022 0.8976
0.4736 0.8109 0.9168
0.6388 0.8274 0.9282
0.8345 0.8668 0.9479
0.9812 0.9511 0.9765
0.9999 1.0000 0.9999
0.9999 1.0000 0.9999
0.9999 1.0000 0.9999
0.9999 1.0000 0.9999
0.9999 0.9999 0.9999
