EA 50 Cinematic Luts Pack/EA_Cinematic Lut (16).cube
TITLE "Generated by Resolve"
LUT_3D_SIZE 9
0 0 0.0139773
0.0728771 0 0.0269932
0.342504 0 0.021912
0.559731 0 0.0293126
0.741863 0 0.0463264
0.915373 0 0.0668193
1 0 0.0891737
1 0 0.112978
1 0 0.137957
0 0.0661784 0.0444038
0.0880598 0.06392 0.0565042
0.310643 0.0388952 0.00358587
0.531594 0.00781262 0
0.714733 0 0
0.889235 0 0.0196841
1 0 0.0421607
1 0 0.0661936
1 0 0.0914778
0 0.200092 0
0.116243 0.189227 0.0472419
0.295293 0.176898 0.00332647
0.481163 0.158709 0
0.665705 0.134325 0
0.843534 0.113359 0
1 0.0957961 0
1 0.080354 0.0114595
1 0.0665141 0.0356603
0 0.333196 0
0.127718 0.324361 0.002533
0.297078 0.31165 0
0.45507 0.300893 0
0.617914 0.285374 0
0.788663 0.266621 0
0.959381 0.247974 0
1 0.230854 0
1 0.215549 0
0.0245823 0.459663 0
0.158984 0.451514 0
0.309911 0.442313 0
0.452018 0.436225 0
0.596109 0.427955 0
0.746944 0.416388 0
0.905821 0.401511 0
1 0.385153 0
1 0.369116 0
0.0582742 0.586069 0
0.190585 0.578302 0
0.330495 0.571237 0
0.456657 0.569528 0
0.590951 0.564981 0
0.726741 0.558831 0
0.868803 0.549783 0
1 0.537728 0
1 0.52372 0
0.0906996 0.712993 0
0.221866 0.705318 0
0.35462 0.699458 0
0.469108 0.700572 0
0.591424 0.699855 0
0.719478 0.696696 0
0.849195 0.692088 0
0.984619 0.684932 0
1 0.67509 0
0.121996 0.840345 0
0.252186 0.832776 0
0.380606 0.827573 0
0.486351 0.830488 0
0.597559 0.832868 0
0.717693 0.832486 0
0.840269 0.83061 0
0.965179 0.827237 0
1 0.821591 0
0.152316 0.968109 0
0.282246 0.960494 0
0.407416 0.955764 0
0.506493 0.959899 0
0.609094 0.964401 0
0.719051 0.967117 0
0.836545 0.967193 0
0.954864 0.966308 0
1 0.963943 0
0 0 0
0.0494698 0 0
0.313069 0 0.0553445
0.5458 0 0.0847181
0.728588 0 0.103136
0.902846 0 0.124666
1 0 0.148028
1 0 0.172747
1 0 0.198566
0 0.0996872 0
0.0988937 0.0772564 0.0271763
0.290745 0.055375 0.0429847
0.514199 0.0211032 0.0464179
0.712993 0 0.0548104
0.883864 0 0.0730755
1 0 0.0955215
1 0 0.119402
1 0 0.144457
0.00314336 0.2112 0
0.182788 0.182406 0.0504768
0.299702 0.183825 0.0662547
0.47715 0.168368 0.0229038
0.679774 0.138384 0.00549325
0.850721 0.115236 0.0204318
1 0.0983139 0.0418402
1 0.0838026 0.0656596
1 0.0706645 0.0908522
0.0281529 0.342016 0
0.194812 0.318105 0.00190738
0.32575 0.310765 0.0548714
0.460639 0.30898 0.0214847
0.628992 0.292714 0
0.801236 0.268513 0
0.970596 0.248249 0
1 0.231647 0.0111238
1 0.21709 0.0343023
0.0738384 0.466148 0
0.213443 0.452567 0
0.336141 0.447181 0.00907912
0.461631 0.445304 0.00944533
0.602914 0.437278 0
0.753994 0.422492 0
0.915984 0.404166 0
1 0.386038 0
1 0.369482 0
0.112398 0.591104 0
0.248417 0.579858 0
0.366674 0.575341 0
0.473869 0.577096 0.0119173
0.59971 0.574182 0.000457771
0.732647 0.567254 0
0.874907 0.556283 0
1 0.541741 0
1 0.525689 0
0.147204 0.717113 0
0.281132 0.706661 0
0.397436 0.702678 0
0.493797 0.706752 0.00390631
0.604013 0.708537 0.00648508
0.727565 0.705745 0
0.85507 0.700481 0
0.990372 0.691859 0
1 0.680064 0
0.179965 0.843885 0
0.312734 0.83389 0
0.42797 0.830091 0
0.517266 0.835462 0
0.616007 0.840253 0.00463874
0.72784 0.841566 0
0.847883 0.839567 0
0.971023 0.835599 0
1 0.828779 0
0.211246 0.971222 0
0.343328 0.961532 0
0.457649 0.957885 0
0.542672 0.963973 0
0.632761 0.970672 0
0.733654 0.97525 0.000488289
0.845975 0.976226 0
0.962173 0.975174 0
1 0.972274 0
0 0 0.0657359
0.081239 0 0.0308995
0.286427 0 0.0614786
0.520897 0 0.146761
0.706966 0 0.18056
0.880964 0 0.207172
1 0 0.233463
1 0 0.259937
1 0 0.286915
0 0.13875 0
0.0972915 0.0922866 0.0250248
0.265446 0.0782635 0.0346685
0.482612 0.0375372 0.114687
0.696788 0.000976577 0.14493
0.867491 0 0.163775
1 0 0.187091
1 0 0.21207
1 0 0.238087
0 0.258503 0
0.153689 0.213565 0
0.30808 0.19472 0.0714733
0.455451 0.183032 0.0974899
0.660487 0.149767 0.101915
0.846311 0.120012 0.10985
1 0.101091 0.128634
1 0.0873732 0.152621
1 0.074815 0.177768
0 0.374517 0
0.226474 0.326787 0
0.389609 0.301259 0.0923934
0.462898 0.313756 0.119234
0.622995 0.300374 0.0779736
0.812741 0.270008 0.0601816
0.974136 0.246479 0.0747387
1 0.230549 0.0971389
1 0.217105 0.122026
0.0602274 0.489586 0
0.250568 0.459022 0
0.400641 0.438331 0.0428168
0.487816 0.441932 0.106737
0.606348 0.443214 0.0764172
0.762631 0.427375 0.0334783
0.92517 0.40264 0.0321202
1 0.382666 0.0459754
1 0.366766 0.0669261
0.120256 0.608179 0
0.295476 0.584131 0
0.418708 0.573983 0.00030518
0.497581 0.579461 0.0603037
0.606989 0.580926 0.0640116
0.737026 0.574136 0.0435187
0.87895 0.55938 0.0225223
1 0.541054 0.0166018
1 0.523171 0.0250401
0.169131 0.729656 0
0.332998 0.709438 0
0.453025 0.701976 0
0.527626 0.708507 0.0427558
0.618875 0.713756 0.0661479
0.733898 0.712535 0.0563821
0.858305 0.706233 0.0356756
0.99353 0.69543 0.0163119
1 0.680964 0.00706493
0.211246 0.85333 0
0.366918 0.835691 0
0.484916 0.829099 0
0.557733 0.836332 0.0192416
0.6383 0.844068 0.0576333
0.738048 0.847852 0.0622263
0.853468 0.846128 0.0487373
0.974227 0.841321 0.0292668
1 0.832868 0.0109255
0.24892 0.978515 0
0.398917 0.962692 0
0.515816 0.956619 0
0.58764 0.964096 0
0.66125 0.973205 0.0416876
0.749676 0.980209 0.0600443
0.853666 0.982849 0.0558175
0.967239 0.981582 0.041413
1 0.977966 0.0230564
0 0 0.1664
0.100359 0 0.149676
0.298329 0 0.127596
0.470573 0 0.163882
0.672496 0 0.241093
0.856138 0 0.292622
1 0 0.328969
1 0 0.360204
1 0 0.390326
0 0.152407 0.102983
0.0879988 0.0996109 0.136461
0.297993 0.0792554 0.105364
0.456275 0.0595712 0.14374
0.670466 0.0135042 0.228168
0.844205 0 0.262119
1 0 0.290257
1 0 0.318166
1 0 0.345953
0 0.299641 0
0.055787 0.25211 0.0348516
0.305547 0.20882 0.0910048
0.429297 0.205066 0.110918
0.627787 0.165103 0.191699
0.82887 0.127962 0.221347
0.990127 0.106004 0.239918
1 0.091249 0.264607
1 0.0785229 0.290913
0 0.416754 0
0.129381 0.37319 0
0.359167 0.33109 0.0303655
0.469886 0.323247 0.145663
0.600534 0.314275 0.174395
0.792599 0.280552 0.178363
0.968078 0.249607 0.185122
1 0.230808 0.204028
1 0.218341 0.229267
0 0.528084 0
0.203861 0.490455 0
0.4309 0.445609 0.0259556
0.550027 0.430777 0.165225
0.607477 0.44686 0.195651
0.755673 0.434073 0.154986
0.935164 0.402625 0.13611
1 0.378286 0.149859
1 0.363088 0.172992
0.071809 0.640192 0
0.28072 0.606439 0
0.454505 0.57911 0
0.56051 0.569039 0.115099
0.631708 0.576104 0.182467
0.73933 0.578958 0.153719
0.886168 0.562844 0.110521
1 0.537179 0.108217
1 0.51722 0.122087
0.142046 0.755428 0
0.339681 0.725338 0
0.498909 0.705074 0
0.578302 0.705776 0.0722972
0.641093 0.714626 0.135668
0.739864 0.717952 0.141238
0.86128 0.711727 0.121279
0.995605 0.696574 0.0999008
1 0.677974 0.0937057
0.201221 0.873899 0
0.387579 0.846983 0
0.535576 0.830671 0
0.612116 0.834424 0.0455024
0.670832 0.844511 0.117784
0.751583 0.851759 0.143191
0.858427 0.851514 0.134417
0.975845 0.845441 0.113924
1 0.834531 0.0944686
0.252064 0.994934 0
0.428885 0.970825 0
0.568704 0.957137 0
0.64329 0.961822 0.0160983
0.700389 0.972778 0.0937362
0.770642 0.982666 0.13431
0.862516 0.987778 0.1402
0.971359 0.986679 0.127337
1 0.982071 0.10808
0 0.00277714 0.260105
0.0980697 0 0.247425
0.307362 0 0.223133
0.457435 0 0.220127
0.620127 0 0.26891
0.812955 0 0.352193
0.994415 0 0.416754
1 0 0.463294
1 0 0.501015
0 0.158907 0.213077
0.0783703 0.106615 0.255161
0.317342 0.0761883 0.242161
0.47126 0.0694591 0.230732
0.6224 0.0458228 0.265339
0.8094 0.00608835 0.340139
0.984466 0 0.392264
1 0 0.430045
1 0 0.462562
0 0.319615 0.0727855
0.0174258 0.265995 0.183795
0.296498 0.216388 0.220478
0.462959 0.207187 0.200534
0.602106 0.187793 0.2392
0.80148 0.139406 0.321324
0.965499 0.113878 0.354726
1 0.0976425 0.383963
1 0.0842756 0.413199
0 0.453559 0
0.0227359 0.414191 0.0330358
0.261112 0.369482 0.115679
0.466758 0.336751 0.182406
0.573846 0.33579 0.205112
0.759136 0.295109 0.285176
0.949737 0.256672 0.313527
1 0.234012 0.331395
1 0.220356 0.357183
0 0.568826 0
0.112291 0.532204 0
0.333257 0.491478 0.0287327
0.518624 0.459632 0.120012
0.613397 0.455299 0.238819
0.732799 0.447562 0.268788
0.914504 0.412665 0.27158
1 0.380133 0.276753
1 0.361166 0.295491
0 0.679622 0
0.207553 0.644205 0
0.40708 0.609796 0
0.589731 0.57528 0.114992
0.692622 0.563638 0.25745
0.739681 0.581827 0.289982
0.878599 0.568933 0.24921
1 0.535988 0.22884
1 0.510582 0.241505
0.0742962 0.791043 0
0.290394 0.756527 0
0.48336 0.726604 0
0.613123 0.709941 0.0840925
0.702815 0.702983 0.207034
0.7635 0.712032 0.276371
0.862806 0.715755 0.248508
1 0.69897 0.204623
1 0.672068 0.201099
0.150973 0.904799 0
0.359594 0.87187 0
0.541436 0.845747 0
0.65716 0.836698 0.061738
0.720485 0.840757 0.164111
0.772671 0.851499 0.229374
0.863432 0.855985 0.236088
0.977768 0.849882 0.216281
1 0.834058 0.194217
0.217731 1 0
0.417914 0.990448 0
0.588479 0.967514 0
0.69308 0.962524 0.0345312
0.753902 0.970001 0.136934
0.802213 0.982162 0.211292
0.87509 0.990692 0.237995
0.975296 0.991028 0.229786
1 0.984894 0.209247
0 0.00877394 0.368032
0.091722 0 0.358251
0.311055 0 0.334752
0.464942 0 0.323857
0.601862 0 0.334218
0.759609 0 0.39144
0.944671 0 0.477775
1 0 0.551675
1 0 0.607675
0 0.163775 0.329656
0.0686351 0.113497 0.363561
0.315038 0.0813458 0.354971
0.481102 0.0733349 0.342153
0.613397 0.0679026 0.34081
0.760388 0.0416876 0.386374
0.941985 0.00425727 0.467613
1 0 0.53225
1 0 0.57966
0 0.328481 0.210575
0.00901808 0.27248 0.308949
0.287327 0.223835 0.354696
0.482734 0.204547 0.35285
0.620371 0.200961 0.344564
0.755886 0.174182 0.376028
0.930571 0.131319 0.447684
1 0.106462 0.499992
1 0.0910048 0.538933
0 0.478264 0.0540322
0 0.434104 0.165789
0.223163 0.383764 0.28011
0.458152 0.344778 0.327413
0.608835 0.339239 0.311131
0.73431 0.318669 0.348623
0.921492 0.267247 0.42771
1 0.240757 0.460151
1 0.225345 0.490211
0 0.604486 0
0.0195468 0.568658 0.0286564
0.226688 0.53254 0.127565
0.4206 0.498054 0.220447
0.609888 0.468406 0.290257
0.705791 0.468772 0.31426
0.880491 0.426673 0.39292
1 0.386496 0.419547
1 0.36286 0.436439
0 0.718914 0
0.111818 0.684306 0
0.315221 0.651286 0.0398413
0.491753 0.620813 0.132509
0.660426 0.591714 0.226551
0.744747 0.58941 0.347387
0.855497 0.582208 0.377874
1 0.545708 0.37908
1 0.511315 0.382391
0 0.830259 0
0.205173 0.795239 0
0.409674 0.763851 0
0.565148 0.740078 0.100618
0.731182 0.708385 0.221164
0.823301 0.698466 0.365332
0.862577 0.718044 0.399268
0.993774 0.704646 0.357977
1 0.669917 0.335821
0.0720073 0.941772 0
0.291127 0.906752 0
0.491508 0.876295 0
0.641032 0.857618 0.0774548
0.754513 0.844129 0.190219
0.833371 0.838834 0.314809
0.886152 0.849149 0.385412
0.978714 0.85333 0.358007
1 0.835569 0.313146
0.152514 1 0
0.366888 1 0
0.559792 0.991699 0
0.698314 0.976974 0.0531777
0.798321 0.971633 0.16762
0.851026 0.977584 0.27187
0.895232 0.989502 0.338308
0.979522 0.99472 0.345785
1 0.988479 0.325811
0 0.0137942 0.488655
0.0829786 0 0.48101
0.309819 0 0.45948
0.471061 0 0.446632
0.605203 0 0.442527
0.737041 0 0.465476
0.891188 0 0.528527
1 0 0.616724
1 0 0.697307
0 0.167834 0.455558
0.0570535 0.118547 0.483803
0.307851 0.0850385 0.478248
0.484108 0.0743114 0.466377
0.622095 0.0728161 0.459007
0.746044 0.0655985 0.468894
0.891676 0.0396277 0.523186
1 0.00396735 0.607599
1 0 0.681147
0 0.33283 0.355062
0 0.276493 0.43798
0.277317 0.230457 0.476112
0.480537 0.209812 0.479042
0.631144 0.205768 0.470192
0.751141 0.200534 0.469062
0.885023 0.170382 0.510689
1 0.13051 0.589471
1 0.103441 0.65391
0 0.4925 0.200748
0 0.442237 0.316182
0.214862 0.390356 0.418662
0.449546 0.352789 0.475502
0.629175 0.337148 0.477287
0.755993 0.335256 0.47068
0.878477 0.304616 0.498299
1 0.258198 0.5664
1 0.233234 0.618616
0 0.631968 0.0528725
0 0.59263 0.157855
0.173434 0.552499 0.273655
0.383185 0.512871 0.398703
0.601862 0.476997 0.449119
0.742229 0.473655 0.435019
0.856641 0.451194 0.470634
1 0.396338 0.546273
1 0.368612 0.577478
0 0.754253 0
0.0144808 0.719203 0.0376593
0.222263 0.68751 0.135241
0.385367 0.662043 0.244816
0.562585 0.630304 0.340429
0.740978 0.602258 0.411841
0.828305 0.60322 0.436454
0.993957 0.559289 0.513268
1 0.517113 0.537911
0 0.868528 0
0.106981 0.833844 0
0.313436 0.803433 0.0552224
0.473136 0.781415 0.156329
0.63299 0.753689 0.251743
0.790463 0.725887 0.347066
0.866926 0.72491 0.46923
0.970581 0.717815 0.49984
1 0.679454 0.499184
0 0.980362 0
0.199863 0.945296 0
0.405692 0.914427 0.00682078
0.566949 0.894484 0.112871
0.706127 0.873854 0.219608
0.861021 0.843519 0.341497
0.944976 0.834592 0.486686
0.978027 0.855177 0.521614
1 0.84097 0.479515
0.0665141 1 0
0.287266 1 0
0.490715 1 0
0.647898 1 0.0812695
0.781735 0.992111 0.196155
0.884413 0.980301 0.310613
0.955047 0.975952 0.436149
1 0.987121 0.507607
1 0.991485 0.480385
0 0.0179141 0.620783
0.0725261 0 0.61474
0.305135 0 0.595453
0.473625 0 0.581979
0.612039 0 0.575158
0.735882 0 0.578424
0.865278 0 0.611231
1 0 0.678569
1 0 0.768002
0 0.171252 0.591165
0.0445869 0.122698 0.615549
0.298238 0.0881208 0.612131
0.482017 0.0749676 0.602228
0.627878 0.0727703 0.593439
0.750912 0.0728771 0.590738
0.872358 0.0635996 0.612467
1 0.038117 0.672938
1 0.00407416 0.759335
0 0.335454 0.504845
0 0.279698 0.575036
0.264881 0.234638 0.607492
0.472602 0.212757 0.613565
0.63357 0.206165 0.605829
0.761105 0.206714 0.600504
0.874693 0.198322 0.609216
1 0.168994 0.660151
1 0.131136 0.742367
0 0.499977 0.362783
0 0.445747 0.471809
0.204196 0.393652 0.558953
0.439384 0.359243 0.608728
0.627176 0.342611 0.615671
0.767788 0.341085 0.609323
0.878096 0.335332 0.607675
1 0.300832 0.644968
1 0.258213 0.721004
0 0.650706 0.202426
0 0.606043 0.315709
0.143725 0.560021 0.435431
0.375082 0.519677 0.549447
0.593912 0.485679 0.609857
0.76321 0.472221 0.613809
0.881834 0.47129 0.608179
0.992844 0.436377 0.631525
1 0.386145 0.695811
0 0.783276 0.0668803
0 0.745907 0.166537
0.146761 0.710826 0.275776
0.33225 0.682155 0.403037
0.525795 0.645747 0.531304
0.733608 0.611521 0.583352
0.8663 0.609644 0.570733
0.971191 0.584894 0.604044
1 0.526299 0.675959
0 0.90341 0
0.00776684 0.868467 0.0585184
0.215412 0.837659 0.154452
0.380041 0.817517 0.263584
0.526894 0.795224 0.376333
0.692866 0.764736 0.473213
0.862974 0.737591 0.54551
0.943297 0.738735 0.570306
1 0.692683 0.645014
0 1 0
0.100145 0.98291 0
0.306905 0.952422 0.0782635
0.470283 0.933654 0.182635
0.614054 0.915129 0.287236
0.762707 0.888701 0.383948
0.911574 0.861463 0.47985
0.981735 0.861402 0.602914
1 0.854139 0.633371
0 1 0
0.192416 1 0
0.398871 1 0.0272984
0.561593 1 0.133257
0.707347 1 0.243275
0.835706 1 0.351675
0.982071 0.980011 0.474205
1 0.971679 0.619989
1 0.992966 0.655619
0 0.02121 0.763485
0.0607767 0 0.758694
0.297856 0 0.741558
0.47248 0 0.728557
0.616266 0 0.720027
0.741497 0 0.717494
0.859907 0 0.729198
0.987915 0 0.769711
1 0 0.84036
0 0.174044 0.736278
0.031281 0.126024 0.757885
0.287007 0.0906691 0.756069
0.476539 0.0755779 0.748409
0.629725 0.071458 0.739055
0.7579 0.0729992 0.734493
0.872862 0.0728771 0.738048
0.993545 0.0618906 0.76936
1 0.0369573 0.83444
0 0.337194 0.660563
0 0.282338 0.720821
0.251606 0.237995 0.749432
0.462196 0.215045 0.757641
0.630686 0.206027 0.751873
0.766644 0.206424 0.745678
0.881178 0.207202 0.743648
0.99379 0.196307 0.76376
1 0.167956 0.821363
0 0.503716 0.532433
0 0.447593 0.631769
0.192386 0.396048 0.706203
0.426139 0.362631 0.750301
0.61857 0.344884 0.76051
0.769696 0.340948 0.755444
0.889387 0.34284 0.751461
0.994186 0.33286 0.758572
1 0.299916 0.805875
0 0.662303 0.372229
0 0.612741 0.488014
0.124743 0.562737 0.601267
0.36376 0.522301 0.700069
0.583642 0.492042 0.753979
0.761501 0.477958 0.76347
0.894713 0.478218 0.758907
0.996902 0.471534 0.756344
1 0.432425 0.788998
0 0.805051 0.218173
0 0.763912 0.326345
0.0942397 0.723491 0.443885
0.302007 0.689128 0.57525
0.517968 0.652827 0.693309
0.726406 0.620935 0.755825
0.887999 0.608942 0.761257
0.999954 0.60856 0.756176
1 0.569116 0.774975
0 0.933165 0.0934615
0 0.896788 0.189715
0.129244 0.863676 0.293629
0.303975 0.840253 0.414542
0.473991 0.815549 0.545769
0.656779 0.78088 0.675761
0.856352 0.747585 0.728756
0.982895 0.746777 0.717205
1 0.719432 0.747921
0 1 4.57771e-05
0 1 0.0898756
0.207065 0.986419 0.184649
0.371664 0.967269 0.292256
0.520928 0.951186 0.405447
0.656962 0.930571 0.519875
0.814313 0.900649 0.617304
0.977707 0.873976 0.690089
1 0.875044 0.714809
0 1 0
0.0914931 1 0.0183261
0.298573 1 0.110887
0.462272 1 0.215167
0.610346 1 0.323674
0.743648 1 0.43032
0.883696 1 0.527596
1 0.998062 0.623652
1 0.998627 0.747356
