EA 50 Cinematic Luts Pack/EA_Cinematic Lut (7).cube
TITLE "Generated by Resolve"
LUT_3D_SIZE 33
0.238895 0.063798 0.15201
0.245869 0.0668498 0.154696
0.252811 0.0699168 0.157412
0.260258 0.0728466 0.160021
0.267445 0.0758526 0.162676
0.274388 0.0788128 0.165301
0.281361 0.0819104 0.168048
0.288457 0.0852369 0.170993
0.295811 0.0885023 0.173877
0.303532 0.0917983 0.176791
0.311681 0.0946822 0.179385
0.320531 0.0972457 0.18172
0.330434 0.099443 0.18378
0.341161 0.101396 0.185641
0.352972 0.103029 0.187243
0.365011 0.104631 0.18883
0.37763 0.106111 0.190326
0.390356 0.107424 0.191684
0.403494 0.108644 0.192966
0.416953 0.109819 0.194217
0.430671 0.110979 0.195453
0.444709 0.112093 0.196658
0.458885 0.113191 0.197848
0.473381 0.114336 0.1991
0.487953 0.115648 0.200473
0.502754 0.116945 0.201846
0.517555 0.118334 0.203281
0.532464 0.119722 0.20473
0.547341 0.121309 0.206332
0.562356 0.123156 0.208148
0.577264 0.125444 0.21033
0.592325 0.127718 0.212512
0.606958 0.130159 0.214832
0.240482 0.0809339 0.15671
0.247501 0.0839857 0.159411
0.254719 0.0867628 0.162051
0.262196 0.0899825 0.164874
0.269306 0.0933242 0.167788
0.276326 0.0966812 0.170565
0.283314 0.0999771 0.173434
0.290455 0.103197 0.175845
0.297826 0.106233 0.178698
0.305562 0.109026 0.181094
0.313954 0.11162 0.18349
0.323247 0.113939 0.185687
0.3337 0.115892 0.187625
0.345144 0.117556 0.189349
0.357061 0.119081 0.190997
0.369635 0.120546 0.192554
0.382406 0.122011 0.194156
0.395483 0.123354 0.195621
0.409003 0.12462 0.196994
0.422583 0.125887 0.198352
0.436713 0.127108 0.199649
0.450828 0.128481 0.201099
0.465476 0.130007 0.202655
0.480095 0.131502 0.204227
0.494957 0.132952 0.205768
0.509896 0.13463 0.207462
0.525063 0.136522 0.209354
0.54023 0.138643 0.211429
0.555459 0.14081 0.213519
0.570596 0.143221 0.215915
0.586007 0.146288 0.218647
0.601205 0.14966 0.221698
0.61651 0.153231 0.224948
0.2421 0.0983902 0.161364
0.24918 0.101747 0.164157
0.256687 0.104952 0.166903
0.263874 0.108141 0.169711
0.270893 0.111269 0.172213
0.277821 0.11429 0.175021
0.284855 0.11725 0.177798
0.292103 0.120226 0.180713
0.299809 0.123049 0.183322
0.307851 0.125658 0.18587
0.316823 0.127993 0.188159
0.326818 0.130053 0.190249
0.337911 0.131838 0.192096
0.349722 0.133501 0.193835
0.362203 0.135164 0.195666
0.374823 0.136721 0.197192
0.3879 0.138155 0.198703
0.401389 0.139605 0.200229
0.415015 0.141176 0.201846
0.429175 0.142718 0.203449
0.443305 0.144289 0.205066
0.457969 0.145876 0.206714
0.472694 0.147906 0.208667
0.48777 0.149935 0.210636
0.502892 0.152102 0.212696
0.518166 0.154314 0.214786
0.533501 0.156817 0.217105
0.549096 0.159762 0.219806
0.564767 0.16318 0.222965
0.580499 0.166873 0.22623
0.596063 0.170504 0.229511
0.61146 0.174456 0.23299
0.626825 0.178744 0.236728
0.244083 0.116335 0.166583
0.251438 0.11931 0.169162
0.258717 0.12221 0.171878
0.265736 0.12517 0.174701
0.272694 0.12813 0.177523
0.279667 0.131044 0.180331
0.286854 0.13402 0.183246
0.294331 0.136797 0.18587
0.302129 0.139467 0.188479
0.310887 0.141924 0.19086
0.320302 0.144259 0.193149
0.331197 0.146242 0.195132
0.342763 0.148058 0.196948
0.355016 0.149752 0.198749
0.367758 0.151644 0.200504
0.380697 0.15346 0.202289
0.394156 0.1552 0.203998
0.407736 0.156985 0.205722
0.421836 0.158801 0.207492
0.436088 0.160861 0.209445
0.450919 0.163104 0.211688
0.465751 0.16553 0.213809
0.480934 0.167834 0.216022
0.496178 0.170565 0.218372
0.511818 0.173663 0.221118
0.527535 0.177111 0.224125
0.543343 0.180606 0.227131
0.559091 0.184268 0.230335
0.575036 0.188479 0.233921
0.590829 0.192752 0.237629
0.606546 0.197192 0.241413
0.62211 0.201709 0.245258
0.637354 0.206394 0.249226
0.24622 0.133181 0.171893
0.253605 0.136004 0.174578
0.2607 0.138888 0.177371
0.267689 0.141772 0.180148
0.274617 0.144656 0.18294
0.281712 0.14757 0.185718
0.289067 0.150591 0.188525
0.296742 0.153414 0.19118
0.30515 0.1561 0.193622
0.314137 0.158633 0.195956
0.324651 0.160845 0.198032
0.335958 0.163012 0.200061
0.34815 0.165164 0.202136
0.360815 0.167269 0.204059
0.373678 0.169268 0.206058
0.387076 0.171405 0.207874
0.400687 0.17377 0.209964
0.414893 0.176165 0.212085
0.429129 0.178637 0.214206
0.4439 0.18117 0.216495
0.458946 0.18439 0.219135
0.474449 0.187701 0.222049
0.489982 0.191241 0.224979
0.505745 0.194797 0.22797
0.521599 0.198535 0.231098
0.537499 0.202594 0.234409
0.553552 0.206867 0.238041
0.569528 0.211536 0.241657
0.585412 0.216068 0.245319
0.601053 0.220737 0.248981
0.616663 0.225528 0.252781
0.632013 0.230488 0.256748
0.647211 0.235523 0.260685
0.248386 0.149706 0.177157
0.255589 0.152529 0.179843
0.262577 0.155459 0.182559
0.269535 0.15845 0.185321
0.2766 0.161547 0.188281
0.283848 0.16466 0.190921
0.291432 0.167605 0.193683
0.299474 0.170581 0.196139
0.308309 0.173495 0.198657
0.318227 0.176226 0.201007
0.329183 0.178698 0.203128
0.341131 0.181048 0.205158
0.35375 0.183719 0.207401
0.366705 0.186343 0.209781
0.380102 0.189014 0.211902
0.393652 0.19173 0.21413
0.407874 0.194598 0.216464
0.422263 0.197925 0.21912
0.437308 0.20148 0.222019
0.452445 0.205432 0.225025
0.467903 0.209186 0.228031
0.483406 0.213153 0.231022
0.499275 0.21735 0.234287
0.515206 0.221729 0.237751
0.531228 0.226139 0.241138
0.547311 0.230594 0.244663
0.56321 0.235584 0.248264
0.57908 0.240391 0.251789
0.594675 0.245335 0.255238
0.610117 0.250355 0.258717
0.625391 0.255497 0.262364
0.640497 0.260822 0.266102
0.655329 0.266285 0.270207
0.250294 0.166461 0.181949
0.257313 0.169528 0.184588
0.264256 0.172625 0.187213
0.271183 0.175799 0.189975
0.278431 0.179248 0.192752
0.285924 0.182574 0.195682
0.293797 0.185916 0.198291
0.302388 0.189075 0.200916
0.311711 0.192248 0.203418
0.322515 0.195315 0.205814
0.334127 0.198398 0.208347
0.346639 0.201572 0.21059
0.359457 0.204608 0.213001
0.372778 0.207919 0.21532
0.386526 0.211612 0.218112
0.400916 0.215457 0.221042
0.41532 0.219394 0.223957
0.430304 0.223316 0.226886
0.445411 0.227848 0.230121
0.460899 0.232258 0.233341
0.476402 0.236835 0.236393
0.492027 0.241413 0.23946
0.507851 0.246036 0.242618
0.523613 0.250797 0.245823
0.53962 0.255604 0.249195
0.555383 0.26067 0.252537
0.571374 0.265751 0.256184
0.586877 0.270909 0.259464
0.602396 0.276173 0.262959
0.617716 0.281575 0.266621
0.632807 0.287053 0.270253
0.647669 0.292638 0.274174
0.662425 0.298634 0.27808
0.251621 0.18407 0.185794
0.258595 0.187472 0.188418
0.265553 0.191028 0.191226
0.272663 0.194766 0.193973
0.279896 0.198383 0.196826
0.287648 0.202121 0.199451
0.295995 0.205982 0.202396
0.305119 0.209827 0.205188
0.315389 0.213428 0.207767
0.32668 0.216999 0.210376
0.339147 0.221012 0.213031
0.352026 0.225101 0.215976
0.365377 0.229343 0.218601
0.378912 0.233585 0.221347
0.393027 0.237888 0.22414
0.407355 0.242466 0.227131
0.422293 0.24712 0.230411
0.437278 0.252018 0.233524
0.452766 0.256825 0.236881
0.468193 0.261616 0.239811
0.48368 0.266545 0.242908
0.499535 0.271427 0.246036
0.515114 0.276432 0.249119
0.531029 0.281407 0.252308
0.546777 0.286793 0.255711
0.562737 0.292058 0.259327
0.578256 0.297429 0.262638
0.593912 0.30277 0.266239
0.609186 0.308309 0.269795
0.62443 0.31397 0.273487
0.63946 0.319738 0.27744
0.6542 0.325658 0.281224
0.668894 0.331884 0.285664
0.252216 0.203357 0.188479
0.259174 0.207126 0.191165
0.266209 0.211398 0.194049
0.273503 0.215656 0.197055
0.280949 0.22005 0.199725
0.28893 0.224369 0.202518
0.297719 0.228824 0.20528
0.307485 0.233524 0.20827
0.318761 0.238193 0.211414
0.330922 0.242939 0.214374
0.34374 0.247562 0.217517
0.357 0.252247 0.220279
0.37052 0.257176 0.223377
0.384665 0.262135 0.226459
0.398856 0.267124 0.229496
0.413581 0.272023 0.232654
0.428489 0.277287 0.235798
0.443809 0.282353 0.239139
0.459113 0.287434 0.2421
0.474693 0.292439 0.24535
0.490379 0.297536 0.248341
0.505989 0.30277 0.25156
0.521965 0.307973 0.255039
0.537636 0.313329 0.258228
0.553689 0.318883 0.262043
0.569284 0.324422 0.2654
0.585046 0.329961 0.269108
0.600458 0.335668 0.272725
0.615808 0.341421 0.276448
0.6309 0.347265 0.280415
0.645869 0.353353 0.284413
0.660655 0.359686 0.289021
0.674998 0.365957 0.293126
0.251743 0.225116 0.189548
0.258686 0.229816 0.19234
0.265965 0.234516 0.195438
0.27335 0.239567 0.198398
0.281498 0.244877 0.201801
0.290166 0.250401 0.205173
0.299626 0.255756 0.208423
0.310414 0.260929 0.211627
0.322271 0.266377 0.214939
0.335058 0.271626 0.218402
0.348257 0.27689 0.221454
0.361791 0.282063 0.224842
0.375723 0.287266 0.227832
0.389868 0.292531 0.230991
0.404532 0.297749 0.234287
0.419333 0.302998 0.237339
0.434562 0.308431 0.240894
0.449897 0.31368 0.2439
0.465385 0.318975 0.247395
0.481086 0.3243 0.250538
0.496696 0.329671 0.25388
0.512657 0.334966 0.257389
0.52842 0.340597 0.260792
0.544549 0.346288 0.264668
0.560204 0.351965 0.268055
0.575982 0.357595 0.271778
0.59147 0.363394 0.27541
0.606897 0.369284 0.279255
0.622156 0.37525 0.283513
0.637186 0.381338 0.287465
0.652079 0.387625 0.292073
0.666621 0.394125 0.296407
0.680858 0.400549 0.300954
0.250767 0.249973 0.18996
0.258259 0.255634 0.193652
0.265812 0.261509 0.197116
0.27393 0.267277 0.2009
0.282322 0.273228 0.20441
0.291737 0.27921 0.208103
0.302098 0.285161 0.212024
0.313726 0.290913 0.215381
0.326299 0.296666 0.21915
0.339345 0.302159 0.222309
0.352834 0.307622 0.225849
0.366674 0.313115 0.228992
0.380728 0.318563 0.232334
0.3953 0.323919 0.235584
0.410117 0.329473 0.238911
0.425254 0.335103 0.242618
0.440528 0.340581 0.245777
0.455955 0.345983 0.249332
0.471595 0.351461 0.252522
0.487205 0.357031 0.255985
0.503227 0.362554 0.259556
0.518959 0.368215 0.262989
0.535088 0.373953 0.26688
0.550851 0.379873 0.270512
0.566766 0.385641 0.274434
0.582315 0.391592 0.278218
0.597803 0.397543 0.28217
0.61326 0.403525 0.286412
0.62826 0.409735 0.290471
0.643442 0.416205 0.295201
0.658 0.422705 0.299489
0.672465 0.429114 0.304189
0.686336 0.435737 0.308675
0.250706 0.278218 0.192126
0.258305 0.284504 0.19585
0.266438 0.290913 0.200122
0.274907 0.297475 0.204105
0.284153 0.303822 0.208255
0.29398 0.310109 0.212177
0.305333 0.316258 0.215839
0.317525 0.322316 0.219806
0.33048 0.328069 0.223072
0.343847 0.3337 0.226658
0.357488 0.339391 0.229877
0.371588 0.345052 0.233402
0.385977 0.350713 0.236988
0.400656 0.356344 0.240269
0.415732 0.362081 0.244083
0.430991 0.367834 0.247456
0.446433 0.37348 0.251164
0.462043 0.379171 0.254459
0.477638 0.384863 0.257969
0.493599 0.390494 0.26154
0.509346 0.396292 0.265141
0.525582 0.402289 0.269322
0.54136 0.40824 0.27306
0.557366 0.414054 0.27715
0.572915 0.420066 0.280964
0.588525 0.426123 0.284993
0.604028 0.432242 0.289281
0.619181 0.438483 0.29337
0.634363 0.444739 0.297932
0.649104 0.451499 0.302525
0.663722 0.457938 0.307424
0.67776 0.464591 0.312093
0.691569 0.471275 0.317266
0.251087 0.308888 0.195193
0.259174 0.315587 0.199603
0.267475 0.322347 0.203677
0.276448 0.329046 0.208057
0.286091 0.335668 0.212146
0.296803 0.342031 0.215961
0.308721 0.348302 0.220066
0.321492 0.354391 0.223606
0.334829 0.360296 0.227405
0.348348 0.366247 0.230869
0.362371 0.372045 0.234501
0.376547 0.377874 0.238132
0.391196 0.383703 0.24155
0.406226 0.389807 0.245624
0.421424 0.395651 0.249027
0.43679 0.401404 0.252811
0.452354 0.407202 0.256229
0.467964 0.413046 0.259953
0.483925 0.41886 0.263859
0.499657 0.424765 0.267475
0.51577 0.43061 0.271565
0.531746 0.436851 0.275547
0.547753 0.442802 0.279759
0.5635 0.44889 0.283604
0.579248 0.454948 0.287938
0.594736 0.461128 0.292027
0.609918 0.46743 0.296345
0.625254 0.473823 0.301213
0.64004 0.480522 0.305898
0.65478 0.486931 0.310933
0.66891 0.493568 0.315709
0.682918 0.500221 0.320928
0.696345 0.507057 0.326116
0.251926 0.34081 0.199008
0.260075 0.34789 0.20325
0.268864 0.354772 0.207736
0.278202 0.361608 0.211887
0.28838 0.368338 0.216022
0.30013 0.375021 0.220478
0.31249 0.381308 0.224186
0.325643 0.387366 0.228153
0.339101 0.393454 0.231708
0.353033 0.399496 0.235538
0.367178 0.405554 0.239277
0.381689 0.411566 0.242832
0.396506 0.417548 0.246784
0.411749 0.423774 0.250507
0.427054 0.429709 0.254536
0.442618 0.43566 0.258167
0.458289 0.44155 0.262242
0.474113 0.447486 0.266056
0.48986 0.453498 0.269841
0.506065 0.459571 0.274128
0.521965 0.465843 0.27808
0.538033 0.471809 0.282322
0.553903 0.477913 0.286259
0.569635 0.484031 0.290822
0.585229 0.490257 0.295262
0.600519 0.496559 0.299672
0.615839 0.502831 0.304585
0.630823 0.509606 0.309483
0.64567 0.51603 0.31458
0.659907 0.522667 0.319341
0.674128 0.529274 0.324529
0.687663 0.536065 0.329656
0.70071 0.542992 0.33492
0.252628 0.3738 0.202655
0.261357 0.380941 0.20737
0.270405 0.388083 0.211902
0.280262 0.395071 0.216129
0.291447 0.40177 0.2206
0.303502 0.408545 0.224689
0.316609 0.414832 0.228824
0.32987 0.42118 0.232578
0.343771 0.427329 0.236606
0.357748 0.433539 0.24033
0.372152 0.439719 0.244114
0.386999 0.445991 0.248417
0.40209 0.452262 0.252277
0.417319 0.458289 0.256458
0.432807 0.464347 0.260197
0.448447 0.470375 0.264424
0.464271 0.476432 0.268284
0.48011 0.482506 0.272282
0.496132 0.488502 0.276448
0.512215 0.494942 0.28069
0.528252 0.500984 0.285206
0.544137 0.507149 0.289372
0.559945 0.513268 0.294133
0.575616 0.519463 0.298665
0.590967 0.52578 0.303227
0.606378 0.532052 0.308156
0.621469 0.538796 0.313039
0.636408 0.54522 0.318181
0.650813 0.551797 0.322972
0.665141 0.558328 0.328252
0.678813 0.565042 0.333577
0.69221 0.571847 0.33872
0.704768 0.578805 0.344594
0.253849 0.407568 0.207126
0.262623 0.414908 0.211765
0.272297 0.42211 0.21622
0.283009 0.429297 0.221057
0.294774 0.43621 0.225238
0.307515 0.442695 0.229541
0.320638 0.44918 0.233417
0.334478 0.455512 0.23769
0.348318 0.461906 0.241794
0.362783 0.468162 0.245869
0.37731 0.474418 0.250004
0.392401 0.480964 0.254185
0.407614 0.487144 0.258503
0.423056 0.493324 0.262364
0.438651 0.499428 0.266667
0.454429 0.505547 0.270619
0.470329 0.511635 0.274846
0.486275 0.517769 0.279316
0.502434 0.524178 0.283757
0.518425 0.530266 0.288502
0.534356 0.536416 0.292836
0.55021 0.54255 0.297704
0.565942 0.54876 0.302235
0.581369 0.555062 0.306859
0.596887 0.561303 0.311803
0.612055 0.568032 0.316762
0.6271 0.57435 0.32195
0.641596 0.580865 0.326833
0.656046 0.587335 0.33228
0.669932 0.593942 0.33756
0.683467 0.600641 0.342733
0.696376 0.607431 0.348501
0.708675 0.614588 0.354055
0.255146 0.442161 0.211688
0.264576 0.449531 0.216617
0.274662 0.456779 0.221256
0.286137 0.464118 0.225864
0.298543 0.470863 0.230488
0.311559 0.477531 0.234638
0.325231 0.48397 0.239109
0.338964 0.490471 0.243351
0.353353 0.496849 0.247623
0.367803 0.503319 0.251957
0.382818 0.509941 0.256199
0.397955 0.516182 0.260639
0.413306 0.522423 0.264683
0.42887 0.528603 0.269245
0.444602 0.534783 0.273625
0.460441 0.540932 0.278019
0.476402 0.547036 0.282628
0.492576 0.553506 0.287251
0.508583 0.559594 0.292088
0.524559 0.565759 0.296452
0.540459 0.571878 0.30135
0.556252 0.578073 0.305913
0.571771 0.584298 0.310674
0.58735 0.590478 0.315724
0.602502 0.597009 0.320653
0.617777 0.603418 0.326085
0.632334 0.609857 0.331014
0.646922 0.61619 0.336431
0.660899 0.622721 0.341619
0.674739 0.629236 0.347036
0.687968 0.63592 0.352468
0.700389 0.643046 0.358083
0.712398 0.649989 0.364096
0.25687 0.477256 0.216968
0.266804 0.484779 0.221973
0.277668 0.492332 0.226947
0.289799 0.499229 0.231769
0.302541 0.506035 0.236118
0.316106 0.512642 0.240803
0.329778 0.51928 0.245136
0.344045 0.525765 0.249592
0.358373 0.53225 0.254017
0.373327 0.538994 0.258518
0.388403 0.545327 0.263249
0.403677 0.551644 0.267582
0.419257 0.557824 0.272389
0.434836 0.56405 0.276982
0.450752 0.570184 0.281544
0.466606 0.576349 0.286275
0.482719 0.582681 0.290837
0.498802 0.588922 0.295857
0.514824 0.595041 0.300298
0.530739 0.601129 0.305303
0.546578 0.607263 0.310109
0.562295 0.613397 0.315053
0.577798 0.619577 0.320027
0.593133 0.626093 0.325093
0.608408 0.632303 0.330434
0.623087 0.638636 0.335332
0.637827 0.644892 0.340749
0.651942 0.651301 0.345846
0.665919 0.657664 0.351278
0.679286 0.664164 0.356649
0.69189 0.670893 0.362036
0.704311 0.677897 0.368185
0.715648 0.684855 0.37377
0.259052 0.51284 0.222965
0.269505 0.520653 0.228275
0.281331 0.527764 0.23331
0.293706 0.534783 0.237873
0.307164 0.541482 0.242695
0.320714 0.548196 0.247181
0.334874 0.554757 0.251972
0.349126 0.561334 0.256703
0.363912 0.568017 0.261402
0.378927 0.574502 0.266514
0.394156 0.580835 0.271031
0.409735 0.587045 0.276005
0.425223 0.593317 0.280629
0.441184 0.599451 0.28542
0.456916 0.605631 0.290135
0.473091 0.612039 0.294896
0.489113 0.618143 0.299977
0.50515 0.624216 0.30457
0.521111 0.630259 0.309743
0.537011 0.636316 0.314626
0.552743 0.642374 0.319631
0.568338 0.648447 0.32459
0.583703 0.654627 0.329519
0.599115 0.661021 0.334966
0.614008 0.667201 0.339834
0.628702 0.673335 0.345235
0.643015 0.679545 0.350454
0.657115 0.685802 0.355764
0.67068 0.692164 0.361151
0.683665 0.698756 0.366537
0.696147 0.70544 0.372473
0.707668 0.712184 0.377951
0.719051 0.718883 0.383963
0.261769 0.549004 0.229801
0.273075 0.556405 0.235172
0.285161 0.563561 0.239994
0.298421 0.570367 0.245136
0.311833 0.577173 0.250095
0.325917 0.58378 0.25507
0.340063 0.590387 0.260044
0.354772 0.597223 0.265064
0.369741 0.603616 0.270222
0.384817 0.610025 0.274876
0.400305 0.616251 0.279927
0.415793 0.622522 0.284627
0.431678 0.628611 0.289601
0.447395 0.634775 0.294484
0.463523 0.640879 0.299367
0.479561 0.647211 0.304616
0.495598 0.653223 0.309316
0.511589 0.659175 0.314519
0.52752 0.665141 0.319356
0.543328 0.671122 0.324453
0.55903 0.677104 0.329427
0.574487 0.683268 0.334478
0.589929 0.689387 0.339773
0.604837 0.69546 0.344656
0.619684 0.701457 0.350072
0.63418 0.707546 0.355261
0.64831 0.713619 0.36054
0.662043 0.719738 0.365835
0.675273 0.725994 0.371038
0.687968 0.732525 0.376928
0.699855 0.739162 0.382437
0.711299 0.745617 0.388357
0.722042 0.752239 0.394171
0.265156 0.585092 0.237675
0.277012 0.59234 0.242863
0.289891 0.599252 0.248386
0.303197 0.606088 0.253574
0.317189 0.612741 0.258778
0.331289 0.619379 0.263874
0.345876 0.625971 0.269032
0.3608 0.63267 0.27425
0.375692 0.639094 0.279072
0.39118 0.645289 0.284291
0.406516 0.65153 0.289326
0.4224 0.657618 0.294347
0.438087 0.663737 0.299397
0.454231 0.669871 0.304494
0.470192 0.67602 0.309682
0.486229 0.681971 0.314382
0.502235 0.687861 0.3196
0.518212 0.693767 0.324437
0.534096 0.69958 0.329549
0.549798 0.705409 0.334554
0.565347 0.711284 0.339513
0.580835 0.717342 0.344915
0.595956 0.723354 0.349874
0.610834 0.729183 0.355215
0.625391 0.735073 0.360265
0.639628 0.741009 0.365576
0.653559 0.746975 0.370825
0.666926 0.753017 0.375998
0.679973 0.759319 0.381811
0.692027 0.765621 0.387213
0.703655 0.771923 0.393149
0.714611 0.778332 0.398917
0.725368 0.78468 0.404669
0.269139 0.621027 0.246448
0.281697 0.628046 0.252216
0.294865 0.634958 0.257527
0.308721 0.641642 0.262913
0.322667 0.64831 0.268177
0.337285 0.654978 0.273564
0.352026 0.66157 0.278889
0.366888 0.667948 0.283925
0.382223 0.674159 0.289296
0.397513 0.680369 0.294469
0.413321 0.686381 0.299611
0.428946 0.692424 0.304723
0.445029 0.698329 0.309743
0.461006 0.704494 0.315022
0.477104 0.710445 0.31986
0.493095 0.716197 0.325093
0.509071 0.72195 0.330068
0.524971 0.727687 0.335103
0.540749 0.733425 0.340154
0.556497 0.739101 0.345083
0.571954 0.745068 0.3505
0.587167 0.750805 0.355337
0.602136 0.756497 0.360708
0.616785 0.762249 0.365713
0.631144 0.767941 0.370977
0.645151 0.773663 0.376165
0.658747 0.779461 0.38146
0.671946 0.785397 0.386892
0.68426 0.791684 0.392401
0.696117 0.79765 0.398199
0.707195 0.8038 0.403815
0.71809 0.809964 0.409613
0.728481 0.81619 0.415396
0.273976 0.656718 0.256504
0.2869 0.663661 0.261936
0.300542 0.670359 0.267582
0.314504 0.676982 0.27303
0.328801 0.683497 0.278508
0.343526 0.69015 0.284138
0.358358 0.696574 0.289433
0.373571 0.702724 0.294865
0.3888 0.708873 0.300023
0.404532 0.714855 0.305272
0.420111 0.720851 0.31046
0.436179 0.72668 0.315541
0.452125 0.732784 0.320912
0.468177 0.738506 0.325734
0.484199 0.744183 0.331075
0.500221 0.749813 0.33608
0.516167 0.755367 0.3411
0.531914 0.760922 0.34609
0.547692 0.766445 0.35108
0.563119 0.772107 0.356207
0.578561 0.777874 0.361212
0.593561 0.783337 0.366522
0.608301 0.78883 0.371633
0.622812 0.794369 0.376822
0.636927 0.799924 0.38204
0.650706 0.805463 0.387243
0.664088 0.81117 0.392599
0.676677 0.817075 0.398001
0.688746 0.822873 0.403632
0.699962 0.82884 0.40914
0.710994 0.834669 0.414862
0.72137 0.84062 0.420584
0.731701 0.84654 0.426307
0.279286 0.692134 0.267262
0.292744 0.698863 0.272984
0.306584 0.705455 0.278645
0.32076 0.711986 0.284306
0.335424 0.718608 0.290059
0.350103 0.724895 0.295369
0.365255 0.731014 0.300893
0.380423 0.737102 0.306081
0.396048 0.742977 0.311437
0.411566 0.748837 0.31664
0.427558 0.754559 0.321798
0.443381 0.760403 0.327062
0.459541 0.766232 0.332128
0.475624 0.771679 0.337392
0.491539 0.777188 0.342367
0.507637 0.782589 0.347448
0.523384 0.788037 0.352499
0.539223 0.793347 0.357458
0.554681 0.798871 0.362615
0.57023 0.804303 0.367681
0.585199 0.809674 0.372854
0.600076 0.814984 0.377951
0.614603 0.820264 0.383047
0.62884 0.825544 0.388174
0.642786 0.830869 0.393332
0.656245 0.836271 0.398581
0.669306 0.841993 0.403998
0.681468 0.847471 0.409476
0.692897 0.853101 0.415015
0.704082 0.858763 0.420584
0.714611 0.864485 0.426291
0.724941 0.8701 0.431891
0.73489 0.875669 0.437522
0.285313 0.727047 0.279088
0.298985 0.733593 0.284825
0.313054 0.740032 0.290501
0.327504 0.746471 0.296208
0.342199 0.752911 0.301808
0.357259 0.758892 0.307362
0.37229 0.764874 0.31281
0.3879 0.770687 0.318135
0.403372 0.776471 0.323461
0.419272 0.782055 0.328618
0.435096 0.787808 0.333944
0.45127 0.793347 0.339101
0.46717 0.79881 0.344213
0.483162 0.80415 0.349126
0.499275 0.809339 0.354238
0.514992 0.814557 0.359274
0.530907 0.819699 0.364263
0.54638 0.824903 0.36936
0.562066 0.830304 0.374563
0.577096 0.835386 0.379614
0.592004 0.840467 0.384558
0.606638 0.845579 0.389685
0.621042 0.850675 0.394797
0.635035 0.855741 0.399893
0.648676 0.860822 0.405081
0.661982 0.866209 0.410468
0.674434 0.871473 0.415961
0.686229 0.876783 0.421424
0.697383 0.882094 0.426856
0.708049 0.887419 0.43238
0.718441 0.892775 0.437919
0.728466 0.898085 0.443534
0.738308 0.903456 0.449058
0.291844 0.761425 0.291585
0.305776 0.767773 0.297322
0.320104 0.774212 0.303181
0.334737 0.780407 0.308873
0.349599 0.786404 0.314443
0.364553 0.792294 0.319936
0.380056 0.797955 0.325292
0.395438 0.803571 0.330632
0.411307 0.809049 0.335851
0.42707 0.814496 0.341054
0.443244 0.820096 0.346426
0.459174 0.825299 0.351476
0.475059 0.830457 0.356588
0.491173 0.835523 0.361563
0.50692 0.84062 0.366659
0.522881 0.845518 0.371618
0.538399 0.850507 0.376699
0.554147 0.855604 0.381857
0.569314 0.860548 0.386954
0.584329 0.865431 0.391836
0.599054 0.870222 0.396948
0.613489 0.875013 0.401999
0.627619 0.879866 0.407111
0.641489 0.884703 0.412329
0.654978 0.889784 0.4177
0.667765 0.89456 0.423087
0.679759 0.899489 0.428473
0.691234 0.904494 0.434043
0.702144 0.909438 0.439551
0.712505 0.914244 0.444877
0.722454 0.918898 0.450172
0.73228 0.923659 0.455573
0.741848 0.928374 0.461006
0.298833 0.795071 0.304738
0.312978 0.801236 0.310536
0.327596 0.807538 0.316487
0.34229 0.813382 0.322057
0.357244 0.819104 0.327611
0.372549 0.82472 0.332952
0.387884 0.830259 0.338369
0.403677 0.835538 0.343603
0.419501 0.840818 0.348882
0.435523 0.846189 0.354284
0.45153 0.851255 0.359457
0.467399 0.85626 0.364645
0.483467 0.861097 0.369574
0.499214 0.865919 0.374609
0.515236 0.870649 0.379583
0.530831 0.875425 0.384695
0.546731 0.880308 0.389944
0.561959 0.884916 0.395071
0.577157 0.889464 0.400198
0.592096 0.894057 0.405325
0.606699 0.898604 0.410513
0.621057 0.903059 0.415564
0.634913 0.907515 0.420691
0.64863 0.912123 0.425925
0.661692 0.916747 0.431281
0.673869 0.921248 0.436454
0.685405 0.925582 0.441718
0.6963 0.929915 0.446967
0.706767 0.934325 0.452232
0.716884 0.938689 0.457572
0.726726 0.94313 0.462882
0.736187 0.94725 0.468025
0.745418 0.951308 0.473152
0.306401 0.828 0.318669
0.320836 0.834104 0.324636
0.3355 0.839857 0.330327
0.350362 0.845472 0.335912
0.365545 0.850889 0.341329
0.380819 0.856199 0.346746
0.396506 0.861387 0.352102
