EA 50 Cinematic Luts Pack/EA_Cinematic Lut (40).cube
TITLE "This grading effect will turn your footage into a contrasted, warmish, powerful, action film. "
LUT_3D_SIZE 9
0.0000 0.0000 0.0000
0.1383 0.0000 0.0000
0.2962 0.0000 0.0000
0.4849 0.0000 0.0000
0.6644 0.0000 0.0000
0.8013 0.0000 0.0000
0.8983 0.0000 0.0000
0.9630 0.0000 0.0000
1.0000 0.0013 0.0015
0.0363 0.1064 0.0294
0.1369 0.1113 0.0307
0.2681 0.1219 0.0561
0.4566 0.1274 0.0511
0.6597 0.1158 0.0122
0.8014 0.1114 0.0000
0.8984 0.1117 0.0000
0.9630 0.1118 0.0000
1.0000 0.1129 0.0031
0.1048 0.2436 0.0745
0.1583 0.2505 0.0498
0.2923 0.2527 0.0762
0.4418 0.2640 0.1095
0.6159 0.2751 0.1166
0.7674 0.2851 0.1135
0.8842 0.2797 0.0920
0.9604 0.2644 0.0497
1.0000 0.2558 0.0054
0.1779 0.3919 0.1205
0.2167 0.3960 0.1071
0.2952 0.4086 0.0009
0.4784 0.4057 0.1243
0.6234 0.4165 0.1779
0.7539 0.4321 0.1979
0.8644 0.4414 0.2008
0.9395 0.4527 0.1986
0.9930 0.4502 0.1775
0.2551 0.5352 0.1802
0.2890 0.5375 0.1701
0.3566 0.5451 0.1330
0.4833 0.5548 0.0000
0.6589 0.5511 0.1856
0.7728 0.5602 0.2522
0.8624 0.5738 0.2801
0.9341 0.5857 0.2923
0.9850 0.5952 0.2943
0.3433 0.6698 0.2459
0.3735 0.6714 0.2378
0.4328 0.6765 0.2137
0.5202 0.6860 0.1273
0.6666 0.6908 0.0851
0.7981 0.6883 0.2530
0.8784 0.6959 0.3280
0.9383 0.7073 0.3614
0.9812 0.7216 0.3810
0.4382 0.7941 0.3143
0.4637 0.7952 0.3077
0.5132 0.7981 0.2902
0.5853 0.8046 0.2443
0.6745 0.8154 0.0779
0.8051 0.8145 0.1660
0.8949 0.8127 0.3223
0.9490 0.8187 0.4003
0.9828 0.8311 0.4786
0.5313 0.9019 0.3811
0.5517 0.9026 0.3761
0.5943 0.9049 0.3628
0.6542 0.9094 0.3321
0.7236 0.9166 0.2517
0.8018 0.9252 0.0000
0.9009 0.9217 0.2495
0.9600 0.9211 0.3905
0.9860 0.9260 0.5976
0.7852 0.9739 0.5653
0.7914 0.9746 0.5641
0.8056 0.9766 0.5609
0.8266 0.9803 0.5546
0.8499 0.9868 0.5350
0.8645 0.9980 0.4273
0.8985 0.9999 0.0000
0.9748 0.9954 0.6232
0.9968 0.9966 0.7706
0.0111 0.0080 0.0447
0.1060 0.0190 0.0769
0.2391 0.0465 0.0914
0.4447 0.0464 0.1034
0.6588 0.0107 0.0979
0.8013 0.0000 0.0951
0.8983 0.0000 0.0953
0.9630 0.0000 0.0954
1.0000 0.0021 0.0960
0.0000 0.1123 0.0958
0.1386 0.1124 0.0959
0.2966 0.1124 0.0959
0.4843 0.1119 0.0955
0.6643 0.1113 0.0951
0.8018 0.1109 0.0948
0.8987 0.1106 0.0946
0.9633 0.1102 0.0943
1.0000 0.1130 0.0962
0.1114 0.2437 0.1198
0.1381 0.2550 0.0956
0.2955 0.2548 0.0955
0.4681 0.2586 0.1150
0.6499 0.2611 0.1130
0.8015 0.2549 0.0963
0.8989 0.2542 0.0947
0.9633 0.2540 0.0944
1.0000 0.2558 0.0971
0.1835 0.3918 0.1618
0.1906 0.4012 0.1304
0.2949 0.4087 0.0953
0.4801 0.4077 0.1323
0.6357 0.4146 0.1842
0.7690 0.4260 0.1985
0.8749 0.4333 0.1982
0.9493 0.4371 0.1882
0.9986 0.4283 0.1557
0.2580 0.5353 0.2133
0.2646 0.5411 0.1881
0.3465 0.5474 0.1535
0.4832 0.5549 0.0951
0.6602 0.5524 0.1921
0.7759 0.5604 0.2577
0.8668 0.5724 0.2833
0.9393 0.5813 0.2919
0.9884 0.5896 0.2895
0.3433 0.6702 0.2717
0.3508 0.6741 0.2524
0.4227 0.6783 0.2279
0.5115 0.6876 0.1574
0.6648 0.6922 0.0951
0.7989 0.6891 0.2584
0.8800 0.6960 0.3325
0.9405 0.7064 0.3643
0.9835 0.7194 0.3800
0.4353 0.7946 0.3336
0.4441 0.7972 0.3196
0.5037 0.7996 0.3012
0.5795 0.8057 0.2582
0.6696 0.8164 0.1147
0.8040 0.8156 0.1680
0.8954 0.8132 0.3266
0.9499 0.8188 0.4038
0.9832 0.8310 0.4862
0.5261 0.9026 0.3949
0.5360 0.9040 0.3853
0.5851 0.9060 0.3715
0.6491 0.9102 0.3418
0.7189 0.9174 0.2708
0.8017 0.9253 0.0942
0.9004 0.9224 0.2513
0.9602 0.9215 0.3938
0.9862 0.9262 0.6010
0.7875 0.9737 0.5729
0.7930 0.9745 0.5717
0.8074 0.9764 0.5681
0.8287 0.9800 0.5629
0.8524 0.9864 0.5456
0.8683 0.9975 0.4560
0.8979 1.0000 0.0795
0.9747 0.9957 0.6245
0.9969 0.9967 0.7726
0.0394 0.0287 0.0958
0.1173 0.0304 0.1573
0.2332 0.0630 0.1681
0.3718 0.1082 0.1857
0.5698 0.1266 0.2118
0.7484 0.1298 0.2315
0.8781 0.1051 0.2331
0.9594 0.0462 0.2234
1.0000 0.0020 0.2164
0.0855 0.1111 0.1615
0.1385 0.1124 0.2171
0.2966 0.1123 0.2170
0.4533 0.1326 0.2116
0.6431 0.1330 0.2183
0.8010 0.1129 0.2160
0.8988 0.1108 0.2156
0.9633 0.1103 0.2155
1.0000 0.1131 0.2166
0.0000 0.2550 0.2164
0.1381 0.2550 0.2164
0.2954 0.2548 0.2162
0.4829 0.2545 0.2159
0.6637 0.2542 0.2156
0.8022 0.2542 0.2157
0.8991 0.2542 0.2157
0.9636 0.2540 0.2155
1.0000 0.2559 0.2172
0.1825 0.3939 0.2380
0.1980 0.4012 0.2282
0.2951 0.4088 0.2160
0.4833 0.4088 0.2160
0.6643 0.4088 0.2159
0.8025 0.4090 0.2159
0.8990 0.4091 0.2159
0.9634 0.4092 0.2158
1.0000 0.4133 0.2245
0.2686 0.5352 0.2841
0.2762 0.5408 0.2667
0.2951 0.5550 0.2161
0.4833 0.5550 0.2161
0.6644 0.5548 0.2160
0.7896 0.5582 0.2719
0.8819 0.5655 0.2892
0.9527 0.5682 0.2893
0.9950 0.5775 0.2952
0.3566 0.6696 0.3341
0.3606 0.6740 0.3172
0.3732 0.6846 0.2680
0.4856 0.6922 0.2186
0.6648 0.6922 0.2161
0.8000 0.6914 0.2708
0.8841 0.6964 0.3438
0.9462 0.7039 0.3713
0.9879 0.7148 0.3962
0.4482 0.7940 0.3863
0.4504 0.7972 0.3714
0.4620 0.8046 0.3320
0.5563 0.8091 0.2966
0.6645 0.8173 0.2159
0.8024 0.8172 0.2158
0.8960 0.8148 0.3366
0.9519 0.8191 0.4129
0.9842 0.8309 0.5028
0.5371 0.9020 0.4377
0.5384 0.9043 0.4254
0.5496 0.9093 0.3953
0.6286 0.9128 0.3694
0.7093 0.9193 0.3064
0.8017 0.9253 0.2152
0.8990 0.9244 0.2558
0.9606 0.9226 0.4019
0.9867 0.9267 0.6094
0.7955 0.9730 0.5909
0.8000 0.9739 0.5901
0.8114 0.9761 0.5873
0.8336 0.9795 0.5822
0.8582 0.9855 0.5698
0.8770 0.9961 0.5108
0.8979 1.0000 0.2054
0.9744 0.9964 0.6274
0.9971 0.9971 0.7780
0.0808 0.0611 0.1633
0.1291 0.0690 0.2044
0.2961 0.0008 0.3555
0.3832 0.1168 0.2822
0.5205 0.1725 0.2956
0.6884 0.2051 0.3291
0.8303 0.2189 0.3534
0.9251 0.2249 0.3756
0.9875 0.2059 0.3809
0.1222 0.1265 0.2280
0.1573 0.1264 0.2889
0.2962 0.1121 0.3561
0.4428 0.1450 0.3263
0.5723 0.1937 0.3190
0.7296 0.2166 0.3409
0.8557 0.2236 0.3583
0.9419 0.2179 0.3699
0.9971 0.1841 0.3667
0.1613 0.2470 0.3018
0.1861 0.2517 0.3264
0.2953 0.2547 0.3549
0.4830 0.2544 0.3545
0.6639 0.2542 0.3544
0.8023 0.2543 0.3547
0.8991 0.2543 0.3549
0.9634 0.2542 0.3549
1.0000 0.2611 0.3566
0.0000 0.4086 0.3544
0.1376 0.4087 0.3546
0.2953 0.4089 0.3547
0.4834 0.4089 0.3548
0.6643 0.4089 0.3548
0.8026 0.4091 0.3549
0.8994 0.4092 0.3550
0.9637 0.4092 0.3550
1.0000 0.4105 0.3562
0.2481 0.5396 0.3712
0.2613 0.5439 0.3694
0.2971 0.5549 0.3551
0.4835 0.5550 0.3550
0.6645 0.5548 0.3549
0.8024 0.5551 0.3549
0.8989 0.5552 0.3549
0.9633 0.5553 0.3550
0.9990 0.5659 0.3787
0.3607 0.6708 0.4119
0.3695 0.6743 0.4060
0.3893 0.6835 0.3855
0.4838 0.6926 0.3552
0.6649 0.6923 0.3552
0.8029 0.6924 0.3552
0.8975 0.6930 0.3648
0.9587 0.6960 0.3818
0.9916 0.7105 0.4505
0.4602 0.7940 0.4545
0.4653 0.7968 0.4455
0.4753 0.8042 0.4179
0.4852 0.8177 0.3561
0.6644 0.8174 0.3549
0.8024 0.8172 0.3549
0.8987 0.8170 0.3558
0.9557 0.8196 0.4283
0.9858 0.8307 0.5284
0.5507 0.9014 0.4935
0.5537 0.9035 0.4856
0.5596 0.9092 0.4626
0.5749 0.9184 0.4121
0.6781 0.9237 0.3720
0.8016 0.9253 0.3542
0.8983 0.9252 0.3542
0.9612 0.9246 0.4153
0.9876 0.9276 0.6242
0.8068 0.9721 0.6185
0.8116 0.9729 0.6183
0.8227 0.9750 0.6172
0.8402 0.9790 0.6132
0.8669 0.9842 0.6057
0.8898 0.9934 0.5774
0.8979 1.0000 0.3485
0.9737 0.9975 0.6316
0.9975 0.9976 0.7875
0.1249 0.0982 0.2419
0.1603 0.1053 0.2726
0.2513 0.1084 0.3542
0.4838 0.0000 0.4820
0.5427 0.1753 0.3981
0.6657 0.2394 0.4066
0.7927 0.2799 0.4370
0.8950 0.3055 0.4634
0.9657 0.3185 0.4833
0.1589 0.1505 0.2988
0.1850 0.1518 0.3445
0.2845 0.1491 0.4076
0.4837 0.1114 0.4820
0.5848 0.1969 0.4279
0.6966 0.2578 0.4263
0.8142 0.2931 0.4493
0.9098 0.3123 0.4691
0.9747 0.3195 0.4860
0.2076 0.2561 0.3729
0.2284 0.2584 0.4023
0.2949 0.2545 0.4815
0.4826 0.2542 0.4812
0.6639 0.2542 0.4811
0.7623 0.3001 0.4630
0.8626 0.3212 0.4717
0.9422 0.3256 0.4788
0.9946 0.3163 0.4879
0.2290 0.3973 0.4398
0.2452 0.4016 0.4498
0.2966 0.4087 0.4811
0.4833 0.4089 0.4816
0.6644 0.4089 0.4815
0.8027 0.4090 0.4818
0.8993 0.4092 0.4820
0.9635 0.4092 0.4821
0.9990 0.4279 0.4856
0.0000 0.5547 0.4815
0.1374 0.5549 0.4816
0.2952 0.5550 0.4816
0.4836 0.5550 0.4816
0.6644 0.5548 0.4816
0.8023 0.5551 0.4818
0.8988 0.5552 0.4819
0.9632 0.5553 0.4820
0.9998 0.5559 0.4825
0.3160 0.6769 0.4901
0.3283 0.6798 0.4892
0.3584 0.6872 0.4867
0.4837 0.6925 0.4819
0.6650 0.6922 0.4820
0.8028 0.6924 0.4821
0.8991 0.6924 0.4820
0.9631 0.6922 0.4817
0.9964 0.7044 0.5053
0.4527 0.7958 0.5195
0.4612 0.7982 0.5165
0.4807 0.8041 0.5080
0.5101 0.8149 0.4888
0.6646 0.8172 0.4818
0.8024 0.8171 0.4818
0.8987 0.8169 0.4816
0.9629 0.8168 0.4813
0.9887 0.8301 0.5634
0.5565 0.9017 0.5514
0.5616 0.9035 0.5483
0.5739 0.9081 0.5383
0.5912 0.9170 0.5119
0.6637 0.9253 0.4813
0.8016 0.9252 0.4813
0.8984 0.9252 0.4813
0.9629 0.9253 0.4813
0.9890 0.9289 0.6461
0.8182 0.9718 0.6523
0.8233 0.9724 0.6527
0.8354 0.9742 0.6534
0.8539 0.9775 0.6535
0.8758 0.9831 0.6493
0.9028 0.9906 0.6373
0.9146 0.9997 0.5434
0.9720 0.9989 0.6347
0.9980 0.9984 0.8020
0.1699 0.1380 0.3242
0.1976 0.1439 0.3475
0.2665 0.1532 0.4048
0.4318 0.1232 0.5100
0.6295 0.0901 0.5560
0.6901 0.2381 0.4994
0.7821 0.3087 0.5034
0.8737 0.3543 0.5259
0.9441 0.3897 0.5522
0.1973 0.1807 0.3713
0.2180 0.1828 0.4050
0.2956 0.1873 0.4504
0.4525 0.1640 0.5338
0.6634 0.1110 0.5821
0.7164 0.2555 0.5177
0.8002 0.3237 0.5161
0.8863 0.3656 0.5344
0.9530 0.3960 0.5579
0.2470 0.2732 0.4389
0.2652 0.2750 0.4634
0.3218 0.2715 0.5263
0.4819 0.2554 0.5802
0.6637 0.2541 0.5824
0.7704 0.2975 0.5587
0.8393 0.3600 0.5447
0.9142 0.3927 0.5541
0.9736 0.4081 0.5692
0.2977 0.4013 0.5005
0.3129 0.4044 0.5118
0.3553 0.4095 0.5441
0.4830 0.4088 0.5829
0.6641 0.4088 0.5826
0.8023 0.4089 0.5829
0.8940 0.4167 0.5801
0.9539 0.4330 0.5794
0.9908 0.4656 0.5773
0.2990 0.5415 0.5509
0.3134 0.5443 0.5564
0.3500 0.5511 0.5705
0.4832 0.5547 0.5828
0.6641 0.5546 0.5825
0.8020 0.5549 0.5827
0.8985 0.5550 0.5830
0.9629 0.5551 0.5833
0.9959 0.5764 0.5863
0.0000 0.6920 0.5830
0.1371 0.6921 0.5831
0.2952 0.6922 0.5831
0.4838 0.6922 0.5831
0.6648 0.6919 0.5829
0.8025 0.6922 0.5831
0.8986 0.6921 0.5831
0.9626 0.6920 0.5830
0.9995 0.6915 0.5827
0.3814 0.8029 0.5870
0.3926 0.8049 0.5866
0.4201 0.8100 0.5853
0.4834 0.8173 0.5829
0.6642 0.8168 0.5827
0.8021 0.8167 0.5828
0.8983 0.8166 0.5827
0.9626 0.8164 0.5820
0.9946 0.8260 0.6119
0.5370 0.9048 0.6103
0.5446 0.9064 0.6085
0.5628 0.9103 0.6036
0.5917 0.9174 0.5939
0.6634 0.9249 0.5822
0.8003 0.9251 0.5813
0.8978 0.9251 0.5814
0.9626 0.9252 0.5813
0.9911 0.9303 0.6761
0.8246 0.9729 0.6896
0.8303 0.9734 0.6905
0.8437 0.9748 0.6926
0.8645 0.9773 0.6959
0.8894 0.9815 0.6989
0.9134 0.9887 0.6956
0.9366 0.9974 0.6723
0.9669 0.9998 0.6270
0.9986 0.9991 0.8221
0.2152 0.1797 0.4046
0.2383 0.1847 0.4217
0.2969 0.1949 0.4625
0.4130 0.1971 0.5283
0.6434 0.0802 0.6508
0.7494 0.1761 0.6252
0.8034 0.3038 0.5842
0.8698 0.3783 0.5855
0.9339 0.4278 0.6052
0.2383 0.2155 0.4415
0.2570 0.2179 0.4652
0.3217 0.2245 0.4972
0.4386 0.2245 0.5542
0.6551 0.1329 0.6651
0.7726 0.1873 0.6470
0.8192 0.3180 0.5976
0.8807 0.3906 0.5952
0.9420 0.4361 0.6123
0.2882 0.2964 0.4965
0.3043 0.2979 0.5153
0.3525 0.2975 0.5637
0.4783 0.2947 0.6056
0.6639 0.2542 0.6777
0.8022 0.2542 0.6780
0.8533 0.3525 0.6294
0.9050 0.4207 0.6181
0.9600 0.4563 0.6298
0.3485 0.4132 0.5522
0.3637 0.4150 0.5651
0.4045 0.4168 0.6010
0.4837 0.4091 0.6772
0.6641 0.4089 0.6781
0.8024 0.4090 0.6782
0.8985 0.4099 0.6778
0.9382 0.4698 0.6540
0.9824 0.4953 0.6546
0.3937 0.5421 0.6033
0.4069 0.5443 0.6103
0.4404 0.5491 0.6289
0.5002 0.5548 0.6667
0.6642 0.5548 0.6778
0.8021 0.5550 0.6780
0.8987 0.5551 0.6783
0.9630 0.5551 0.6786
0.9866 0.6024 0.6654
0.3675 0.6784 0.6492
0.3802 0.6804 0.6531
0.4123 0.6854 0.6631
0.4838 0.6922 0.6786
0.6647 0.6920 0.6783
0.8026 0.6923 0.6783
0.8986 0.6921 0.6782
0.9627 0.6919 0.6781
0.9940 0.7113 0.6742
0.0000 0.8173 0.6783
0.1367 0.8174 0.6783
0.2948 0.8174 0.6783
0.4834 0.8172 0.6782
0.6644 0.8168 0.6779
0.8021 0.8167 0.6778
0.8983 0.8166 0.6777
0.9626 0.8164 0.6775
0.9997 0.8159 0.6771
0.4358 0.9129 0.6811
0.4462 0.9142 0.6808
0.4715 0.9176 0.6799
0.5127 0.9234 0.6779
0.6635 0.9249 0.6772
0.8003 0.9252 0.6770
0.8979 0.9252 0.6771
0.9627 0.9252 0.6772
0.9948 0.9308 0.7179
0.8167 0.9770 0.7324
0.8235 0.9774 0.7334
0.8396 0.9783 0.7359
0.8654 0.9800 0.7393
0.8947 0.9829 0.7462
0.9244 0.9875 0.7541
0.9488 0.9951 0.7540
0.9626 0.9998 0.6769
0.9993 0.9998 0.8486
0.2636 0.2231 0.4764
0.2843 0.2275 0.4882
0.3358 0.2370 0.5167
0.4306 0.2461 0.5653
0.5883 0.2266 0.6444
0.8019 0.0000 0.7850
0.8433 0.2549 0.6994
0.8874 0.3706 0.6649
0.9338 0.4468 0.6642
0.2843 0.2536 0.5035
0.3015 0.2560 0.5197
0.3570 0.2632 0.5443
0.4538 0.2702 0.5887
0.6038 0.2535 0.6616
0.8023 0.1102 0.7857
0.8571 0.2652 0.7174
0.8968 0.3823 0.6762
0.9409 0.4558 0.6731
0.3327 0.3249 0.5486
0.3472 0.3264 0.5643
0.3891 0.3277 0.6030
0.4920 0.3306 0.6379
0.6405 0.3129 0.7040
0.8024 0.2540 0.7859
0.8872 0.2906 0.7640
0.9178 0.4108 0.7043
0.9567 0.4773 0.6951
0.3961 0.4307 0.6010
0.4094 0.4321 0.6127
0.4448 0.4338 0.6455
0.5169 0.4281 0.7125
0.6631 0.4172 0.7651
0.8025 0.4090 0.7861
0.8991 0.4091 0.7862
0.9467 0.4581 0.7533
0.9785 0.5133 0.7314
0.4554 0.5499 0.6521
0.4660 0.5519 0.6593
0.4938 0.5558 0.6795
0.5493 0.5579 0.7276
0.6642 0.5549 0.7856
0.8022 0.5551 0.7859
0.8988 0.5551 0.7860
0.9631 0.5552 0.7863
0.9819 0.6185 0.7413
0.4875 0.6763 0.7037
0.4982 0.6778 0.7090
0.5249 0.6814 0.7233
0.5717 0.6873 0.7517
0.6647 0.6922 0.7862
0.8025 0.6923 0.7855
0.8986 0.6921 0.7854
0.9628 0.6918 0.7854
0.9867 0.7277 0.7554
0.4237 0.8048 0.7516
0.4352 0.8062 0.7551
0.4638 0.8097 0.7641
0.5114 0.8154 0.7808
0.6642 0.8168 0.7855
0.8019 0.8167 0.7854
0.8983 0.8166 0.7852
0.9627 0.8163 0.7851
0.9932 0.8323 0.7728
0.0000 0.9253 0.7850
0.1359 0.9253 0.7850
0.2939 0.9254 0.7850
0.4825 0.9253 0.7849
0.6636 0.9249 0.7846
0.8006 0.9252 0.7849
0.8980 0.9252 0.7850
0.9627 0.9253 0.7850
0.9998 0.9253 0.7850
0.7461 0.9883 0.7915
0.7588 0.9883 0.7920
0.7879 0.9886 0.7933
0.8302 0.9890 0.7958
0.8775 0.9900 0.7999
0.9195 0.9923 0.8086
0.9549 0.9954 0.8205
0.9793 0.9992 0.8284
0.9998 0.9999 0.8825
0.3161 0.2678 0.5375
0.3347 0.2718 0.5467
0.3810 0.2805 0.5692
0.4617 0.2920 0.6082
0.5828 0.2938 0.6686
0.7553 0.2286 0.7860
0.8987 0.0011 0.9999
0.9137 0.3309 0.7855
0.9472 0.4369 0.7526
0.3347 0.2942 0.5599
0.3505 0.2962 0.5734
0.3995 0.3034 0.5938
0.4800 0.3132 0.6298
0.6004 0.3134 0.6884
0.7665 0.2502 0.8063
0.8987 0.1121 1.0000
0.9228 0.3372 0.8053
0.9533 0.4451 0.7647
0.3806 0.3573 0.5990
0.3926 0.3587 0.6130
0.4289 0.3592 0.6494
0.5159 0.3643 0.6808
0.6357 0.3614 0.7369
0.7886 0.3044 0.8566
0.8988 0.2553 1.0000
0.9431 0.3510 0.8593
0.9670 0.4650 0.7959
0.4433 0.4524 0.6488
0.4535 0.4540 0.6600
0.4806 0.4558 0.6921
0.5404 0.4487 0.7674
0.6718 0.4413 0.8215
0.7962 0.4312 0.8734
0.8988 0.4099 1.0000
0.9507 0.4527 0.8825
0.9817 0.5130 0.8376
0.5063 0.5619 0.7017
0.5144 0.5635 0.7105
0.5359 0.5667 0.7354
0.5792 0.5680 0.7943
0.6854 0.5681 0.8412
0.8022 0.5690 0.8627
0.8978 0.5595 0.9531
0.9547 0.5748 0.9035
0.9845 0.6192 0.8468
0.5569 0.6808 0.7594
0.5636 0.6824 0.7663
0.5813 0.6862 0.7854
0.6152 0.6912 0.8260
0.7176 0.6959 0.8357
0.8118 0.6998 0.8552
0.8962 0.6993 0.8874
0.9605 0.6960 0.9684
0.9883 0.7298 0.8597
0.5696 0.8002 0.8194
0.5755 0.8017 0.8246
0.6013 0.8046 0.8347
0.6828 0.8064 0.8372
0.7603 0.8108 0.8421
0.8352 0.8161 0.8513
0.9020 0.8205 0.8733
0.9628 0.8162 0.9999
0.9929 0.8364 0.8767
0.5470 0.9109 0.8671
0.5733 0.9110 0.8671
0.6322 0.9114 0.8671
0.7133 0.9120 0.8673
0.7966 0.9132 0.8679
0.8636 0.9169 0.8706
0.9200 0.9216 0.8763
0.9639 0.9268 0.9050
0.9977 0.9331 0.9101
0.0000 1.0000 0.9980
0.1116 1.0000 1.0000
0.2817 1.0000 1.0000
0.4751 1.0000 1.0000
0.6597 0.9998 0.9998
0.8002 0.9999 0.9999
0.8978 0.9999 0.9999
0.9628 1.0000 1.0000
1.0000 1.0000 0.9998
