EA 50 Cinematic Luts Pack/EA_Cinematic Lut (12).cube
TITLE "Generated by Resolve"
LUT_3D_SIZE 9
0 0.0101472 0
0.149691 0 0
0.30927 0 0
0.464546 0 0
0.614328 0 0
0.759716 0 0
0.902968 0 0
1 0 0
1 0 0
0 0.113024 0
0.115572 0.104234 0
0.280461 0.0991531 0
0.443244 0.0996719 0
0.599786 0.099794 0
0.748058 0.0956283 0
0.895521 0.0937057 0
1 0.0944686 0
1 0.0979019 0
0 0.219486 0
0.0916915 0.217624 0
0.251881 0.225223 0
0.422232 0.236225 0
0.590112 0.246525 0
0.747524 0.250431 0
0.90277 0.255467 0
1 0.262303 0
1 0.270756 0
0 0.336751 0
0.0919814 0.34316 0
0.24712 0.363363 0
0.422629 0.390845 0
0.59678 0.412833 0
0.761288 0.42417 0
0.922469 0.434409 0
1 0.445197 0
1 0.456397 0
0 0.476661 0
0.116442 0.488991 0
0.261997 0.514977 0
0.437095 0.54995 0
0.612482 0.581704 0.00247196
0.780758 0.603082 0.00854505
0.945876 0.619196 0.0131685
1 0.632685 0.0194858
1 0.644556 0.0267796
0.0289158 0.632288 0
0.154055 0.647074 0
0.291096 0.67335 0
0.452522 0.707149 0.00340276
0.628 0.742901 0.0306554
0.798703 0.773266 0.0477302
0.963531 0.795224 0.05449
1 0.810666 0.0567941
1 0.822171 0.058793
0.0717784 0.794675 0
0.195636 0.809003 0
0.324468 0.832334 0
0.471122 0.861234 0.0163729
0.634974 0.893492 0.0435798
0.804135 0.925093 0.06598
0.967269 0.950545 0.0783703
1 0.968078 0.0810101
1 0.979324 0.078233
0.110307 0.953216 0
0.230259 0.964141 0
0.350668 0.982406 0
0.483467 1 0.0152895
0.631525 1 0.0396887
0.790631 1 0.0593423
0.948226 1 0.0720684
1 1 0.0737926
1 1 0.0664225
0.135729 1 0
0.25008 1 0
0.360983 1 0
0.478691 1 0
0.607553 1 0.0077821
0.747799 1 0.0191196
0.896025 1 0.0273442
1 1 0.0307164
1 1 0.0273899
0 0.028687 0.0723888
0.134112 0 0.119112
0.291844 0 0.109361
0.449683 0 0.104692
0.602487 0 0.100008
0.749004 0 0.09308
0.893294 0 0.0869764
1 0 0.0820478
1 0 0.0784772
0 0.126955 0.00285344
0.111421 0.0982376 0.0903334
0.272511 0.0894789 0.0803235
0.434028 0.0902266 0.0798962
0.593469 0.0941939 0.0827192
0.744686 0.0936446 0.0810712
0.892363 0.0923934 0.0787518
1 0.0940566 0.0793469
1 0.098146 0.0823835
0 0.224002 0
0.098146 0.209186 0.0567178
0.240543 0.212589 0.0589609
0.411978 0.222217 0.0601816
0.585031 0.238224 0.0741588
0.750439 0.250904 0.0855573
0.905608 0.256474 0.090013
1 0.263752 0.0962387
1 0.272343 0.103822
0 0.338415 0
0.106996 0.3355 0.02916
0.237034 0.351064 0.0639811
0.410163 0.377264 0.078172
0.591531 0.404395 0.0923476
0.76762 0.426688 0.109239
0.92932 0.437705 0.117662
1 0.448325 0.126589
1 0.459403 0.136324
0.0136263 0.477775 0
0.135531 0.482444 0.0204623
0.260761 0.504112 0.0750591
0.426932 0.538491 0.106371
0.610285 0.57847 0.133471
0.788846 0.608743 0.149081
0.954742 0.624521 0.155779
1 0.636912 0.16321
1 0.648066 0.171328
0.0536355 0.633188 0
0.175769 0.641672 0.0229191
0.298253 0.665171 0.0881056
0.449134 0.699336 0.128038
0.628 0.741726 0.163424
0.804334 0.777905 0.186618
0.970962 0.800793 0.194461
1 0.815335 0.197223
1 0.825727 0.200015
0.0978561 0.795026 0
0.218448 0.803906 0.0275425
0.335698 0.82443 0.0953689
0.471366 0.852399 0.137804
0.631189 0.887526 0.170703
0.804303 0.924102 0.199023
0.970733 0.953017 0.215106
1 0.971481 0.218647
1 0.981689 0.215534
0.136187 0.952224 0
0.252644 0.958129 0.0234836
0.363531 0.973556 0.0899977
0.48632 0.994125 0.132433
0.627466 1 0.161776
0.784848 1 0.185458
0.9449 1 0.201694
1 1 0.206165
1 1 0.199649
0.160266 1 0
0.271031 1 0.0034638
0.373541 1 0.0650492
0.481743 1 0.102373
0.602792 1 0.124086
0.738949 1 0.13904
0.887419 1 0.150896
1 1 0.158556
1 1 0.15819
0 0.0455024 0.1738
0.0982834 0 0.258183
0.273579 0 0.246204
0.423972 0 0.238025
0.576364 0 0.236957
0.725963 0 0.234134
0.873137 0 0.230579
1 0 0.22739
1 0 0.225116
0 0.148913 0.0892653
0.0634623 0.110597 0.203571
0.251575 0.0859693 0.217762
0.410407 0.0837568 0.218006
0.573297 0.0872206 0.223651
0.73077 0.0906996 0.22742
0.88101 0.0907607 0.22707
1 0.0933242 0.228977
1 0.0981765 0.233021
0 0.244785 0.0235142
0.0838941 0.217014 0.127214
0.233234 0.202502 0.19292
0.399161 0.207462 0.196735
0.571847 0.224643 0.212787
0.743542 0.244541 0.231586
0.903685 0.255787 0.241749
1 0.263539 0.248447
1 0.272923 0.256764
0 0.353826 0
0.122911 0.336828 0.101396
0.238041 0.341299 0.189929
0.393805 0.359396 0.201801
0.57615 0.385031 0.219577
0.760235 0.415808 0.24831
0.933333 0.439017 0.270253
1 0.449607 0.279728
1 0.46096 0.290059
0.00526436 0.488731 0
0.15993 0.481941 0.0968795
0.271992 0.494347 0.189853
0.411063 0.520729 0.229068
0.592416 0.559426 0.255924
0.781033 0.597635 0.281331
0.961257 0.626993 0.305089
1 0.639628 0.315022
1 0.650187 0.323842
0.0592508 0.641123 0
0.202472 0.640192 0.101793
0.314275 0.655772 0.195315
0.442466 0.683406 0.249546
0.61297 0.725322 0.287999
0.799878 0.772366 0.322606
0.978058 0.805463 0.341161
1 0.819348 0.345647
1 0.828199 0.349279
0.111376 0.800412 0
0.24567 0.801511 0.107637
0.35433 0.815412 0.197742
0.47393 0.839597 0.257664
0.623194 0.874968 0.297826
0.800732 0.919264 0.335378
0.973739 0.955001 0.358618
1 0.974762 0.363531
1 0.983642 0.360372
0.153643 0.954818 0
0.279103 0.954253 0.103502
0.38262 0.963867 0.188174
0.492927 0.981216 0.247166
0.622675 1 0.284947
0.775464 1 0.313924
0.939559 1 0.336385
1 1 0.345296
1 1 0.340032
0.17911 1 0
0.295567 1 0.0821241
0.390768 1 0.15819
0.488777 1 0.210239
0.599283 1 0.241367
0.72842 1 0.261311
0.875898 1 0.278294
1 1 0.291783
1 1 0.29575
0 0.0621195 0.277028
0.0406958 0.0102693 0.377234
0.245167 0 0.392706
0.406043 0 0.378912
0.55285 0 0.370703
0.698344 0 0.367727
0.844739 0 0.367193
0.991577 0 0.367727
1 0 0.368536
0 0.16817 0.187121
0.00654612 0.126177 0.305882
0.219104 0.088426 0.360998
0.386847 0.0779889 0.35285
0.541741 0.0812695 0.354482
0.700526 0.0868696 0.363607
0.856046 0.0894179 0.369802
1 0.09308 0.375555
1 0.0986496 0.382177
0 0.26804 0.108858
0.0122988 0.239628 0.218021
0.191806 0.212879 0.321401
0.375692 0.201938 0.33521
0.544869 0.215122 0.351003
0.72076 0.235355 0.373434
0.889494 0.252934 0.391348
1 0.262272 0.400351
1 0.272633 0.410071
0 0.378607 0.0591745
0.0711528 0.359091 0.171084
0.231815 0.349218 0.270542
0.384253 0.346792 0.337011
0.558846 0.365713 0.354803
0.74284 0.39791 0.385916
0.924254 0.430411 0.417334
1 0.448981 0.434852
1 0.460761 0.445579
0 0.511086 0.0409094
0.141482 0.496864 0.160403
0.292668 0.495003 0.269383
0.407355 0.507637 0.355886
0.569665 0.535134 0.376196
0.758953 0.571496 0.4047
0.949187 0.611276 0.442405
1 0.639963 0.469825
1 0.650675 0.479438
0.0322881 0.659419 0.0425116
0.204593 0.649256 0.166094
0.339925 0.653696 0.2766
0.449607 0.670176 0.365332
0.590539 0.700954 0.407111
0.774853 0.746181 0.440986
0.964355 0.78851 0.470359
1 0.819471 0.495491
1 0.829252 0.502434
0.0986648 0.814176 0.0500496
0.257969 0.806134 0.173404
0.380072 0.811154 0.279255
0.48571 0.826093 0.364858
0.610971 0.8533 0.416587
0.77911 0.896223 0.456291
0.964523 0.944717 0.492912
1 0.976852 0.510582
1 0.984894 0.508827
0.150332 0.96408 0.0509499
0.2963 0.955367 0.170306
0.407385 0.957687 0.269215
0.507317 0.967788 0.348867
0.620035 0.987625 0.402243
0.761135 1 0.437278
0.930022 1 0.469673
1 1 0.487251
1 1 0.48397
0.181872 1 0.0367437
0.31397 1 0.148989
0.413245 1 0.237079
0.502297 1 0.305791
0.599817 1 0.352453
0.717708 1 0.380896
0.861341 1 0.404196
1 1 0.425788
1 1 0.436088
0 0.078706 0.381369
0 0.0266117 0.487831
0.196262 0 0.529442
0.378286 0 0.527184
0.533425 0 0.514427
0.677607 0 0.505501
0.820417 0 0.502312
0.964187 0 0.502632
1 0 0.505806
0 0.18584 0.289296
0 0.141772 0.409277
0.16202 0.101305 0.485939
0.356939 0.076936 0.499458
0.51931 0.0727398 0.493233
0.672709 0.0786603 0.495094
0.825879 0.0853437 0.502632
0.980316 0.0919661 0.512642
1 0.0993515 0.524056
0 0.28983 0.203662
0 0.258717 0.320012
0.134447 0.230335 0.427604
0.344869 0.204196 0.481468
0.518822 0.20708 0.485618
0.685954 0.226337 0.503059
0.856458 0.246891 0.526894
1 0.259846 0.543572
1 0.271778 0.557763
0 0.40499 0.146883
0 0.385046 0.260777
0.162219 0.374334 0.365957
0.346395 0.357931 0.472541
0.533303 0.358343 0.493477
0.711421 0.384466 0.521996
0.896773 0.417014 0.556924
1 0.444068 0.584405
1 0.458274 0.598321
0 0.538964 0.120714
0.0786908 0.5234 0.236545
0.244236 0.51838 0.340795
0.403296 0.515785 0.441184
0.556634 0.51902 0.509972
0.735409 0.545861 0.535729
0.925155 0.586679 0.575479
1 0.626444 0.614191
1 0.648142 0.634836
0 0.685344 0.114229
0.163363 0.671275 0.233204
0.325032 0.667689 0.340932
0.470542 0.669444 0.446906
0.582864 0.683665 0.531624
0.743893 0.713771 0.555123
0.933196 0.753246 0.586419
1 0.796399 0.627405
1 0.826108 0.655848
0.05832 0.836042 0.116548
0.235737 0.821912 0.236606
0.38352 0.817472 0.34313
0.50956 0.821195 0.446128
0.613565 0.835187 0.529168
0.748714 0.8636 0.56907
0.93048 0.909545 0.604334
1 0.952026 0.633677
1 0.979843 0.655268
0.121798 0.980835 0.113741
0.287098 0.965179 0.231754
0.419638 0.958938 0.334035
0.530144 0.959823 0.429099
0.626825 0.968704 0.505623
0.741375 0.987945 0.549523
0.899138 1 0.583185
1 1 0.616098
1 1 0.628595
0.162417 1 0.0966049
0.312505 1 0.208667
0.427863 1 0.30135
0.52253 1 0.38378
0.608438 1 0.44947
0.709407 1 0.493263
0.842039 1 0.523766
1 1 0.556802
1 1 0.578271
0 0.095201 0.486427
0 0.0433509 0.596063
0.138094 0.00172427 0.654948
0.334844 0 0.670695
0.505272 0 0.66392
0.657664 0 0.652644
0.801236 0 0.644358
0.943038 0 0.641337
1 0 0.643168
0 0.203464 0.394003
0 0.15787 0.513985
0.100771 0.11722 0.599863
0.307637 0.085008 0.637812
0.489204 0.0703593 0.641154
0.650156 0.0699931 0.637919
0.802731 0.0771496 0.639811
0.954787 0.0867475 0.647913
1 0.0971847 0.659876
0 0.310887 0.304906
0 0.276799 0.425147
0.0770733 0.247745 0.53373
0.289525 0.218296 0.610834
0.488441 0.206165 0.633814
0.660945 0.215351 0.641321
0.825147 0.234745 0.656397
0.987152 0.252903 0.675013
1 0.268788 0.694011
0 0.431083 0.24271
0 0.409125 0.360647
0.0999466 0.395407 0.471839
0.289769 0.377478 0.582437
0.502037 0.360952 0.641398
0.682307 0.373159 0.65536
0.856992 0.402899 0.682826
1 0.433433 0.71632
1 0.452735 0.739437
0 0.567834 0.210636
0.00608835 0.551431 0.326909
0.171633 0.545525 0.432731
0.334096 0.541894 0.538949
0.518364 0.530983 0.646998
0.706493 0.53518 0.672648
0.887327 0.567483 0.706859
1 0.60679 0.748775
1 0.638346 0.780957
0 0.714595 0.197024
0.0967422 0.699687 0.313527
0.261921 0.694301 0.41738
0.421866 0.692561 0.518578
0.576852 0.691157 0.616358
0.725536 0.69247 0.684886
0.901595 0.719478 0.710842
1 0.762997 0.753307
1 0.804837 0.794095
0 0.86305 0.190982
0.182254 0.846601 0.307057
0.341878 0.837888 0.409033
0.493858 0.833356 0.509407
0.631876 0.832074 0.608576
0.737133 0.84097 0.688655
0.890166 0.867948 0.710842
1 0.905623 0.739696
1 0.945556 0.777356
0.071458 1 0.181628
0.247349 0.983856 0.295628
0.396521 0.971756 0.395132
0.531777 0.963226 0.491051
0.646799 0.959792 0.583276
0.738613 0.963317 0.655512
0.859831 0.981949 0.687739
1 1 0.717678
1 1 0.742596
0.121019 1 0.159136
0.283604 1 0.267384
0.416022 1 0.358999
0.530694 1 0.444816
0.626383 1 0.525078
0.711406 1 0.590951
0.817578 1 0.631113
0.970443 1 0.665003
1 1 0.703578
0 0.111818 0.592309
0 0.0601358 0.703655
0.0768139 0.0176242 0.773404
0.281147 0 0.80592
0.464973 0 0.811002
0.629374 0 0.803693
0.780636 0 0.794217
0.924727 0 0.78735
1 0 0.786007
0 0.220844 0.499886
0 0.17467 0.62002
0.0401312 0.134463 0.710658
0.249775 0.0990005 0.765805
0.445258 0.0764172 0.785748
0.620462 0.0682231 0.787915
0.781064 0.0706493 0.787381
0.934493 0.0796826 0.790631
1 0.0915389 0.799298
0 0.331304 0.409659
0 0.295598 0.532586
0.0199435 0.265843 0.641108
0.230076 0.236545 0.728954
0.440391 0.216175 0.775006
0.629572 0.213107 0.790158
0.799832 0.223835 0.798642
0.961196 0.24155 0.810925
1 0.260502 0.827955
0 0.456153 0.344274
0 0.432456 0.466667
0.0407721 0.415396 0.580026
0.233402 0.396796 0.691295
0.447181 0.376364 0.772747
0.649546 0.371725 0.803586
0.828077 0.388251 0.819318
0.99884 0.416114 0.842512
1 0.440635 0.867002
0 0.596185 0.306798
0 0.579049 0.426078
0.102647 0.570275 0.534691
0.272175 0.563378 0.646357
0.461326 0.550805 0.757794
0.671672 0.537011 0.819715
0.85391 0.551476 0.837598
1 0.585809 0.868986
1 0.620432 0.906157
0 0.744411 0.287831
0.0245212 0.729274 0.404913
0.188342 0.72224 0.50837
0.347951 0.719219 0.610773
0.505898 0.716274 0.713924
0.68275 0.704097 0.818158
0.867933 0.704021 0.844343
1 0.736477 0.877852
1 0.77673 0.921065
0 0.892134 0.274846
0.112627 0.874998 0.38912
0.273182 0.864973 0.488334
0.428275 0.858366 0.584649
0.579599 0.8533 0.678721
0.726116 0.847166 0.76907
0.8663 0.841428 0.83592
1 0.862242 0.85568
1 0.900633 0.893034
0.00643931 1 0.256992
0.185779 1 0.367712
0.340734 0.994125 0.463478
0.486809 0.980636 0.554253
0.625925 0.968185 0.642847
0.751369 0.95642 0.729
0.84445 0.952987 0.799893
0.981186 0.969558 0.814969
1 1 0.837156
0.0623178 1 0.226993
0.230793 1 0.330983
0.37258 1 0.418814
0.503105 1 0.501732
0.623209 1 0.583124
0.727611 1 0.664073
0.812634 1 0.731563
0.926162 1 0.764324
1 1 0.798688
0 0.128527 0.698863
0 0.0769665 0.8112
0.014725 0.0342718 0.887938
0.22208 0 0.933623
0.415137 0 0.952117
0.591012 0 0.95314
0.752102 0 0.946593
0.903685 0 0.939666
1 0 0.93576
0 0.238087 0.606531
0 0.191623 0.726802
0 0.152102 0.820386
0.189181 0.115892 0.886992
0.392218 0.0886702 0.923018
0.580133 0.0739147 0.936522
0.752255 0.0703746 0.939864
0.913329 0.0753796 0.942031
1 0.0858167 0.946624
0 0.351263 0.516426
0 0.314839 0.641382
0 0.285252 0.7505
0.171664 0.256748 0.843839
0.384573 0.232822 0.906355
0.585901 0.22089 0.936584
0.768643 0.222232 0.949248
0.937346 0.233768 0.958495
1 0.251011 0.96997
0 0.480446 0.449821
0 0.455421 0.575875
0 0.43679 0.690837
0.177874 0.417212 0.801587
0.388586 0.396124 0.892897
0.600137 0.382147 0.944778
0.79353 0.384939 0.9673
0.969162 0.401633 0.982651
1 0.424155 0.999634
0 0.623728 0.408133
0 0.605509 0.530983
0.0392615 0.594812 0.643091
0.213687 0.584268 0.75613
0.40441 0.570153 0.867231
0.614801 0.552224 0.949691
0.816602 0.548455 0.983948
0.996368 0.566033 1
1 0.595026 1
0 0.773816 0.383841
0 0.757839 0.502541
0.117296 0.749691 0.608362
0.277882 0.743221 0.712917
0.441932 0.736294 0.820462
0.623636 0.722057 0.927047
0.827466 0.704829 0.988861
1 0.714488 1
1 0.746853 1
0 0.921492 0.365255
0.0386206 0.90367 0.479377
0.198825 0.893202 0.578927
0.35198 0.884352 0.67425
0.502297 0.877302 0.768872
0.651652 0.869673 0.864454
0.816526 0.852399 0.961471
0.994247 0.840864 0.984634
1 0.864866 1
0 1 0.340536
0.112932 1 0.449775
0.268162 1 0.543679
0.414282 1 0.631022
0.555032 0.989136 0.714504
0.692195 0.973648 0.795483
0.824964 0.956634 0.872892
0.951766 0.938079 0.935103
1 0.949126 0.945113
0 1 0.301427
0.161852 1 0.402304
0.306355 1 0.486854
0.442267 1 0.565972
0.573236 1 0.642908
0.701686 1 0.72134
0.8215 1 0.800748
0.91252 1 0.871626
1 1 0.89134
0 0.145251 0.805875
0 0.0938125 0.918914
0 0.0510414 1
0.160357 0.0128634 1
0.359045 0 1
0.544152 0 1
0.71516 0 1
0.875456 0 1
1 0 1
0 0.255329 0.713848
0 0.208698 0.83418
0 0.16968 0.929595
0.128038 0.133959 1
0.334646 0.104601 1
0.531395 0.0852979 1
0.714397 0.0763104 1
0.884932 0.0763561 1
1 0.0831159 1
0 0.370886 0.62443
0 0.334234 0.750957
0 0.305104 0.860685
0.113924 0.277531 0.957519
0.326375 0.252644 1
0.533989 0.23537 1
0.728099 0.22945 1
0.907027 0.233783 1
1 0.24564 1
0 0.504097 0.5579
0 0.477943 0.686625
0 0.458579 0.802762
0.123415 0.439017 0.913725
0.331579 0.418235 1
0.544625 0.400214 1
0.748287 0.393286 1
0.934585 0.398825 1
1 0.413352 1
0 0.650492 0.51342
0 0.631083 0.639536
0 0.619074 0.754513
0.157916 0.606638 0.868513
0.348592 0.590768 0.97821
0.555322 0.571771 1
0.764218 0.558434 1
0.956619 0.560357 1
1 0.575509 1
0 0.802487 0.484367
0 0.785702 0.605692
0.0499428 0.776303 0.714397
0.213565 0.767025 0.821332
0.38114 0.755367 0.928939
0.564324 0.739361 1
0.766552 0.718318 1
0.962798 0.708827 1
1 0.721187 1
0 0.950286 0.459831
0 0.932006 0.57525
0.125231 0.920623 0.676127
0.278523 0.90985 0.772961
0.429236 0.898833 0.869078
0.583917 0.886839 0.968383
0.753857 0.866697 1
0.944503 0.838895 1
1 0.835676 1
0 1 0.429267
0.0367895 1 0.538552
0.191119 1 0.632059
0.336065 1 0.718868
0.47396 1 0.800458
0.609781 0.993194 0.881651
0.744793 0.974411 0.963653
0.893156 0.94786 1
1 0.924407 1
0 1 0.382666
0.0842603 1 0.482017
0.228641 1 0.565087
0.364736 1 0.642405
0.496208 1 0.716609
0.627115 1 0.791318
0.757824 1 0.866651
0.886687 1 0.940826
1 1 1
