EA 50 Cinematic Luts Pack/EA_Cinematic Lut (47).cube
TITLE "Another marvellous grade that turns plain videos and images into a blockbuster cinema production."
LUT_3D_SIZE 9
0.0000 0.0000 0.0000
0.0680 0.0000 0.0000
0.1782 0.0000 0.0000
0.2989 0.0005 0.0000
0.4225 0.0197 0.0000
0.5518 0.0419 0.0000
0.6843 0.0668 0.0000
0.7946 0.0939 0.0000
0.9242 0.1230 0.0000
0.0000 0.0843 0.0155
0.0756 0.0865 0.0030
0.1935 0.0836 0.0000
0.3216 0.0757 0.0000
0.4440 0.0810 0.0000
0.5704 0.0946 0.0000
0.6979 0.1137 0.0000
0.8047 0.1359 0.0000
0.9398 0.1607 0.0000
0.0255 0.2372 0.0535
0.0841 0.2407 0.0271
0.1926 0.2413 0.0105
0.3141 0.2415 0.0000
0.4531 0.2315 0.0000
0.5971 0.2174 0.0000
0.7209 0.2221 0.0000
0.8267 0.2302 0.0000
0.9757 0.2453 0.0032
0.0631 0.4037 0.1032
0.1108 0.4056 0.0916
0.1930 0.4123 0.0000
0.3193 0.4103 0.0236
0.4411 0.4138 0.0000
0.5900 0.4042 0.0000
0.7276 0.3944 0.0000
0.8490 0.3773 0.0000
0.9757 0.4116 0.1587
0.1053 0.5510 0.1578
0.1444 0.5520 0.1505
0.2183 0.5551 0.1146
0.3204 0.5591 0.0000
0.4522 0.5575 0.0436
0.5788 0.5599 0.0000
0.7170 0.5568 0.0000
0.8379 0.5495 0.0000
0.9755 0.5584 0.2140
0.1506 0.6612 0.2125
0.1832 0.6617 0.2072
0.2491 0.6634 0.1888
0.3341 0.6675 0.0984
0.4539 0.6690 0.0000
0.5911 0.6672 0.0669
0.7141 0.6696 0.0000
0.8253 0.6690 0.0000
0.9756 0.6684 0.2171
0.1984 0.7645 0.2634
0.2257 0.7649 0.2595
0.2833 0.7660 0.2485
0.3627 0.7686 0.2116
0.4560 0.7735 0.0027
0.5934 0.7719 0.0351
0.7236 0.7706 0.0919
0.8268 0.7726 0.0000
0.9756 0.7742 0.0627
0.2468 0.8631 0.3109
0.2697 0.8634 0.3080
0.3200 0.8643 0.3001
0.3937 0.8661 0.2789
0.4836 0.8692 0.2105
0.5916 0.8728 0.0000
0.7265 0.8708 0.0888
0.8369 0.8703 0.1182
0.9749 0.8728 0.2866
0.4310 0.9439 0.4853
0.4435 0.9444 0.4845
0.4734 0.9454 0.4820
0.5201 0.9473 0.4746
0.5766 0.9521 0.4448
0.6244 0.9636 0.2770
0.7249 0.9684 0.0000
0.8426 0.9661 0.1638
0.9686 0.9570 0.7563
0.0000 0.0000 0.0232
0.0494 0.0000 0.0809
0.1915 0.0000 0.0886
0.3165 0.0000 0.0565
0.4447 0.0000 0.0315
0.5781 0.0000 0.0000
0.7026 0.0154 0.0000
0.8081 0.0516 0.0000
0.9447 0.0868 0.0000
0.0000 0.0880 0.1107
0.0809 0.0852 0.1148
0.2167 0.0674 0.0981
0.3446 0.0504 0.0649
0.4787 0.0265 0.0057
0.5982 0.0449 0.0000
0.7169 0.0697 0.0000
0.8196 0.0966 0.0000
0.9608 0.1285 0.0000
0.0209 0.2387 0.1369
0.0800 0.2433 0.1090
0.1968 0.2396 0.1262
0.3437 0.2219 0.0987
0.4977 0.1892 0.0325
0.6291 0.1786 0.0000
0.7409 0.1869 0.0000
0.8422 0.2010 0.0000
0.9757 0.2473 0.0852
0.0606 0.4046 0.1700
0.0992 0.4091 0.1383
0.1933 0.4130 0.0997
0.3214 0.4095 0.1343
0.4574 0.4057 0.1035
0.6107 0.3905 0.0651
0.7519 0.3673 0.0000
0.8672 0.3555 0.0000
0.9757 0.4125 0.2012
0.1019 0.5517 0.2079
0.1340 0.5540 0.1842
0.2123 0.5568 0.1561
0.3190 0.5601 0.0887
0.4540 0.5570 0.1455
0.5863 0.5574 0.1073
0.7288 0.5504 0.0881
0.8556 0.5386 0.0000
0.9755 0.5584 0.2584
0.1457 0.6618 0.2478
0.1742 0.6630 0.2319
0.2432 0.6646 0.2152
0.3307 0.6684 0.1520
0.4520 0.6700 0.0573
0.5928 0.6668 0.1600
0.7186 0.6682 0.1110
0.8338 0.6658 0.0858
0.9756 0.6685 0.2579
0.1918 0.7651 0.2882
0.2179 0.7658 0.2780
0.2778 0.7669 0.2668
0.3589 0.7694 0.2359
0.4536 0.7742 0.0928
0.5921 0.7726 0.0884
0.7248 0.7702 0.1755
0.8301 0.7716 0.1164
0.9756 0.7742 0.1610
0.2387 0.8638 0.3285
0.2631 0.8641 0.3225
0.3149 0.8650 0.3143
0.3899 0.8668 0.2949
0.4810 0.8698 0.2392
0.5884 0.8737 0.0317
0.7258 0.8714 0.1283
0.8379 0.8700 0.1921
0.9750 0.8729 0.3100
0.4324 0.9437 0.4980
0.4442 0.9443 0.4970
0.4741 0.9453 0.4944
0.5217 0.9471 0.4888
0.5793 0.9518 0.4635
0.6290 0.9627 0.3278
0.7217 0.9695 0.0000
0.8420 0.9663 0.2106
0.9687 0.9572 0.7649
0.0000 0.0156 0.0751
0.0224 0.0354 0.1267
0.1409 0.0423 0.1940
0.3189 0.0000 0.2213
0.4484 0.0000 0.1954
0.5835 0.0000 0.1542
0.7152 0.0000 0.1314
0.8264 0.0000 0.0982
0.9757 0.0192 0.0854
0.0000 0.0999 0.1771
0.0664 0.1043 0.1796
0.1684 0.1079 0.2215
0.3612 0.0277 0.2222
0.5028 0.0000 0.1537
0.6261 0.0000 0.1230
0.7434 0.0000 0.0904
0.8514 0.0000 0.0440
0.9757 0.1084 0.1275
0.0000 0.2448 0.2438
0.0763 0.2461 0.2391
0.2029 0.2385 0.2500
0.3560 0.2146 0.2327
0.4945 0.1947 0.2145
0.6351 0.1739 0.1806
0.7605 0.1482 0.1289
0.8814 0.1152 0.0331
0.9758 0.2521 0.2006
0.0462 0.4081 0.2648
0.0877 0.4123 0.2522
0.2024 0.4118 0.2369
0.3263 0.4085 0.2556
0.5006 0.3802 0.2398
0.6577 0.3526 0.1994
0.7838 0.3245 0.1414
0.9153 0.2981 0.0362
0.9757 0.4147 0.2768
0.0977 0.5527 0.2924
0.1233 0.5560 0.2752
0.1994 0.5602 0.2424
0.3277 0.5595 0.2126
0.4603 0.5551 0.2742
0.6134 0.5470 0.2483
0.7574 0.5326 0.2177
0.8937 0.5133 0.1509
0.9756 0.5582 0.3383
0.1455 0.6621 0.3213
0.1640 0.6644 0.3041
0.2265 0.6675 0.2726
0.3212 0.6708 0.2392
0.4548 0.6703 0.2119
0.5953 0.6663 0.2779
0.7301 0.6642 0.2512
0.8557 0.6570 0.2277
0.9757 0.6687 0.3295
0.1931 0.7653 0.3516
0.2073 0.7670 0.3357
0.2624 0.7692 0.3104
0.3488 0.7714 0.2887
0.4519 0.7750 0.2301
0.5902 0.7737 0.2043
0.7265 0.7698 0.2860
0.8390 0.7689 0.2548
0.9757 0.7740 0.2847
0.2405 0.8638 0.3833
0.2519 0.8653 0.3688
0.3010 0.8668 0.3491
0.3798 0.8685 0.3335
0.4741 0.8713 0.2910
0.5889 0.8739 0.2169
0.7237 0.8727 0.2010
0.8397 0.8696 0.2958
0.9753 0.8732 0.3604
0.4368 0.9433 0.5284
0.4484 0.9438 0.5279
0.4762 0.9450 0.5258
0.5248 0.9466 0.5217
0.5852 0.9507 0.5049
0.6401 0.9606 0.4180
0.7149 0.9715 0.0969
0.8404 0.9668 0.2901
0.9689 0.9577 0.7865
0.0051 0.0553 0.1379
0.0267 0.0728 0.1735
0.0953 0.1016 0.2335
0.2434 0.1005 0.2987
0.4514 0.0000 0.3359
0.5850 0.0000 0.3258
0.7186 0.0000 0.2936
0.8311 0.0000 0.2539
0.9757 0.0409 0.2517
0.0141 0.1248 0.2199
0.0640 0.1324 0.2258
0.1261 0.1514 0.2754
0.2641 0.1505 0.3166
0.4999 0.0000 0.3479
0.6269 0.0000 0.3192
0.7468 0.0000 0.2747
0.8559 0.0000 0.2404
0.9757 0.1225 0.2677
0.0079 0.2552 0.3130
0.0763 0.2571 0.3136
0.1791 0.2602 0.3171
0.3004 0.2583 0.3444
0.5084 0.1825 0.3424
0.7052 0.0370 0.2740
0.8109 0.0000 0.2216
0.9317 0.0000 0.1868
0.9759 0.2612 0.3029
0.0139 0.4146 0.3608
0.0852 0.4154 0.3582
0.1907 0.4155 0.3655
0.3344 0.4067 0.3692
0.5043 0.3807 0.3516
0.6503 0.3614 0.3406
0.7743 0.3412 0.3204
0.9001 0.3193 0.2911
0.9759 0.4198 0.3554
0.0708 0.5568 0.3794
0.1096 0.5587 0.3746
0.1792 0.5641 0.3561
0.3280 0.5592 0.3627
0.4608 0.5560 0.3797
0.6477 0.5330 0.3609
0.7880 0.5109 0.3340
0.9257 0.4942 0.3180
0.9756 0.5603 0.4076
0.1321 0.6640 0.4038
0.1576 0.6656 0.3965
0.2088 0.6701 0.3728
0.3353 0.6695 0.3570
0.4655 0.6699 0.3188
0.6020 0.6650 0.3867
0.7619 0.6515 0.3770
0.9076 0.6372 0.3458
0.9757 0.6690 0.4197
0.1874 0.7662 0.4298
0.2049 0.7677 0.4203
0.2423 0.7718 0.3916
0.3290 0.7750 0.3609
0.4624 0.7743 0.3465
0.6002 0.7734 0.3013
0.7331 0.7677 0.4032
0.8570 0.7632 0.3778
0.9757 0.7738 0.4015
0.2389 0.8641 0.4564
0.2521 0.8654 0.4467
0.2816 0.8690 0.4185
0.3603 0.8715 0.3904
0.4608 0.8742 0.3653
0.5972 0.8734 0.3313
0.7268 0.8732 0.3034
0.8421 0.8690 0.4032
0.9757 0.8737 0.4328
0.4412 0.9434 0.5767
0.4536 0.9437 0.5772
0.4826 0.9446 0.5775
0.5283 0.9464 0.5747
0.5933 0.9495 0.5671
0.6570 0.9569 0.5235
0.7136 0.9716 0.3285
0.8373 0.9679 0.3802
0.9694 0.9587 0.8229
0.0232 0.1022 0.2032
0.0392 0.1169 0.2277
0.0854 0.1460 0.2798
0.1805 0.1809 0.3215
0.3480 0.1675 0.3937
0.5890 0.0000 0.4476
0.7201 0.0000 0.4345
0.8320 0.0000 0.4170
0.9757 0.0579 0.3905
0.0330 0.1601 0.2632
0.0688 0.1683 0.2700
0.1135 0.1908 0.3113
0.2049 0.2184 0.3482
0.3639 0.2071 0.4065
0.6266 0.0000 0.4601
0.7461 0.0000 0.4388
0.8569 0.0000 0.4111
0.9757 0.1367 0.3932
0.0333 0.2760 0.3525
0.0852 0.2790 0.3537
0.1727 0.2861 0.3562
0.2520 0.3032 0.3953
0.3941 0.2988 0.4298
0.6333 0.1831 0.4584
0.7887 0.0725 0.4338
0.9342 0.0000 0.3835
0.9757 0.2738 0.4000
0.0302 0.4228 0.4315
0.0904 0.4238 0.4319
0.1900 0.4258 0.4319
0.3044 0.4279 0.4402
0.4398 0.4227 0.4600
0.6508 0.3642 0.4579
0.8171 0.2794 0.4104
0.9590 0.2605 0.3796
0.9762 0.4280 0.4356
0.0357 0.5617 0.4721
0.0978 0.5622 0.4703
0.1972 0.5634 0.4658
0.3147 0.5618 0.4871
0.4728 0.5537 0.4825
0.6574 0.5309 0.4631
0.7832 0.5167 0.4533
0.8797 0.5243 0.4632
0.9755 0.5638 0.4834
0.0952 0.6678 0.4890
0.1303 0.6689 0.4860
0.1992 0.6719 0.4775
0.3023 0.6756 0.4575
0.4584 0.6692 0.4879
0.6008 0.6652 0.5001
0.7739 0.6478 0.4734
0.8805 0.6457 0.4985
0.9752 0.6686 0.5287
0.1642 0.7684 0.5122
0.1878 0.7695 0.5076
0.2383 0.7724 0.4945
0.3048 0.7785 0.4648
0.4740 0.7731 0.4635
0.6033 0.7731 0.4443
0.7346 0.7681 0.4948
0.8627 0.7584 0.5389
0.9754 0.7733 0.5192
0.2260 0.8652 0.5372
0.2433 0.8662 0.5319
0.2811 0.8690 0.5166
0.3329 0.8747 0.4803
0.4706 0.8737 0.4683
0.6066 0.8728 0.4470
0.7364 0.8722 0.4171
0.8456 0.8663 0.5452
0.9754 0.8742 0.5217
0.4400 0.9445 0.6515
0.4535 0.9447 0.6532
0.4854 0.9452 0.6571
0.5356 0.9462 0.6616
0.5995 0.9492 0.6595
0.6732 0.9541 0.6395
0.7197 0.9695 0.4956
0.8318 0.9699 0.4716
0.9701 0.9602 0.8720
0.0427 0.1544 0.2637
0.0554 0.1667 0.2809
0.0905 0.1935 0.3200
0.1615 0.2264 0.3824
0.2743 0.2651 0.4078
0.4583 0.2408 0.4866
0.7223 0.0000 0.5603
0.8352 0.0000 0.5395
0.9754 0.0633 0.5330
0.0520 0.2029 0.3084
0.0797 0.2109 0.3148
0.1142 0.2332 0.3480
0.1834 0.2612 0.4026
0.2918 0.2950 0.4257
0.4712 0.2729 0.4966
0.7463 0.0000 0.5732
0.8582 0.0000 0.5457
0.9755 0.1403 0.5354
0.0593 0.3047 0.3878
0.0962 0.3088 0.3901
0.1693 0.3182 0.3950
0.2327 0.3387 0.4394
0.3324 0.3625 0.4650
0.4994 0.3466 0.5179
0.7463 0.1934 0.5701
0.9262 0.0000 0.5556
0.9755 0.2761 0.5400
0.0501 0.4396 0.4756
0.0971 0.4414 0.4764
0.1849 0.4451 0.4775
0.2961 0.4496 0.4802
0.3866 0.4622 0.5127
0.5384 0.4535 0.5460
0.7568 0.3715 0.5709
0.9353 0.2858 0.5455
0.9756 0.4329 0.5489
0.0617 0.5662 0.5474
0.1128 0.5666 0.5476
0.2044 0.5676 0.5479
0.3066 0.5702 0.5542
0.4356 0.5698 0.5624
0.5864 0.5628 0.5768
0.7742 0.5250 0.5739
0.8910 0.5222 0.5477
0.9751 0.5694 0.5609
0.0594 0.6716 0.5880
0.1137 0.6719 0.5864
0.2079 0.6726 0.5823
0.3203 0.6733 0.5820
0.4436 0.6715 0.6238
0.6167 0.6630 0.6043
0.7842 0.6446 0.5790
0.8640 0.6543 0.6011
0.9752 0.6716 0.6182
0.1198 0.7725 0.6085
0.1517 0.7732 0.6056
0.2170 0.7752 0.5978
0.3056 0.7785 0.5835
0.4275 0.7810 0.5588
0.5936 0.7720 0.6252
0.7343 0.7677 0.6312
0.8583 0.7611 0.6546
0.9753 0.7733 0.6544
0.1944 0.8685 0.6396
0.2161 0.8692 0.6348
0.2639 0.8712 0.6221
0.3308 0.8750 0.5980
0.4195 0.8803 0.5607
0.5743 0.8785 0.5407
0.7222 0.8771 0.5116
0.8406 0.8676 0.6911
0.9754 0.8748 0.6417
0.4260 0.9475 0.7498
0.4408 0.9476 0.7522
0.4761 0.9479 0.7583
0.5323 0.9482 0.7681
0.6057 0.9496 0.7799
0.6828 0.9532 0.7818
0.7484 0.9611 0.7354
0.8251 0.9713 0.5917
0.9711 0.9621 0.9258
0.0635 0.2102 0.3199
0.0739 0.2205 0.3329
0.1023 0.2444 0.3638
0.1577 0.2781 0.4130
0.2521 0.3126 0.4688
0.3724 0.3505 0.4954
0.5722 0.3170 0.5838
0.8365 0.0000 0.7197
0.9755 0.0910 0.6689
0.0718 0.2512 0.3549
0.0944 0.2585 0.3605
0.1225 0.2792 0.3880
0.1770 0.3087 0.4329
0.2691 0.3392 0.4864
0.3866 0.3740 0.5091
0.5830 0.3429 0.5939
0.8580 0.0000 0.7380
0.9756 0.1602 0.6722
0.0827 0.3401 0.4243
0.1107 0.3446 0.4272
0.1708 0.3554 0.4340
0.2224 0.3780 0.4723
0.3064 0.3998 0.5265
0.4203 0.4276 0.5408
0.6079 0.4028 0.6187
0.8588 0.1912 0.7357
0.9756 0.2882 0.6831
0.0813 0.4612 0.5117
0.1195 0.4630 0.5126
0.1948 0.4673 0.5145
0.2904 0.4748 0.5176
0.3608 0.4892 0.5729
0.4708 0.5059 0.5888
0.6397 0.4934 0.6532
0.8576 0.3872 0.7292
0.9757 0.4387 0.7046
0.0698 0.5775 0.6050
0.1147 0.5782 0.6056
0.1986 0.5799 0.6067
0.3052 0.5824 0.6070
0.4251 0.5846 0.6139
0.5297 0.5907 0.6541
0.6853 0.5837 0.7036
0.8618 0.5436 0.7307
0.9752 0.5710 0.7345
0.0933 0.6750 0.7043
0.1375 0.6752 0.7045
0.2219 0.6759 0.7049
0.3271 0.6768 0.7074
0.4300 0.6798 0.7263
0.5710 0.6779 0.7400
0.7274 0.6696 0.7500
0.8567 0.6604 0.7509
0.9753 0.6749 0.7617
0.0845 0.7762 0.7607
0.1322 0.7764 0.7589
0.2206 0.7769 0.7542
0.3282 0.7778 0.7456
0.4498 0.7771 0.7679
0.5818 0.7743 0.8174
0.7430 0.7670 0.7908
0.8599 0.7632 0.7960
0.9754 0.7748 0.8154
0.1450 0.8727 0.7867
0.1740 0.8733 0.7839
0.2353 0.8747 0.7764
0.3176 0.8773 0.7622
0.4320 0.8794 0.7409
0.5618 0.8803 0.7290
0.7136 0.8760 0.7738
0.8358 0.8703 0.8438
0.9755 0.8750 0.8338
0.3945 0.9525 0.8571
0.4104 0.9526 0.8592
0.4493 0.9528 0.8643
0.5108 0.9531 0.8719
0.5928 0.9534 0.8851
0.6848 0.9546 0.9007
0.7624 0.9583 0.9078
0.8219 0.9714 0.8090
0.9723 0.9647 0.9692
0.0852 0.2683 0.3736
0.0942 0.2771 0.3841
0.1179 0.2979 0.4093
0.1633 0.3291 0.4509
0.2374 0.3643 0.5099
0.3451 0.4020 0.5472
0.4772 0.4328 0.5903
0.6868 0.3933 0.7253
0.9757 0.0968 0.8831
0.0928 0.3032 0.4022
0.1119 0.3097 0.4072
0.1355 0.3281 0.4305
0.1805 0.3565 0.4695
0.2530 0.3882 0.5250
0.3587 0.4221 0.5630
0.4891 0.4507 0.6043
0.6949 0.4140 0.7368
0.9757 0.1655 0.8850
0.1052 0.3806 0.4636
0.1276 0.3851 0.4667
0.1782 0.3957 0.4741
0.2213 0.4177 0.5080
0.2901 0.4426 0.5590
0.3906 0.4686 0.6028
0.5168 0.4918 0.6395
0.7133 0.4620 0.7636
0.9757 0.2928 0.8897
0.1107 0.4865 0.5475
0.1395 0.4887 0.5490
0.2009 0.4940 0.5525
0.2866 0.5025 0.5579
0.3480 0.5192 0.6077
0.4389 0.5357 0.6741
0.5619 0.5517 0.7008
0.7393 0.5317 0.8025
0.9757 0.4431 0.8980
0.1010 0.5908 0.6628
0.1350 0.5918 0.6640
0.2065 0.5940 0.6662
0.3065 0.5969 0.6674
0.4162 0.6010 0.6730
0.4996 0.6089 0.7652
0.6189 0.6185 0.7784
0.7697 0.6086 0.8459
0.9754 0.5741 0.9093
0.0955 0.6840 0.7976
0.1365 0.6844 0.7980
0.2165 0.6854 0.7988
0.3189 0.6870 0.7994
0.4286 0.6898 0.8045
0.5493 0.6910 0.8343
0.6742 0.6925 0.8753
0.8006 0.6882 0.8947
0.9755 0.6772 0.9239
0.1055 0.7798 0.8871
0.1475 0.7800 0.8872
0.2295 0.7803 0.8874
0.3334 0.7809 0.8874
0.4470 0.7814 0.8994
0.5337 0.7867 0.9256
0.6968 0.7823 0.9289
0.8181 0.7795 0.9310
0.9755 0.7775 0.9442
0.1107 0.8761 0.9275
0.1530 0.8763 0.9265
0.2351 0.8766 0.9239
0.3384 0.8773 0.9190
0.4547 0.8784 0.9113
0.5935 0.8755 0.9368
0.7128 0.8753 0.9594
0.8358 0.8720 0.9622
0.9756 0.8756 0.9669
0.3486 0.9588 0.9509
0.3663 0.9589 0.9517
0.4084 0.9591 0.9539
0.4758 0.9595 0.9575
0.5624 0.9598 0.9622
0.6629 0.9606 0.9690
0.7578 0.9615 0.9760
0.8463 0.9643 0.9806
0.9738 0.9678 0.9867
0.1081 0.3275 0.4263
0.1159 0.3351 0.4351
0.1364 0.3531 0.4568
0.1749 0.3812 0.4926
0.2363 0.4150 0.5439
0.3242 0.4468 0.6275
0.4416 0.4853 0.6520
0.5860 0.5065 0.7284
0.7828 0.4660 0.8787
0.1149 0.3573 0.4507
0.1227 0.3642 0.4590
0.1435 0.3804 0.4793
0.1824 0.4058 0.5137
0.2445 0.4366 0.5644
0.3331 0.4651 0.6527
0.4530 0.4989 0.6776
0.5983 0.5178 0.7501
0.7944 0.4745 0.8953
0.1277 0.4238 0.5048
0.1352 0.4293 0.5121
0.1559 0.4422 0.5306
0.1965 0.4622 0.5640
0.2608 0.4855 0.6194
0.3524 0.5066 0.7167
0.4791 0.5308 0.7447
0.6276 0.5445 0.8028
0.8237 0.4949 0.9313
0.1377 0.5149 0.5873
0.1448 0.5187 0.5952
0.1644 0.5275 0.6166
0.2054 0.5408 0.6587
0.2756 0.5557 0.7270
0.3753 0.5682 0.8203
0.5169 0.5787 0.8584
0.6731 0.5856 0.8838
0.8628 0.5410 0.9646
0.1350 0.6063 0.7217
0.1410 0.6087 0.7311
0.1578 0.6144 0.7552
0.1940 0.6234 0.7983
0.2657 0.6330 0.8607
0.3831 0.6385 0.9311
0.5492 0.6375 0.9655
0.7197 0.6380 0.9584
0.8728 0.6243 0.9734
0.1209 0.6953 0.8658
0.1245 0.6973 0.8730
0.1351 0.7022 0.8910
0.1593 0.7102 0.9211
0.2125 0.7198 0.9580
0.3316 0.7250 0.9840
0.5761 0.7178 0.9808
0.7355 0.7194 0.9725
0.8868 0.7088 0.9815
0.1228 0.7867 0.9560
0.1236 0.7884 0.9592
0.1263 0.7927 0.9667
0.1345 0.7999 0.9772
0.1499 0.8099 0.9858
0.2313 0.8191 0.9847
0.5691 0.8072 0.9865
0.7593 0.8022 0.9845
0.9071 0.7965 0.9863
0.1154 0.8801 0.9830
0.1182 0.8814 0.9837
0.1259 0.8848 0.9853
0.1410 0.8906 0.9869
0.1683 0.8988 0.9861
0.3314 0.9027 0.9833
0.5617 0.8987 0.9821
0.7715 0.8896 0.9845
0.9376 0.8850 0.9860
0.3429 0.9622 0.9869
0.3601 0.9623 0.9869
0.4010 0.9627 0.9870
0.4668 0.9633 0.9870
0.5512 0.9640 0.9867
0.6500 0.9653 0.9862
0.7456 0.9670 0.9850
0.8374 0.9691 0.9829
0.9756 0.9715 0.9797
