EA 50 Cinematic Luts Pack/EA_Cinematic Lut (1).cube
TITLE "Generated by Resolve"
LUT_3D_SIZE 5
0 0.146715 0.206683
0.15375 0.129427 0.186831
0.335286 0.120104 0.176425
0.532021 0.10631 0.16321
0.721325 0.101839 0.158587
0.0848249 0.248981 0.229343
0.262577 0.253681 0.223438
0.47982 0.263569 0.220661
0.691447 0.281636 0.22536
0.878828 0.31075 0.239841
0.179171 0.459678 0.26183
0.397833 0.481865 0.265141
0.618006 0.505852 0.273625
0.818158 0.535943 0.290517
0.981292 0.574792 0.317311
0.31429 0.714321 0.319921
0.538842 0.735317 0.332235
0.747295 0.757 0.348226
0.9234 0.782696 0.370001
1 0.815351 0.399512
0.487465 0.934676 0.41326
0.693828 0.941497 0.42681
0.872328 0.945724 0.440421
1 0.955383 0.459327
1 0.972473 0.484657
0 0.152773 0.264973
0.168292 0.136339 0.246647
0.351019 0.125582 0.236057
0.549416 0.112886 0.226932
0.741711 0.112795 0.232654
0.100587 0.257694 0.294774
0.283864 0.266712 0.298985
0.502281 0.278767 0.306737
0.712154 0.298299 0.321782
0.897047 0.328496 0.346441
0.200046 0.476951 0.360159
0.41973 0.499229 0.372595
0.638575 0.523369 0.388815
0.835843 0.553292 0.411353
0.993866 0.592096 0.442374
0.335943 0.730007 0.441138
0.558892 0.750179 0.457618
0.763867 0.770809 0.476585
0.936049 0.795163 0.500938
1 0.824811 0.531533
0.505211 0.944015 0.545556
0.707485 0.947738 0.558953
0.882139 0.950286 0.572473
1 0.959792 0.59176
1 0.976913 0.616709
0 0.157656 0.345205
0.176883 0.141115 0.336202
0.363287 0.128695 0.333562
0.563958 0.117723 0.334234
0.759869 0.122683 0.350057
0.109026 0.265919 0.404562
0.30193 0.278431 0.416739
0.521233 0.292058 0.429664
0.730526 0.313008 0.449317
0.912917 0.344793 0.478386
0.217517 0.492515 0.487724
0.439246 0.514809 0.503532
0.656977 0.539254 0.522423
0.851301 0.56936 0.54696
1 0.607965 0.57911
0.356207 0.744595 0.57702
0.576913 0.763638 0.593378
0.779416 0.783078 0.612161
0.947219 0.806195 0.634897
1 0.833112 0.66273
0.521996 0.952102 0.679744
0.720287 0.953063 0.689403
0.891112 0.954589 0.69929
1 0.964492 0.715877
1 0.982223 0.737392
0 0.161273 0.463722
0.180941 0.143908 0.457527
0.373861 0.130755 0.457343
0.578775 0.122667 0.462974
0.778058 0.132769 0.485359
0.119585 0.275074 0.535225
0.319219 0.289876 0.550072
0.539727 0.305226 0.565438
0.748226 0.327962 0.586404
0.928542 0.361273 0.616159
0.234577 0.50779 0.623652
0.458457 0.53019 0.639033
0.675166 0.555032 0.656733
0.867216 0.585504 0.67985
1 0.624292 0.709636
0.376272 0.758892 0.708232
0.595453 0.777005 0.721675
0.794751 0.795575 0.736461
0.958251 0.817136 0.754376
1 0.842023 0.775326
0.53843 0.959899 0.797177
0.733684 0.958984 0.798978
0.901701 0.960357 0.802152
1 0.971466 0.812467
1 0.990143 0.828824
0 0.163912 0.594171
0.185336 0.145861 0.58793
0.385153 0.132906 0.587488
0.596124 0.129732 0.596551
0.796826 0.143618 0.620676
0.132586 0.285801 0.667735
0.337697 0.302129 0.681788
0.558999 0.319127 0.695476
0.766949 0.343572 0.714916
0.944595 0.378607 0.741756
0.254292 0.524041 0.749493
0.479484 0.546914 0.761028
0.694896 0.572229 0.774044
0.883711 0.602853 0.790539
1 0.641764 0.81413
0.398444 0.774441 0.816358
0.615686 0.792081 0.823011
0.812467 0.809735 0.831022
0.970336 0.82916 0.842481
1 0.85211 0.858427
0.556359 0.968688 0.883177
0.748821 0.966705 0.880613
0.913588 0.968032 0.881422
1 0.979965 0.891493
1 0.998627 0.907347
