EA 50 Cinematic Luts Pack/EA_Cinematic Lut (13).cube
TITLE "Generated by Resolve"
LUT_3D_SIZE 33
0 0.0272679 0.0341344
0 0.0234836 0.0397803
0 0.0158236 0.0415351
0 0 0.033051
0 0 0.0228733
0.034287 0 0.0156558
0.110842 0 0.0119936
0.183307 0 0.00929274
0.252674 0 0.00730907
0.318822 0 0.00607309
0.381155 0 0.00576791
0.433356 0 0.00813306
0.482994 0 0.0111543
0.531228 0 0.0145571
0.578286 0 0.0183108
0.624338 0 0.022446
0.669566 0 0.026978
0.713985 0 0.0318151
0.757626 0 0.0368658
0.800549 0 0.0421149
0.842802 0 0.0475471
0.884443 0 0.0531319
0.925521 0 0.0588846
0.966064 0 0.0647746
1 0 0.0708019
1 0 0.0769513
1 0 0.0832074
1 0 0.0895857
1 0 0.0960708
1 0 0.102663
1 0 0.109346
1 0 0.116106
1 0 0.122972
0 0.0473487 0.0550698
0 0.0492103 0.060502
0 0.0435492 0.0548257
0 0.0267948 0.0432441
0 0.00840772 0.0305333
0.0372473 0 0.0208896
0.110948 0 0.0149081
0.181277 0 0.010071
0.249271 0 0.0061799
0.314855 0 0.00326543
0.377279 0 0.00155642
0.433158 0 0.00234989
0.48275 0 0.00537118
0.530938 0 0.00877394
0.577935 0 0.0125429
0.623926 0 0.0166934
0.669093 0 0.0212406
0.713558 0 0.0261845
0.757229 0 0.0313573
0.800198 0 0.0367285
0.842496 0 0.0422675
0.884169 0 0.0479896
0.925292 0 0.0538643
0.965866 0 0.0598917
1 0 0.0660258
1 0 0.0723125
1 0 0.0786755
1 0 0.0852064
1 0 0.0917983
1 0 0.098497
1 0 0.105303
1 0 0.1122
1 0 0.119188
0 0.0700084 0.0695964
0 0.0721294 0.0838636
0 0.0698253 0.076585
0 0.0559701 0.0571145
0 0.0389715 0.0393683
0.0396582 0.0245365 0.0264286
0.110811 0.0133516 0.0177768
0.178927 0.00274662 0.010544
0.245243 0 0.00447089
0.309712 0 0
0.371832 0 0
0.43061 0 0
0.480262 0 0
0.528466 0 0.000717174
0.575448 0 0.00434882
0.621424 0 0.00836194
0.666545 0 0.0127718
0.710979 0 0.0176089
0.754711 0 0.0227817
0.797711 0 0.0281224
0.84004 0 0.0336614
0.881758 0 0.0393683
0.922881 0 0.0451972
0.963485 0 0.0512093
1 0 0.0573434
1 0 0.0635996
1 0 0.0699931
1 0 0.076463
1 0 0.0830854
1 0 0.0897688
1 0 0.0965744
1 0 0.103441
1 0 0.11043
0 0.0958419 0.0763561
0 0.0969253 0.0954147
0 0.0951553 0.0942092
0 0.0833448 0.0746319
0 0.0691539 0.0516365
0.0405432 0.0565957 0.0334325
0.108934 0.0465705 0.0209354
0.174929 0.03682 0.0108186
0.239536 0.0271153 0.00230411
0.302754 0.0175021 0
0.364202 0.00810254 0
0.423117 0 0
0.4748 0 0
0.523156 0 0
0.57026 0 0
0.616297 0 0
0.661463 0 0.00283818
0.705913 0 0.0075227
0.749722 0 0.0126192
0.792813 0 0.0179294
0.835218 0 0.0234226
0.876982 0 0.029099
0.918166 0 0.0349126
0.958816 0 0.0408789
0.998962 0 0.0469825
1 0 0.0532387
1 0 0.0596017
1 0 0.0660563
1 0 0.0726482
1 0 0.0793469
1 0 0.0861219
1 0 0.0929885
1 0 0.0999313
0 0.124285 0.0767071
0 0.124147 0.0982986
0 0.122011 0.102953
0 0.110475 0.0870222
0 0.0977646 0.0645151
0.0445869 0.0874952 0.0433051
0.107851 0.0794537 0.0265202
0.170535 0.071046 0.0125887
0.232944 0.0622416 0.00111391
0.294697 0.0532235 0
0.35523 0.0441901 0
0.413748 0.0353857 0
0.467018 0.0276188 0
0.515709 0.0208591 0
0.563058 0.0144808 0
0.609277 0.00851453 0
0.654582 0.00296025 0
0.699123 0 0
0.743053 0 0.00190738
0.786282 0 0.00712596
0.828809 0 0.0125582
0.87068 0 0.0181582
0.911955 0 0.0239261
0.952697 0 0.0298619
0.992905 0 0.035935
1 0 0.0421302
1 0 0.0484474
1 0 0.054902
1 0 0.0614328
1 0 0.0681163
1 0 0.0748608
1 0 0.0816968
1 0 0.0886397
0 0.155001 0.0716106
0 0.153704 0.0944991
0 0.150774 0.10341
0 0.139116 0.0919509
0 0.126497 0.072221
0.0526589 0.117372 0.0519112
0.110491 0.111147 0.0335699
0.1682 0.10457 0.0166323
0.227008 0.0971695 0.0018616
0.286366 0.0890974 0
0.345434 0.0806744 0
0.403189 0.0721904 0
0.457237 0.0642557 0
0.506325 0.0573129 0
0.553994 0.050721 0
0.600519 0.0445411 0
0.646036 0.0387732 0
0.690776 0.0334478 0
0.734859 0.0286107 0
0.778286 0.0241398 0
0.820981 0.0198672 0.00144961
0.863005 0.0158083 0.0069276
0.904433 0.0119173 0.012604
0.945281 0.00817884 0.0184634
0.985611 0.00460822 0.0244602
1 0.00117494 0.0305791
1 0 0.0368505
1 0 0.0432593
1 0 0.0497749
1 0 0.0563821
1 0 0.0631113
1 0 0.0699321
1 0 0.0768292
0 0.187457 0.0624399
0 0.185183 0.0857862
0 0.18143 0.0975204
0 0.169253 0.0901656
0 0.156542 0.0737774
0.0615244 0.147494 0.0559091
0.116075 0.142199 0.0386969
0.169299 0.137072 0.021088
0.223651 0.131258 0.00434882
0.279408 0.124544 0
0.335988 0.117082 0
0.392233 0.109209 0
0.445914 0.101488 0
0.495308 0.0944381 0
0.543374 0.0876783 0
0.590204 0.0813001 0
0.636042 0.0753185 0
0.680964 0.0697795 0
0.725277 0.064744 0
0.768933 0.0601205 0
0.811841 0.0557259 0
0.854078 0.0515297 0
0.895674 0.0475471 0.00122072
0.936675 0.0437171 0.00694286
0.977142 0.0400549 0.0128176
1 0.0365454 0.0188602
1 0.0331731 0.0250553
1 0.0299382 0.0313573
1 0.0268101 0.0378119
1 0.0238041 0.044358
1 0.0209201 0.0510109
1 0.0181125 0.0577859
1 0.0154269 0.0646372
0 0.221103 0.0504921
0 0.218158 0.0737621
0 0.213626 0.0871748
0 0.20087 0.0829633
0.00102235 0.187884 0.0700694
0.0687572 0.178668 0.0549477
0.122194 0.17351 0.0399939
0.17261 0.169162 0.0236515
0.223194 0.164538 0.00686656
0.275105 0.159152 0
0.328283 0.152926 0
0.382086 0.145983 0
0.434241 0.138811 0
0.483467 0.131884 0
0.531579 0.125139 0
0.578637 0.118654 0
0.62472 0.11252 0
0.669947 0.106783 0
0.714458 0.101534 0
0.758373 0.0967269 0
0.80148 0.092195 0
0.843931 0.087892 0
0.88574 0.083772 0
0.92694 0.0798352 0
0.96759 0.0760662 0.00123598
1 0.0724651 0.0071107
1 0.0690013 0.0131685
1 0.0656748 0.019379
1 0.0624857 0.0256962
1 0.0594186 0.0321813
1 0.0564584 0.0387732
1 0.0536049 0.0454566
1 0.0508583 0.0522469
0 0.255451 0.0370794
0 0.252064 0.0597696
0 0.246983 0.0740368
0 0.233692 0.0720684
0.00666819 0.220295 0.0622263
0.0737621 0.210971 0.0499886
0.127153 0.2056 0.0374762
0.176394 0.201434 0.0232547
0.224537 0.197467 0.00781262
0.273259 0.193088 0
0.32311 0.187976 0
0.373892 0.182101 0
0.423529 0.175753 0
0.47187 0.169238 0
0.519524 0.162722 0
0.566415 0.156329 0
0.612497 0.150164 0
0.657862 0.144335 0
0.702571 0.138918 0
0.746715 0.133944 0
0.790066 0.129274 0
0.832761 0.124788 0
0.874754 0.120546 0
0.916121 0.116487 0
0.956985 0.112612 0
0.997284 0.108888 0
1 0.105333 0.00143435
1 0.101915 0.00747692
1 0.0986343 0.0136568
1 0.095491 0.0199893
1 0.0924544 0.0264591
1 0.0895247 0.0330663
1 0.086717 0.039765
0 0.289982 0.0234073
0 0.286427 0.0450904
0 0.280995 0.0596475
0 0.267323 0.0591135
0.0106355 0.253559 0.0516365
0.0775158 0.244022 0.0421302
0.130312 0.238575 0.0320745
0.179461 0.234257 0.0201114
0.226398 0.230518 0.0065919
0.272953 0.226703 0
0.320058 0.222431 0
0.36791 0.217502 0
0.414801 0.211948 0
0.46157 0.206119 0
0.508171 0.200076 0
0.554391 0.193973 0
0.600107 0.187976 0
0.645304 0.182177 0
0.689982 0.17673 0
0.734188 0.171649 0
0.777722 0.166842 0
0.82063 0.162234 0
0.862806 0.157855 0
0.904448 0.153643 0
0.945495 0.14963 0
0.985901 0.145815 0
1 0.142138 0
1 0.138628 0
1 0.135256 0.00181582
1 0.132006 0.00798047
1 0.128893 0.0142824
1 0.125887 0.0207523
1 0.122988 0.0273442
0 0.324224 0.0106966
0 0.320745 0.0311437
0 0.315236 0.0452888
0 0.30135 0.0455482
0.0135805 0.287358 0.0397192
0.0803388 0.277592 0.0325322
0.13254 0.272099 0.0248569
0.181323 0.267674 0.0150607
0.227939 0.263859 0.00376898
0.273274 0.260288 0
0.318456 0.256535 0
0.36347 0.25214 0
0.408347 0.247379 0
0.453315 0.242267 0
0.498344 0.236881 0
0.543359 0.231296 0
0.588266 0.225635 0
0.632914 0.220066 0
0.677256 0.21471 0
0.721309 0.209644 0
0.764813 0.204776 0
0.807752 0.200092 0
0.850095 0.19559 0
0.89189 0.191272 0
0.933135 0.187121 0
0.973754 0.1832 0
1 0.1794 0
1 0.175769 0
1 0.17229 0
1 0.168948 0
1 0.165743 0.00236515
1 0.162661 0.00862135
1 0.159686 0.0150454
0 0.355688 0.00508125
0 0.353552 0.0217594
0 0.349126 0.0325628
0 0.335348 0.0327611
0.0164034 0.321248 0.0280308
0.0828565 0.311376 0.0226291
0.134524 0.305806 0.0170596
0.182437 0.301442 0.00935378
0.228855 0.29752 1.5259e-05
0.273686 0.293919 0
0.317617 0.290105 0
0.360906 0.286229 0
0.403998 0.282124 0
0.44715 0.277729 0
0.490486 0.273014 0
0.533959 0.268055 0
0.577585 0.262943 0
0.621317 0.25774 0
0.665003 0.252628 0
0.708568 0.2477 0
0.751812 0.242878 0
0.794553 0.238193 0
0.836881 0.233661 0
0.878691 0.229267 0
0.920012 0.22504 0
0.96083 0.220981 0
1 0.217075 0
1 0.213352 0
1 0.209751 0
1 0.206302 0
1 0.202976 0
1 0.199817 0
1 0.196765 0.00299077
0 0.386969 3.0518e-05
0 0.384802 0.0168307
0 0.380392 0.0281224
0 0.367346 0.0269627
0.0220645 0.353857 0.0214389
0.087068 0.34435 0.0162814
0.137728 0.338933 0.0121614
0.184726 0.334615 0.00679026
0.230259 0.330663 0.000488289
0.274769 0.326879 0
0.317723 0.323369 0
0.359747 0.319921 0
0.401358 0.316365 0
0.442878 0.312581 0
0.484535 0.308522 0
0.526452 0.304204 0
0.568643 0.299657 0
0.611017 0.295003 0
0.653712 0.290288 0
0.696468 0.285618 0
0.739116 0.280964 0
0.781491 0.276371 0
0.823575 0.27187 0
0.865248 0.267491 0
0.906523 0.263218 0
0.947372 0.259098 0
0.987762 0.255116 0
1 0.251286 0
1 0.247578 0
1 0.244038 0
1 0.24065 0
1 0.237354 0
1 0.234195 0
0 0.418357 0
0 0.416175 0.0116274
0 0.411765 0.0233463
0 0.398764 0.0230106
0.0302892 0.385382 0.0186313
0.0941329 0.376043 0.0148165
0.143496 0.370855 0.0121614
0.188998 0.366842 0.00814832
0.232868 0.363302 0.00288396
0.276188 0.359838 0
0.318456 0.356542 0
0.359533 0.353399 0
0.399969 0.350256 0
0.440131 0.34699 0
0.480323 0.343496 0
0.520699 0.339773 0
0.561395 0.335821 0
0.602441 0.331701 0
0.643824 0.327504 0
0.68545 0.323217 0
0.727214 0.318837 0
0.768948 0.314458 0
0.810513 0.310094 0
0.851865 0.305776 0
0.892927 0.301549 0
0.933654 0.297414 0
0.974014 0.2934 0
1 0.289525 0
1 0.285756 0
1 0.282124 0
1 0.278614 0
1 0.275227 0
1 0.272023 0
0 0.449805 0
0 0.447623 0.00616464
0 0.443275 0.0183261
0 0.430274 0.0186007
0.0385748 0.416983 0.0152285
0.101442 0.407767 0.0126192
0.149645 0.402792 0.0112917
0.193866 0.399039 0.00862135
0.236316 0.395819 0.00448615
0.27805 0.392767 0
0.319539 0.389685 0
0.359945 0.38677 0
0.399496 0.383932 0
0.43856 0.381064 0
0.477485 0.378058 0
0.516503 0.374868 0
0.555779 0.371466 0
0.595422 0.367895 0
0.635493 0.364202 0
0.675853 0.360342 0
0.716457 0.356374 0
0.757275 0.352285 0
0.798123 0.348135 0
0.838926 0.343984 0
0.879576 0.339864 0
0.919951 0.335836 0
0.960174 0.331823 0
1 0.327932 0
1 0.324132 0
1 0.320455 0
1 0.316899 0
1 0.313436 0
1 0.310109 0
0 0.481285 0
0 0.479118 0.000411994
0 0.4748 0.0128939
0 0.46183 0.0137789
0.0468757 0.448631 0.0112917
0.108904 0.439536 0.00976577
0.156085 0.43473 0.00962844
0.199176 0.431189 0.00825513
0.24036 0.428244 0.00531014
0.28072 0.425544 0.00105287
0.320867 0.422843 0
0.360723 0.420096 0
0.399603 0.417487 0
0.437827 0.414923 0
0.475731 0.412314 0
0.513588 0.409567 0
0.551614 0.406668 0
0.589944 0.403616 0
0.628641 0.400397 0
0.66772 0.396994 0
0.707149 0.393408 0
0.746838 0.389715 0
0.786679 0.385916 0
0.826719 0.38201 0
0.866743 0.378073 0
0.906722 0.374151 0
0.946532 0.370245 0
0.98613 0.366415 0
1 0.362646 0
1 0.358953 0
1 0.355367 0
1 0.351873 0
1 0.348486 0
0 0.512749 0
0 0.510628 0
0 0.50634 0.00714122
0 0.493431 0.00857557
0.0551156 0.480308 0.00686656
0.116442 0.471321 0.00633249
0.162707 0.466667 0.00727855
0.204791 0.46331 0.00709544
0.244877 0.460609 0.00534066
0.284016 0.458213 0.00210575
0.32282 0.455863 0
0.361685 0.453422 0
0.400076 0.45098 0
0.437659 0.448661 0
0.474769 0.446357 0
0.511666 0.443976 0
0.548608 0.44152 0
0.585748 0.438911 0
0.623209 0.436133 0
0.661006 0.433173 0
0.699168 0.43003 0
0.737682 0.426719 0
0.776471 0.42327 0
0.815503 0.419715 0
0.854734 0.416052 0
0.894041 0.412329 0
0.933333 0.408591 0
0.972534 0.404868 0
1 0.40116 0
1 0.397528 0
1 0.393957 0
1 0.390463 0
1 0.387045 0
0 0.544228 0
0 0.542123 0
0 0.537865 0.00105287
0 0.525032 0.00296025
0.0632181 0.511986 0.00196841
0.123964 0.50312 0.00233463
0.169451 0.498589 0.00430304
0.210636 0.495415 0.00518807
0.249744 0.492927 0.00459297
0.287785 0.490776 0.00241093
0.325414 0.488746 0
0.363012 0.486656 0
0.400763 0.484443 0
0.437858 0.482307 0
0.474342 0.480247 0
0.510475 0.478187 0
0.546502 0.476066 0
0.58262 0.473838 0
0.618921 0.471458 0
0.655543 0.46891 0
0.692515 0.466178 0
0.729854 0.463279 0
0.767544 0.460212 0
0.805554 0.456992 0
0.843748 0.453696 0
0.882231 0.450248 0
0.920836 0.446738 0
0.959472 0.443183 0
0.998077 0.439628 0
1 0.436072 0
1 0.432563 0
1 0.429114 0
1 0.425727 0
0 0.575784 0
0 0.573678 0
0 0.569421 0
0 0.556603 0
0.0711833 0.543633 0
0.131426 0.534874 0
0.176257 0.530465 0.000701915
0.216617 0.527459 0.00259403
0.254841 0.52517 0.00308232
0.29192 0.523247 0.00198367
0.328496 0.521492 0
0.36495 0.519753 0
0.401602 0.517876 0
0.43827 0.515908 0
0.474266 0.514046 0
0.509789 0.512215 0
0.545083 0.510384 0
0.580301 0.508461 0
0.615641 0.506447 0
0.651194 0.504265 0
0.687053 0.501945 0
0.723262 0.499428 0
0.759823 0.496757 0
0.796765 0.493904 0
0.834012 0.490913 0
0.871519 0.487816 0
0.909209 0.484611 0
0.947143 0.481285 0
0.985153 0.477913 0
1 0.474525 0
1 0.471122 0
1 0.467765 0
1 0.464439 0
0 0.607416 0
0 0.605295 0
0 0.601038 0
0.00425727 0.588251 0
0.0790265 0.575326 0
0.138811 0.566629 0
0.183047 0.562325 0
0.22269 0.559457 0
0.260105 0.557351 0.000869764
0.29633 0.555642 0.000823987
0.33196 0.554131 0
0.367407 0.552666 0
0.40293 0.551141 0
0.438773 0.549462 0
0.474403 0.547753 0
0.509453 0.54612 0
0.544137 0.544518 0
0.578637 0.54287 0
0.613153 0.541146 0
0.647761 0.539315 0
0.682628 0.537331 0
0.717784 0.535195 0
0.753277 0.532891 0
0.789136 0.530419 0
0.825345 0.527794 0
0.861891 0.525002 0
0.898695 0.522087 0
0.935729 0.519112 0
0.973007 0.515984 0
1 0.512779 0
1 0.50956 0
1 0.50631 0
1 0.503075 0
0 0.639124 0
0 0.636988 0
0 0.632731 0
0.012253 0.619959 0
0.0867933 0.607065 0
0.146181 0.598444 0
0.189883 0.594232 0
0.22887 0.59147 0
0.265538 0.589517 0
0.300969 0.587991 0
0.335744 0.586694 0
0.37026 0.585489 0
0.404807 0.584268 0
0.439582 0.582925 0
0.474662 0.581415 0
0.509331 0.579934 0
0.543526 0.578515 0
0.577447 0.577111 0
0.611246 0.575647 0
0.64509 0.574105 0
0.679057 0.572442 0
0.713268 0.570642 0
0.747768 0.568673 0
0.78262 0.566567 0
0.817807 0.564279 0
0.853361 0.561837 0
0.88925 0.559243 0
0.925444 0.556527 0
0.961852 0.553719 0
0.998428 0.550805 0
1 0.547784 0
1 0.544717 0
1 0.541619 0
0 0.670878 0
0 0.668742 0
0 0.664485 0
0.0198672 0.651804 0
0.0944381 0.638865 0
0.153475 0.630289 0
0.196719 0.626154 0
0.235111 0.623499 0
0.271092 0.621668 0
0.305806 0.62031 0
0.339803 0.619226 0
0.373465 0.618235 0
0.407111 0.617273 0
0.440879 0.61622 0
0.475029 0.61503 0
0.509331 0.613703 0
0.543145 0.612451 0
0.576593 0.611215 0
0.609812 0.609979 0
0.642969 0.608682 0
0.676188 0.607294 0
0.70956 0.605798 0
0.743175 0.60415 0
0.777066 0.602365 0
0.811307 0.600427 0
0.845884 0.598321 0
0.880827 0.596063 0
0.916075 0.593652 0
0.951659 0.591104 0
0.987472 0.588479 0
1 0.585748 0
1 0.582895 0
1 0.57998 0
0 0.702708 0
0 0.700572 0
0 0.696315 0
0.0276341 0.683619 0
0.101991 0.670726 0
0.160723 0.662196 0
0.20354 0.658137 0
0.241413 0.655573 0
0.276768 0.653849 0
0.310796 0.652628 0
0.344076 0.651698 0
0.376959 0.650919 0
0.409751 0.650187 0
0.442664 0.649393 0
0.475837 0.648508 0
0.509392 0.64744 0
0.542901 0.646311 0
0.575967 0.645228 0
0.608728 0.644175 0
0.641321 0.643091 0
0.673884 0.641947 0
0.706538 0.640711 0
0.73933 0.639368 0
0.772381 0.637888 0
0.805722 0.636255 0
0.839384 0.63447 0
0.873396 0.632532 0
0.907744 0.630442 0
0.942412 0.628214 0
0.977401 0.625849 0
1 0.623346 0
1 0.620813 0
1 0.618128 0
0 0.7346 0
0 0.732464 0
0 0.728191 0
0.0352483 0.715511 0
0.109422 0.702632 0
0.16788 0.694148 0
0.21033 0.690135 0
0.24773 0.687648 0
0.282536 0.68603 0
0.315908 0.684947 0
0.348516 0.684169 0
0.380697 0.683574 0
0.412726 0.683024 0
0.444816 0.682475 0
0.477089 0.681849 0
0.509743 0.681071 0
0.542748 0.680125 0
0.575509 0.679179 0
0.607874 0.678279 0
0.639994 0.677378 0
0.672023 0.676448 0
0.704036 0.675456 0
0.736141 0.674357 0
0.768429 0.673152 0
0.800961 0.671809 0
0.833768 0.670314 0
0.866896 0.668696 0
0.900374 0.666911 0
0.934157 0.664973 0
0.968292 0.662913 0
1 0.6607 0
1 0.658381 0
1 0.655985 0
0 0.766552 0
0 0.764401 0
0 0.760128 0
0.0427253 0.747448 0
0.116747 0.7346 0
0.174975 0.726146 0
0.21709 0.722194 0
0.254063 0.719783 0
0.28835 0.718242 0
0.321141 0.717266 0
0.353109 0.716625 0
0.384634 0.716182 0
0.415946 0.715831 0
0.447272 0.71548 0
0.478767 0.715084 0
0.510521 0.71458 0
0.542702 0.713909 0
0.575128 0.7131 0
0.607187 0.712322 0
0.638926 0.711589 0
0.670481 0.710826 0
0.701961 0.710018 0
0.733471 0.709163 0
0.765072 0.708186 0
0.796872 0.707118 0
0.828931 0.705898 0
0.861234 0.70457 0
0.893874 0.703075 0
0.926818 0.701442 0
0.960098 0.699657 0
0.993713 0.697734 0
1 0.695689 0
1 0.693523 0
0 0.798566 0
0 0.796399 0
0 0.792126 0
0.0500801 0.779446 0
0.123964 0.766613 0
0.181979 0.75819 0
0.223789 0.754284 0
0.26038 0.751934 0
0.294209 0.750484 0
0.326452 0.749599 0
0.357824 0.749096 0
0.388739 0.748775 0
0.419394 0.748592 0
0.450004 0.748425 0
0.480751 0.748241 0
0.511742 0.747967 0
0.543053 0.74757 0
0.574792 0.74699 0
0.606592 0.746334 0
0.63801 0.745724 0
0.6692 0.745113 0
0.700221 0.744488 0
0.731212 0.743816 0
0.762234 0.743069 0
0.793378 0.742214 0
0.82472 0.741268 0
0.856306 0.740185 0
0.888151 0.738964 0
0.920302 0.737621 0
0.952773 0.736126 0
0.985565 0.734493 0
1 0.732708 0
1 0.7308 0
0 0.830625 0
0 0.828458 0
0 0.82417 0
0.0573129 0.811505 0
0.131075 0.798672 0
0.188891 0.79028 0
0.230442 0.786419 0
0.266682 0.784131 0
0.300084 0.782742 0
0.331838 0.781949 0
0.362646 0.781537 0
0.39295 0.781369 0
0.423011 0.781323 0
0.452979 0.781323 0
0.483024 0.781338 0
0.513268 0.781277 0
0.543786 0.781109 0
0.574731 0.780789 0
0.606043 0.780301 0
0.637232 0.779797 0
0.668086 0.779324 0
0.698741 0.778851 0
0.72929 0.778347 0
0.759793 0.777783 0
0.790372 0.777157 0
0.821088 0.776425 0
0.851972 0.775601 0
0.883116 0.774639 0
0.914519 0.773541 0
0.946227 0.77232 0
0.978256 0.770947 0
1 0.769451 0
1 0.767803 0
0 0.862745 0
0 0.860578 0
0 0.856275 0
0.0644236 0.84361 0
0.137926 0.830823 0
0.195727 0.822416 0
0.237018 0.818586 0
0.272953 0.816358 0
0.305959 0.815045 0
