EA 50 Cinematic Luts Pack/EA_Cinematic Lut (28).cube
TITLE "A truly cinematic look with no compromise on sharpness, contrast, color balance and illumination."
LUT_3D_SIZE 5
0.0000 0.0000 0.0000
0.2161 0.0587 0.0295
0.4283 0.1876 0.1316
0.6834 0.2903 0.1864
0.8603 0.3540 0.2131
0.1589 0.2222 0.1302
0.2710 0.2371 0.1186
0.4990 0.2783 0.1652
0.7375 0.3445 0.1988
0.9031 0.3979 0.2200
0.3411 0.4804 0.2733
0.3799 0.4819 0.2808
0.5607 0.5061 0.2339
0.8194 0.5176 0.2405
0.9971 0.5301 0.2192
0.5219 0.7314 0.4046
0.5217 0.7319 0.4050
0.6431 0.7425 0.3974
0.8422 0.7605 0.3373
0.9952 0.7781 0.4451
0.7488 0.9336 0.6337
0.7491 0.9338 0.6344
0.7939 0.9374 0.6520
0.9065 0.9619 0.6436
0.9982 0.9856 0.8016
0.0794 0.0690 0.1271
0.2139 0.1086 0.1628
0.4577 0.1932 0.1816
0.7157 0.2740 0.2002
0.8873 0.3414 0.2258
0.1697 0.2332 0.2118
0.2828 0.2416 0.2080
0.5083 0.2835 0.2138
0.7480 0.3450 0.2264
0.9264 0.3852 0.2258
0.3377 0.4866 0.3082
0.3593 0.4908 0.3043
0.5645 0.5092 0.2784
0.8264 0.5185 0.2633
0.9976 0.5324 0.2719
0.5058 0.7385 0.4142
0.5056 0.7390 0.4146
0.6433 0.7440 0.4280
0.8431 0.7620 0.3690
0.9961 0.7796 0.4650
0.7486 0.9353 0.6460
0.7490 0.9354 0.6467
0.7917 0.9389 0.6647
0.9053 0.9630 0.6595
0.9984 0.9869 0.8093
0.1806 0.1647 0.2521
0.2288 0.1871 0.2640
0.4417 0.2582 0.3301
0.7117 0.3216 0.3597
0.9193 0.3458 0.3599
0.2463 0.2657 0.3295
0.2849 0.2760 0.3360
0.4928 0.3243 0.3640
0.7556 0.3651 0.3771
0.9881 0.3487 0.3371
0.3581 0.5026 0.4302
0.3587 0.5031 0.4309
0.5870 0.5147 0.4208
0.8278 0.5302 0.4156
0.9986 0.5452 0.4022
0.5219 0.7443 0.5138
0.5221 0.7446 0.5144
0.6367 0.7524 0.5167
0.8437 0.7683 0.4838
0.9980 0.7847 0.5418
0.7632 0.9388 0.7009
0.7636 0.9389 0.7015
0.7890 0.9443 0.7088
0.9011 0.9675 0.7201
0.9988 0.9915 0.8420
0.2861 0.2666 0.3702
0.2871 0.2678 0.3715
0.4522 0.3328 0.4388
0.6858 0.3943 0.5233
0.8816 0.4347 0.5623
0.3333 0.3315 0.4397
0.3340 0.3325 0.4407
0.4897 0.3838 0.4756
0.7116 0.4349 0.5469
0.9272 0.4510 0.5838
0.4263 0.5224 0.5718
0.4267 0.5229 0.5724
0.5650 0.5450 0.5704
0.7808 0.5718 0.6092
0.9770 0.5907 0.6227
0.5227 0.7587 0.6627
0.5230 0.7590 0.6632
0.6193 0.7649 0.6666
0.8454 0.7750 0.6646
0.9995 0.7956 0.6719
0.7944 0.9452 0.7888
0.7948 0.9453 0.7893
0.8083 0.9491 0.7949
0.8929 0.9773 0.8196
0.9994 0.9972 0.9071
0.3923 0.3683 0.5075
0.3929 0.3691 0.5086
0.4849 0.4098 0.5465
0.6730 0.4678 0.6537
0.8861 0.4936 0.7495
0.4193 0.4111 0.5736
0.4197 0.4118 0.5746
0.5084 0.4462 0.5980
0.6996 0.4931 0.6941
0.9192 0.5104 0.7831
0.4955 0.5616 0.7090
0.4957 0.5621 0.7095
0.5508 0.5728 0.7805
0.7704 0.5966 0.8377
0.9505 0.6414 0.8333
0.5941 0.7712 0.8313
0.5945 0.7715 0.8315
0.6308 0.7784 0.8396
0.7816 0.8062 0.9009
0.9846 0.8322 0.9051
0.8360 0.9580 0.9063
0.8364 0.9581 0.9064
0.8379 0.9584 0.9072
0.9203 0.9853 0.9469
1.0000 1.0000 1.0000
