EA 50 Cinematic Luts Pack/EA_Cinematic Lut (41).cube
TITLE "A classic, yet very dynamic grade that instantly adds some action to every video or image."
LUT_3D_SIZE 9
0.0000 0.0000 0.0000
0.0505 0.0137 0.0082
0.1502 0.0594 0.0471
0.2500 0.1067 0.0901
0.3488 0.1534 0.1326
0.4474 0.2002 0.1750
0.5471 0.2480 0.2181
0.6468 0.2965 0.2615
0.7463 0.3460 0.3056
0.0085 0.0967 0.0106
0.0900 0.1032 0.0000
0.1882 0.1163 0.0622
0.2805 0.1437 0.1063
0.3720 0.1802 0.1452
0.4660 0.2210 0.1850
0.5622 0.2648 0.2262
0.6593 0.3106 0.2683
0.7569 0.3581 0.3113
0.0788 0.2024 0.0532
0.1200 0.2075 0.0189
0.2164 0.2130 0.0121
0.3163 0.2225 0.1035
0.4096 0.2422 0.1585
0.5034 0.2699 0.2049
0.5947 0.3054 0.2437
0.6874 0.3452 0.2841
0.7813 0.3882 0.3254
0.1487 0.3096 0.0982
0.1746 0.3132 0.0776
0.2385 0.3202 0.0281
0.3429 0.3257 0.0372
0.4449 0.3344 0.1356
0.5413 0.3501 0.2104
0.6335 0.3743 0.2575
0.7276 0.4032 0.3060
0.8182 0.4396 0.3454
0.2194 0.4230 0.1437
0.2378 0.4258 0.1299
0.2825 0.4321 0.0898
0.3621 0.4395 0.0489
0.4702 0.4450 0.0650
0.5729 0.4537 0.1643
0.6700 0.4679 0.2502
0.7640 0.4890 0.3086
0.8566 0.5161 0.3592
0.2900 0.5444 0.1891
0.3042 0.5466 0.1794
0.3382 0.5522 0.1501
0.3985 0.5603 0.0995
0.4871 0.5681 0.0649
0.5974 0.5738 0.0928
0.7006 0.5829 0.1916
0.7976 0.5965 0.2845
0.8937 0.6145 0.3624
0.3606 0.6779 0.2349
0.3719 0.6798 0.2272
0.3990 0.6847 0.2048
0.4462 0.6926 0.1617
0.5178 0.7015 0.1094
0.6120 0.7094 0.0812
0.7232 0.7150 0.1202
0.8262 0.7241 0.2185
0.9241 0.7373 0.3169
0.4304 0.8195 0.2805
0.4396 0.8212 0.2743
0.4620 0.8253 0.2564
0.5009 0.8324 0.2218
0.5591 0.8414 0.1706
0.6385 0.8505 0.1240
0.7365 0.8585 0.1017
0.8486 0.8644 0.1475
0.9523 0.8739 0.2455
0.5509 0.9530 0.4069
0.5565 0.9546 0.4020
0.5699 0.9590 0.3874
0.5923 0.9671 0.3558
0.6281 0.9782 0.3028
0.6875 0.9892 0.2518
0.7753 0.9955 0.2850
0.8761 0.9990 0.3844
0.9740 0.9968 0.6272
0.0000 0.0021 0.0269
0.0580 0.0194 0.0697
0.1675 0.0555 0.0875
0.2735 0.0974 0.1083
0.3680 0.1459 0.1409
0.4613 0.1951 0.1809
0.5580 0.2440 0.2227
0.6556 0.2933 0.2654
0.7538 0.3433 0.3088
0.0262 0.0957 0.1016
0.0956 0.1021 0.1045
0.1915 0.1171 0.1138
0.2814 0.1456 0.1355
0.3729 0.1818 0.1657
0.4668 0.2223 0.2007
0.5629 0.2659 0.2388
0.6598 0.3115 0.2788
0.7646 0.3553 0.3137
0.0742 0.2039 0.1102
0.1343 0.2050 0.1200
0.2212 0.2113 0.1230
0.3205 0.2208 0.1621
0.4131 0.2413 0.1923
0.5035 0.2709 0.2235
0.5950 0.3064 0.2579
0.6878 0.3460 0.2950
0.7886 0.3856 0.3275
0.1274 0.3132 0.1216
0.1869 0.3114 0.1470
0.2450 0.3190 0.1209
0.3459 0.3246 0.1304
0.4471 0.3333 0.1888
0.5428 0.3497 0.2378
0.6356 0.3737 0.2789
0.7277 0.4039 0.3186
0.8248 0.4374 0.3478
0.2047 0.4257 0.1602
0.2471 0.4244 0.1805
0.2903 0.4307 0.1555
0.3659 0.4387 0.1281
0.4723 0.4442 0.1432
0.5756 0.4524 0.2132
0.6720 0.4669 0.2800
0.7652 0.4887 0.3271
0.8633 0.5137 0.3643
0.2790 0.5467 0.2016
0.3113 0.5455 0.2180
0.3451 0.5509 0.1972
0.4026 0.5594 0.1583
0.4897 0.5673 0.1418
0.5989 0.5731 0.1589
0.7025 0.5818 0.2355
0.7989 0.5957 0.3117
0.8984 0.6133 0.3658
0.3518 0.6799 0.2447
0.3775 0.6789 0.2584
0.4048 0.6836 0.2409
0.4510 0.6915 0.2058
0.5206 0.7008 0.1639
0.6139 0.7087 0.1513
0.7244 0.7144 0.1765
0.8277 0.7232 0.2578
0.9270 0.7369 0.3202
0.4231 0.8213 0.2885
0.4443 0.8204 0.3003
0.4669 0.8244 0.2854
0.5053 0.8315 0.2556
0.5620 0.8408 0.2104
0.6406 0.8500 0.1735
0.7380 0.8580 0.1629
0.8496 0.8640 0.1960
0.9540 0.8741 0.2474
0.5559 0.9520 0.4260
0.5609 0.9538 0.4208
0.5747 0.9580 0.4081
0.5965 0.9661 0.3784
0.6314 0.9774 0.3288
0.6891 0.9889 0.2783
0.7757 0.9957 0.3025
0.8764 0.9991 0.3966
0.9745 0.9969 0.6343
0.0053 0.0282 0.0859
0.0568 0.0478 0.1174
0.1630 0.0713 0.1581
0.2734 0.1054 0.1759
0.3800 0.1446 0.1928
0.4852 0.1860 0.2132
0.5899 0.2299 0.2383
0.6801 0.2832 0.2763
0.7731 0.3356 0.3175
0.0560 0.1011 0.1603
0.1022 0.1090 0.1694
0.1916 0.1234 0.1825
0.2967 0.1445 0.1890
0.3992 0.1741 0.2001
0.4998 0.2100 0.2187
0.5905 0.2556 0.2515
0.6823 0.3031 0.2890
0.7841 0.3475 0.3224
0.1087 0.2005 0.2116
0.1453 0.2047 0.2097
0.2257 0.2112 0.2162
0.3230 0.2225 0.2238
0.4147 0.2439 0.2371
0.5050 0.2735 0.2594
0.5963 0.3087 0.2878
0.6890 0.3481 0.3205
0.8088 0.3778 0.3336
0.1630 0.3094 0.2237
0.1877 0.3127 0.2201
0.2603 0.3160 0.2279
0.3520 0.3228 0.2354
0.4546 0.3305 0.2718
0.5487 0.3483 0.2920
0.6381 0.3742 0.3177
0.7284 0.4055 0.3468
0.8428 0.4310 0.3548
0.2020 0.4272 0.2270
0.2227 0.4296 0.2227
0.3070 0.4277 0.2508
0.3741 0.4371 0.2289
0.4779 0.4419 0.2550
0.5803 0.4498 0.3009
0.6763 0.4652 0.3385
0.7683 0.4879 0.3700
0.8819 0.5067 0.3783
0.2499 0.5522 0.2329
0.2858 0.5510 0.2469
0.3604 0.5482 0.2791
0.4133 0.5572 0.2522
0.4957 0.5660 0.2365
0.6029 0.5715 0.2578
0.7077 0.5789 0.3208
0.8025 0.5937 0.3722
0.9107 0.6101 0.3728
0.3295 0.6847 0.2703
0.3570 0.6837 0.2823
0.4179 0.6811 0.3110
0.4619 0.6892 0.2858
0.5280 0.6990 0.2547
0.6187 0.7072 0.2488
0.7275 0.7130 0.2690
0.8316 0.7208 0.3377
0.9354 0.7355 0.3301
0.4052 0.8254 0.3099
0.4272 0.8245 0.3205
0.4780 0.8223 0.3460
0.5153 0.8294 0.3232
0.5703 0.8388 0.2897
0.6460 0.8486 0.2597
0.7417 0.8566 0.2597
0.8522 0.8628 0.2822
0.9588 0.8745 0.2524
0.5698 0.9493 0.4714
0.5741 0.9511 0.4670
0.5854 0.9558 0.4544
0.6075 0.9637 0.4307
0.6402 0.9753 0.3874
0.6933 0.9879 0.3371
0.7767 0.9959 0.3442
0.8774 0.9994 0.4264
0.9757 0.9973 0.6522
0.0456 0.0628 0.1445
0.0790 0.0762 0.1690
0.1542 0.1011 0.2044
0.2675 0.1230 0.2465
0.3780 0.1556 0.2647
0.4855 0.1934 0.2819
0.5926 0.2343 0.3002
0.6990 0.2769 0.3216
0.8032 0.3220 0.3466
0.0875 0.1161 0.2061
0.1187 0.1239 0.2181
0.1856 0.1401 0.2388
0.2881 0.1580 0.2640
0.3951 0.1837 0.2759
0.5002 0.2162 0.2892
0.6051 0.2529 0.3052
0.7087 0.2932 0.3256
0.8211 0.3298 0.3458
0.1385 0.2027 0.2822
0.1668 0.2072 0.2825
0.2301 0.2162 0.2878
0.3222 0.2282 0.2959
0.4273 0.2447 0.2974
0.5304 0.2680 0.3045
0.6308 0.2976 0.3187
0.7278 0.3334 0.3404
0.8473 0.3601 0.3512
0.1909 0.3071 0.3234
0.2146 0.3099 0.3223
0.2712 0.3158 0.3208
0.3562 0.3231 0.3307
0.4548 0.3336 0.3393
0.5490 0.3519 0.3486
0.6398 0.3773 0.3656
0.7299 0.4086 0.3890
0.8808 0.4151 0.3664
0.2510 0.4211 0.3388
0.2682 0.4235 0.3367
0.3081 0.4294 0.3313
0.3896 0.4338 0.3407
0.4836 0.4408 0.3517
0.5900 0.4473 0.3832
0.6864 0.4630 0.3999
0.7734 0.4877 0.4236
0.9139 0.4949 0.3899
0.2914 0.5470 0.3453
0.3053 0.5491 0.3423
0.3387 0.5544 0.3343
0.4322 0.5532 0.3620
0.5043 0.5642 0.3418
0.6094 0.5689 0.3715
0.7135 0.5752 0.4290
0.8086 0.5906 0.4552
0.9327 0.6034 0.3939
0.3304 0.6858 0.3472
0.3433 0.6875 0.3445
0.3860 0.6894 0.3481
0.4805 0.6852 0.3868
0.5403 0.6960 0.3618
0.6249 0.7058 0.3488
0.7337 0.7096 0.3910
0.8388 0.7162 0.4472
0.9477 0.7325 0.3736
0.3713 0.8325 0.3467
0.3954 0.8316 0.3559
0.4507 0.8295 0.3787
0.5329 0.8256 0.4162
0.5832 0.8358 0.3883
0.6543 0.8465 0.3622
0.7472 0.8551 0.3606
0.8567 0.8607 0.3888
0.9679 0.8747 0.2627
0.5927 0.9449 0.5374
0.5971 0.9466 0.5352
0.6079 0.9511 0.5282
0.6263 0.9595 0.5095
0.6566 0.9713 0.4754
0.7018 0.9859 0.4243
0.7790 0.9960 0.4109
0.8792 1.0000 0.4764
0.9778 0.9980 0.6831
0.0861 0.0974 0.2036
0.1096 0.1069 0.2237
0.1656 0.1281 0.2548
0.2540 0.1538 0.2921
0.3714 0.1745 0.3363
0.4825 0.2070 0.3557
0.5916 0.2441 0.3742
0.6990 0.2845 0.3926
0.8058 0.3268 0.4124
0.1197 0.1377 0.2535
0.1424 0.1446 0.2648
0.1942 0.1598 0.2892
0.2766 0.1811 0.3159
0.3869 0.1999 0.3500
0.4961 0.2283 0.3657
0.6032 0.2621 0.3812
0.7090 0.3000 0.3975
0.8239 0.3340 0.4150
0.1679 0.2133 0.3257
0.1898 0.2172 0.3316
0.2404 0.2263 0.3446
0.3166 0.2407 0.3601
0.4164 0.2572 0.3763
0.5236 0.2782 0.3853
0.6284 0.3053 0.3957
0.7318 0.3374 0.4079
0.8685 0.3515 0.4177
0.2208 0.3083 0.4024
0.2417 0.3110 0.4019
0.2867 0.3182 0.4012
0.3598 0.3276 0.4087
0.4544 0.3391 0.4160
0.5599 0.3535 0.4159
0.6632 0.3732 0.4203
0.7639 0.3986 0.4305
0.9313 0.3890 0.4134
0.2738 0.4195 0.4413
0.2910 0.4216 0.4405
0.3301 0.4269 0.4385
0.4004 0.4336 0.4378
0.4873 0.4415 0.4513
0.5863 0.4517 0.4616
0.6819 0.4686 0.4688
0.7743 0.4916 0.4821
0.9353 0.4876 0.4465
0.3379 0.5407 0.4592
0.3512 0.5425 0.4580
0.3827 0.5472 0.4544
0.4325 0.5554 0.4485
0.5200 0.5604 0.4598
0.6150 0.5680 0.4743
0.7245 0.5735 0.5026
0.8232 0.5875 0.5176
0.9358 0.6018 0.5003
0.3809 0.6783 0.4682
0.3918 0.6800 0.4665
0.4179 0.6844 0.4615
0.4601 0.6924 0.4510
0.5588 0.6913 0.4798
0.6345 0.7035 0.4610
0.7395 0.7079 0.4942
0.8433 0.7137 0.5529
0.9483 0.7312 0.4984
0.4187 0.8256 0.4714
0.4280 0.8271 0.4690
0.4511 0.8310 0.4629
0.4957 0.8364 0.4572
0.6031 0.8310 0.5033
0.6676 0.8430 0.4788
0.7549 0.8533 0.4695
0.8631 0.8563 0.5310
0.9724 0.8731 0.4031
0.6305 0.9376 0.6220
0.6334 0.9396 0.6200
0.6404 0.9447 0.6143
0.6570 0.9527 0.6063
0.6822 0.9649 0.5844
0.7204 0.9809 0.5411
0.7848 0.9951 0.5053
0.8819 1.0000 0.5471
0.9810 0.9990 0.7275
0.1262 0.1317 0.2628
0.1437 0.1388 0.2805
0.1877 0.1561 0.3072
0.2591 0.1805 0.3427
0.3557 0.2062 0.3834
0.4759 0.2267 0.4301
0.5875 0.2594 0.4510
0.6973 0.2961 0.4707
0.8051 0.3360 0.4904
0.1534 0.1633 0.3038
0.1709 0.1692 0.3139
0.2121 0.1827 0.3392
0.2795 0.2038 0.3676
0.3721 0.2270 0.4006
0.4882 0.2465 0.4415
0.5983 0.2765 0.4596
0.7066 0.3110 0.4771
0.8222 0.3431 0.4968
0.1996 0.2279 0.3744
0.2163 0.2318 0.3807
0.2566 0.2411 0.3954
0.3202 0.2561 0.4180
0.4070 0.2751 0.4385
0.5140 0.2931 0.4655
0.6221 0.3176 0.4785
0.7280 0.3475 0.4916
0.8643 0.3606 0.5100
0.2503 0.3160 0.4566
0.2659 0.3191 0.4574
0.3038 0.3262 0.4613
0.3677 0.3360 0.4750
0.4500 0.3495 0.4887
0.5486 0.3651 0.5003
0.6540 0.3844 0.5032
0.7591 0.4078 0.5113
0.9282 0.3947 0.5236
0.3032 0.4203 0.5288
0.3190 0.4223 0.5284
0.3558 0.4273 0.5273
0.4122 0.4358 0.5294
0.4905 0.4459 0.5368
0.5864 0.4570 0.5445
0.6919 0.4706 0.5429
0.7955 0.4886 0.5459
0.9399 0.4883 0.5453
0.3568 0.5398 0.5675
0.3699 0.5415 0.5668
0.4007 0.5459 0.5651
0.4537 0.5527 0.5626
0.5303 0.5605 0.5626
0.6183 0.5690 0.5807
0.7173 0.5794 0.5924
0.8333 0.5881 0.5869
0.9479 0.6000 0.5778
0.4232 0.6720 0.5876
0.4339 0.6735 0.5867
0.4600 0.6772 0.5843
0.5017 0.6842 0.5793
0.5573 0.6945 0.5725
0.6491 0.6996 0.5863
0.7443 0.7075 0.6039
0.8493 0.7140 0.6388
0.9527 0.7300 0.6115
0.4691 0.8176 0.5986
0.4779 0.8190 0.5974
0.4994 0.8226 0.5941
0.5350 0.8291 0.5873
0.5948 0.8357 0.5853
0.6862 0.8377 0.6105
0.7627 0.8516 0.5892
0.8673 0.8539 0.6610
0.9737 0.8706 0.5722
0.6788 0.9281 0.7160
0.6821 0.9298 0.7156
0.6900 0.9344 0.7142
0.7033 0.9427 0.7101
0.7205 0.9559 0.6986
0.7507 0.9723 0.6766
0.7976 0.9918 0.6280
0.8863 1.0000 0.6407
0.9854 1.0000 0.7846
0.1662 0.1660 0.3227
0.1796 0.1712 0.3391
0.2154 0.1857 0.3624
0.2740 0.2077 0.3959
0.3560 0.2336 0.4350
0.4591 0.2592 0.4802
0.5809 0.2798 0.5295
0.6924 0.3130 0.5517
0.8028 0.3494 0.5733
0.1885 0.1915 0.3572
0.2027 0.1966 0.3662
0.2361 0.2083 0.3915
0.2927 0.2278 0.4200
0.3720 0.2518 0.4543
0.4720 0.2760 0.4941
0.5908 0.2959 0.5392
0.7012 0.3272 0.5594
0.8186 0.3564 0.5829
0.2311 0.2471 0.4237
0.2445 0.2509 0.4300
0.2777 0.2601 0.4454
0.3314 0.2747 0.4721
0.4057 0.2950 0.4961
0.5006 0.3160 0.5254
0.6128 0.3347 0.5611
0.7213 0.3621 0.5770
0.8579 0.3737 0.6058
0.2806 0.3286 0.5041
0.2939 0.3312 0.5083
0.3263 0.3377 0.5183
0.3799 0.3482 0.5346
0.4515 0.3628 0.5551
0.5404 0.3803 0.5723
0.6430 0.3986 0.5915
0.7510 0.4202 0.6030
0.9215 0.4044 0.6392
0.3336 0.4258 0.5973
0.3461 0.4280 0.5977
0.3760 0.4336 0.5985
0.4249 0.4432 0.5993
0.4969 0.4534 0.6133
0.5831 0.4664 0.6266
0.6807 0.4820 0.6351
0.7858 0.5001 0.6356
0.9336 0.4956 0.6607
0.3856 0.5402 0.6647
0.3981 0.5418 0.6644
0.4279 0.5459 0.6634
0.4760 0.5530 0.6617
0.5393 0.5628 0.6660
0.6212 0.5735 0.6750
0.7175 0.5845 0.6841
0.8343 0.5927 0.6810
0.9494 0.6028 0.6863
0.4394 0.6715 0.7033
0.4498 0.6730 0.7027
0.4749 0.6766 0.7012
0.5155 0.6833 0.6988
0.5799 0.6907 0.6969
0.6594 0.6994 0.6978
0.7476 0.7085 0.7193
0.8516 0.7175 0.7271
0.9638 0.7277 0.7189
0.5064 0.8120 0.7238
0.5153 0.8133 0.7232
0.5372 0.8163 0.7215
0.5736 0.8219 0.7181
0.6462 0.8241 0.7213
0.7071 0.8341 0.7257
0.7767 0.8474 0.7297
0.8724 0.8553 0.7551
0.9748 0.8684 0.7356
0.7236 0.9204 0.8022
0.7272 0.9220 0.8028
0.7363 0.9259 0.8043
0.7521 0.9328 0.8069
0.7733 0.9439 0.8081
0.7983 0.9600 0.8039
0.8290 0.9818 0.7820
0.8914 1.0000 0.7465
0.9911 1.0000 0.8529
0.2060 0.2001 0.3837
0.2167 0.2043 0.3993
0.2463 0.2165 0.4203
0.2961 0.2360 0.4515
0.3661 0.2611 0.4902
0.4556 0.2883 0.5333
0.5633 0.3132 0.5834
0.6857 0.3340 0.6356
0.7969 0.3678 0.6592
0.2248 0.2215 0.4138
0.2366 0.2260 0.4216
0.2641 0.2360 0.4469
0.3128 0.2540 0.4749
0.3806 0.2775 0.5098
0.4683 0.3030 0.5489
0.5737 0.3271 0.5951
0.6939 0.3475 0.6442
0.8116 0.3748 0.6717
0.2635 0.2701 0.4760
0.2747 0.2737 0.4822
0.3026 0.2823 0.4975
0.3484 0.2962 0.5268
0.4134 0.3162 0.5536
0.4967 0.3389 0.5848
0.5973 0.3612 0.6222
0.7128 0.3807 0.6641
0.8476 0.3921 0.7020
0.3125 0.3439 0.5582
0.3234 0.3466 0.5627
0.3505 0.3531 0.5736
0.3963 0.3639 0.5917
0.4585 0.3787 0.6187
0.5368 0.3983 0.6383
0.6330 0.4175 0.6649
0.7408 0.4366 0.6939
0.9082 0.4210 0.7514
0.3629 0.4369 0.6493
0.3731 0.4393 0.6502
0.3987 0.4448 0.6539
0.4439 0.4530 0.6662
0.5067 0.4642 0.6832
0.5835 0.4785 0.7023
0.6738 0.4956 0.7164
0.7747 0.5138 0.7322
0.9235 0.5073 0.7734
0.4172 0.5441 0.7467
0.4274 0.5459 0.7468
0.4522 0.5504 0.7469
0.4932 0.5584 0.7463
0.5495 0.5699 0.7463
0.6231 0.5779 0.7905
0.7231 0.5876 0.7965
0.8219 0.6037 0.7882
0.9405 0.6120 0.8001
0.4673 0.6718 0.8058
0.4774 0.6731 0.8055
0.5019 0.6765 0.8047
0.5425 0.6826 0.8030
0.5984 0.6912 0.8022
0.6636 0.7020 0.8146
0.7490 0.7122 0.8293
0.8479 0.7242 0.8267
0.9616 0.7326 0.8318
0.5213 0.8118 0.8439
0.5298 0.8131 0.8434
0.5507 0.8162 0.8421
0.5884 0.8213 0.8394
0.6661 0.8229 0.8304
0.7331 0.8306 0.8355
0.7968 0.8441 0.8468
0.8766 0.8570 0.8665
0.9834 0.8663 0.8668
0.7569 0.9178 0.8761
0.7608 0.9192 0.8772
0.7708 0.9226 0.8800
0.7880 0.9287 0.8850
0.8128 0.9379 0.8921
0.8441 0.9507 0.9005
0.8801 0.9681 0.9080
0.9148 0.9935 0.8960
0.9980 1.0000 0.9302
0.2459 0.2346 0.4467
0.2550 0.2382 0.4603
0.2798 0.2485 0.4815
0.3228 0.2661 0.5110
0.3833 0.2894 0.5488
0.4621 0.3160 0.5916
0.5563 0.3440 0.6384
0.6676 0.3682 0.6933
0.7903 0.3896 0.7473
0.2621 0.2529 0.4736
0.2707 0.2561 0.4870
0.2942 0.2646 0.5134
0.3371 0.2808 0.5405
0.3975 0.3025 0.5754
0.4758 0.3277 0.6149
0.5697 0.3540 0.6581
0.6808 0.3768 0.7101
0.8034 0.3966 0.7615
0.2971 0.2959 0.5317
0.3048 0.2985 0.5448
0.3253 0.3041 0.5794
0.3673 0.3160 0.6130
0.4286 0.3343 0.6412
0.5070 0.3560 0.6725
0.6015 0.3788 0.7074
0.7126 0.3981 0.7516
0.8355 0.4142 0.7967
0.3441 0.3630 0.6138
0.3507 0.3651 0.6255
0.3682 0.3698 0.6572
0.4035 0.3747 0.7209
0.4690 0.3863 0.7528
0.5514 0.4033 0.7709
0.6503 0.4205 0.7912
0.7638 0.4344 0.8214
0.8892 0.4438 0.8557
0.3939 0.4508 0.7042
0.3992 0.4527 0.7142
0.4135 0.4570 0.7409
0.4420 0.4624 0.7944
0.4965 0.4621 0.8933
0.5937 0.4733 0.8912
0.6992 0.4865 0.8871
0.8108 0.4996 0.8885
0.9096 0.5234 0.8816
0.4461 0.5540 0.8060
0.4497 0.5561 0.8127
0.4591 0.5613 0.8301
0.4777 0.5697 0.8627
0.5328 0.5764 0.8995
0.6235 0.5829 0.9154
0.7205 0.5949 0.9119
0.8276 0.6068 0.9101
0.9269 0.6261 0.9059
0.5019 0.6743 0.8920
0.5096 0.6758 0.8935
0.5291 0.6793 0.8973
0.5611 0.6857 0.9044
0.6041 0.6959 0.9130
0.6617 0.7087 0.9238
0.7501 0.7170 0.9430
0.8493 0.7290 0.9390
0.9488 0.7447 0.9362
0.6270 0.7996 0.9059
0.6324 0.8010 0.9072
0.6460 0.8045 0.9107
0.6696 0.8106 0.9170
0.7040 0.8197 0.9265
0.7483 0.8321 0.9395
0.8034 0.8469 0.9564
0.8778 0.8610 0.9760
0.9754 0.8743 0.9725
0.7907 0.9179 0.9375
0.7943 0.9192 0.9386
0.8035 0.9227 0.9416
0.8195 0.9288 0.9468
0.8428 0.9379 0.9546
0.8736 0.9503 0.9651
0.9115 0.9659 0.9785
0.9559 0.9850 0.9949
1.0000 1.0000 1.0000
