EA 50 Cinematic Luts Pack/EA_Cinematic Lut (18).CUBE
#Created by: Adobe Photoshop Export Color Lookup Plugin
#Copyright: (C) Copyright 2018 Navpreet Singh
TITLE "orange and teal"
#LUT size
LUT_3D_SIZE 5
#data domain
#LUT data points
DOMAIN_MIN 0.000000 0.000000 0.000000
DOMAIN_MAX 0.903226 0.903226 0.903226
0.000000 0.000000 0.000000
0.225800 0.075256 0.000000
0.451599 0.150482 0.000000
0.677429 0.225769 0.000000
0.903229 0.300995 0.000000
0.000000 0.169403 0.169403
0.225800 0.225800 0.225800
0.617859 0.245605 0.059540
0.903229 0.300995 0.000000
1.000000 0.419281 0.129028
0.000000 0.338776 0.338776
0.101044 0.519928 0.519928
0.451599 0.451599 0.451599
0.843719 0.471405 0.285309
1.000000 0.569824 0.354828
0.000000 0.508179 0.508179
0.000000 0.790405 0.790405
0.326843 0.745789 0.745789
0.677429 0.677429 0.677429
1.000000 0.720398 0.580658
0.000000 0.677551 0.677551
0.000000 0.959778 0.959778
0.242004 1.000000 1.000000
0.552673 0.971558 0.971558
0.903229 0.903229 0.903229
0.000000 0.000000 0.000000
0.225800 0.075256 0.000000
0.451599 0.150482 0.000000
0.677429 0.225769 0.000000
0.903229 0.300995 0.000000
0.000000 0.169403 0.169403
0.225800 0.225800 0.225800
0.617859 0.245605 0.059540
0.903229 0.300995 0.000000
1.000000 0.419281 0.129028
0.000000 0.338776 0.338776
0.101044 0.519928 0.519928
0.451599 0.451599 0.451599
0.843719 0.471405 0.285309
1.000000 0.569824 0.354828
0.000000 0.508179 0.508179
0.000000 0.790405 0.790405
0.326843 0.745789 0.745789
0.677429 0.677429 0.677429
1.000000 0.720398 0.580658
0.000000 0.677551 0.677551
0.000000 0.959778 0.959778
0.242004 1.000000 1.000000
0.552673 0.971558 0.971558
0.903229 0.903229 0.903229
0.000000 0.000000 0.000000
0.225800 0.075256 0.000000
0.451599 0.150482 0.000000
0.677429 0.225769 0.000000
0.903229 0.300995 0.000000
0.000000 0.169403 0.169403
0.225800 0.225800 0.225800
0.617859 0.245605 0.059540
0.903229 0.300995 0.000000
1.000000 0.419281 0.129028
0.000000 0.338776 0.338776
0.101044 0.519928 0.519928
0.451599 0.451599 0.451599
0.843719 0.471405 0.285309
1.000000 0.569824 0.354828
0.000000 0.508179 0.508179
0.000000 0.790405 0.790405
0.326843 0.745789 0.745789
0.677429 0.677429 0.677429
1.000000 0.720398 0.580658
0.000000 0.677551 0.677551
0.000000 0.959778 0.959778
0.242004 1.000000 1.000000
0.552673 0.971558 0.971558
0.903229 0.903229 0.903229
0.000000 0.000000 0.000000
0.225800 0.075256 0.000000
0.451599 0.150482 0.000000
0.677429 0.225769 0.000000
0.903229 0.300995 0.000000
0.000000 0.169403 0.169403
0.225800 0.225800 0.225800
0.617859 0.245605 0.059540
0.903229 0.300995 0.000000
1.000000 0.419281 0.129028
0.000000 0.338776 0.338776
0.101044 0.519928 0.519928
0.451599 0.451599 0.451599
0.843719 0.471405 0.285309
1.000000 0.569824 0.354828
0.000000 0.508179 0.508179
0.000000 0.790405 0.790405
0.326843 0.745789 0.745789
0.677429 0.677429 0.677429
1.000000 0.720398 0.580658
0.000000 0.677551 0.677551
0.000000 0.959778 0.959778
0.242004 1.000000 1.000000
0.552673 0.971558 0.971558
0.903229 0.903229 0.903229
0.000000 0.000000 0.000000
0.225800 0.075256 0.000000
0.451599 0.150482 0.000000
0.677429 0.225769 0.000000
0.903229 0.300995 0.000000
0.000000 0.169403 0.169403
0.225800 0.225800 0.225800
0.617859 0.245605 0.059540
0.903229 0.300995 0.000000
1.000000 0.419281 0.129028
0.000000 0.338776 0.338776
0.101044 0.519928 0.519928
0.451599 0.451599 0.451599
0.843719 0.471405 0.285309
1.000000 0.569824 0.354828
0.000000 0.508179 0.508179
0.000000 0.790405 0.790405
0.326843 0.745789 0.745789
0.677429 0.677429 0.677429
1.000000 0.720398 0.580658
0.000000 0.677551 0.677551
0.000000 0.959778 0.959778
0.242004 1.000000 1.000000
0.552673 0.971558 0.971558
0.903229 0.903229 0.903229
