EA 50 Cinematic Luts Pack/EA_Cinematic Lut (16).cube
TITLE "Generated by Resolve"
LUT_3D_SIZE 5
0 0 0.0139773
0.342504 0 0.021912
0.741863 0 0.0463264
1 0 0.0891737
1 0 0.137957
0 0.200092 0
0.295293 0.176898 0.00332647
0.665705 0.134325 0
1 0.0957961 0
1 0.0665141 0.0356603
0.0245823 0.459663 0
0.309911 0.442313 0
0.596109 0.427955 0
0.905821 0.401511 0
1 0.369116 0
0.0906996 0.712993 0
0.35462 0.699458 0
0.591424 0.699855 0
0.849195 0.692088 0
1 0.67509 0
0.152316 0.968109 0
0.407416 0.955764 0
0.609094 0.964401 0
0.836545 0.967193 0
1 0.963943 0
0 0 0.0657359
0.286427 0 0.0614786
0.706966 0 0.18056
1 0 0.233463
1 0 0.286915
0 0.258503 0
0.30808 0.19472 0.0714733
0.660487 0.149767 0.101915
1 0.101091 0.128634
1 0.074815 0.177768
0.0602274 0.489586 0
0.400641 0.438331 0.0428168
0.606348 0.443214 0.0764172
0.92517 0.40264 0.0321202
1 0.366766 0.0669261
0.169131 0.729656 0
0.453025 0.701976 0
0.618875 0.713756 0.0661479
0.858305 0.706233 0.0356756
1 0.680964 0.00706493
0.24892 0.978515 0
0.515816 0.956619 0
0.66125 0.973205 0.0416876
0.853666 0.982849 0.0558175
1 0.977966 0.0230564
0 0.00277714 0.260105
0.307362 0 0.223133
0.620127 0 0.26891
0.994415 0 0.416754
1 0 0.501015
0 0.319615 0.0727855
0.296498 0.216388 0.220478
0.602106 0.187793 0.2392
0.965499 0.113878 0.354726
1 0.0842756 0.413199
0 0.568826 0
0.333257 0.491478 0.0287327
0.613397 0.455299 0.238819
0.914504 0.412665 0.27158
1 0.361166 0.295491
0.0742962 0.791043 0
0.48336 0.726604 0
0.702815 0.702983 0.207034
0.862806 0.715755 0.248508
1 0.672068 0.201099
0.217731 1 0
0.588479 0.967514 0
0.753902 0.970001 0.136934
0.87509 0.990692 0.237995
1 0.984894 0.209247
0 0.0137942 0.488655
0.309819 0 0.45948
0.605203 0 0.442527
0.891188 0 0.528527
1 0 0.697307
0 0.33283 0.355062
0.277317 0.230457 0.476112
0.631144 0.205768 0.470192
0.885023 0.170382 0.510689
1 0.103441 0.65391
0 0.631968 0.0528725
0.173434 0.552499 0.273655
0.601862 0.476997 0.449119
0.856641 0.451194 0.470634
1 0.368612 0.577478
0 0.868528 0
0.313436 0.803433 0.0552224
0.63299 0.753689 0.251743
0.866926 0.72491 0.46923
1 0.679454 0.499184
0.0665141 1 0
0.490715 1 0
0.781735 0.992111 0.196155
0.955047 0.975952 0.436149
1 0.991485 0.480385
0 0.02121 0.763485
0.297856 0 0.741558
0.616266 0 0.720027
0.859907 0 0.729198
1 0 0.84036
0 0.337194 0.660563
0.251606 0.237995 0.749432
0.630686 0.206027 0.751873
0.881178 0.207202 0.743648
1 0.167956 0.821363
0 0.662303 0.372229
0.124743 0.562737 0.601267
0.583642 0.492042 0.753979
0.894713 0.478218 0.758907
1 0.432425 0.788998
0 0.933165 0.0934615
0.129244 0.863676 0.293629
0.473991 0.815549 0.545769
0.856352 0.747585 0.728756
1 0.719432 0.747921
0 1 0
0.298573 1 0.110887
0.610346 1 0.323674
0.883696 1 0.527596
1 0.998627 0.747356
