EA 50 Cinematic Luts Pack/EA_Cinematic Lut (48).cube
TITLE "A strong, cold, contrasting colorization that will enrich your footage with a pleasant, dreamlike look."
LUT_3D_SIZE 25
0.0000 0.0000 0.0000
0.0000 0.0000 0.0000
0.0222 0.0000 0.0000
0.0687 0.0000 0.0000
0.1160 0.0000 0.0000
0.1646 0.0000 0.0000
0.2130 0.0000 0.0000
0.2553 0.0000 0.0000
0.2955 0.0000 0.0000
0.3379 0.0000 0.0000
0.3823 0.0000 0.0000
0.4284 0.0000 0.0000
0.4753 0.0000 0.0000
0.5216 0.0014 0.0000
0.5688 0.0081 0.0000
0.6161 0.0150 0.0000
0.6624 0.0220 0.0000
0.7074 0.0292 0.0000
0.7510 0.0366 0.0000
0.7929 0.0442 0.0000
0.8317 0.0519 0.0000
0.8666 0.0599 0.0000
0.8967 0.0681 0.0000
0.9214 0.0764 0.0000
0.9404 0.0849 0.0000
0.0000 0.0000 0.0000
0.0000 0.0000 0.0000
0.0422 0.0000 0.0000
0.0913 0.0000 0.0000
0.1438 0.0000 0.0000
0.1836 0.0000 0.0000
0.2260 0.0000 0.0000
0.2648 0.0000 0.0000
0.3049 0.0000 0.0000
0.3470 0.0000 0.0000
0.3911 0.0000 0.0000
0.4367 0.0000 0.0000
0.4827 0.0031 0.0000
0.5285 0.0089 0.0000
0.5755 0.0150 0.0000
0.6222 0.0213 0.0000
0.6679 0.0279 0.0000
0.7124 0.0347 0.0000
0.7555 0.0418 0.0000
0.7969 0.0490 0.0000
0.8353 0.0565 0.0000
0.8695 0.0643 0.0000
0.8990 0.0722 0.0000
0.9232 0.0804 0.0000
0.9417 0.0888 0.0000
0.0000 0.0291 0.0014
0.0000 0.0344 0.0089
0.0472 0.0348 0.0000
0.1008 0.0233 0.0000
0.1446 0.0149 0.0000
0.1932 0.0065 0.0000
0.2465 0.0000 0.0000
0.2753 0.0000 0.0000
0.3145 0.0000 0.0000
0.3573 0.0021 0.0000
0.4014 0.0053 0.0000
0.4468 0.0093 0.0000
0.4920 0.0138 0.0000
0.5373 0.0187 0.0000
0.5840 0.0241 0.0000
0.6300 0.0298 0.0000
0.6751 0.0358 0.0000
0.7190 0.0422 0.0000
0.7615 0.0487 0.0000
0.8023 0.0556 0.0000
0.8399 0.0628 0.0000
0.8734 0.0702 0.0000
0.9020 0.0779 0.0000
0.9255 0.0858 0.0000
0.9433 0.0940 0.0000
0.0000 0.0660 0.0165
0.0000 0.0697 0.0223
0.0000 0.0747 0.0282
0.1007 0.0734 0.0006
0.1573 0.0599 0.0000
0.1912 0.0487 0.0000
0.2367 0.0394 0.0000
0.2829 0.0315 0.0000
0.3367 0.0210 0.0000
0.3769 0.0199 0.0000
0.4138 0.0240 0.0000
0.4591 0.0265 0.0000
0.5042 0.0294 0.0000
0.5497 0.0330 0.0000
0.5958 0.0373 0.0000
0.6410 0.0422 0.0000
0.6853 0.0474 0.0000
0.7284 0.0531 0.0000
0.7701 0.0591 0.0000
0.8100 0.0654 0.0000
0.8466 0.0721 0.0000
0.8789 0.0791 0.0000
0.9064 0.0864 0.0000
0.9288 0.0940 0.0000
0.9455 0.1018 0.0000
0.0000 0.1031 0.0318
0.0000 0.1058 0.0363
0.0000 0.1096 0.0415
0.0000 0.1155 0.0473
0.1539 0.1124 0.0125
0.2151 0.0975 0.0000
0.2438 0.0838 0.0000
0.2833 0.0742 0.0000
0.3335 0.0654 0.0000
0.3826 0.0580 0.0000
0.4365 0.0493 0.0000
0.4868 0.0435 0.0000
0.5208 0.0485 0.0000
0.5637 0.0521 0.0000
0.6094 0.0552 0.0000
0.6543 0.0588 0.0000
0.6981 0.0629 0.0000
0.7404 0.0677 0.0000
0.7812 0.0729 0.0000
0.8199 0.0786 0.0000
0.8551 0.0847 0.0000
0.8859 0.0912 0.0000
0.9120 0.0980 0.0000
0.9329 0.1051 0.0000
0.9483 0.1125 0.0000
0.0000 0.1404 0.0472
0.0000 0.1425 0.0508
0.0000 0.1455 0.0553
0.0000 0.1500 0.0612
0.0000 0.1568 0.0656
0.2077 0.1512 0.0237
0.2755 0.1361 0.0000
0.3023 0.1200 0.0000
0.3398 0.1094 0.0028
0.3866 0.1007 0.0013
0.4390 0.0925 0.0000
0.4880 0.0860 0.0000
0.5393 0.0787 0.0002
0.5987 0.0685 0.0000
0.6327 0.0738 0.0000
0.6690 0.0793 0.0000
0.7119 0.0827 0.0000
0.7536 0.0865 0.0000
0.7938 0.0906 0.0000
0.8315 0.0953 0.0000
0.8650 0.1007 0.0000
0.8942 0.1065 0.0000
0.9185 0.1127 0.0000
0.9377 0.1193 0.0000
0.9518 0.1262 0.0000
0.0000 0.1780 0.0626
0.0000 0.1798 0.0655
0.0000 0.1823 0.0694
0.0000 0.1861 0.0747
0.0000 0.1913 0.0810
0.0000 0.1989 0.0841
0.2623 0.1909 0.0352
0.3393 0.1761 0.0000
0.3653 0.1583 0.0036
0.3994 0.1469 0.0130
0.4430 0.1374 0.0129
0.4953 0.1289 0.0065
0.5457 0.1218 0.0049
0.5951 0.1158 0.0079
0.6439 0.1099 0.0117
0.7075 0.0950 0.0000
0.7392 0.1006 0.0000
0.7713 0.1070 0.0000
0.8076 0.1120 0.0000
0.8435 0.1163 0.0000
0.8754 0.1207 0.0000
0.9029 0.1255 0.0000
0.9255 0.1308 0.0000
0.9427 0.1367 0.0000
0.9557 0.1430 0.0000
0.0000 0.2167 0.0781
0.0000 0.2182 0.0806
0.0000 0.2204 0.0841
0.0000 0.2236 0.0888
0.0000 0.2282 0.0947
0.0000 0.2341 0.1014
0.0000 0.2426 0.1033
0.3193 0.2318 0.0466
0.4051 0.2176 0.0000
0.4323 0.1985 0.0062
0.4644 0.1853 0.0173
0.5047 0.1753 0.0194
0.5508 0.1673 0.0200
0.6049 0.1592 0.0120
0.6527 0.1531 0.0136
0.6992 0.1476 0.0170
0.7446 0.1422 0.0210
0.8043 0.1264 0.0000
0.8357 0.1294 0.0000
0.8619 0.1363 0.0000
0.8865 0.1436 0.0000
0.9118 0.1480 0.0000
0.9322 0.1530 0.0000
0.9475 0.1580 0.0000
0.9600 0.1634 0.0000
0.0000 0.2568 0.0940
0.0000 0.2582 0.0961
0.0000 0.2600 0.0992
0.0000 0.2629 0.1038
0.0000 0.2669 0.1096
0.0000 0.2721 0.1166
0.0000 0.2787 0.1240
0.0000 0.2881 0.1242
0.3777 0.2745 0.0584
0.4708 0.2613 0.0000
0.4992 0.2409 0.0087
0.5285 0.2258 0.0217
0.5657 0.2160 0.0305
0.6096 0.2072 0.0307
0.6591 0.1996 0.0264
0.7078 0.1928 0.0228
0.7535 0.1870 0.0231
0.7964 0.1820 0.0267
0.8362 0.1771 0.0311
0.8815 0.1629 0.0022
0.9089 0.1602 0.0000
0.9261 0.1675 0.0000
0.9403 0.1755 0.0000
0.9525 0.1821 0.0000
0.9643 0.1873 0.0000
0.0000 0.2982 0.1109
0.0000 0.2995 0.1130
0.0000 0.3011 0.1159
0.0000 0.3037 0.1204
0.0000 0.3073 0.1260
0.0000 0.3120 0.1328
0.0000 0.3178 0.1407
0.0000 0.3252 0.1476
0.0000 0.3353 0.1421
0.4374 0.3187 0.0703
0.5344 0.3067 0.0000
0.5647 0.2856 0.0124
0.5927 0.2695 0.0294
0.6289 0.2590 0.0379
0.6704 0.2497 0.0377
0.7129 0.2426 0.0404
0.7610 0.2352 0.0332
0.8047 0.2291 0.0316
0.8435 0.2238 0.0332
0.8773 0.2192 0.0373
0.9061 0.2146 0.0418
0.9347 0.2018 0.0193
0.9521 0.1931 0.0000
0.9617 0.2009 0.0000
0.9705 0.2095 0.0000
0.0000 0.3408 0.1294
0.0000 0.3419 0.1313
0.0000 0.3435 0.1340
0.0000 0.3458 0.1383
0.0000 0.3490 0.1437
0.0000 0.3531 0.1504
0.0000 0.3583 0.1578
0.0000 0.3647 0.1660
0.0000 0.3727 0.1717
0.1304 0.3794 0.1582
0.4959 0.3635 0.0824
0.5969 0.3532 0.0060
0.6289 0.3317 0.0143
0.6570 0.3155 0.0328
0.6903 0.3039 0.0427
0.7269 0.2952 0.0494
0.7669 0.2875 0.0503
0.8092 0.2807 0.0480
0.8504 0.2736 0.0404
0.8838 0.2682 0.0402
0.9110 0.2638 0.0439
0.9329 0.2596 0.0483
0.9490 0.2554 0.0531
0.9649 0.2438 0.0355
0.9784 0.2284 0.0000
0.0000 0.3840 0.1489
0.0000 0.3850 0.1507
0.0000 0.3864 0.1532
0.0000 0.3884 0.1571
0.0000 0.3913 0.1622
0.0000 0.3950 0.1685
0.0000 0.3997 0.1756
0.0000 0.4053 0.1837
0.0000 0.4120 0.1919
0.0000 0.4206 0.1959
0.2212 0.4241 0.1747
0.5527 0.4087 0.0950
0.6557 0.4002 0.0161
0.6891 0.3790 0.0161
0.7173 0.3629 0.0362
0.7481 0.3505 0.0475
0.7806 0.3425 0.0602
0.8185 0.3341 0.0576
0.8523 0.3283 0.0627
0.8869 0.3217 0.0559
0.9162 0.3150 0.0479
0.9366 0.3108 0.0512
0.9515 0.3069 0.0553
0.9642 0.3031 0.0600
0.9751 0.2993 0.0652
0.0000 0.4274 0.1691
0.0000 0.4283 0.1707
0.0000 0.4295 0.1729
0.0000 0.4314 0.1765
0.0000 0.4339 0.1813
0.0000 0.4373 0.1871
0.0000 0.4414 0.1940
0.0000 0.4465 0.2013
0.0000 0.4525 0.2095
0.0000 0.4596 0.2175
0.0000 0.4688 0.2197
0.2985 0.4692 0.1913
0.6094 0.4540 0.1077
0.7107 0.4473 0.0256
0.7453 0.4266 0.0182
0.7733 0.4111 0.0394
0.7999 0.3986 0.0574
0.8313 0.3902 0.0656
0.8619 0.3830 0.0699
0.8908 0.3767 0.0715
0.9168 0.3713 0.0713
0.9387 0.3652 0.0643
0.9536 0.3605 0.0632
0.9664 0.3561 0.0628
0.9768 0.3527 0.0674
0.0000 0.4710 0.1895
0.0000 0.4718 0.1909
0.0000 0.4729 0.1929
0.0000 0.4746 0.1961
0.0000 0.4770 0.2005
0.0000 0.4800 0.2059
0.0000 0.4839 0.2121
0.0000 0.4886 0.2190
0.0000 0.4942 0.2269
0.0000 0.5007 0.2359
0.0000 0.5084 0.2451
0.0000 0.5184 0.2461
0.3714 0.5158 0.2075
0.6624 0.5003 0.1215
0.7615 0.4950 0.0359
0.7971 0.4746 0.0202
0.8238 0.4598 0.0432
0.8479 0.4474 0.0619
0.8742 0.4388 0.0709
0.8979 0.4329 0.0825
0.9217 0.4261 0.0792
0.9393 0.4219 0.0867
0.9546 0.4165 0.0804
0.9680 0.4111 0.0731
0.9779 0.4079 0.0767
0.0000 0.5158 0.2097
0.0000 0.5166 0.2110
0.0000 0.5177 0.2127
0.0000 0.5193 0.2156
0.0000 0.5216 0.2195
0.0000 0.5244 0.2247
0.0000 0.5281 0.2308
0.0000 0.5325 0.2385
0.0000 0.5378 0.2471
0.0000 0.5441 0.2574
0.0000 0.5514 0.2682
0.0000 0.5600 0.2779
0.0000 0.5710 0.2779
0.4396 0.5652 0.2236
0.7125 0.5489 0.1360
0.8081 0.5447 0.0467
0.8425 0.5244 0.0222
0.8663 0.5095 0.0469
0.8877 0.4975 0.0656
0.9088 0.4886 0.0759
0.9269 0.4830 0.0902
0.9432 0.4773 0.0921
0.9561 0.4726 0.0945
0.9681 0.4687 0.0966
0.9788 0.4640 0.0899
0.0000 0.5631 0.2301
0.0000 0.5639 0.2314
0.0000 0.5649 0.2332
0.0000 0.5665 0.2361
0.0000 0.5686 0.2404
0.0000 0.5714 0.2461
0.0000 0.5749 0.2529
0.0000 0.5792 0.2612
0.0000 0.5843 0.2709
0.0000 0.5902 0.2816
0.0000 0.5969 0.2940
0.0000 0.6047 0.3066
0.0000 0.6139 0.3158
0.0000 0.6253 0.3150
0.5033 0.6162 0.2413
0.7597 0.5998 0.1512
0.8488 0.5969 0.0580
0.8806 0.5770 0.0245
0.9011 0.5622 0.0494
0.9187 0.5504 0.0694
0.9337 0.5414 0.0862
0.9470 0.5355 0.0961
0.9584 0.5310 0.1060
0.9700 0.5257 0.1028
0.9789 0.5228 0.1122
0.0000 0.6120 0.2541
0.0000 0.6127 0.2555
0.0000 0.6137 0.2575
0.0000 0.6152 0.2606
0.0000 0.6172 0.2651
0.0000 0.6198 0.2712
0.0000 0.6230 0.2787
0.0000 0.6271 0.2873
0.0000 0.6321 0.2978
0.0000 0.6381 0.3092
0.0000 0.6453 0.3222
0.0000 0.6538 0.3365
0.0000 0.6638 0.3509
0.0000 0.6764 0.3581
0.0000 0.6918 0.3571
0.5631 0.6758 0.2615
0.8037 0.6546 0.1667
0.8828 0.6513 0.0690
0.9111 0.6310 0.0286
0.9279 0.6169 0.0520
0.9412 0.6060 0.0730
0.9514 0.5975 0.0933
0.9623 0.5914 0.1019
0.9715 0.5878 0.1182
0.9805 0.5832 0.1176
0.0000 0.6672 0.2819
0.0000 0.6681 0.2834
0.0000 0.6693 0.2855
0.0000 0.6710 0.2888
0.0000 0.6735 0.2935
0.0000 0.6767 0.2998
0.0000 0.6806 0.3078
0.0000 0.6855 0.3169
0.0000 0.6914 0.3277
0.0000 0.6982 0.3402
0.0000 0.7063 0.3533
0.0000 0.7152 0.3685
0.0000 0.7254 0.3844
0.0000 0.7367 0.4100
0.0000 0.7509 0.4187
0.0000 0.7668 0.4148
0.6189 0.7467 0.2837
0.8423 0.7227 0.1823
0.9105 0.7185 0.0798
0.9340 0.6978 0.0345
0.9465 0.6808 0.0542
0.9568 0.6682 0.0763
0.9658 0.6584 0.0976
0.9748 0.6515 0.1079
0.9821 0.6478 0.1254
0.0000 0.7343 0.3133
0.0000 0.7351 0.3149
0.0000 0.7362 0.3171
0.0000 0.7380 0.3204
0.0000 0.7404 0.3252
0.0000 0.7435 0.3317
0.0000 0.7473 0.3399
0.0000 0.7519 0.3495
0.0000 0.7575 0.3604
0.0000 0.7638 0.3732
0.0000 0.7710 0.3881
0.0000 0.7790 0.4140
0.0000 0.7878 0.4529
0.0000 0.7974 0.4978
0.0000 0.8076 0.5453
0.0000 0.8199 0.5528
0.0000 0.8330 0.5362
0.6708 0.8141 0.3076
0.8757 0.7922 0.1976
0.9318 0.7880 0.0935
0.9499 0.7718 0.0421
0.9606 0.7565 0.0568
0.9697 0.7449 0.0823
0.9774 0.7355 0.1019
0.9845 0.7289 0.1194
0.0000 0.7999 0.3479
0.0000 0.8005 0.3495
0.0000 0.8015 0.3517
0.0000 0.8030 0.3551
0.0000 0.8049 0.3599
0.0000 0.8075 0.3665
0.0000 0.8105 0.3749
0.0000 0.8142 0.3855
0.0000 0.8185 0.4022
0.0000 0.8234 0.4282
0.0000 0.8287 0.4645
0.0000 0.8345 0.5057
0.0000 0.8405 0.5569
0.0000 0.8471 0.6143
0.0000 0.8543 0.6698
0.0000 0.8623 0.7140
0.0000 0.8716 0.7167
0.0000 0.8822 0.6545
0.7197 0.8653 0.3317
0.9036 0.8486 0.2128
0.9472 0.8454 0.1075
0.9628 0.8359 0.0491
0.9725 0.8257 0.0591
0.9799 0.8177 0.0856
0.9870 0.8113 0.1062
0.0000 0.8521 0.3864
0.0000 0.8526 0.3885
0.0000 0.8533 0.3917
0.0000 0.8543 0.3970
0.0000 0.8556 0.4053
0.0000 0.8574 0.4184
0.0000 0.8595 0.4371
0.0000 0.8621 0.4626
0.0000 0.8651 0.4932
0.0000 0.8684 0.5304
0.0000 0.8722 0.5762
0.0000 0.8767 0.6256
0.0000 0.8815 0.6779
0.0000 0.8867 0.7328
0.0000 0.8924 0.7823
0.0000 0.8985 0.8238
0.0000 0.9053 0.8464
0.0000 0.9132 0.8453
0.2438 0.9191 0.7617
0.7657 0.9065 0.3546
0.9259 0.8919 0.2286
0.9596 0.8890 0.1217
0.9736 0.8831 0.0577
0.9819 0.8765 0.0616
0.9891 0.8718 0.0882
0.0000 0.8931 0.4714
0.0000 0.8935 0.4758
0.0000 0.8940 0.4818
0.0000 0.8948 0.4914
0.0000 0.8958 0.5049
0.0000 0.8971 0.5239
0.0000 0.8987 0.5491
0.0000 0.9008 0.5806
0.0000 0.9032 0.6177
0.0000 0.9060 0.6574
0.0000 0.9091 0.7015
0.0000 0.9126 0.7479
0.0000 0.9164 0.7897
0.0000 0.9206 0.8288
0.0000 0.9251 0.8601
0.0000 0.9299 0.8819
0.0000 0.9351 0.9027
0.0000 0.9411 0.9116
0.0000 0.9478 0.9105
0.3817 0.9504 0.8438
0.8770 0.9288 0.4751
0.9445 0.9266 0.2622
0.9703 0.9259 0.1374
0.9823 0.9224 0.0670
0.9907 0.9181 0.0643
0.0000 0.9274 0.6000
0.0000 0.9277 0.6051
0.0000 0.9282 0.6121
0.0000 0.9288 0.6229
0.0000 0.9297 0.6377
0.0000 0.9308 0.6576
0.0000 0.9322 0.6828
0.0000 0.9338 0.7123
0.0000 0.9357 0.7454
0.0000 0.9379 0.7783
0.0000 0.9404 0.8110
0.0000 0.9432 0.8417
0.0000 0.9463 0.8655
0.0000 0.9497 0.8853
0.0000 0.9534 0.9055
0.0000 0.9574 0.9248
0.0000 0.9616 0.9416
0.0000 0.9661 0.9571
0.0000 0.9715 0.9607
0.0000 0.9774 0.9596
0.5886 0.9735 0.8933
0.9390 0.9478 0.7461
0.9646 0.9482 0.4131
0.9790 0.9570 0.1543
0.9905 0.9550 0.0769
0.0000 0.9570 0.7377
0.0000 0.9572 0.7421
0.0000 0.9575 0.7481
0.0000 0.9581 0.7571
0.0000 0.9588 0.7691
0.0000 0.9597 0.7844
0.0000 0.9608 0.8032
0.0000 0.9622 0.8236
0.0000 0.9637 0.8443
0.0000 0.9656 0.8625
0.0000 0.9676 0.8782
0.0000 0.9699 0.8950
0.0000 0.9725 0.9124
0.0000 0.9753 0.9283
0.0000 0.9784 0.9442
0.0000 0.9817 0.9594
0.0000 0.9852 0.9724
0.0000 0.9890 0.9828
0.0000 0.9931 0.9905
0.0000 0.9980 0.9917
0.3094 1.0000 0.9895
0.9022 0.9785 0.9455
0.9674 0.9661 0.9047
0.9791 0.9678 0.8292
0.9871 0.9763 0.3587
0.0000 0.9827 0.8447
0.0000 0.9829 0.8472
0.0000 0.9832 0.8505
0.0000 0.9837 0.8552
0.0000 0.9842 0.8611
0.0000 0.9850 0.8680
0.0000 0.9859 0.8769
0.0000 0.9871 0.8872
0.0000 0.9884 0.8989
0.0000 0.9899 0.9117
0.0000 0.9917 0.9243
0.0000 0.9936 0.9374
0.0000 0.9958 0.9507
0.0000 0.9982 0.9634
0.1160 1.0000 0.9739
0.3274 1.0000 0.9827
0.4729 1.0000 0.9898
0.5902 0.9997 0.9944
0.6876 0.9998 0.9977
0.7707 0.9998 0.9992
0.8420 0.9999 0.9989
0.8942 0.9999 0.9984
0.9696 0.9868 0.9858
0.9852 0.9832 0.9797
0.9911 0.9861 0.9740
0.0000 0.0000 0.0000
0.0207 0.0000 0.0000
0.0692 0.0000 0.0000
0.1048 0.0000 0.0000
0.1330 0.0000 0.0000
0.1659 0.0000 0.0000
0.2091 0.0000 0.0000
0.2516 0.0000 0.0000
0.2919 0.0000 0.0000
0.3342 0.0000 0.0000
0.3787 0.0000 0.0000
0.4250 0.0000 0.0000
0.4723 0.0000 0.0000
0.5191 0.0000 0.0000
0.5666 0.0006 0.0000
0.6143 0.0082 0.0000
0.6609 0.0159 0.0000
0.7062 0.0236 0.0000
0.7500 0.0313 0.0000
0.7922 0.0393 0.0000
0.8312 0.0473 0.0000
0.8663 0.0556 0.0000
0.8965 0.0640 0.0000
0.9213 0.0726 0.0000
0.9405 0.0813 0.0000
0.0000 0.0000 0.0000
0.0000 0.0000 0.0000
0.0331 0.0000 0.0000
0.0921 0.0000 0.0000
0.1572 0.0000 0.0000
0.1962 0.0000 0.0000
0.2358 0.0000 0.0000
0.2729 0.0000 0.0000
0.3119 0.0000 0.0000
0.3532 0.0000 0.0000
0.3965 0.0000 0.0000
0.4416 0.0000 0.0000
0.4869 0.0000 0.0000
0.5323 0.0059 0.0000
0.5790 0.0122 0.0000
0.6252 0.0188 0.0000
0.6706 0.0256 0.0000
0.7148 0.0326 0.0000
0.7576 0.0397 0.0000
0.7988 0.0471 0.0000
0.8368 0.0547 0.0000
0.8708 0.0626 0.0000
0.8999 0.0706 0.0000
0.9239 0.0788 0.0000
0.9424 0.0860 0.0000
0.0000 0.0325 0.0000
0.0000 0.0372 0.0055
0.0000 0.0409 0.0159
0.0735 0.0248 0.0071
0.1280 0.0176 0.0012
0.1887 0.0075 0.0000
0.2540 0.0000 0.0000
0.2819 0.0000 0.0000
0.3219 0.0000 0.0000
0.3636 0.0000 0.0000
0.4069 0.0019 0.0000
0.4517 0.0061 0.0000
0.4962 0.0108 0.0000
0.5412 0.0160 0.0000
0.5874 0.0215 0.0000
0.6330 0.0274 0.0000
0.6777 0.0336 0.0000
0.7214 0.0401 0.0000
0.7636 0.0468 0.0000
0.8041 0.0538 0.0000
0.8414 0.0610 0.0000
0.8746 0.0686 0.0000
0.9030 0.0763 0.0000
0.9262 0.0843 0.0000
0.9440 0.0913 0.0000
0.0000 0.0683 0.0120
0.0000 0.0718 0.0191
0.0000 0.0766 0.0262
0.0000 0.0812 0.0351
0.1364 0.0603 0.0118
0.1764 0.0500 0.0076
0.2220 0.0424 0.0048
0.2737 0.0340 0.0003
0.3424 0.0179 0.0000
0.3818 0.0171 0.0000
0.4196 0.0210 0.0000
0.4644 0.0235 0.0000
0.5086 0.0267 0.0000
0.5536 0.0306 0.0000
0.5992 0.0351 0.0000
0.6440 0.0400 0.0000
0.6880 0.0454 0.0000
0.7308 0.0512 0.0000
0.7722 0.0573 0.0000
0.8118 0.0637 0.0000
0.8480 0.0705 0.0000
0.8801 0.0776 0.0000
0.9073 0.0849 0.0000
0.9294 0.0926 0.0000
0.9462 0.0993 0.0000
0.0000 0.1048 0.0286
0.0000 0.1075 0.0336
0.0000 0.1111 0.0395
0.0000 0.1168 0.0465
0.0087 0.1215 0.0537
0.2037 0.0968 0.0098
0.2383 0.0836 0.0078
0.2748 0.0751 0.0098
0.3238 0.0674 0.0067
0.3728 0.0609 0.0072
0.4409 0.0471 0.0000
0.4905 0.0413 0.0000
0.5241 0.0467 0.0000
0.5678 0.0499 0.0000
0.6132 0.0529 0.0000
0.6575 0.0567 0.0000
0.7007 0.0611 0.0000
0.7427 0.0660 0.0000
0.7832 0.0713 0.0000
0.8217 0.0770 0.0000
0.8565 0.0832 0.0000
0.8871 0.0897 0.0000
0.9129 0.0966 0.0000
0.9336 0.1037 0.0000
0.9490 0.1101 0.0000
0.0000 0.1417 0.0446
0.0000 0.1439 0.0486
0.0000 0.1468 0.0534
0.0000 0.1512 0.0597
0.0000 0.1575 0.0664
0.0606 0.1610 0.0701
0.2641 0.1354 0.0141
0.2968 0.1201 0.0133
0.3364 0.1091 0.0117
0.3788 0.1018 0.0142
0.4311 0.0943 0.0108
0.4805 0.0883 0.0127
0.5427 0.0771 0.0001
0.6017 0.0667 0.0000
0.6353 0.0722 0.0000
0.6720 0.0776 0.0000
0.7147 0.0810 0.0000
0.7562 0.0846 0.0000
0.7960 0.0889 0.0000
0.8332 0.0939 0.0000
0.8664 0.0993 0.0000
0.8952 0.1051 0.0000
0.9194 0.1114 0.0000
0.9383 0.1180 0.0000
0.9524 0.1239 0.0000
0.0000 0.1791 0.0605
0.0000 0.1809 0.0637
0.0000 0.1834 0.0678
0.0000 0.1871 0.0733
0.0000 0.1923 0.0799
0.0000 0.1993 0.0856
0.1777 0.1971 0.0747
0.3294 0.1754 0.0155
0.3583 0.1581 0.0196
0.3965 0.1466 0.0205
0.4420 0.1371 0.0181
0.4869 0.1306 0.0207
0.5395 0.1234 0.0169
0.5893 0.1177 0.0193
0.6465 0.1086 0.0118
0.7097 0.0936 0.0000
0.7412 0.0993 0.0000
0.7731 0.1058 0.0000
0.8096 0.1106 0.0000
0.8452 0.1148 0.0000
0.8769 0.1191 0.0000
0.9041 0.1240 0.0000
0.9263 0.1295 0.0000
0.9433 0.1355 0.0000
0.9564 0.1408 0.0000
0.0000 0.2176 0.0765
0.0000 0.2192 0.0791
0.0000 0.2213 0.0825
0.0000 0.2245 0.0875
0.0000 0.2290 0.0936
0.0000 0.2350 0.1005
0.0000 0.2430 0.1047
0.2468 0.2379 0.0803
0.3937 0.2172 0.0216
0.4254 0.1981 0.0232
0.4604 0.1855 0.0277
0.5025 0.1751 0.0259
0.5506 0.1670 0.0237
0.5947 0.1617 0.0291
0.6479 0.1545 0.0241
0.6948 0.1493 0.0269
0.7449 0.1420 0.0239
0.8061 0.1251 0.0000
0.8371 0.1283 0.0000
0.8631 0.1352 0.0000
0.8877 0.1424 0.0000
0.9128 0.1469 0.0000
0.9330 0.1516 0.0000
0.9480 0.1566 0.0000
0.9606 0.1613 0.0000
0.0000 0.2576 0.0925
0.0000 0.2590 0.0948
0.0000 0.2609 0.0978
0.0000 0.2637 0.1025
0.0000 0.2677 0.1085
0.0000 0.2729 0.1155
0.0000 0.2794 0.1231
0.0000 0.2884 0.1254
0.3014 0.2823 0.0847
0.4344 0.2624 0.0604
0.4934 0.2405 0.0254
0.5254 0.2259 0.0314
0.5638 0.2157 0.0360
0.6080 0.2072 0.0362
0.6591 0.1994 0.0298
0.7020 0.1945 0.0349
0.7500 0.1883 0.0323
0.7932 0.1835 0.0355
0.8349 0.1779 0.0367
0.8827 0.1619 0.0021
0.9097 0.1592 0.0000
0.9267 0.1665 0.0000
0.9408 0.1746 0.0000
0.9530 0.1811 0.0000
0.9649 0.1855 0.0000
0.0000 0.2990 0.1096
0.0000 0.3002 0.1118
0.0000 0.3019 0.1146
0.0000 0.3045 0.1190
0.0000 0.3080 0.1249
0.0000 0.3127 0.1319
0.0000 0.3185 0.1398
0.0000 0.3257 0.1479
0.0000 0.3356 0.1477
0.3700 0.3259 0.0938
0.5028 0.3077 0.0646
0.5590 0.2853 0.0305
0.5891 0.2695 0.0395
0.6262 0.2593 0.0456
0.6690 0.2496 0.0427
0.7129 0.2424 0.0432
0.7611 0.2350 0.0363
0.8024 0.2299 0.0389
0.8411 0.2251 0.0413
0.8753 0.2206 0.0450
0.9045 0.2162 0.0492
0.9353 0.2009 0.0192
0.9525 0.1921 0.0000
0.9620 0.2000 0.0000
0.9705 0.2089 0.0000
0.0000 0.3415 0.1282
0.0000 0.3426 0.1302
0.0000 0.3441 0.1328
0.0000 0.3465 0.1369
0.0000 0.3496 0.1426
0.0000 0.3537 0.1494
0.0000 0.3590 0.1569
0.0000 0.3653 0.1652
0.0000 0.3731 0.1721
0.0000 0.3835 0.1708
0.4425 0.3693 0.1058
0.5695 0.3539 0.0684
0.6240 0.3315 0.0329
0.6531 0.3154 0.0441
0.6881 0.3041 0.0502
0.7257 0.2951 0.0538
0.7658 0.2875 0.0549
0.8093 0.2805 0.0506
0.8486 0.2743 0.0474
0.8820 0.2693 0.0478
0.9096 0.2650 0.0513
0.9319 0.2609 0.0553
0.9482 0.2568 0.0599
0.9652 0.2430 0.0355
0.9784 0.2279 0.0000
