EA 50 Cinematic Luts Pack/EA_Cinematic Lut (44).cube
TITLE "A superb, clear and strong colorization that will give your shots a truly modern and cinematic character."
LUT_3D_SIZE 25
0.0000 0.0000 0.0000
0.0088 0.0001 0.0004
0.0283 0.0002 0.0011
0.0547 0.0003 0.0019
0.0869 0.0005 0.0031
0.1247 0.0008 0.0046
0.1675 0.0012 0.0066
0.2145 0.0017 0.0091
0.2652 0.0022 0.0119
0.3184 0.0028 0.0150
0.3734 0.0036 0.0187
0.4300 0.0046 0.0229
0.4867 0.0058 0.0277
0.5429 0.0072 0.0329
0.6000 0.0086 0.0378
0.6560 0.0103 0.0430
0.7107 0.0125 0.0484
0.7630 0.0148 0.0536
0.8122 0.0174 0.0591
0.8576 0.0199 0.0645
0.8985 0.0224 0.0698
0.9341 0.0252 0.0753
0.9639 0.0283 0.0811
0.9869 0.0313 0.0867
0.9992 0.0342 0.0921
0.0004 0.0131 0.0040
0.0089 0.0139 0.0043
0.0252 0.0150 0.0089
0.0501 0.0161 0.0100
0.0825 0.0167 0.0096
0.1234 0.0160 0.0073
0.1709 0.0143 0.0035
0.2194 0.0140 0.0039
0.2707 0.0142 0.0055
0.3243 0.0143 0.0073
0.3800 0.0145 0.0094
0.4371 0.0148 0.0118
0.4942 0.0150 0.0144
0.5510 0.0154 0.0177
0.6085 0.0157 0.0207
0.6647 0.0161 0.0245
0.7196 0.0166 0.0285
0.7719 0.0171 0.0326
0.8209 0.0176 0.0366
0.8651 0.0197 0.0435
0.9047 0.0223 0.0502
0.9391 0.0251 0.0572
0.9677 0.0280 0.0639
0.9894 0.0311 0.0707
0.9997 0.0340 0.0771
0.0014 0.0338 0.0095
0.0097 0.0352 0.0024
0.0285 0.0353 0.0102
0.0505 0.0367 0.0189
0.0788 0.0385 0.0228
0.1156 0.0397 0.0237
0.1581 0.0408 0.0234
0.2088 0.0402 0.0204
0.2642 0.0387 0.0157
0.3228 0.0364 0.0095
0.3808 0.0352 0.0078
0.4379 0.0353 0.0101
0.4949 0.0355 0.0127
0.5517 0.0357 0.0157
0.6091 0.0360 0.0191
0.6654 0.0363 0.0225
0.7203 0.0367 0.0264
0.7725 0.0371 0.0307
0.8214 0.0375 0.0354
0.8663 0.0380 0.0398
0.9064 0.0385 0.0441
0.9411 0.0391 0.0485
0.9698 0.0396 0.0527
0.9910 0.0402 0.0568
0.9999 0.0420 0.0629
0.0036 0.0594 0.0177
0.0137 0.0605 0.0139
0.0296 0.0619 0.0021
0.0550 0.0617 0.0193
0.0820 0.0632 0.0328
0.1144 0.0653 0.0394
0.1543 0.0671 0.0422
0.1997 0.0687 0.0431
0.2496 0.0700 0.0430
0.3065 0.0695 0.0399
0.3668 0.0683 0.0350
0.4293 0.0663 0.0278
0.4921 0.0634 0.0188
0.5526 0.0612 0.0131
0.6100 0.0614 0.0166
0.6665 0.0616 0.0201
0.7213 0.0619 0.0238
0.7734 0.0622 0.0283
0.8222 0.0626 0.0326
0.8669 0.0630 0.0372
0.9070 0.0634 0.0416
0.9416 0.0638 0.0461
0.9701 0.0643 0.0506
0.9912 0.0648 0.0550
0.9999 0.0671 0.0631
0.0082 0.0898 0.0293
0.0192 0.0908 0.0254
0.0335 0.0922 0.0163
0.0566 0.0934 0.0070
0.0874 0.0933 0.0318
0.1191 0.0948 0.0479
0.1553 0.0971 0.0559
0.1958 0.0999 0.0607
0.2455 0.1012 0.0620
0.2969 0.1032 0.0630
0.3515 0.1050 0.0632
0.4126 0.1047 0.0605
0.4751 0.1036 0.0562
0.5369 0.1017 0.0504
0.6004 0.0992 0.0426
0.6628 0.0959 0.0320
0.7224 0.0924 0.0207
0.7745 0.0926 0.0247
0.8231 0.0930 0.0296
0.8678 0.0933 0.0341
0.9076 0.0936 0.0387
0.9421 0.0940 0.0433
0.9705 0.0944 0.0482
0.9914 0.0949 0.0525
0.9999 0.0978 0.0627
0.0153 0.1253 0.0426
0.0262 0.1262 0.0391
0.0398 0.1273 0.0348
0.0589 0.1294 0.0143
0.0894 0.1298 0.0179
0.1250 0.1297 0.0456
0.1609 0.1313 0.0629
0.2001 0.1339 0.0723
0.2436 0.1369 0.0782
0.2927 0.1395 0.0816
0.3481 0.1409 0.0825
0.4031 0.1434 0.0836
0.4600 0.1457 0.0841
0.5211 0.1455 0.0815
0.5839 0.1447 0.0778
0.6464 0.1432 0.0727
0.7071 0.1410 0.0661
0.7650 0.1379 0.0577
0.8190 0.1342 0.0468
0.8683 0.1295 0.0321
0.9084 0.1293 0.0347
0.9428 0.1296 0.0395
0.9710 0.1300 0.0445
0.9917 0.1304 0.0493
0.9999 0.1340 0.0622
0.0240 0.1651 0.0561
0.0345 0.1659 0.0529
0.0474 0.1669 0.0496
0.0657 0.1687 0.0406
0.0904 0.1712 0.0113
0.1277 0.1708 0.0327
0.1674 0.1708 0.0595
0.2068 0.1725 0.0780
0.2486 0.1754 0.0888
0.2948 0.1784 0.0957
0.3431 0.1821 0.1008
0.3990 0.1841 0.1028
0.4572 0.1860 0.1037
0.5128 0.1888 0.1048
0.5696 0.1918 0.1056
0.6313 0.1919 0.1033
0.6918 0.1913 0.0998
0.7501 0.1900 0.0953
0.8050 0.1879 0.0894
0.8555 0.1851 0.0822
0.9006 0.1816 0.0732
0.9393 0.1774 0.0620
0.9707 0.1724 0.0476
0.9921 0.1707 0.0449
0.9999 0.1749 0.0620
0.0341 0.2089 0.0699
0.0440 0.2096 0.0668
0.0562 0.2105 0.0642
0.0738 0.2120 0.0593
0.0970 0.2144 0.0409
0.1284 0.2165 0.0113
0.1708 0.2157 0.0486
0.2140 0.2160 0.0738
0.2565 0.2177 0.0933
0.3006 0.2206 0.1053
0.3486 0.2239 0.1132
0.3985 0.2279 0.1190
0.4521 0.2315 0.1229
0.5098 0.2333 0.1242
0.5673 0.2357 0.1252
0.6235 0.2389 0.1264
0.6788 0.2421 0.1272
0.7364 0.2426 0.1252
0.7916 0.2421 0.1220
0.8428 0.2410 0.1178
0.8892 0.2391 0.1126
0.9295 0.2366 0.1062
0.9629 0.2335 0.0984
0.9882 0.2295 0.0890
0.9998 0.2247 0.0773
0.0452 0.2560 0.0840
0.0546 0.2566 0.0808
0.0663 0.2575 0.0787
0.0833 0.2589 0.0749
0.1056 0.2608 0.0672
0.1331 0.2638 0.0375
0.1712 0.2654 0.0106
0.2180 0.2643 0.0639
0.2643 0.2647 0.0885
0.3094 0.2667 0.1088
0.3557 0.2698 0.1218
0.4049 0.2733 0.1307
0.4557 0.2773 0.1372
0.5063 0.2816 0.1423
0.5625 0.2843 0.1449
0.6211 0.2863 0.1459
0.6767 0.2892 0.1471
0.7297 0.2926 0.1482
0.7804 0.2961 0.1491
0.8311 0.2969 0.1474
0.8782 0.2965 0.1444
0.9197 0.2956 0.1405
0.9548 0.2940 0.1357
0.9824 0.2917 0.1299
0.9984 0.2888 0.1230
0.0572 0.3062 0.0983
0.0663 0.3068 0.0956
0.0776 0.3076 0.0934
0.0941 0.3089 0.0902
0.1157 0.3107 0.0850
0.1425 0.3132 0.0693
0.1738 0.3167 0.0292
0.2190 0.3173 0.0296
0.2688 0.3163 0.0792
0.3178 0.3168 0.1035
0.3650 0.3188 0.1244
0.4127 0.3219 0.1383
0.4615 0.3258 0.1482
0.5122 0.3293 0.1553
0.5630 0.3337 0.1610
0.6157 0.3380 0.1653
0.6724 0.3403 0.1671
0.7280 0.3423 0.1679
0.7784 0.3457 0.1693
0.8257 0.3492 0.1704
0.8692 0.3528 0.1712
0.9105 0.3541 0.1699
0.9469 0.3538 0.1670
0.9762 0.3530 0.1633
0.9958 0.3515 0.1588
0.0706 0.3590 0.1128
0.0793 0.3596 0.1104
0.0903 0.3603 0.1081
0.1062 0.3615 0.1055
0.1271 0.3631 0.1012
0.1529 0.3652 0.0945
0.1837 0.3683 0.0688
0.2211 0.3714 0.0296
0.2705 0.3714 0.0499
0.3225 0.3705 0.0947
0.3736 0.3711 0.1186
0.4222 0.3731 0.1400
0.4706 0.3761 0.1549
0.5184 0.3798 0.1655
0.5694 0.3834 0.1734
0.6200 0.3879 0.1797
0.6700 0.3928 0.1850
0.7226 0.3962 0.1882
0.7750 0.3985 0.1896
0.8242 0.4007 0.1903
0.8675 0.4043 0.1918
0.9065 0.4079 0.1929
0.9405 0.4116 0.1937
0.9701 0.4132 0.1926
0.9923 0.4130 0.1899
0.0850 0.4136 0.1275
0.0933 0.4141 0.1254
0.1041 0.4148 0.1229
0.1194 0.4158 0.1206
0.1397 0.4173 0.1171
0.1648 0.4192 0.1116
0.1946 0.4218 0.0981
0.2287 0.4253 0.0652
0.2721 0.4276 0.0295
0.3248 0.4271 0.0688
0.3783 0.4265 0.1102
0.4310 0.4270 0.1339
0.4799 0.4289 0.1558
0.5275 0.4317 0.1714
0.5762 0.4355 0.1828
0.6265 0.4393 0.1916
0.6757 0.4437 0.1985
0.7237 0.4485 0.2043
0.7707 0.4533 0.2090
0.8195 0.4559 0.2112
0.8649 0.4581 0.2123
0.9053 0.4606 0.2132
0.9392 0.4643 0.2146
0.9675 0.4679 0.2157
0.9891 0.4715 0.2166
0.1005 0.4691 0.1423
0.1085 0.4695 0.1404
0.1190 0.4701 0.1377
0.1337 0.4711 0.1357
0.1533 0.4724 0.1327
0.1777 0.4741 0.1281
0.2065 0.4762 0.1214
0.2399 0.4792 0.0992
0.2766 0.4829 0.0579
0.3260 0.4843 0.0288
0.3813 0.4833 0.0871
0.4356 0.4829 0.1257
0.4883 0.4832 0.1492
0.5367 0.4849 0.1715
0.5853 0.4878 0.1880
0.6333 0.4915 0.2002
0.6805 0.4957 0.2098
0.7291 0.4994 0.2173
0.7746 0.5039 0.2236
0.8178 0.5088 0.2290
0.8607 0.5125 0.2326
0.9016 0.5148 0.2344
0.9375 0.5169 0.2353
0.9666 0.5198 0.2364
0.9883 0.5234 0.2378
0.1169 0.5238 0.1572
0.1245 0.5242 0.1555
0.1347 0.5248 0.1530
0.1490 0.5256 0.1508
0.1680 0.5268 0.1481
0.1916 0.5283 0.1443
0.2195 0.5303 0.1385
0.2518 0.5327 0.1270
0.2880 0.5360 0.0980
0.3288 0.5395 0.0531
0.3820 0.5403 0.0379
0.4390 0.5390 0.1051
0.4927 0.5385 0.1413
0.5451 0.5388 0.1646
0.5944 0.5408 0.1874
0.6422 0.5437 0.2047
0.6888 0.5473 0.2177
0.7341 0.5515 0.2280
0.7800 0.5552 0.2362
0.8224 0.5598 0.2430
0.8620 0.5646 0.2488
0.8983 0.5697 0.2540
0.9340 0.5723 0.2564
0.9641 0.5744 0.2579
0.9874 0.5762 0.2585
0.1342 0.5796 0.1722
0.1416 0.5799 0.1707
0.1513 0.5804 0.1684
0.1654 0.5812 0.1660
0.1837 0.5823 0.1636
0.2065 0.5837 0.1602
0.2337 0.5855 0.1554
0.2649 0.5877 0.1485
0.3003 0.5906 0.1291
0.3387 0.5942 0.0942
0.3847 0.5968 0.0536
0.4400 0.5972 0.0625
0.4969 0.5956 0.1228
0.5498 0.5953 0.1570
0.6030 0.5959 0.1803
0.6514 0.5978 0.2035
0.6978 0.6006 0.2215
0.7425 0.6040 0.2353
0.7853 0.6081 0.2463
0.8278 0.6117 0.2551
0.8666 0.6160 0.2625
0.9019 0.6206 0.2688
0.9333 0.6253 0.2743
0.9615 0.6291 0.2783
0.9853 0.6313 0.2803
0.1525 0.6350 0.1874
0.1595 0.6353 0.1860
0.1689 0.6358 0.1839
0.1826 0.6365 0.1813
0.2003 0.6374 0.1791
0.2224 0.6387 0.1761
0.2489 0.6403 0.1718
0.2792 0.6423 0.1660
0.3133 0.6446 0.1560
0.3511 0.6478 0.1294
0.3913 0.6515 0.0874
0.4422 0.6533 0.0539
0.4979 0.6529 0.0846
0.5547 0.6513 0.1403
0.6075 0.6515 0.1728
0.6597 0.6520 0.1961
0.7066 0.6538 0.2198
0.7510 0.6565 0.2385
0.7932 0.6598 0.2531
0.8329 0.6635 0.2647
0.8703 0.6673 0.2743
0.9058 0.6708 0.2820
0.9364 0.6750 0.2888
0.9626 0.6795 0.2947
0.9838 0.6842 0.3000
0.1716 0.6892 0.2029
0.1783 0.6895 0.2016
0.1874 0.6899 0.1996
0.2008 0.6905 0.1966
0.2178 0.6913 0.1947
0.2393 0.6925 0.1920
0.2648 0.6939 0.1882
0.2944 0.6957 0.1831
0.3274 0.6977 0.1762
0.3642 0.7003 0.1590
0.4037 0.7036 0.1277
0.4454 0.7071 0.0772
0.4994 0.7079 0.0532
0.5556 0.7071 0.1053
0.6129 0.7058 0.1577
0.6640 0.7062 0.1888
0.7144 0.7065 0.2121
0.7591 0.7081 0.2361
0.8008 0.7105 0.2555
0.8398 0.7134 0.2708
0.8760 0.7168 0.2830
0.9088 0.7207 0.2933
0.9397 0.7238 0.3016
0.9651 0.7277 0.3089
0.9856 0.7319 0.3152
0.1914 0.7415 0.2184
0.1979 0.7417 0.2172
0.2066 0.7421 0.2154
0.2195 0.7426 0.2126
0.2362 0.7434 0.2104
0.2569 0.7444 0.2079
0.2817 0.7457 0.2045
0.3104 0.7472 0.2000
0.3426 0.7490 0.1939
0.3779 0.7512 0.1855
0.4168 0.7540 0.1604
0.4575 0.7570 0.1237
0.5023 0.7595 0.0783
0.5566 0.7601 0.0523
0.6135 0.7590 0.1251
0.6690 0.7577 0.1744
0.7180 0.7581 0.2048
0.7661 0.7584 0.2282
0.8082 0.7599 0.2525
0.8468 0.7621 0.2727
0.8822 0.7648 0.2885
0.9142 0.7680 0.3015
0.9425 0.7716 0.3124
0.9680 0.7745 0.3214
0.9862 0.7790 0.3390
0.2119 0.7911 0.2341
0.2181 0.7913 0.2329
0.2265 0.7916 0.2313
0.2390 0.7921 0.2287
0.2552 0.7927 0.2261
0.2752 0.7936 0.2238
0.2992 0.7947 0.2208
0.3269 0.7960 0.2167
0.3582 0.7975 0.2113
0.3925 0.7993 0.2043
0.4300 0.8014 0.1890
0.4698 0.8040 0.1599
0.5101 0.8070 0.1169
0.5590 0.8086 0.0787
0.6140 0.8092 0.0713
0.6698 0.8079 0.1443
0.7228 0.8069 0.1909
0.7695 0.8072 0.2209
0.8147 0.8076 0.2444
0.8535 0.8089 0.2692
0.8884 0.8109 0.2900
0.9197 0.8134 0.3066
0.9472 0.8163 0.3202
0.9704 0.8196 0.3317
0.9855 0.8246 0.3750
0.2328 0.8374 0.2499
0.2388 0.8375 0.2488
0.2469 0.8378 0.2472
0.2589 0.8382 0.2447
0.2747 0.8388 0.2419
0.2940 0.8395 0.2398
0.3172 0.8404 0.2370
0.3441 0.8416 0.2332
0.3744 0.8429 0.2284
0.4078 0.8444 0.2222
0.4439 0.8461 0.2142
0.4825 0.8482 0.1910
0.5220 0.8507 0.1575
0.5633 0.8536 0.1073
0.6160 0.8546 0.0784
0.6703 0.8547 0.0968
0.7241 0.8535 0.1632
0.7740 0.8528 0.2074
0.8177 0.8531 0.2372
0.8594 0.8534 0.2608
0.8944 0.8546 0.2859
0.9251 0.8564 0.3074
0.9518 0.8587 0.3247
0.9741 0.8613 0.3391
0.9855 0.8662 0.4163
0.2543 0.8800 0.2657
0.2601 0.8802 0.2647
0.2678 0.8804 0.2633
0.2794 0.8807 0.2609
0.2949 0.8812 0.2577
0.3135 0.8818 0.2558
0.3360 0.8826 0.2532
0.3620 0.8836 0.2498
0.3914 0.8846 0.2454
0.4238 0.8859 0.2398
0.4589 0.8873 0.2327
0.4957 0.8890 0.2191
0.5344 0.8910 0.1914
0.5751 0.8935 0.1534
0.6187 0.8959 0.1030
0.6717 0.8966 0.0779
0.7246 0.8963 0.1199
0.7758 0.8953 0.1818
0.8219 0.8947 0.2241
0.8622 0.8950 0.2537
0.8996 0.8953 0.2774
0.9303 0.8964 0.3029
0.9564 0.8981 0.3251
0.9779 0.9002 0.3432
0.9864 0.9039 0.4656
0.2764 0.9185 0.2819
0.2820 0.9187 0.2809
0.2894 0.9188 0.2796
0.3006 0.9191 0.2773
0.3155 0.9195 0.2742
0.3336 0.9201 0.2720
0.3553 0.9207 0.2696
0.3805 0.9214 0.2665
0.4089 0.9222 0.2624
0.4404 0.9233 0.2573
0.4741 0.9245 0.2509
0.5095 0.9258 0.2429
0.5476 0.9274 0.2217
0.5875 0.9295 0.1905
0.6281 0.9318 0.1468
0.6742 0.9334 0.1039
0.7255 0.9340 0.0771
0.7762 0.9334 0.1417
0.8242 0.9326 0.2004
0.8661 0.9323 0.2409
0.9023 0.9327 0.2704
0.9351 0.9330 0.2944
0.9609 0.9340 0.3204
0.9815 0.9355 0.3433
0.9879 0.9369 0.5195
0.2991 0.9523 0.2983
0.3043 0.9524 0.2973
0.3115 0.9526 0.2960
0.3222 0.9528 0.2939
0.3366 0.9531 0.2910
0.3543 0.9534 0.2883
0.3752 0.9539 0.2860
0.3995 0.9545 0.2831
0.4271 0.9552 0.2794
0.4576 0.9560 0.2748
0.4899 0.9570 0.2689
0.5242 0.9580 0.2616
0.5612 0.9593 0.2497
0.6004 0.9610 0.2231
0.6402 0.9629 0.1879
0.6801 0.9649 0.1380
0.7281 0.9659 0.1041
0.7771 0.9665 0.0766
0.8249 0.9658 0.1627
0.8689 0.9651 0.2190
0.9060 0.9649 0.2580
0.9374 0.9652 0.2875
0.9647 0.9655 0.3117
0.9846 0.9662 0.3467
0.9903 0.9649 0.5831
0.3222 0.9809 0.3149
0.3272 0.9810 0.3139
0.3341 0.9811 0.3127
0.3444 0.9811 0.3107
0.3583 0.9813 0.3079
0.3756 0.9816 0.3049
0.3958 0.9820 0.3028
0.4193 0.9825 0.3001
0.4460 0.9830 0.2967
0.4752 0.9837 0.2923
0.5065 0.9845 0.2870
0.5399 0.9852 0.2803
0.5760 0.9862 0.2723
0.6140 0.9874 0.2532
0.6529 0.9887 0.2232
0.6918 0.9900 0.1837
0.7311 0.9914 0.1282
0.7795 0.9917 0.1043
0.8258 0.9919 0.1060
0.8696 0.9915 0.1833
0.9088 0.9910 0.2377
0.9405 0.9910 0.2753
0.9668 0.9905 0.3505
0.9863 0.9895 0.4539
0.9935 0.9875 0.6631
0.5438 0.9910 0.4794
0.5466 0.9911 0.4789
0.5502 0.9912 0.4780
0.5557 0.9914 0.4769
0.5631 0.9917 0.4751
0.5725 0.9921 0.4727
0.5862 0.9924 0.4735
0.6022 0.9927 0.4744
0.6203 0.9931 0.4752
0.6403 0.9935 0.4760
0.6620 0.9941 0.4765
0.6851 0.9947 0.4766
0.7092 0.9953 0.4762
0.7334 0.9961 0.4729
0.7507 0.9975 0.4455
0.7674 0.9987 0.4057
0.7833 0.9998 0.3459
0.8051 1.0000 0.2748
0.8409 1.0000 0.2375
0.8862 1.0000 0.3131
0.9305 0.9995 0.4729
0.9601 0.9984 0.5843
0.9787 0.9981 0.6666
0.9905 0.9982 0.7361
0.9969 0.9987 0.7982
0.0001 0.0007 0.0055
0.0054 0.0011 0.0227
0.0191 0.0024 0.0261
0.0443 0.0032 0.0310
0.0773 0.0035 0.0346
0.1188 0.0028 0.0356
0.1665 0.0016 0.0351
0.2146 0.0017 0.0367
0.2652 0.0023 0.0391
0.3185 0.0029 0.0417
0.3735 0.0037 0.0446
0.4301 0.0047 0.0477
0.4868 0.0058 0.0511
0.5430 0.0072 0.0547
0.6001 0.0087 0.0584
0.6560 0.0106 0.0623
0.7107 0.0127 0.0665
0.7631 0.0150 0.0708
0.8123 0.0173 0.0752
0.8577 0.0200 0.0799
0.8985 0.0226 0.0846
0.9342 0.0254 0.0894
0.9639 0.0283 0.0943
0.9870 0.0313 0.0992
0.9992 0.0343 0.1041
0.0001 0.0137 0.0327
0.0087 0.0140 0.0352
0.0278 0.0144 0.0339
0.0544 0.0147 0.0338
0.0866 0.0151 0.0350
0.1244 0.0156 0.0364
0.1672 0.0162 0.0382
0.2143 0.0169 0.0402
0.2649 0.0178 0.0425
0.3179 0.0187 0.0450
0.3730 0.0198 0.0477
0.4296 0.0209 0.0508
0.4864 0.0223 0.0540
0.5426 0.0237 0.0574
0.5997 0.0253 0.0611
0.6558 0.0270 0.0649
0.7106 0.0289 0.0689
0.7630 0.0309 0.0731
0.8122 0.0330 0.0775
0.8576 0.0352 0.0820
0.8984 0.0375 0.0867
0.9341 0.0399 0.0914
0.9639 0.0425 0.0962
0.9869 0.0451 0.1011
0.9997 0.0346 0.0928
0.0016 0.0339 0.0352
0.0109 0.0347 0.0389
0.0290 0.0355 0.0341
0.0562 0.0355 0.0329
0.0892 0.0355 0.0333
0.1277 0.0356 0.0338
0.1713 0.0356 0.0348
0.2190 0.0357 0.0360
0.2701 0.0358 0.0373
0.3237 0.0359 0.0388
0.3795 0.0360 0.0405
0.4367 0.0362 0.0424
0.4938 0.0364 0.0445
0.5507 0.0366 0.0467
0.6082 0.0369 0.0491
0.6646 0.0372 0.0517
0.7195 0.0376 0.0544
0.7719 0.0380 0.0573
0.8209 0.0384 0.0602
0.8658 0.0389 0.0633
0.9060 0.0394 0.0665
0.9408 0.0400 0.0700
0.9690 0.0425 0.0758
0.9902 0.0451 0.0817
0.9999 0.0422 0.0806
0.0041 0.0595 0.0420
0.0141 0.0603 0.0454
0.0300 0.0617 0.0372
0.0564 0.0620 0.0330
0.0860 0.0627 0.0435
0.1212 0.0638 0.0470
0.1644 0.0643 0.0475
0.2112 0.0649 0.0472
0.2649 0.0641 0.0445
0.3226 0.0626 0.0403
0.3805 0.0616 0.0386
0.4377 0.0617 0.0405
0.4948 0.0617 0.0426
0.5517 0.0618 0.0448
0.6091 0.0620 0.0473
0.6657 0.0623 0.0499
0.7206 0.0626 0.0527
0.7728 0.0629 0.0556
0.8216 0.0633 0.0586
0.8665 0.0637 0.0618
0.9066 0.0641 0.0650
0.9413 0.0646 0.0683
0.9699 0.0650 0.0718
0.9910 0.0655 0.0753
0.9999 0.0672 0.0804
0.0089 0.0899 0.0508
0.0191 0.0908 0.0522
0.0326 0.0925 0.0441
0.0571 0.0934 0.0374
0.0885 0.0936 0.0435
0.1216 0.0947 0.0567
0.1599 0.0962 0.0627
0.2035 0.0979 0.0656
0.2542 0.0986 0.0659
0.3057 0.1002 0.0664
0.3637 0.1001 0.0646
0.4250 0.0990 0.0611
0.4871 0.0972 0.0562
0.5490 0.0947 0.0497
0.6104 0.0925 0.0447
0.6670 0.0927 0.0474
0.7218 0.0930 0.0503
0.7739 0.0932 0.0532
0.8226 0.0935 0.0563
0.8673 0.0939 0.0595
0.9073 0.0942 0.0629
0.9418 0.0946 0.0663
0.9703 0.0951 0.0698
0.9913 0.0955 0.0734
0.9999 0.0979 0.0802
0.0160 0.1254 0.0609
0.0261 0.1262 0.0621
0.0388 0.1277 0.0547
0.0587 0.1295 0.0448
0.0897 0.1302 0.0366
0.1260 0.1300 0.0552
0.1630 0.1313 0.0704
0.2042 0.1332 0.0783
0.2479 0.1360 0.0832
0.2995 0.1376 0.0853
0.3552 0.1386 0.0856
0.4103 0.1408 0.0864
0.4696 0.1415 0.0853
0.5306 0.1407 0.0822
0.5935 0.1394 0.0780
0.6556 0.1374 0.0725
0.7157 0.1346 0.0654
0.7729 0.1311 0.0565
0.8237 0.1293 0.0533
0.8683 0.1296 0.0566
0.9081 0.1298 0.0600
0.9425 0.1302 0.0635
0.9708 0.1305 0.0671
0.9916 0.1309 0.0708
0.9999 0.1341 0.0799
0.0247 0.1652 0.0720
0.0343 0.1659 0.0730
0.0463 0.1673 0.0663
0.0650 0.1690 0.0589
0.0911 0.1709 0.0453
0.1279 0.1713 0.0433
0.1684 0.1711 0.0677
0.2087 0.1725 0.0847
0.2511 0.1751 0.0943
0.2984 0.1777 0.1002
0.3482 0.1808 0.1043
0.4050 0.1822 0.1056
0.4631 0.1839 0.1062
0.5186 0.1865 0.1071
0.5773 0.1881 0.1066
0.6390 0.1878 0.1039
0.6992 0.1867 0.1002
0.7570 0.1850 0.0953
0.8112 0.1825 0.0892
0.8610 0.1793 0.0815
0.9053 0.1754 0.0722
0.9432 0.1708 0.0605
0.9714 0.1709 0.0638
0.9919 0.1712 0.0675
0.9999 0.1750 0.0796
0.0348 0.2089 0.0839
0.0437 0.2096 0.0849
0.0550 0.2109 0.0786
0.0732 0.2124 0.0723
0.0964 0.2145 0.0627
0.1291 0.2163 0.0452
0.1710 0.2162 0.0571
0.2149 0.2162 0.0809
0.2580 0.2177 0.0992
0.3024 0.2205 0.1101
0.3517 0.2233 0.1172
0.4017 0.2272 0.1225
0.4570 0.2300 0.1255
0.5148 0.2315 0.1265
0.5722 0.2338 0.1273
0.6284 0.2368 0.1283
0.6846 0.2391 0.1283
0.7423 0.2390 0.1258
0.7971 0.2382 0.1224
0.8478 0.2367 0.1180
0.8935 0.2345 0.1125
0.9331 0.2317 0.1059
0.9658 0.2281 0.0978
0.9900 0.2239 0.0882
0.9999 0.2224 0.0860
0.0458 0.2560 0.0965
0.0542 0.2566 0.0974
0.0650 0.2579 0.0916
0.0826 0.2592 0.0860
0.1050 0.2611 0.0803
0.1326 0.2639 0.0605
0.1718 0.2652 0.0446
0.2179 0.2647 0.0708
0.2651 0.2649 0.0948
0.3102 0.2669 0.1137
0.3573 0.2697 0.1261
0.4076 0.2728 0.1344
0.4585 0.2767 0.1404
0.5091 0.2809 0.1451
0.5667 0.2829 0.1471
0.6253 0.2847 0.1479
0.6807 0.2875 0.1489
0.7335 0.2907 0.1499
0.7843 0.2937 0.1503
0.8355 0.2937 0.1480
0.8821 0.2931 0.1448
0.9231 0.2918 0.1407
0.9575 0.2899 0.1357
0.9843 0.2874 0.1297
0.9992 0.2825 0.1185
0.0579 0.3062 0.1096
0.0658 0.3068 0.1101
0.0763 0.3079 0.1051
0.0934 0.3092 0.0998
0.1151 0.3110 0.0952
0.1419 0.3134 0.0855
0.1743 0.3166 0.0577
0.2192 0.3176 0.0437
0.2687 0.3167 0.0852
0.3186 0.3169 0.1090
0.3656 0.3189 0.1288
0.4141 0.3218 0.1422
0.4634 0.3255 0.1516
0.5145 0.3288 0.1583
0.5654 0.3331 0.1636
0.6193 0.3368 0.1674
0.6760 0.3390 0.1690
0.7314 0.3407 0.1695
0.7815 0.3441 0.1708
0.8286 0.3475 0.1718
0.8718 0.3509 0.1725
0.9136 0.3512 0.1704
0.9494 0.3507 0.1674
0.9782 0.3497 0.1636
0.9969 0.3469 0.1560
0.0713 0.3590 0.1232
0.0787 0.3596 0.1233
0.0888 0.3606 0.1189
0.1055 0.3618 0.1139
0.1266 0.3634 0.1101
0.1524 0.3655 0.1041
0.1833 0.3685 0.0853
0.2217 0.3712 0.0582
0.2706 0.3717 0.0583
0.3224 0.3709 0.0999
0.3743 0.3712 0.1235
0.4228 0.3732 0.1440
0.4718 0.3761 0.1584
0.5196 0.3797 0.1686
0.5714 0.3830 0.1762
0.6220 0.3875 0.1822
0.6720 0.3923 0.1873
0.7254 0.3951 0.1899
0.7778 0.3972 0.1912
0.8268 0.3993 0.1918
0.8698 0.4028 0.1932
0.9085 0.4064 0.1942
0.9422 0.4099 0.1949
0.9719 0.4107 0.1932
0.9936 0.4096 0.1880
