EA 50 Cinematic Luts Pack/EA_Cinematic Lut (9).cube
TITLE "Generated by Resolve"
LUT_3D_SIZE 5
0 0.00956741 0
0.283268 0 0
0.562554 0.00805676 0
0.825666 0.0160983 0
1 0.029099 0
0.0873884 0.164385 0.0982681
0.297627 0.201282 0.039826
0.610559 0.242588 0
0.897826 0.271504 0
1 0.306752 0
0.222202 0.367407 0.24979
0.405371 0.439551 0.281117
0.70425 0.533669 0.207996
1 0.591134 0.0942855
1 0.636332 0
0.415183 0.631128 0.457282
0.585855 0.701106 0.513497
0.806455 0.798795 0.476661
1 0.878294 0.387411
1 0.927123 0.262058
0.592966 0.881148 0.648173
0.73843 0.929519 0.6963
0.901534 0.988144 0.655558
1 1 0.564538
1 1 0.440253
0 0.0805219 0.0153048
0.210056 0.0140383 0.0655222
0.505882 0.0195163 0
0.775814 0.0286564 0
1 0.042298 0
0 0.213275 0.104845
0.258259 0.193286 0.210452
0.571099 0.235584 0.1066
0.877394 0.286778 0.0121157
1 0.323919 0
0.20238 0.39913 0.281163
0.40502 0.431998 0.415747
0.663447 0.526162 0.376181
1 0.613642 0.302022
1 0.656764 0.197787
0.423819 0.65536 0.504143
0.600977 0.698741 0.627161
0.790051 0.790646 0.641688
1 0.897536 0.582437
1 0.946136 0.459663
0.606851 0.895781 0.697383
0.751461 0.921462 0.790997
0.885023 0.969421 0.791074
1 1 0.729458
1 1 0.623392
0 0.151186 0.0695354
0.0204471 0.0705882 0.227573
0.398505 0.032639 0.154177
0.695399 0.0369879 0.0118715
0.969726 0.0545815 0
0 0.292454 0.127474
0.0831617 0.257984 0.304707
0.480919 0.234653 0.32401
0.811704 0.290883 0.222889
1 0.33695 0.122072
0.0454414 0.476799 0.286641
0.342107 0.478096 0.451621
0.607141 0.50042 0.545464
0.950118 0.588129 0.487511
1 0.669596 0.42359
0.333257 0.714107 0.514946
0.599954 0.719448 0.67689
0.771679 0.7635 0.773648
1 0.866789 0.743008
1 0.95697 0.670542
0.554513 0.933288 0.713863
0.759854 0.926177 0.842252
0.880537 0.944747 0.897231
1 1 0.884749
1 1 0.820768
0 0.222232 0.125841
0 0.144945 0.309575
0.213153 0.0814984 0.343542
0.568978 0.0572824 0.253498
0.874388 0.0656901 0.125185
0 0.37113 0.173205
0 0.331487 0.363424
0.287968 0.289876 0.493797
0.685695 0.292226 0.457343
1 0.338125 0.359945
0 0.567712 0.314626
0.136889 0.565026 0.485924
0.433341 0.56965 0.653529
0.838102 0.570611 0.694575
1 0.654521 0.624491
0.155444 0.799435 0.523903
0.445548 0.794156 0.682292
0.702419 0.8038 0.807324
0.942611 0.813321 0.889693
1 0.892515 0.823514
0.413916 0.998169 0.711528
0.667247 0.968048 0.844617
0.865141 0.949737 0.93492
0.998978 0.960266 0.992233
1 1 0.956069
0 0.293965 0.18378
0 0.219547 0.374151
0 0.152407 0.467384
0.384695 0.106493 0.453071
0.73669 0.0949569 0.368002
0 0.448936 0.228367
0 0.409094 0.427222
0.076524 0.37174 0.586923
0.494835 0.344518 0.646143
0.879957 0.356222 0.598398
0 0.658259 0.359243
0 0.651728 0.545037
0.244465 0.648005 0.717876
0.63238 0.624857 0.853468
1 0.636728 0.838376
0 0.891188 0.550362
0.236805 0.88397 0.710582
0.487419 0.884794 0.836835
0.751797 0.876631 0.974105
1 0.847471 1
0.21651 1 0.713863
0.475563 1 0.841199
0.693584 1 0.927367
0.907179 0.991958 1
1 0.974227 1
