EA 50 Cinematic Luts Pack/EA_Cinematic Lut (3).cube
TITLE "Generated by Resolve"
LUT_3D_SIZE 5
0.0565805 0.107637 0.254505
0.185626 0.113466 0.251164
0.347982 0.10956 0.243458
0.548775 0.0945449 0.230457
0.756207 0.0852064 0.2206
0.130694 0.231128 0.271229
0.272801 0.246052 0.26894
0.484855 0.257832 0.262608
0.712032 0.272236 0.257923
0.924407 0.295308 0.258564
0.196368 0.451743 0.289845
0.396582 0.479698 0.290181
0.626383 0.501762 0.289357
0.850233 0.526223 0.292302
1 0.558679 0.302098
0.317113 0.712703 0.327626
0.543221 0.734127 0.331212
0.771878 0.75108 0.334524
0.975052 0.77023 0.341344
1 0.797147 0.354849
0.495369 0.934783 0.388907
0.717845 0.937942 0.391455
0.920867 0.936065 0.393149
1 0.939757 0.399344
1 0.951965 0.411414
0.0699931 0.116579 0.290929
0.198978 0.122988 0.288548
0.364645 0.117037 0.280476
0.568551 0.102876 0.269749
0.780179 0.0979934 0.265995
0.143267 0.243183 0.31281
0.294087 0.261921 0.316304
0.509987 0.275502 0.316396
0.736934 0.291279 0.318349
0.94757 0.315557 0.325765
0.216571 0.472801 0.352605
0.421256 0.500191 0.358572
0.651621 0.522118 0.362814
0.873365 0.546334 0.369772
1 0.578897 0.382971
0.341192 0.731991 0.406058
0.567895 0.752056 0.412451
0.793851 0.767803 0.418082
0.993103 0.785657 0.427115
1 0.809796 0.442069
0.517372 0.947387 0.476249
0.736309 0.94725 0.478981
0.935363 0.943709 0.480934
1 0.947402 0.487953
1 0.959625 0.500221
0.0811017 0.124727 0.341909
0.208728 0.130709 0.345464
0.379339 0.123033 0.342443
0.586725 0.110597 0.337774
0.80296 0.110857 0.340215
0.152651 0.2551 0.383307
0.313878 0.277378 0.391913
0.532616 0.292134 0.395407
0.760143 0.309133 0.400595
0.968673 0.334981 0.411414
0.235004 0.492546 0.435843
0.444282 0.51931 0.444129
0.674968 0.541176 0.450431
0.894255 0.565438 0.45922
1 0.597848 0.47393
0.364416 0.750301 0.496345
0.590616 0.768688 0.502937
0.814755 0.783017 0.508797
1 0.799603 0.517311
1 0.821118 0.53109
0.538338 0.958602 0.5673
0.753674 0.955428 0.567697
0.948638 0.95079 0.567483
1 0.95491 0.573098
1 0.96762 0.583398
0.0895552 0.132021 0.418723
0.215778 0.136889 0.424414
0.393133 0.128481 0.423087
0.605676 0.118853 0.421485
0.826185 0.124239 0.428168
0.164034 0.268513 0.469383
0.333394 0.292744 0.479881
0.555062 0.308782 0.48513
0.782773 0.327276 0.491554
0.989548 0.354528 0.503395
0.253376 0.511971 0.527001
0.467079 0.538125 0.535164
0.698039 0.55993 0.540963
0.915511 0.584329 0.549264
1 0.616907 0.563104
0.387335 0.767941 0.585931
0.613642 0.784817 0.590692
0.835081 0.797955 0.594125
1 0.812909 0.599741
1 0.832349 0.609262
0.558465 0.968917 0.648905
0.771176 0.9635 0.643885
0.963241 0.958511 0.639124
1 0.96376 0.640696
1 0.977218 0.647578
0.0960555 0.138201 0.50547
0.223194 0.142321 0.511543
0.407645 0.134035 0.510109
0.627176 0.129183 0.510521
0.849897 0.138155 0.518517
0.177035 0.283558 0.559045
0.353902 0.30869 0.5691
0.578103 0.32578 0.573343
0.806256 0.345602 0.578973
1 0.374395 0.589349
0.273823 0.53196 0.613626
0.491402 0.557702 0.61915
0.722377 0.579416 0.621881
0.936919 0.603662 0.62591
1 0.636225 0.635935
0.411841 0.786099 0.661448
0.637934 0.801785 0.661433
0.857496 0.813596 0.660212
1 0.826337 0.661585
1 0.84387 0.667918
0.579522 0.979309 0.709728
0.790051 0.972534 0.701534
0.978897 0.967422 0.695186
1 0.973556 0.696803
1 0.986938 0.703487
