EA 50 Cinematic Luts Pack/EA_Cinematic Lut (20).CUBE
#Created by: Adobe Photoshop Export Color Lookup Plugin
#Copyright: (C) Copyright 2018 Navpreet Singh
TITLE "Orange and Teal 3"
#LUT size
LUT_3D_SIZE 32
#data domain
DOMAIN_MIN 0.0 0.0 0.0
DOMAIN_MAX 1.0 1.0 1.0
#LUT data points
0.000000 0.000000 0.000000
0.012085 0.000000 0.000000
0.026947 0.000000 0.000000
0.044586 0.000000 0.000000
0.065002 0.000000 0.000000
0.088226 0.000000 0.000000
0.114197 0.000000 0.000000
0.142975 0.000000 0.000000
0.174530 0.000000 0.000000
0.208893 0.000000 0.000000
0.246033 0.000000 0.000000
0.285919 0.000000 0.000000
0.328644 0.000000 0.000000
0.374115 0.000000 0.000000
0.422363 0.000000 0.000000
0.473389 0.000000 0.000000
0.526611 0.000000 0.000000
0.577637 0.000000 0.000000
0.625916 0.000000 0.000000
0.671387 0.000000 0.000000
0.714081 0.000000 0.000000
0.753998 0.000000 0.000000
0.791107 0.000000 0.000000
0.825470 0.000000 0.000000
0.857025 0.000000 0.000000
0.885803 0.000000 0.000000
0.911774 0.000000 0.000000
0.934998 0.000000 0.000000
0.955414 0.000000 0.000000
0.973053 0.000000 0.000000
0.987946 0.000000 0.000000
1.000000 0.000000 0.000000
0.000000 0.011292 0.011292
0.012085 0.012085 0.012085
0.034149 0.006561 0.006561
0.061859 0.001556 0.001556
0.088226 0.000000 0.000000
0.114197 0.000000 0.000000
0.142975 0.000000 0.000000
0.174530 0.000000 0.000000
0.208893 0.000000 0.000000
0.246033 0.000000 0.000000
0.285919 0.000000 0.000000
0.328644 0.000000 0.000000
0.374115 0.000000 0.000000
0.422363 0.000000 0.000000
0.473389 0.000000 0.000000
0.526550 0.000000 0.000000
0.577637 0.000000 0.000000
0.625916 0.000000 0.000000
0.671387 0.000000 0.000000
0.714081 0.000000 0.000000
0.753998 0.000000 0.000000
0.791107 0.000000 0.000000
0.825470 0.000000 0.000000
0.857025 0.000000 0.000000
0.885803 0.000000 0.000000
0.911774 0.000000 0.000000
0.934998 0.000000 0.000000
0.955414 0.000000 0.000000
0.973053 0.000000 0.000000
0.987946 0.000000 0.000000
1.000000 0.000000 0.000000
1.000000 0.012085 0.012085
0.000000 0.025024 0.025024
0.000000 0.043457 0.043457
0.026947 0.026947 0.026947
0.052948 0.020233 0.020233
0.084686 0.014069 0.014069
0.122070 0.008362 0.008362
0.165131 0.003174 0.003174
0.208893 0.000000 0.000000
0.246033 0.000000 0.000000
0.285919 0.000000 0.000000
0.328644 0.000000 0.000000
0.374115 0.000000 0.000000
0.422363 0.000000 0.000000
0.473389 0.000000 0.000000
0.526550 0.000000 0.000000
0.577606 0.000000 0.000000
0.625916 0.000000 0.000000
0.671387 0.000000 0.000000
0.714081 0.000000 0.000000
0.753998 0.000000 0.000000
0.791107 0.000000 0.000000
0.825470 0.000000 0.000000
0.857025 0.000000 0.000000
0.885803 0.000000 0.000000
0.911774 0.000000 0.000000
0.934998 0.000000 0.000000
0.955414 0.000000 0.000000
0.973053 0.000000 0.000000
0.987946 0.000000 0.000000
1.000000 0.000000 0.000000
1.000000 0.012085 0.012085
1.000000 0.026947 0.026947
0.000000 0.041229 0.041229
0.000000 0.062439 0.062439
0.000000 0.086761 0.086761
0.044586 0.044586 0.044586
0.074585 0.036682 0.036682
0.110260 0.029327 0.029327
0.151642 0.022430 0.022430
0.198669 0.016083 0.016083
0.251373 0.010223 0.010223
0.309723 0.004913 0.004913
0.373840 0.000061 0.000061
0.422363 0.000000 0.000000
0.473389 0.000000 0.000000
0.526550 0.000000 0.000000
0.577606 0.000000 0.000000
0.625854 0.000000 0.000000
0.671387 0.000000 0.000000
0.714081 0.000000 0.000000
0.753998 0.000000 0.000000
0.791107 0.000000 0.000000
0.825470 0.000000 0.000000
0.857025 0.000000 0.000000
0.885803 0.000000 0.000000
0.911774 0.000000 0.000000
0.934998 0.000000 0.000000
0.955414 0.000000 0.000000
0.973053 0.000000 0.000000
0.987946 0.000000 0.000000
1.000000 0.000000 0.000000
1.000000 0.012085 0.012085
1.000000 0.026947 0.026947
1.000000 0.044586 0.044586
0.000000 0.059875 0.059875
0.000000 0.083862 0.083862
0.000000 0.110962 0.110962
0.000000 0.141235 0.141235
0.065002 0.065002 0.065002
0.098999 0.055939 0.055939
0.138641 0.047363 0.047363
0.183960 0.039276 0.039276
0.234985 0.031738 0.031738
0.291656 0.024719 0.024719
0.354004 0.018188 0.018188
0.422089 0.012177 0.012177
0.495789 0.006653 0.006653
0.570099 0.001648 0.001648
0.625854 0.000000 0.000000
0.671326 0.000000 0.000000
0.714081 0.000000 0.000000
0.753998 0.000000 0.000000
0.791107 0.000000 0.000000
0.825470 0.000000 0.000000
0.857025 0.000000 0.000000
0.885803 0.000000 0.000000
0.911774 0.000000 0.000000
0.934998 0.000000 0.000000
0.955414 0.000000 0.000000
0.973053 0.000000 0.000000
0.987946 0.000000 0.000000
1.000000 0.000000 0.000000
1.000000 0.012085 0.012085
1.000000 0.026947 0.026947
1.000000 0.044586 0.044586
1.000000 0.065002 0.065002
0.000000 0.080994 0.080994
0.000000 0.107758 0.107758
0.000000 0.137634 0.137634
0.000000 0.170624 0.170624
0.000000 0.206787 0.206787
0.088226 0.088226 0.088226
0.126190 0.077942 0.077942
0.169800 0.068207 0.068207
0.219116 0.058929 0.058929
0.274078 0.050201 0.050201
0.334717 0.041962 0.041962
0.401093 0.034241 0.034241
0.473114 0.027039 0.027039
0.548431 0.020325 0.020325
0.618774 0.014130 0.014130
0.683441 0.008453 0.008453
0.742493 0.003265 0.003265
0.791107 0.000000 0.000000
0.825470 0.000000 0.000000
0.857025 0.000000 0.000000
0.885803 0.000000 0.000000
0.911774 0.000000 0.000000
0.934998 0.000000 0.000000
0.955414 0.000000 0.000000
0.973053 0.000000 0.000000
0.987946 0.000000 0.000000
1.000000 0.000000 0.000000
1.000000 0.012085 0.012085
1.000000 0.026947 0.026947
1.000000 0.044586 0.044586
1.000000 0.065002 0.065002
1.000000 0.088226 0.088226
0.000000 0.104553 0.104553
0.000000 0.134094 0.134094
0.000000 0.166779 0.166779
0.000000 0.202545 0.202545
0.000000 0.241455 0.241455
0.001404 0.278290 0.278290
0.114197 0.114197 0.114197
0.156128 0.102753 0.102753
0.203735 0.091827 0.091827
0.257019 0.081360 0.081360
0.315979 0.071411 0.071411
0.380615 0.062012 0.062012
0.450897 0.053070 0.053070
0.526245 0.044708 0.044708
0.598297 0.036804 0.036804
0.664673 0.029419 0.029419
0.725433 0.022522 0.022522
0.780457 0.016144 0.016144
0.829834 0.010315 0.010315
0.873505 0.004944 0.004944
0.911499 0.000122 0.000122
0.934998 0.000000 0.000000
0.955414 0.000000 0.000000
0.973053 0.000000 0.000000
0.987946 0.000000 0.000000
1.000000 0.000000 0.000000
1.000000 0.012085 0.012085
1.000000 0.026947 0.026947
1.000000 0.044586 0.044586
1.000000 0.065002 0.065002
1.000000 0.088226 0.088226
1.000000 0.114197 0.114197
0.000000 0.130615 0.130615
0.000000 0.162903 0.162903
0.000000 0.198334 0.198334
0.000000 0.236908 0.236908
0.000000 0.278595 0.278595
0.000000 0.323395 0.323395
0.013824 0.320465 0.320465
0.142975 0.142975 0.142975
0.188904 0.130341 0.130341
0.240448 0.118195 0.118195
0.297729 0.106567 0.106567
0.360657 0.095428 0.095428
0.429260 0.084839 0.084839
0.503510 0.074738 0.074738
0.577332 0.065125 0.065125
0.645386 0.056061 0.056061
0.707825 0.047455 0.047455
0.764557 0.039398 0.039398
0.815613 0.031860 0.031860
0.861023 0.024811 0.024811
0.900726 0.018250 0.018250
0.934753 0.012238 0.012238
0.963104 0.006714 0.006714
0.985779 0.001709 0.001709
1.000000 0.000000 0.000000
1.000000 0.012085 0.012085
1.000000 0.026947 0.026947
1.000000 0.044586 0.044586
1.000000 0.065002 0.065002
1.000000 0.088226 0.088226
1.000000 0.114197 0.114197
1.000000 0.142975 0.142975
0.000000 0.159088 0.159088
0.000000 0.194183 0.194183
0.000000 0.232391 0.232391
0.000000 0.273712 0.273712
0.000000 0.318176 0.318176
0.000000 0.365753 0.365753
0.000000 0.416473 0.416473
0.029053 0.365417 0.365417
0.174530 0.174530 0.174530
0.224426 0.160706 0.160706
0.279999 0.147369 0.147369
0.341217 0.134552 0.134552
0.408112 0.122223 0.122223
0.480682 0.110443 0.110443
0.555756 0.099121 0.099121
0.625610 0.088348 0.088348
0.689758 0.078064 0.078064
0.748169 0.068298 0.068298
0.800934 0.059052 0.059052
0.847992 0.050293 0.050293
0.889404 0.042053 0.042053
0.925140 0.034332 0.034332
0.955231 0.027130 0.027130
0.979584 0.020416 0.020416
0.998291 0.014221 0.014221
1.000000 0.026947 0.026947
1.000000 0.044586 0.044586
1.000000 0.065002 0.065002
1.000000 0.088226 0.088226
1.000000 0.114197 0.114197
1.000000 0.142975 0.142975
1.000000 0.174530 0.174530
0.000000 0.190063 0.190063
0.000000 0.227905 0.227905
0.000000 0.268890 0.268890
0.000000 0.312988 0.312988
0.000000 0.360199 0.360199
0.000000 0.410614 0.410614
0.000000 0.464081 0.464081
0.000000 0.520264 0.520264
0.047028 0.413177 0.413177
0.208893 0.208893 0.208893
0.262756 0.193878 0.193878
0.322266 0.179352 0.179352
0.387482 0.165314 0.165314
0.458344 0.151794 0.151794
0.533752 0.138824 0.138824
0.605255 0.126343 0.126343
0.671112 0.114380 0.114380
0.731262 0.102875 0.102875
0.785706 0.091919 0.091919
0.834473 0.081482 0.081482
0.877594 0.071533 0.071533
0.915039 0.062103 0.062103
0.946808 0.053192 0.053192
0.972870 0.044800 0.044800
0.993286 0.036896 0.036896
1.000000 0.044586 0.044586
1.000000 0.065002 0.065002
1.000000 0.088226 0.088226
1.000000 0.114197 0.114197
1.000000 0.142975 0.142975
1.000000 0.174530 0.174530
1.000000 0.208893 0.208893
0.000000 0.223450 0.223450
0.000000 0.264099 0.264099
0.000000 0.307861 0.307861
0.000000 0.354736 0.354736
0.000000 0.404755 0.404755
0.000000 0.457855 0.457855
0.000000 0.513977 0.513977
0.000000 0.568665 0.568665
0.000000 0.620239 0.620239
0.067810 0.463684 0.463684
0.246033 0.246033 0.246033
0.303864 0.229797 0.229797
0.367340 0.214081 0.214081
0.436523 0.198853 0.198853
0.511261 0.184174 0.184174
0.584442 0.169983 0.169983
0.652008 0.156311 0.156311
0.713837 0.143158 0.143158
0.769989 0.130463 0.130463
0.820465 0.118347 0.118347
0.865265 0.106689 0.106689
0.904388 0.095581 0.095581
0.937897 0.084961 0.084961
0.965668 0.074860 0.074860
0.987762 0.065247 0.065247
1.000000 0.065002 0.065002
1.000000 0.088226 0.088226
1.000000 0.114197 0.114197
1.000000 0.142975 0.142975
1.000000 0.174530 0.174530
1.000000 0.208893 0.208893
1.000000 0.246033 0.246033
0.000000 0.259338 0.259338
0.000000 0.302734 0.302734
0.000000 0.349274 0.349274
0.000000 0.398926 0.398926
0.000000 0.451721 0.451721
0.000000 0.507568 0.507568
0.000000 0.562622 0.562622
0.000000 0.614594 0.614594
0.000000 0.663391 0.663391
0.000000 0.709106 0.709106
0.091370 0.516724 0.516724
0.285919 0.285919 0.285919
0.347717 0.268524 0.268524
0.415222 0.251617 0.251617
0.488342 0.235199 0.235199
0.563110 0.219299 0.219299
0.632385 0.203949 0.203949
0.695923 0.189087 0.189087
0.753754 0.174744 0.174744
0.805939 0.160858 0.160858
0.852448 0.147522 0.147522
0.893280 0.134705 0.134705
0.928436 0.122375 0.122375
0.957947 0.110596 0.110596
0.981750 0.099274 0.099274
0.999878 0.088501 0.088501
1.000000 0.114197 0.114197
1.000000 0.142975 0.142975
1.000000 0.174530 0.174530
1.000000 0.208893 0.208893
1.000000 0.246033 0.246033
1.000000 0.285919 0.285919
0.000000 0.297668 0.297668
0.000000 0.343842 0.343842
0.000000 0.393127 0.393127
0.000000 0.445587 0.445587
0.000000 0.501129 0.501129
0.000000 0.556580 0.556580
0.000000 0.608887 0.608887
0.000000 0.658051 0.658051
0.000000 0.704102 0.704102
0.000000 0.747009 0.747009
0.002930 0.777130 0.777130
0.117706 0.568298 0.568298
0.328644 0.328644 0.328644
0.394409 0.310028 0.310028
0.465851 0.291931 0.291931
0.541260 0.274323 0.274323
0.612274 0.257263 0.257263
0.677490 0.240692 0.240692
0.737030 0.224640 0.224640
0.790894 0.209106 0.209106
0.839111 0.194031 0.194031
0.881653 0.179504 0.179504
0.918488 0.165497 0.165497
0.949677 0.151978 0.151978
0.975220 0.138977 0.138977
0.995056 0.126495 0.126495
1.000000 0.142975 0.142975
1.000000 0.174530 0.174530
1.000000 0.208893 0.208893
1.000000 0.246033 0.246033
1.000000 0.285919 0.285919
1.000000 0.328644 0.328644
0.000000 0.338440 0.338440
0.000000 0.387451 0.387451
0.000000 0.439484 0.439484
0.000000 0.494659 0.494659
0.000000 0.550446 0.550446
0.000000 0.603088 0.603088
0.000000 0.652649 0.652649
0.000000 0.699036 0.699036
0.000000 0.742310 0.742310
0.000000 0.782471 0.782471
0.000000 0.819489 0.819489
0.015747 0.812531 0.812531
0.146851 0.617096 0.617096
0.374115 0.374115 0.374115
0.443848 0.354309 0.354309
0.518921 0.335022 0.335022
0.591614 0.316223 0.316223
0.658539 0.297974 0.297974
0.719788 0.280212 0.280212
0.775360 0.262970 0.262970
0.825256 0.246246 0.246246
0.869507 0.229980 0.229980
0.908051 0.214264 0.214264
0.940948 0.199036 0.199036
0.968140 0.184357 0.184357
0.989716 0.170166 0.170166
1.000000 0.174530 0.174530
1.000000 0.208893 0.208893
1.000000 0.246033 0.246033
1.000000 0.285919 0.285919
1.000000 0.328644 0.328644
1.000000 0.374115 0.374115
0.000000 0.381714 0.381714
0.000000 0.433411 0.433411
0.000000 0.488312 0.488312
0.000000 0.544312 0.544312
0.000000 0.597290 0.597290
0.000000 0.647217 0.647217
0.000000 0.693939 0.693939
0.000000 0.737610 0.737610
0.000000 0.778076 0.778076
0.000000 0.815430 0.815430
0.000000 0.849731 0.849731
0.000000 0.880829 0.880829
0.031342 0.845154 0.845154
0.178772 0.663055 0.663055
0.422363 0.422363 0.422363
0.496094 0.401398 0.401398
0.570435 0.380890 0.380890
0.639099 0.360901 0.360901
0.702057 0.341461 0.341461
0.759308 0.322510 0.322510
0.810913 0.304077 0.304077
0.856842 0.286163 0.286163
0.897095 0.268707 0.268707
0.931671 0.251801 0.251801
0.960602 0.235413 0.235413
0.983856 0.219513 0.219513
1.000000 0.208893 0.208893
1.000000 0.246033 0.246033
1.000000 0.285919 0.285919
1.000000 0.328644 0.328644
1.000000 0.374115 0.374115
1.000000 0.422363 0.422363
0.000000 0.427460 0.427460
0.000000 0.481934 0.481934
0.000000 0.538086 0.538086
0.000000 0.591492 0.591492
0.000000 0.641693 0.641693
0.000000 0.688812 0.688812
0.000000 0.732819 0.732819
0.000000 0.773651 0.773651
0.000000 0.811401 0.811401
0.000000 0.845978 0.845978
0.000000 0.877441 0.877441
0.000000 0.905823 0.905823
0.000000 0.931030 0.931030
0.049713 0.875031 0.875031
0.213470 0.706299 0.706299
0.473389 0.473389 0.473389
0.548767 0.451172 0.451172
0.619080 0.429535 0.429535
0.683777 0.408386 0.408386
0.742737 0.387726 0.387726
0.796051 0.367615 0.367615
0.843689 0.347992 0.347992
0.885651 0.328888 0.328888
0.921936 0.310211 0.310211
0.952545 0.292114 0.292114
0.977478 0.274536 0.274536
0.996735 0.257477 0.257477
1.000000 0.285919 0.285919
1.000000 0.328644 0.328644
1.000000 0.374115 0.374115
1.000000 0.422363 0.422363
1.000000 0.473389 0.473389
0.000000 0.475647 0.475647
0.000000 0.531921 0.531921
0.000000 0.585632 0.585632
0.000000 0.636230 0.636230
0.000000 0.683685 0.683685
0.000000 0.728027 0.728027
0.000000 0.769226 0.769226
0.000000 0.807312 0.807312
0.000000 0.842255 0.842255
0.000000 0.874054 0.874054
0.000000 0.902802 0.902802
0.000000 0.928345 0.928345
0.000000 0.950806 0.950806
0.000000 0.970123 0.970123
0.070770 0.902222 0.902222
0.250793 0.746948 0.746948
0.526611 0.526611 0.526611
0.598602 0.503906 0.503906
0.664978 0.481079 0.481079
0.725647 0.458710 0.458710
0.780670 0.436859 0.436859
0.829987 0.415527 0.415527
0.873627 0.394714 0.394714
0.911652 0.374420 0.374420
0.943939 0.354614 0.354614
0.970612 0.335327 0.335327
0.991577 0.316559 0.316559
1.000000 0.328674 0.328674
1.000000 0.374146 0.374146
1.000000 0.422424 0.422424
1.000000 0.473450 0.473450
1.000000 0.526611 0.526611
0.000000 0.525665 0.525665
0.000000 0.579712 0.579712
0.000000 0.630676 0.630676
0.000000 0.678497 0.678497
0.000000 0.723145 0.723145
0.000000 0.764740 0.764740
0.000000 0.803162 0.803162
0.000000 0.838440 0.838440
0.000000 0.870667 0.870667
0.000000 0.899689 0.899689
0.000000 0.925629 0.925629
0.000000 0.948425 0.948425
0.000000 0.968079 0.968079
0.000000 0.984650 0.984650
0.000000 0.998047 0.998047
0.094696 0.926514 0.926514
0.291260 0.784393 0.784393
0.577637 0.577637 0.577637
0.645691 0.556152 0.556152
0.708069 0.534149 0.534149
0.764771 0.511597 0.511597
0.815796 0.488708 0.488708
0.861176 0.466187 0.466187
0.900848 0.444214 0.444214
0.934875 0.422699 0.422699
0.963226 0.401733 0.401733
0.985870 0.381226 0.381226
1.000000 0.374146 0.374146
1.000000 0.422424 0.422424
1.000000 0.473450 0.473450
1.000000 0.526611 0.526611
1.000000 0.577637 0.577637
0.000000 0.573792 0.573792
0.000000 0.625061 0.625061
0.000000 0.673218 0.673218
0.000000 0.718262 0.718262
0.000000 0.760162 0.760162
0.000000 0.798950 0.798950
0.000000 0.834625 0.834625
0.000000 0.867157 0.867157
0.000000 0.896576 0.896576
0.000000 0.922852 0.922852
0.000000 0.945984 0.945984
0.000000 0.966034 0.966034
0.000000 0.982910 0.982910
0.000000 0.996704 0.996704
0.008942 1.000000 1.000000
0.024078 1.000000 1.000000
0.121582 0.947906 0.947906
0.334320 0.819275 0.819275
0.625916 0.625916 0.625916
0.689972 0.605621 0.605621
0.748383 0.584808 0.584808
0.801117 0.563446 0.563446
0.848175 0.541595 0.541595
0.889557 0.519287 0.519287
0.925262 0.496429 0.496429
0.955322 0.473755 0.473755
0.979675 0.451569 0.451569
0.998352 0.429901 0.429901
1.000000 0.473450 0.473450
1.000000 0.526611 0.526611
1.000000 0.577637 0.577637
1.000000 0.625916 0.625916
0.000000 0.619415 0.619415
0.000000 0.667969 0.667969
0.000000 0.713348 0.713348
0.000000 0.755585 0.755585
0.000000 0.794739 0.794739
0.000000 0.830750 0.830750
0.000000 0.863647 0.863647
0.000000 0.893402 0.893402
0.000000 0.920044 0.920044
0.000000 0.943542 0.943542
0.000000 0.963928 0.963928
0.000000 0.981171 0.981171
0.000000 0.995270 0.995270
0.007416 1.000000 1.000000
0.022186 1.000000 1.000000
0.040131 1.000000 1.000000
0.061157 1.000000 1.000000
0.151093 0.966614 0.966614
0.380157 0.851349 0.851349
0.671387 0.671387 0.671387
0.731476 0.652283 0.652283
0.785919 0.632660 0.632660
0.834656 0.612488 0.612488
0.877747 0.591858 0.591858
0.915161 0.570709 0.570709
0.946899 0.549072 0.549072
0.972961 0.526886 0.526886
0.993378 0.504211 0.504211
1.000000 0.526611 0.526611
1.000000 0.577637 0.577637
1.000000 0.625916 0.625916
1.000000 0.671387 0.671387
0.000000 0.662598 0.662598
0.000000 0.708344 0.708344
0.000000 0.751007 0.751007
0.000000 0.790497 0.790497
0.000000 0.826843 0.826843
0.000000 0.860077 0.860077
0.000000 0.890198 0.890198
0.000000 0.917175 0.917175
0.000000 0.941040 0.941040
0.000000 0.961761 0.961761
0.000000 0.979370 0.979370
0.000000 0.993866 0.993866
0.005951 1.000000 1.000000
0.020386 1.000000 1.000000
0.037933 1.000000 1.000000
0.058594 1.000000 1.000000
0.082458 1.000000 1.000000
0.109375 1.000000 1.000000
0.183411 0.982544 0.982544
0.428772 0.880646 0.880646
0.714081 0.714081 0.714081
0.770203 0.696136 0.696136
0.820648 0.677734 0.677734
0.865448 0.658752 0.658752
0.904541 0.639313 0.639313
0.937988 0.619354 0.619354
0.965759 0.598877 0.598877
0.987854 0.577911 0.577911
1.000000 0.577637 0.577637
1.000000 0.625916 0.625916
1.000000 0.671387 0.671387
1.000000 0.714081 0.714081
0.000000 0.703339 0.703339
0.000000 0.746307 0.746307
0.000000 0.786163 0.786163
0.000000 0.822906 0.822906
0.000000 0.856476 0.856476
0.000000 0.886932 0.886932
0.000000 0.914276 0.914276
0.000000 0.938477 0.938477
0.000000 0.959564 0.959564
0.000000 0.977539 0.977539
0.000000 0.992371 0.992371
0.004517 1.000000 1.000000
0.018585 1.000000 1.000000
0.035797 1.000000 1.000000
0.056122 1.000000 1.000000
0.079590 1.000000 1.000000
0.106171 1.000000 1.000000
0.135895 1.000000 1.000000
0.168732 1.000000 1.000000
0.218475 0.995667 0.995667
0.480164 0.907166 0.907166
0.753998 0.753998 0.753998
0.806122 0.737274 0.737274
0.852631 0.720032 0.720032
0.893433 0.702240 0.702240
0.928558 0.683990 0.683990
0.958038 0.665222 0.665222
0.981812 0.645966 0.645966
0.999939 0.626160 0.626160
1.000000 0.671387 0.671387
1.000000 0.714081 0.714081
1.000000 0.753998 0.753998
0.000000 0.741608 0.741608
0.000000 0.781830 0.781830
0.000000 0.818878 0.818878
0.000000 0.852814 0.852814
0.000000 0.883667 0.883667
0.000000 0.911346 0.911346
0.000000 0.935913 0.935913
0.000000 0.957367 0.957367
0.000000 0.975677 0.975677
0.000000 0.990845 0.990845
0.003143 1.000000 1.000000
0.016846 1.000000 1.000000
0.033661 1.000000 1.000000
0.053650 1.000000 1.000000
0.076752 1.000000 1.000000
0.102966 1.000000 1.000000
0.132355 1.000000 1.000000
0.164856 1.000000 1.000000
0.200500 1.000000 1.000000
0.239227 1.000000 1.000000
0.281067 1.000000 1.000000
0.533264 0.930878 0.930878
0.791107 0.791107 0.791107
0.839294 0.775574 0.775574
0.881805 0.759552 0.759552
0.918640 0.742950 0.742950
0.949799 0.725891 0.725891
0.975281 0.708313 0.708313
0.995087 0.690216 0.690216
1.000000 0.714081 0.714081
1.000000 0.753998 0.753998
1.000000 0.791107 0.791107
0.000000 0.777435 0.777435
0.000000 0.814850 0.814850
0.000000 0.849152 0.849152
0.000000 0.880341 0.880341
0.000000 0.908356 0.908356
0.000000 0.933289 0.933289
0.000000 0.955078 0.955078
0.000000 0.973755 0.973755
0.000000 0.989288 0.989288
0.001770 1.000000 1.000000
0.015137 1.000000 1.000000
0.031616 1.000000 1.000000
0.051270 1.000000 1.000000
0.073975 1.000000 1.000000
0.099854 1.000000 1.000000
0.128845 1.000000 1.000000
0.161041 1.000000 1.000000
0.196289 1.000000 1.000000
0.234650 1.000000 1.000000
0.276184 1.000000 1.000000
0.320831 1.000000 1.000000
0.368591 1.000000 1.000000
0.583984 0.951813 0.951813
0.825470 0.825470 0.825470
0.869659 0.811127 0.811127
0.908203 0.796265 0.796265
0.941040 0.780853 0.780853
0.968262 0.764984 0.764984
0.989746 0.748596 0.748596
1.000000 0.753998 0.753998
1.000000 0.791107 0.791107
1.000000 0.825470 0.825470
0.000000 0.810760 0.810760
0.000000 0.845428 0.845428
0.000000 0.876953 0.876953
0.000000 0.905365 0.905365
0.000000 0.930634 0.930634
0.000000 0.952759 0.952759
0.000000 0.971802 0.971802
0.000000 0.987701 0.987701
0.000458 1.000000 1.000000
0.013489 1.000000 1.000000
0.029602 1.000000 1.000000
0.048859 1.000000 1.000000
0.071289 1.000000 1.000000
0.096771 1.000000 1.000000
0.125397 1.000000 1.000000
0.157196 1.000000 1.000000
0.192139 1.000000 1.000000
0.230194 1.000000 1.000000
0.271332 1.000000 1.000000
0.315582 1.000000 1.000000
0.363068 1.000000 1.000000
0.413574 1.000000 1.000000
0.467224 1.000000 1.000000
0.631866 0.970001 0.970001
0.857025 0.857025 0.857025
0.897247 0.843872 0.843872
0.931793 0.830200 0.830200
0.960693 0.816010 0.816010
0.983917 0.801300 0.801300
1.000000 0.791107 0.791107
1.000000 0.825470 0.825470
1.000000 0.857025 0.857025
0.000000 0.841675 0.841675
0.000000 0.873535 0.873535
0.000000 0.902313 0.902313
0.000000 0.927917 0.927917
0.000000 0.950439 0.950439
0.000000 0.969818 0.969818
0.000000 0.986053 0.986053
0.000000 0.999176 0.999176
0.011841 1.000000 1.000000
0.027618 1.000000 1.000000
0.046539 1.000000 1.000000
0.068573 1.000000 1.000000
0.093719 1.000000 1.000000
0.122040 1.000000 1.000000
0.153442 1.000000 1.000000
0.187988 1.000000 1.000000
0.225708 1.000000 1.000000
0.266510 1.000000 1.000000
0.310455 1.000000 1.000000
0.357513 1.000000 1.000000
0.407715 1.000000 1.000000
0.461060 1.000000 1.000000
0.517181 1.000000 1.000000
0.571716 1.000000 1.000000
0.676971 0.985382 0.985382
0.885803 0.885803 0.885803
0.922058 0.873810 0.873810
0.952637 0.861359 0.861359
0.977570 0.848328 0.848328
0.996796 0.834839 0.834839
1.000000 0.857025 0.857025
1.000000 0.885803 0.885803
0.000000 0.870087 0.870087
0.000000 0.899200 0.899200
0.000000 0.925171 0.925171
0.000000 0.948059 0.948059
0.000000 0.967773 0.967773
0.000000 0.984375 0.984375
0.000000 0.997833 0.997833
0.010254 1.000000 1.000000
0.025696 1.000000 1.000000
0.044220 1.000000 1.000000
0.065918 1.000000 1.000000
0.090759 1.000000 1.000000
0.118683 1.000000 1.000000
0.149719 1.000000 1.000000
0.183929 1.000000 1.000000
0.221252 1.000000 1.000000
0.261719 1.000000 1.000000
0.305328 1.000000 1.000000
0.352020 1.000000 1.000000
0.401917 1.000000 1.000000
0.454834 1.000000 1.000000
0.510803 1.000000 1.000000
0.565735 1.000000 1.000000
0.617462 1.000000 1.000000
0.666107 1.000000 1.000000
0.719330 0.997955 0.997955
0.911774 0.911774 0.911774
0.944061 0.901001 0.901001
0.970703 0.889740 0.889740
0.991638 0.877899 0.877899
1.000000 0.885803 0.885803
1.000000 0.911774 0.911774
0.000000 0.896057 0.896057
0.000000 0.922394 0.922394
0.000000 0.945587 0.945587
0.000000 0.965698 0.965698
0.000000 0.982635 0.982635
0.000000 0.996460 0.996460
0.008698 1.000000 1.000000
0.023773 1.000000 1.000000
0.041992 1.000000 1.000000
0.063324 1.000000 1.000000
0.087799 1.000000 1.000000
0.115356 1.000000 1.000000
0.146088 1.000000 1.000000
0.179901 1.000000 1.000000
0.216858 1.000000 1.000000
0.256989 1.000000 1.000000
