EA 50 Cinematic Luts Pack/EA_Cinematic Lut (6).cube
TITLE "Generated by Resolve"
LUT_3D_SIZE 5
0.199695 0.0695048 0.210864
0.258778 0.0942245 0.226322
0.345113 0.110842 0.2392
0.463096 0.118181 0.248524
0.59173 0.130129 0.259937
0.211551 0.211429 0.228168
0.281636 0.245838 0.245045
0.398627 0.283375 0.263493
0.533928 0.322652 0.282872
0.666636 0.367239 0.305119
0.2159 0.45124 0.2374
0.320821 0.504784 0.264759
0.453773 0.552865 0.291478
0.591745 0.600259 0.320027
0.713497 0.650843 0.352407
0.253803 0.735866 0.28452
0.38114 0.783505 0.319341
0.520165 0.824231 0.351141
0.649912 0.862715 0.382589
0.749905 0.903288 0.41648
0.33608 0.982971 0.380591
0.47042 1 0.41239
0.600259 1 0.438514
0.707012 1 0.464714
0.788388 1 0.493797
0.204318 0.0787976 0.269551
0.264134 0.103868 0.286061
0.353216 0.118563 0.299046
0.473442 0.126879 0.312032
0.60444 0.143526 0.332525
0.216281 0.223377 0.294057
0.291035 0.262409 0.320409
0.410956 0.301686 0.348669
0.546777 0.341802 0.377707
0.678828 0.386984 0.409567
0.224186 0.472221 0.335851
0.332586 0.5252 0.371847
0.466758 0.572747 0.405692
0.604059 0.619364 0.439414
0.722622 0.669383 0.475517
0.265187 0.754574 0.406088
0.393881 0.800565 0.444404
0.531975 0.839536 0.478584
0.659678 0.876188 0.512215
0.755749 0.913283 0.546975
0.347524 0.994186 0.512749
0.480522 1 0.543877
0.608255 1 0.569528
0.711513 1 0.595743
0.792355 1 0.624338
0.208423 0.0860609 0.34995
0.268208 0.110033 0.375219
0.360678 0.123079 0.396887
0.48307 0.133196 0.419135
0.616434 0.155398 0.448295
0.219684 0.233204 0.402869
0.299809 0.276982 0.437369
0.421958 0.317479 0.470222
0.558663 0.358663 0.503258
0.689662 0.405035 0.538918
0.231724 0.490806 0.462684
0.343511 0.54345 0.501793
0.478645 0.590707 0.53782
0.614939 0.636988 0.573022
0.730968 0.686381 0.609888
0.276173 0.771954 0.541665
0.405524 0.816007 0.579263
0.543221 0.853223 0.612833
0.66836 0.888121 0.644495
0.760632 0.922057 0.676326
0.35848 1 0.646418
0.490059 1 0.67335
0.615564 1 0.695033
0.716228 1 0.718273
0.796857 1 0.743358
0.21181 0.0907149 0.467842
0.271305 0.113191 0.495705
0.367727 0.126192 0.520592
0.493004 0.139666 0.547112
0.628565 0.167514 0.581353
0.223804 0.244404 0.532113
0.308415 0.291142 0.569345
0.432822 0.333104 0.604089
0.570123 0.375723 0.637827
0.700343 0.423316 0.67364
0.239246 0.509056 0.597406
0.354376 0.561456 0.635889
0.490425 0.608591 0.670253
0.626139 0.654765 0.703639
0.73904 0.703899 0.737774
0.287068 0.789029 0.672312
0.417472 0.831449 0.706493
0.554223 0.867155 0.735653
0.67686 0.899992 0.762203
0.766278 0.931548 0.787106
0.369116 1 0.763287
0.499825 1 0.78204
0.62388 1 0.79675
0.722011 1 0.813458
0.803098 1 0.833371
0.214496 0.0937514 0.597055
0.274632 0.115557 0.625086
0.375082 0.129564 0.650248
0.504005 0.148791 0.679011
0.640925 0.180545 0.713848
0.228412 0.257816 0.662867
0.317479 0.306371 0.699367
0.444038 0.349615 0.731929
0.582193 0.393576 0.763577
0.711177 0.442527 0.795987
0.247807 0.52874 0.722103
0.366094 0.581094 0.75642
0.503059 0.628077 0.785657
0.637568 0.673854 0.812055
0.748089 0.722683 0.839765
0.298955 0.807675 0.780102
0.430304 0.848814 0.806973
0.56672 0.882994 0.829023
0.685954 0.913054 0.848844
0.772671 0.942321 0.868681
0.380499 1 0.849165
0.510597 1 0.863127
0.632975 1 0.875105
0.728847 1 0.891234
0.809689 1 0.910582
