EA 50 Cinematic Luts Pack/EA_Cinematic Lut (49).cube
TITLE "A sharp, futuristic, greenish colorization that will give your footage a digital look straight from outer space."
LUT_3D_SIZE 5
0.0000 0.0000 0.0000
0.1406 0.0000 0.0027
0.3835 0.0000 0.0114
0.6418 0.0000 0.0278
0.8086 0.0000 0.0478
0.0014 0.1704 0.0311
0.1346 0.1821 0.0000
0.4049 0.1915 0.0179
0.6865 0.1901 0.0000
0.8512 0.2152 0.0699
0.0000 0.3519 0.0838
0.1379 0.3698 0.0000
0.3956 0.4034 0.0000
0.6789 0.4392 0.0000
0.8950 0.4470 0.1106
0.0000 0.5563 0.1410
0.1240 0.5803 0.0000
0.4152 0.6295 0.0000
0.6995 0.6815 0.0000
0.8574 0.7199 0.0000
0.0000 0.7820 0.2081
0.1360 0.8150 0.1214
0.4569 0.8847 0.1194
0.7653 0.9491 0.2453
0.9149 0.9811 0.6099
0.0016 0.0051 0.0699
0.1374 0.0000 0.1561
0.3860 0.0000 0.1537
0.6437 0.0000 0.1607
0.8100 0.0000 0.1648
0.0000 0.1715 0.1566
0.1103 0.1874 0.1478
0.4336 0.1676 0.1539
0.7005 0.0463 0.1024
0.8515 0.2165 0.1787
0.0000 0.3496 0.2353
0.1040 0.3697 0.1679
0.3739 0.4080 0.1021
0.7412 0.4164 0.1360
0.8951 0.4469 0.2131
0.0000 0.5549 0.2806
0.0528 0.5729 0.1821
0.3598 0.6301 0.0000
0.6823 0.6853 0.0000
0.8749 0.7175 0.0000
0.0000 0.7805 0.3474
0.1202 0.8118 0.2476
0.4588 0.8851 0.2079
0.7690 0.9499 0.3193
0.9173 0.9816 0.6465
0.0067 0.0576 0.1532
0.0714 0.0483 0.4011
0.3790 0.0018 0.4464
0.6482 0.0000 0.4235
0.8106 0.0030 0.4264
0.0000 0.1919 0.2403
0.0985 0.2050 0.2825
0.3886 0.2042 0.4246
0.6967 0.0005 0.4587
0.8526 0.2220 0.4373
0.0000 0.3535 0.4470
0.0000 0.3654 0.4574
0.3248 0.4088 0.4377
0.7513 0.4046 0.4604
0.8957 0.4484 0.4770
0.0000 0.5533 0.5571
0.0000 0.5618 0.5454
0.3189 0.6241 0.4533
0.6430 0.6873 0.3359
0.9457 0.7120 0.3533
0.0000 0.7754 0.6542
0.0176 0.7903 0.6005
0.4531 0.8839 0.5126
0.7796 0.9519 0.5335
0.9262 0.9835 0.7520
0.0161 0.1465 0.2750
0.0499 0.1615 0.4257
0.3096 0.1308 0.6653
0.6451 0.0000 0.7505
0.8122 0.0119 0.7226
0.0000 0.2236 0.4020
0.0829 0.2374 0.4404
0.3169 0.2365 0.7007
0.6769 0.2043 0.7478
0.8533 0.2275 0.7215
0.0000 0.3694 0.5772
0.0000 0.3799 0.5991
0.3151 0.4208 0.6312
0.6831 0.4395 0.7409
0.8960 0.4521 0.7392
0.0000 0.5584 0.7386
0.0000 0.5658 0.7438
0.1847 0.6119 0.7427
0.5791 0.6830 0.7547
0.9444 0.7064 0.7861
0.0000 0.7788 0.8177
0.0350 0.7940 0.8127
0.4161 0.8757 0.8228
0.7853 0.9533 0.8037
0.9456 0.9879 0.8850
0.0258 0.2163 0.4599
0.0502 0.2267 0.5462
0.1602 0.1999 0.9121
0.5999 0.1536 0.9031
0.8108 0.0041 0.9237
0.0000 0.2652 0.5525
0.0223 0.2741 0.6284
0.1420 0.2632 0.9203
0.6258 0.2515 0.9159
0.8518 0.2191 0.9231
0.0000 0.3975 0.6832
0.0000 0.4047 0.7265
0.0000 0.4122 0.8911
0.6465 0.4468 0.9241
0.8953 0.4486 0.9379
0.0000 0.5726 0.8375
0.0000 0.5788 0.8469
0.0000 0.5977 0.8773
0.6011 0.6815 0.9347
0.9445 0.7067 0.9602
0.0514 0.7975 0.9106
0.1943 0.8277 0.9113
0.4827 0.8902 0.9327
0.7974 0.9561 0.9659
0.9998 0.9999 0.9878
