EA 50 Cinematic Luts Pack/EA_Cinematic Lut (38).cube
TITLE "A subdued, frigid grade that will add some dramatic quality to your video."
LUT_3D_SIZE 9
0.0186 0.0087 0.0228
0.0990 0.0095 0.0273
0.1666 0.0285 0.0559
0.2564 0.0644 0.0906
0.3662 0.1188 0.1260
0.4784 0.1935 0.1637
0.5711 0.2719 0.2066
0.6558 0.3351 0.2567
0.7397 0.3929 0.3095
0.0418 0.0660 0.0439
0.0909 0.0749 0.0542
0.1457 0.1022 0.0977
0.2339 0.1428 0.1241
0.3674 0.1825 0.1461
0.4862 0.2415 0.1783
0.5778 0.3034 0.2191
0.6630 0.3558 0.2670
0.7462 0.4095 0.3179
0.0941 0.2245 0.0946
0.1209 0.2344 0.0881
0.1791 0.2505 0.1125
0.2329 0.2842 0.1644
0.3204 0.3211 0.2039
0.4328 0.3584 0.2427
0.5526 0.3896 0.2745
0.6574 0.4196 0.3067
0.7506 0.4560 0.3466
0.1482 0.3761 0.1477
0.1559 0.3836 0.1333
0.2139 0.3898 0.1434
0.2826 0.4038 0.1761
0.3463 0.4288 0.2446
0.4261 0.4599 0.3017
0.5233 0.4878 0.3467
0.6047 0.5165 0.3901
0.7037 0.5374 0.4230
0.2064 0.4993 0.2095
0.2124 0.5034 0.1970
0.2520 0.5086 0.1927
0.3288 0.5148 0.2091
0.4086 0.5252 0.2556
0.4723 0.5405 0.3350
0.5359 0.5592 0.3971
0.6031 0.5798 0.4500
0.6801 0.6003 0.4930
0.2726 0.5855 0.2846
0.2782 0.5878 0.2734
0.2973 0.5929 0.2537
0.3744 0.5962 0.2675
0.4564 0.6023 0.2909
0.5258 0.6110 0.3441
0.5752 0.6247 0.4255
0.6286 0.6411 0.4919
0.6813 0.6616 0.5441
0.3496 0.6638 0.3627
0.3544 0.6657 0.3535
0.3655 0.6702 0.3332
0.4230 0.6738 0.3330
0.4984 0.6777 0.3490
0.5622 0.6842 0.3762
0.6200 0.6935 0.4329
0.6678 0.7064 0.5130
0.7178 0.7223 0.5892
0.4287 0.7420 0.4405
0.4327 0.7436 0.4330
0.4418 0.7474 0.4159
0.4704 0.7525 0.3990
0.5360 0.7551 0.4126
0.5967 0.7602 0.4315
0.6561 0.7679 0.4640
0.7306 0.7710 0.5890
0.7861 0.7805 0.7054
0.6293 0.8036 0.6245
0.6352 0.8042 0.6259
0.6494 0.8060 0.6302
0.6723 0.8095 0.6404
0.7094 0.8129 0.6649
0.7515 0.8192 0.6990
0.7964 0.8302 0.7441
0.8550 0.8486 0.8011
0.9283 0.8775 0.8802
0.0263 0.0109 0.0614
0.0736 0.0184 0.0756
0.1242 0.0499 0.0917
0.2233 0.0866 0.1214
0.3616 0.1253 0.1469
0.4806 0.1941 0.1800
0.5724 0.2723 0.2216
0.6569 0.3355 0.2703
0.7407 0.3933 0.3210
0.0171 0.0715 0.0909
0.0883 0.0782 0.0945
0.2032 0.0788 0.0993
0.2914 0.1111 0.1203
0.3961 0.1653 0.1485
0.4996 0.2326 0.1829
0.5854 0.2988 0.2242
0.6677 0.3536 0.2726
0.7550 0.4034 0.3192
0.0880 0.2286 0.1192
0.1224 0.2334 0.1330
0.1874 0.2488 0.1357
0.2641 0.2740 0.1730
0.3744 0.3045 0.1992
0.5032 0.3292 0.2231
0.5917 0.3664 0.2607
0.6753 0.4086 0.3031
0.7627 0.4485 0.3446
0.1447 0.3780 0.1643
0.1678 0.3804 0.1752
0.2090 0.3920 0.1611
0.2848 0.4042 0.1937
0.3689 0.4246 0.2519
0.4520 0.4541 0.3059
0.5458 0.4812 0.3444
0.6345 0.5069 0.3807
0.7223 0.5318 0.4174
0.2038 0.5004 0.2238
0.2216 0.5017 0.2339
0.2429 0.5104 0.2064
0.3252 0.5158 0.2245
0.4104 0.5254 0.2708
0.4808 0.5395 0.3426
0.5448 0.5580 0.3994
0.6168 0.5771 0.4507
0.6863 0.5992 0.4942
0.2702 0.5861 0.2967
0.2865 0.5868 0.3051
0.3019 0.5925 0.2781
0.3709 0.5969 0.2810
0.4555 0.6027 0.3044
0.5270 0.6111 0.3558
0.5808 0.6240 0.4320
0.6359 0.6400 0.4947
0.6849 0.6612 0.5471
0.3474 0.6643 0.3725
0.3614 0.6649 0.3792
0.3743 0.6694 0.3571
0.4170 0.6747 0.3427
0.4965 0.6782 0.3598
0.5619 0.6845 0.3869
0.6209 0.6936 0.4420
0.6724 0.7057 0.5184
0.7207 0.7221 0.5920
0.4269 0.7424 0.4487
0.4383 0.7429 0.4540
0.4485 0.7467 0.4358
0.4650 0.7533 0.4069
0.5341 0.7556 0.4215
0.5953 0.7607 0.4400
0.6590 0.7671 0.4817
0.7326 0.7706 0.5988
0.7869 0.7807 0.7071
0.6290 0.8040 0.6286
0.6349 0.8047 0.6301
0.6495 0.8064 0.6338
0.6725 0.8100 0.6435
0.7090 0.8137 0.6666
0.7516 0.8199 0.7005
0.7968 0.8309 0.7453
0.8559 0.8493 0.8021
0.9293 0.8782 0.8818
0.0429 0.0209 0.0861
0.0779 0.0275 0.1129
0.1351 0.0561 0.1364
0.1851 0.1208 0.1575
0.2741 0.1964 0.1907
0.4042 0.2623 0.2314
0.5381 0.3098 0.2704
0.6485 0.3463 0.3073
0.7431 0.3937 0.3491
0.0682 0.0744 0.1326
0.1016 0.0847 0.1378
0.1914 0.0905 0.1653
0.2595 0.1392 0.1776
0.3713 0.1908 0.2002
0.5031 0.2346 0.2262
0.5888 0.2993 0.2636
0.6703 0.3542 0.3062
0.7571 0.4039 0.3490
0.0503 0.2406 0.1780
0.0966 0.2472 0.1785
0.1745 0.2592 0.1855
0.3199 0.2564 0.1871
0.4481 0.2740 0.2036
0.5383 0.3125 0.2324
0.6161 0.3530 0.2697
0.6942 0.3980 0.3115
0.7921 0.4284 0.3430
0.1319 0.3829 0.2092
0.1555 0.3859 0.2146
0.2090 0.3909 0.2465
0.3057 0.4018 0.2325
0.4249 0.4120 0.2733
0.5285 0.4307 0.2984
0.6147 0.4540 0.3284
0.6970 0.4814 0.3625
0.7820 0.5077 0.3955
0.1966 0.5029 0.2618
0.2136 0.5044 0.2689
0.2587 0.5074 0.2908
0.3163 0.5184 0.2628
0.4255 0.5242 0.3067
0.5135 0.5349 0.3548
0.5763 0.5518 0.4139
0.6606 0.5674 0.4459
0.7045 0.5959 0.4968
0.2644 0.5875 0.3260
0.2799 0.5884 0.3326
0.3202 0.5903 0.3512
0.3526 0.5993 0.3169
0.4507 0.6042 0.3350
0.5292 0.6115 0.3840
0.5946 0.6223 0.4470
0.6535 0.6373 0.5030
0.6974 0.6596 0.5530
0.3425 0.6655 0.3957
0.3561 0.6661 0.4014
0.3903 0.6675 0.4172
0.4148 0.6750 0.3855
0.4900 0.6798 0.3850
0.5599 0.6855 0.4122
0.6226 0.6938 0.4647
0.6838 0.7042 0.5311
0.7263 0.7219 0.5992
0.4230 0.7434 0.4673
0.4341 0.7438 0.4722
0.4613 0.7449 0.4851
0.4792 0.7515 0.4578
0.5260 0.7573 0.4414
0.5914 0.7619 0.4607
0.6659 0.7653 0.5205
0.7372 0.7698 0.6215
0.7891 0.7813 0.7114
0.6291 0.8052 0.6380
0.6347 0.8059 0.6398
0.6488 0.8077 0.6440
0.6730 0.8112 0.6517
0.7078 0.8159 0.6710
0.7517 0.8219 0.7045
0.7977 0.8327 0.7485
0.8581 0.8511 0.8048
0.9321 0.8799 0.8860
0.0654 0.0395 0.1201
0.0888 0.0483 0.1529
0.1478 0.0714 0.1863
0.2072 0.1267 0.2134
0.2536 0.2269 0.2341
0.3444 0.3049 0.2779
0.4660 0.3592 0.3234
0.5728 0.4081 0.3707
0.6798 0.4481 0.4124
0.0934 0.0922 0.1682
0.1158 0.1025 0.1812
0.1707 0.1221 0.2183
0.2466 0.1652 0.2374
0.3067 0.2473 0.2585
0.3985 0.3149 0.2920
0.5141 0.3610 0.3319
0.6155 0.4028 0.3722
0.7060 0.4491 0.4134
0.1136 0.2407 0.2332
0.1296 0.2514 0.2344
0.1926 0.2657 0.2344
0.3116 0.2671 0.2754
0.4557 0.2735 0.2957
0.5422 0.3139 0.3107
0.6215 0.3528 0.3362
0.6986 0.3984 0.3683
0.7821 0.4399 0.4039
0.0857 0.3928 0.2917
0.1185 0.3960 0.2924
0.1853 0.4023 0.2969
0.2750 0.4131 0.3060
0.4549 0.4093 0.3040
0.5724 0.4144 0.3186
0.6564 0.4354 0.3431
0.7317 0.4661 0.3752
0.8714 0.4689 0.3838
0.1757 0.5076 0.3274
0.1939 0.5093 0.3302
0.2376 0.5131 0.3400
0.3167 0.5173 0.3781
0.4365 0.5248 0.3560
0.5504 0.5288 0.3869
0.6352 0.5391 0.4135
0.7226 0.5513 0.4412
0.7797 0.5761 0.4778
0.2509 0.5902 0.3778
0.2666 0.5911 0.3815
0.3062 0.5934 0.3921
0.3746 0.5960 0.4301
0.4377 0.6066 0.3961
0.5484 0.6093 0.4298
0.6350 0.6153 0.4704
0.6997 0.6280 0.5205
0.7266 0.6551 0.5580
0.3324 0.6675 0.4371
0.3456 0.6682 0.4414
0.3787 0.6699 0.4531
0.4361 0.6722 0.4754
0.4769 0.6820 0.4403
0.5578 0.6869 0.4536
0.6360 0.6921 0.5013
0.7031 0.7017 0.5509
0.7346 0.7219 0.6122
0.4153 0.7448 0.5000
0.4262 0.7453 0.5039
0.4530 0.7466 0.5143
0.4963 0.7483 0.5347
0.5233 0.7573 0.5042
0.5977 0.7608 0.5126
0.6764 0.7633 0.5739
0.7444 0.7689 0.6554
0.7930 0.7823 0.7191
0.6290 0.8073 0.6550
0.6347 0.8080 0.6566
0.6487 0.8100 0.6607
0.6727 0.8137 0.6681
0.7063 0.8197 0.6804
0.7519 0.8254 0.7119
0.7992 0.8361 0.7544
0.8620 0.8543 0.8096
0.9370 0.8830 0.8937
0.0937 0.0715 0.1650
0.1099 0.0809 0.1906
0.1558 0.1037 0.2342
0.2234 0.1480 0.2787
0.2915 0.2275 0.3087
0.3418 0.3215 0.3280
0.4339 0.3841 0.3724
0.5278 0.4421 0.4159
0.6203 0.4879 0.4632
0.1169 0.1238 0.2086
0.1331 0.1351 0.2217
0.1742 0.1547 0.2743
0.2422 0.1957 0.3049
0.3262 0.2567 0.3277
0.3830 0.3341 0.3486
0.4652 0.3956 0.3848
0.5557 0.4473 0.4251
0.6364 0.4945 0.4707
0.1481 0.2553 0.2849
0.1645 0.2623 0.2931
0.2021 0.2807 0.3043
0.2823 0.2961 0.3473
0.4237 0.3046 0.3768
0.4890 0.3557 0.3910
0.5522 0.4093 0.4129
0.6379 0.4486 0.4433
0.6795 0.5079 0.4869
0.1558 0.3920 0.3570
0.1709 0.3962 0.3597
0.2010 0.4081 0.3620
0.3061 0.4156 0.3591
0.4472 0.4170 0.3971
0.5718 0.4182 0.4184
0.6518 0.4423 0.4321
0.7357 0.4669 0.4544
0.7840 0.5128 0.4917
0.1221 0.5153 0.4158
0.1471 0.5169 0.4163
0.1999 0.5207 0.4174
0.2918 0.5252 0.4260
0.3981 0.5331 0.4346
0.5675 0.5288 0.4280
0.6709 0.5323 0.4424
0.7720 0.5369 0.4596
0.8854 0.5494 0.4826
0.2204 0.5945 0.4506
0.2359 0.5956 0.4527
0.2756 0.5981 0.4580
0.3456 0.6016 0.4759
0.4407 0.6055 0.5063
0.5378 0.6136 0.4820
0.6563 0.6134 0.4988
0.7401 0.6212 0.5278
0.7722 0.6462 0.5732
0.3112 0.6704 0.4962
0.3252 0.6711 0.4987
0.3598 0.6729 0.5051
0.4177 0.6758 0.5179
0.4901 0.6781 0.5657
0.5505 0.6879 0.5349
0.6506 0.6907 0.5477
0.7402 0.6959 0.5768
0.7486 0.7214 0.6304
0.4010 0.7470 0.5485
0.4125 0.7477 0.5509
0.4402 0.7492 0.5577
0.4839 0.7516 0.5722
0.5402 0.7536 0.6080
0.6102 0.7582 0.5996
0.6886 0.7618 0.6296
0.7623 0.7664 0.6934
0.7992 0.7837 0.7313
0.6282 0.8108 0.6806
0.6340 0.8116 0.6820
0.6483 0.8136 0.6855
0.6725 0.8175 0.6921
0.7065 0.8239 0.7025
0.7498 0.8321 0.7227
0.8007 0.8416 0.7634
0.8678 0.8592 0.8168
0.9443 0.8876 0.9055
0.1222 0.1157 0.2163
0.1346 0.1263 0.2386
0.1685 0.1489 0.2920
0.2310 0.1904 0.3346
0.3134 0.2477 0.3787
0.3902 0.3198 0.4078
0.4377 0.3988 0.4251
0.5165 0.4592 0.4656
0.5860 0.5101 0.5093
0.1416 0.1680 0.2579
0.1543 0.1789 0.2703
0.1852 0.1980 0.3229
0.2492 0.2320 0.3615
0.3320 0.2814 0.3967
0.4187 0.3361 0.4228
0.4680 0.4091 0.4404
0.5385 0.4663 0.4783
0.5977 0.5175 0.5179
0.1744 0.2805 0.3325
0.1872 0.2870 0.3410
0.2197 0.3013 0.3612
0.2822 0.3153 0.4217
0.3697 0.3452 0.4353
0.4793 0.3752 0.4570
0.5400 0.4268 0.4830
0.5884 0.4835 0.5020
0.6285 0.5333 0.5376
0.2027 0.3981 0.4134
0.2120 0.4031 0.4144
0.2386 0.4143 0.4186
0.3143 0.4266 0.4243
0.4181 0.4357 0.4758
0.5554 0.4348 0.5046
0.6648 0.4370 0.5330
0.7102 0.4870 0.5400
0.6884 0.5556 0.5668
0.1955 0.5146 0.4809
0.2082 0.5167 0.4828
0.2397 0.5217 0.4872
0.3059 0.5291 0.4881
0.4380 0.5333 0.4857
0.5627 0.5328 0.5180
0.6720 0.5336 0.5387
0.7575 0.5448 0.5512
0.7903 0.5773 0.5934
0.1599 0.6004 0.5376
0.1800 0.6014 0.5380
0.2256 0.6039 0.5389
0.3040 0.6079 0.5416
0.4196 0.6119 0.5530
0.5152 0.6194 0.5602
0.6646 0.6147 0.5516
0.7856 0.6119 0.5609
0.9052 0.6208 0.5872
0.2691 0.6748 0.5705
0.2836 0.6756 0.5720
0.3198 0.6776 0.5758
0.3806 0.6810 0.5832
0.4615 0.6848 0.6069
0.5484 0.6886 0.6297
0.6282 0.6966 0.6220
0.7597 0.6941 0.6203
0.7871 0.7151 0.6702
0.3734 0.7508 0.6129
0.3853 0.7515 0.6147
0.4146 0.7531 0.6193
0.4624 0.7559 0.6280
0.5234 0.7588 0.6457
0.6043 0.7595 0.6850
0.6921 0.7632 0.6830
0.7736 0.7671 0.7211
0.8090 0.7852 0.7494
0.6244 0.8166 0.7151
0.6305 0.8174 0.7163
0.6456 0.8195 0.7195
0.6710 0.8234 0.7252
0.7061 0.8298 0.7339
0.7488 0.8395 0.7470
0.8014 0.8500 0.7767
0.8754 0.8662 0.8269
0.9542 0.8939 0.9220
0.1514 0.1740 0.2764
0.1614 0.1838 0.2947
0.1877 0.2045 0.3443
0.2427 0.2396 0.3895
0.3251 0.2838 0.4372
0.4147 0.3332 0.4791
0.4867 0.3952 0.5057
0.5245 0.4700 0.5207
0.5823 0.5216 0.5548
0.1680 0.2200 0.3119
0.1785 0.2296 0.3226
0.2038 0.2475 0.3655
0.2578 0.2744 0.4166
0.3421 0.3101 0.4574
0.4295 0.3534 0.4925
0.5065 0.4077 0.5172
0.5440 0.4772 0.5321
0.5927 0.5283 0.5649
0.2001 0.3102 0.3808
0.2106 0.3154 0.3888
0.2380 0.3275 0.4083
0.2884 0.3402 0.4747
0.3772 0.3645 0.4991
0.4606 0.4013 0.5227
0.5469 0.4384 0.5442
0.5937 0.4917 0.5649
0.6183 0.5441 0.5897
0.2363 0.4121 0.4635
0.2481 0.4154 0.4689
0.2790 0.4233 0.4822
0.3281 0.4389 0.4948
0.4172 0.4471 0.5588
0.5041 0.4717 0.5602
0.6297 0.4708 0.5986
0.6801 0.5096 0.6177
0.6617 0.5697 0.6307
0.2584 0.5164 0.5378
0.2672 0.5188 0.5386
0.2894 0.5248 0.5402
0.3290 0.5344 0.5418
0.4435 0.5399 0.5426
0.5446 0.5426 0.5992
0.6613 0.5416 0.6271
0.7787 0.5380 0.6570
0.7194 0.6038 0.6757
0.2359 0.6002 0.6019
0.2478 0.6015 0.6034
0.2780 0.6047 0.6070
0.3329 0.6100 0.6121
0.4289 0.6161 0.6111
0.5471 0.6193 0.6114
0.6604 0.6188 0.6378
0.7832 0.6141 0.6653
0.7873 0.6479 0.6953
0.1995 0.6813 0.6584
0.2165 0.6821 0.6587
0.2581 0.6841 0.6594
0.3288 0.6875 0.6605
0.4300 0.6914 0.6665
0.5333 0.6951 0.6774
0.6086 0.7034 0.6841
0.7898 0.6902 0.6756
0.9314 0.6942 0.6970
0.3232 0.7563 0.6886
0.3362 0.7569 0.6899
0.3684 0.7586 0.6930
0.4212 0.7616 0.6985
0.4888 0.7655 0.7099
0.5743 0.7680 0.7274
0.6786 0.7682 0.7481
0.7804 0.7702 0.7488
0.8326 0.7856 0.7754
0.6141 0.8263 0.7587
0.6206 0.8271 0.7597
0.6368 0.8292 0.7625
0.6640 0.8330 0.7677
0.7019 0.8391 0.7751
0.7478 0.8482 0.7857
0.7993 0.8616 0.8008
0.8832 0.8759 0.8420
0.9669 0.9019 0.9435
0.1816 0.2367 0.3380
0.1902 0.2448 0.3532
0.2123 0.2625 0.3931
0.2585 0.2882 0.4484
0.3361 0.3214 0.4905
0.4288 0.3583 0.5371
0.5087 0.4073 0.5761
0.5661 0.4661 0.6020
0.5974 0.5275 0.6160
0.1961 0.2732 0.3683
0.2052 0.2807 0.3775
0.2270 0.2952 0.4135
0.2722 0.3141 0.4736
0.3516 0.3419 0.5095
0.4417 0.3768 0.5522
0.5187 0.4230 0.5868
0.5799 0.4752 0.6116
0.6063 0.5340 0.6267
0.2269 0.3407 0.4309
0.2362 0.3454 0.4383
0.2609 0.3569 0.4564
0.3043 0.3705 0.5117
0.3827 0.3909 0.5533
0.4697 0.4205 0.5861
0.5407 0.4596 0.6110
0.6116 0.4968 0.6345
0.6281 0.5500 0.6529
0.2681 0.4312 0.5100
0.2784 0.4344 0.5153
0.3050 0.4421 0.5282
0.3528 0.4546 0.5499
0.4199 0.4643 0.6225
0.5091 0.4844 0.6294
0.5735 0.5107 0.6461
0.6639 0.5276 0.6719
0.6642 0.5762 0.6953
0.3061 0.5232 0.5898
0.3137 0.5256 0.5905
0.3351 0.5308 0.5939
0.3811 0.5378 0.6053
0.4560 0.5469 0.6124
0.5391 0.5500 0.6886
0.6205 0.5628 0.6856
0.7407 0.5607 0.7247
0.7105 0.6118 0.7449
0.3185 0.6008 0.6607
0.3268 0.6023 0.6615
0.3475 0.6062 0.6633
0.3829 0.6129 0.6657
0.4417 0.6217 0.6662
0.5533 0.6234 0.6870
0.6535 0.6233 0.7389
0.7734 0.6204 0.7584
0.7518 0.6619 0.7698
0.2854 0.6809 0.7235
0.2965 0.6819 0.7246
0.3244 0.6843 0.7274
0.3718 0.6886 0.7322
0.4494 0.6940 0.7345
0.5236 0.7007 0.7468
0.6598 0.6979 0.7532
0.7798 0.6951 0.7708
0.8120 0.7156 0.8034
0.2418 0.7631 0.7785
0.2575 0.7637 0.7787
0.2968 0.7654 0.7794
0.3618 0.7684 0.7804
0.4455 0.7728 0.7817
0.5407 0.7764 0.7915
0.6558 0.7767 0.8008
0.7659 0.7775 0.8065
0.9636 0.7721 0.8125
0.5919 0.8423 0.8121
0.5990 0.8431 0.8131
0.6166 0.8452 0.8156
0.6461 0.8489 0.8200
0.6871 0.8547 0.8267
0.7380 0.8628 0.8358
0.7958 0.8741 0.8506
0.8830 0.8901 0.8750
0.9822 0.9116 0.9698
0.2133 0.2948 0.4003
0.2208 0.3008 0.4133
0.2407 0.3135 0.4465
0.2799 0.3301 0.5068
0.3515 0.3576 0.5447
0.4382 0.3909 0.5909
0.5221 0.4297 0.6355
0.5857 0.4762 0.6727
0.6393 0.5242 0.6981
0.2265 0.3201 0.4267
0.2339 0.3247 0.4391
0.2542 0.3354 0.4703
0.2936 0.3503 0.5281
0.3656 0.3745 0.5700
0.4525 0.4052 0.6123
0.5336 0.4410 0.6536
0.5960 0.4848 0.6878
0.6485 0.5303 0.7102
0.2568 0.3744 0.4822
0.2642 0.3781 0.4933
0.2843 0.3865 0.5222
0.3244 0.3983 0.5755
0.3956 0.4142 0.6302
0.4836 0.4385 0.6633
0.5600 0.4675 0.6984
0.6210 0.5047 0.7252
0.6710 0.5448 0.7401
0.3005 0.4538 0.5566
0.3076 0.4565 0.5661
0.3266 0.4626 0.5914
0.3648 0.4702 0.6406
0.4305 0.4748 0.7236
0.5242 0.4880 0.7468
0.6003 0.5062 0.7731
0.6617 0.5334 0.7883
0.7060 0.5699 0.7848
0.3460 0.5333 0.6374
0.3524 0.5348 0.6450
0.3694 0.5382 0.6654
0.4027 0.5431 0.7057
0.4615 0.5458 0.7809
0.5545 0.5483 0.8235
0.6363 0.5598 0.8242
0.6960 0.5813 0.8185
0.7341 0.6131 0.8026
0.3790 0.6049 0.7149
0.3848 0.6060 0.7210
0.3998 0.6089 0.7373
0.4280 0.6132 0.7686
0.4749 0.6172 0.8246
0.5802 0.6180 0.8384
0.6681 0.6233 0.8458
0.7328 0.6376 0.8426
0.7698 0.6640 0.8264
0.3807 0.6808 0.7836
0.3856 0.6818 0.7881
0.3986 0.6844 0.8000
0.4203 0.6889 0.8215
0.4966 0.6914 0.8457
0.5989 0.6916 0.8560
0.6951 0.6927 0.8764
0.7730 0.6999 0.8837
0.8154 0.7212 0.8638
0.3383 0.7624 0.8494
0.3410 0.7636 0.8535
0.3480 0.7665 0.8645
0.3727 0.7710 0.8843
0.4914 0.7718 0.8905
0.6043 0.7708 0.8974
0.7090 0.7706 0.9087
0.8079 0.7713 0.9327
0.8961 0.7853 0.9250
0.5463 0.8667 0.9093
0.5545 0.8675 0.9106
0.5746 0.8696 0.9140
0.6080 0.8734 0.9200
0.6537 0.8791 0.9292
0.7098 0.8869 0.9417
0.7732 0.8969 0.9579
0.8607 0.9090 0.9774
0.9999 0.9229 0.9999
