EA 50 Cinematic Luts Pack/EA_Cinematic Lut (36).cube
TITLE "Distinct color contrast and sharpness of shadows and highlights will create an image full of drama and tension."
LUT_3D_SIZE 25
0.0000 0.0000 0.0000
0.0154 0.0007 0.0007
0.0360 0.0017 0.0017
0.0631 0.0032 0.0037
0.0986 0.0058 0.0071
0.1581 0.0098 0.0117
0.2278 0.0136 0.0159
0.2978 0.0174 0.0203
0.3647 0.0211 0.0246
0.4277 0.0247 0.0290
0.4859 0.0283 0.0334
0.5402 0.0319 0.0377
0.5940 0.0355 0.0421
0.6453 0.0390 0.0464
0.6946 0.0423 0.0506
0.7418 0.0457 0.0554
0.7872 0.0491 0.0607
0.8311 0.0523 0.0663
0.8735 0.0556 0.0725
0.9146 0.0589 0.0789
0.9532 0.0620 0.0853
0.9807 0.0650 0.0917
0.9943 0.0680 0.0982
0.9993 0.0710 0.1047
0.9997 0.0911 0.1245
0.0000 0.0219 0.0000
0.0184 0.0219 0.0002
0.0413 0.0220 0.0007
0.0721 0.0228 0.0028
0.1172 0.0238 0.0051
0.1791 0.0235 0.0074
0.2553 0.0228 0.0097
0.3302 0.0219 0.0123
0.3950 0.0236 0.0168
0.4525 0.0269 0.0222
0.5060 0.0303 0.0274
0.5580 0.0336 0.0324
0.6093 0.0370 0.0373
0.6585 0.0403 0.0421
0.7062 0.0436 0.0467
0.7519 0.0469 0.0513
0.7962 0.0501 0.0565
0.8391 0.0533 0.0622
0.8808 0.0564 0.0682
0.9210 0.0597 0.0748
0.9585 0.0627 0.0813
0.9833 0.0657 0.0880
0.9954 0.0686 0.0946
0.9996 0.0716 0.1013
0.9997 0.0945 0.1238
0.0000 0.0442 0.0001
0.0188 0.0449 0.0008
0.0445 0.0455 0.0005
0.0761 0.0456 0.0008
0.1147 0.0450 0.0046
0.1705 0.0442 0.0082
0.2441 0.0432 0.0108
0.3184 0.0420 0.0136
0.3894 0.0416 0.0161
0.4560 0.0416 0.0186
0.5171 0.0414 0.0213
0.5769 0.0409 0.0240
0.6349 0.0398 0.0269
0.6804 0.0427 0.0333
0.7239 0.0455 0.0395
0.7656 0.0483 0.0457
0.8084 0.0514 0.0508
0.8501 0.0545 0.0563
0.8905 0.0577 0.0626
0.9297 0.0607 0.0691
0.9650 0.0637 0.0759
0.9865 0.0666 0.0827
0.9966 0.0695 0.0896
0.9997 0.0746 0.0984
0.9997 0.0993 0.1228
0.0000 0.0694 0.0002
0.0186 0.0691 0.0005
0.0419 0.0686 0.0021
0.0727 0.0677 0.0008
0.1107 0.0668 0.0007
0.1624 0.0662 0.0046
0.2307 0.0661 0.0096
0.3015 0.0664 0.0139
0.3709 0.0667 0.0170
0.4371 0.0669 0.0198
0.4991 0.0668 0.0228
0.5586 0.0663 0.0256
0.6174 0.0652 0.0282
0.6742 0.0632 0.0307
0.7292 0.0605 0.0331
0.7824 0.0567 0.0357
0.8297 0.0540 0.0402
0.8661 0.0565 0.0479
0.9052 0.0594 0.0536
0.9426 0.0623 0.0601
0.9735 0.0651 0.0670
0.9906 0.0679 0.0741
0.9981 0.0707 0.0813
0.9997 0.0814 0.0960
0.9997 0.1067 0.1215
0.0001 0.0948 0.0003
0.0171 0.0944 0.0004
0.0390 0.0928 0.0014
0.0673 0.0908 0.0040
0.1039 0.0894 0.0011
0.1540 0.0889 0.0004
0.2184 0.0893 0.0047
0.2869 0.0902 0.0102
0.3540 0.0914 0.0147
0.4189 0.0927 0.0186
0.4801 0.0935 0.0230
0.5384 0.0936 0.0261
0.5968 0.0928 0.0291
0.6537 0.0910 0.0321
0.7094 0.0880 0.0349
0.7638 0.0839 0.0372
0.8168 0.0789 0.0395
0.8683 0.0731 0.0419
0.9176 0.0668 0.0445
0.9590 0.0646 0.0485
0.9825 0.0672 0.0549
0.9946 0.0698 0.0621
0.9993 0.0726 0.0697
0.9997 0.0911 0.0928
0.9997 0.1176 0.1197
0.0001 0.1250 0.0004
0.0157 0.1229 0.0003
0.0365 0.1205 0.0009
0.0628 0.1180 0.0036
0.0959 0.1158 0.0062
0.1436 0.1150 0.0012
0.2067 0.1155 0.0003
0.2747 0.1171 0.0038
0.3403 0.1196 0.0092
0.4030 0.1224 0.0158
0.4637 0.1250 0.0200
0.5206 0.1268 0.0237
0.5767 0.1276 0.0289
0.6331 0.1268 0.0322
0.6887 0.1242 0.0352
0.7432 0.1201 0.0383
0.7966 0.1144 0.0413
0.8486 0.1073 0.0438
0.8986 0.0990 0.0459
0.9465 0.0899 0.0480
0.9820 0.0807 0.0502
0.9960 0.0788 0.0531
0.9996 0.0810 0.0603
0.9997 0.1043 0.0890
0.9997 0.1325 0.1176
0.0002 0.1604 0.0006
0.0145 0.1577 0.0002
0.0339 0.1545 0.0007
0.0593 0.1510 0.0022
0.0895 0.1478 0.0064
0.1327 0.1458 0.0069
0.1930 0.1459 0.0013
0.2624 0.1477 0.0001
0.3281 0.1509 0.0030
0.3899 0.1554 0.0098
0.4498 0.1602 0.0144
0.5051 0.1647 0.0211
0.5603 0.1681 0.0252
0.6155 0.1701 0.0290
0.6694 0.1701 0.0340
0.7230 0.1677 0.0382
0.7755 0.1625 0.0414
0.8267 0.1548 0.0443
0.8764 0.1450 0.0472
0.9247 0.1335 0.0500
0.9692 0.1208 0.0521
0.9924 0.1077 0.0543
0.9994 0.0998 0.0569
0.9996 0.1225 0.0848
0.9997 0.1527 0.1156
0.0001 0.2027 0.0006
0.0132 0.1996 0.0002
0.0317 0.1959 0.0006
0.0559 0.1913 0.0015
0.0841 0.1869 0.0052
0.1232 0.1832 0.0090
0.1791 0.1815 0.0068
0.2482 0.1825 0.0014
0.3155 0.1856 0.0001
0.3785 0.1906 0.0028
0.4376 0.1971 0.0087
0.4930 0.2040 0.0143
0.5466 0.2106 0.0197
0.5999 0.2163 0.0266
0.6532 0.2199 0.0305
0.7049 0.2207 0.0344
0.7552 0.2185 0.0390
0.8046 0.2132 0.0440
0.8538 0.2046 0.0472
0.9023 0.1930 0.0501
0.9499 0.1787 0.0533
0.9842 0.1623 0.0569
0.9978 0.1447 0.0592
0.9996 0.1470 0.0809
0.9996 0.1799 0.1142
0.0002 0.2489 0.0008
0.0119 0.2457 0.0002
0.0295 0.2416 0.0005
0.0524 0.2363 0.0013
0.0797 0.2306 0.0033
0.1148 0.2254 0.0086
0.1654 0.2216 0.0119
0.2333 0.2203 0.0073
0.3017 0.2221 0.0012
0.3664 0.2263 0.0001
0.4266 0.2330 0.0027
0.4826 0.2412 0.0078
0.5349 0.2503 0.0148
0.5881 0.2589 0.0184
0.6387 0.2657 0.0249
0.6879 0.2702 0.0319
0.7371 0.2720 0.0357
0.7857 0.2707 0.0396
0.8337 0.2663 0.0441
0.8811 0.2586 0.0497
0.9289 0.2472 0.0534
0.9724 0.2325 0.0568
0.9940 0.2146 0.0607
0.9995 0.2022 0.0730
0.9996 0.2211 0.1129
0.0002 0.2961 0.0010
0.0108 0.2930 0.0003
0.0276 0.2886 0.0004
0.0492 0.2830 0.0011
0.0755 0.2764 0.0023
0.1079 0.2699 0.0067
0.1543 0.2642 0.0115
0.2175 0.2604 0.0134
0.2872 0.2596 0.0071
0.3534 0.2622 0.0010
0.4155 0.2677 0.0001
0.4728 0.2758 0.0024
0.5257 0.2856 0.0071
0.5765 0.2957 0.0136
0.6260 0.3052 0.0194
0.6748 0.3130 0.0234
0.7221 0.3189 0.0301
0.7690 0.3223 0.0371
0.8168 0.3227 0.0409
0.8644 0.3201 0.0450
0.9118 0.3140 0.0498
0.9584 0.3045 0.0567
0.9885 0.2910 0.0614
0.9990 0.2736 0.0656
0.9995 0.2876 0.1100
0.0002 0.3430 0.0011
0.0097 0.3400 0.0003
0.0257 0.3357 0.0004
0.0463 0.3299 0.0009
0.0713 0.3228 0.0020
0.1020 0.3154 0.0046
0.1439 0.3083 0.0107
0.2034 0.3023 0.0143
0.2722 0.2987 0.0131
0.3399 0.2986 0.0059
0.4037 0.3020 0.0008
0.4629 0.3084 0.0001
0.5159 0.3170 0.0025
0.5668 0.3272 0.0067
0.6156 0.3381 0.0127
0.6629 0.3487 0.0192
0.7101 0.3581 0.0233
0.7571 0.3659 0.0284
0.8037 0.3715 0.0355
0.8507 0.3744 0.0427
0.8988 0.3741 0.0467
0.9469 0.3704 0.0513
0.9833 0.3632 0.0577
0.9977 0.3521 0.0661
0.9994 0.3595 0.1078
0.0003 0.3899 0.0013
0.0087 0.3870 0.0003
0.0239 0.3826 0.0004
0.0438 0.3765 0.0008
0.0675 0.3692 0.0017
0.0966 0.3610 0.0033
0.1358 0.3529 0.0081
0.1901 0.3454 0.0138
0.2570 0.3394 0.0173
0.3257 0.3362 0.0125
0.3910 0.3364 0.0047
0.4515 0.3397 0.0006
0.5060 0.3460 0.0002
0.5571 0.3549 0.0024
0.6066 0.3659 0.0065
0.6540 0.3784 0.0119
0.7005 0.3913 0.0182
0.7469 0.4038 0.0246
0.7946 0.4147 0.0278
0.8423 0.4236 0.0342
0.8901 0.4298 0.0421
0.9386 0.4327 0.0490
0.9797 0.4318 0.0539
0.9969 0.4265 0.0602
0.9994 0.4328 0.1032
0.0003 0.4387 0.0015
0.0077 0.4358 0.0004
0.0222 0.4314 0.0005
0.0414 0.4251 0.0007
0.0641 0.4173 0.0015
0.0914 0.4083 0.0029
0.1284 0.3988 0.0060
0.1780 0.3896 0.0123
0.2430 0.3812 0.0170
0.3096 0.3747 0.0192
0.3764 0.3712 0.0125
0.4388 0.3712 0.0037
0.4953 0.3745 0.0004
0.5476 0.3812 0.0002
0.5980 0.3915 0.0025
0.6463 0.4046 0.0068
0.6934 0.4198 0.0116
0.7403 0.4361 0.0173
0.7875 0.4523 0.0239
0.8361 0.4674 0.0291
0.8859 0.4801 0.0332
0.9353 0.4899 0.0413
0.9773 0.4956 0.0501
0.9961 0.4967 0.0574
0.9995 0.5041 0.0960
0.0004 0.4868 0.0018
0.0067 0.4841 0.0004
0.0205 0.4798 0.0005
0.0389 0.4737 0.0007
0.0607 0.4659 0.0013
0.0863 0.4565 0.0026
0.1210 0.4460 0.0046
0.1673 0.4354 0.0096
0.2280 0.4251 0.0161
0.2942 0.4159 0.0198
0.3601 0.4089 0.0193
0.4244 0.4052 0.0124
0.4833 0.4051 0.0038
0.5375 0.4087 0.0002
0.5897 0.4167 0.0003
0.6392 0.4288 0.0029
0.6873 0.4447 0.0077
0.7352 0.4635 0.0114
0.7834 0.4836 0.0169
0.8326 0.5041 0.0232
0.8825 0.5235 0.0305
0.9329 0.5398 0.0347
0.9764 0.5524 0.0407
0.9956 0.5604 0.0497
0.9994 0.5718 0.0927
0.0004 0.5351 0.0020
0.0058 0.5325 0.0004
0.0189 0.5283 0.0005
0.0364 0.5222 0.0007
0.0575 0.5142 0.0011
0.0817 0.5047 0.0021
0.1136 0.4939 0.0039
0.1571 0.4825 0.0073
0.2139 0.4711 0.0137
0.2785 0.4601 0.0191
0.3435 0.4503 0.0227
0.4090 0.4431 0.0179
0.4704 0.4393 0.0104
0.5265 0.4394 0.0028
0.5808 0.4439 0.0001
0.6324 0.4534 0.0005
0.6820 0.4678 0.0034
0.7309 0.4867 0.0084
0.7805 0.5095 0.0115
0.8308 0.5347 0.0169
0.8814 0.5600 0.0231
0.9316 0.5830 0.0301
0.9756 0.6024 0.0369
0.9956 0.6171 0.0411
0.9996 0.6323 0.0746
0.0004 0.5871 0.0022
0.0050 0.5845 0.0004
0.0174 0.5802 0.0005
0.0342 0.5739 0.0007
0.0546 0.5655 0.0010
0.0777 0.5555 0.0018
0.1069 0.5440 0.0034
0.1477 0.5316 0.0058
0.2011 0.5190 0.0107
0.2627 0.5067 0.0181
0.3278 0.4949 0.0222
0.3918 0.4849 0.0251
0.4560 0.4778 0.0176
0.5146 0.4742 0.0086
0.5707 0.4749 0.0019
0.6250 0.4805 0.0000
0.6769 0.4915 0.0008
0.7274 0.5091 0.0039
0.7779 0.5329 0.0088
0.8296 0.5601 0.0119
0.8808 0.5894 0.0171
0.9314 0.6179 0.0230
0.9756 0.6435 0.0299
0.9955 0.6650 0.0381
0.9997 0.6851 0.0641
0.0006 0.6435 0.0026
0.0042 0.6410 0.0005
0.0161 0.6366 0.0005
0.0322 0.6301 0.0007
0.0520 0.6216 0.0009
0.0743 0.6112 0.0016
0.1016 0.5992 0.0029
0.1393 0.5859 0.0050
0.1898 0.5719 0.0085
0.2500 0.5578 0.0147
0.3126 0.5440 0.0213
0.3769 0.5315 0.0252
0.4400 0.5214 0.0260
0.5014 0.5142 0.0177
0.5599 0.5111 0.0073
0.6166 0.5126 0.0013
0.6711 0.5195 0.0000
0.7237 0.5344 0.0011
0.7760 0.5587 0.0041
0.8281 0.5855 0.0092
0.8802 0.6140 0.0124
0.9313 0.6442 0.0178
0.9759 0.6756 0.0233
0.9958 0.7035 0.0301
0.9998 0.7289 0.0564
0.0006 0.7063 0.0030
0.0036 0.7037 0.0006
0.0150 0.6992 0.0006
0.0307 0.6925 0.0007
0.0498 0.6836 0.0010
0.0718 0.6727 0.0014
0.0976 0.6600 0.0026
0.1327 0.6459 0.0045
0.1807 0.6308 0.0070
0.2394 0.6154 0.0118
0.3000 0.6001 0.0191
0.3632 0.5854 0.0246
0.4263 0.5723 0.0284
0.4882 0.5616 0.0257
0.5483 0.5545 0.0184
0.6078 0.5521 0.0062
0.6648 0.5547 0.0009
0.7203 0.5633 0.0000
0.7740 0.5863 0.0011
0.8269 0.6124 0.0043
0.8792 0.6401 0.0095
0.9312 0.6693 0.0129
0.9760 0.6998 0.0184
0.9959 0.7312 0.0242
0.9999 0.7634 0.0456
0.0007 0.7758 0.0036
0.0030 0.7738 0.0006
0.0141 0.7693 0.0007
0.0296 0.7625 0.0008
0.0484 0.7534 0.0010
0.0701 0.7420 0.0013
0.0950 0.7286 0.0023
0.1285 0.7135 0.0040
0.1738 0.6972 0.0063
0.2316 0.6803 0.0098
0.2913 0.6633 0.0158
0.3518 0.6468 0.0241
0.4152 0.6312 0.0284
0.4765 0.6177 0.0320
0.5379 0.6070 0.0253
0.5990 0.6005 0.0174
0.6585 0.5989 0.0067
0.7164 0.6024 0.0007
0.7719 0.6153 0.0000
0.8256 0.6406 0.0012
0.8786 0.6675 0.0047
0.9306 0.6957 0.0101
0.9761 0.7251 0.0138
0.9960 0.7553 0.0193
0.9999 0.7871 0.0379
0.0008 0.8336 0.0041
0.0026 0.8343 0.0007
0.0134 0.8342 0.0008
0.0287 0.8341 0.0009
0.0473 0.8267 0.0011
0.0688 0.8155 0.0014
0.0935 0.8023 0.0021
0.1260 0.7871 0.0036
0.1695 0.7704 0.0060
0.2265 0.7527 0.0086
0.2861 0.7344 0.0132
0.3459 0.7162 0.0204
0.4071 0.6987 0.0277
0.4690 0.6824 0.0320
0.5285 0.6684 0.0348
0.5915 0.6580 0.0257
0.6525 0.6516 0.0165
0.7116 0.6500 0.0064
0.7691 0.6534 0.0005
0.8242 0.6700 0.0000
0.8778 0.6960 0.0012
0.9304 0.7232 0.0050
0.9760 0.7514 0.0104
0.9961 0.7804 0.0154
0.9999 0.8104 0.0298
0.0008 0.8894 0.0046
0.0022 0.8901 0.0007
0.0128 0.8901 0.0009
0.0280 0.8900 0.0009
0.0465 0.8899 0.0012
0.0678 0.8890 0.0014
0.0925 0.8764 0.0020
0.1243 0.8619 0.0033
0.1668 0.8455 0.0054
0.2224 0.8277 0.0080
0.2824 0.8090 0.0113
0.3420 0.7899 0.0173
0.4016 0.7711 0.0255
0.4627 0.7530 0.0318
0.5223 0.7362 0.0358
0.5831 0.7222 0.0371
0.6461 0.7117 0.0270
0.7068 0.7053 0.0160
0.7653 0.7036 0.0060
0.8223 0.7067 0.0003
0.8769 0.7254 0.0000
0.9301 0.7515 0.0013
0.9761 0.7785 0.0054
0.9961 0.8062 0.0108
0.9999 0.8347 0.0256
0.0009 0.9416 0.0053
0.0017 0.9422 0.0008
0.0122 0.9422 0.0010
0.0274 0.9421 0.0010
0.0459 0.9421 0.0012
0.0671 0.9421 0.0015
0.0916 0.9420 0.0020
0.1232 0.9342 0.0031
0.1651 0.9191 0.0050
0.2195 0.9022 0.0076
0.2793 0.8840 0.0104
0.3394 0.8650 0.0148
0.3987 0.8457 0.0218
0.4575 0.8267 0.0309
0.5171 0.8082 0.0361
0.5775 0.7916 0.0400
0.6389 0.7777 0.0395
0.7014 0.7673 0.0285
0.7615 0.7609 0.0160
0.8194 0.7591 0.0061
0.8756 0.7621 0.0003
0.9296 0.7805 0.0001
0.9761 0.8062 0.0016
0.9962 0.8325 0.0054
0.9999 0.8595 0.0151
0.0011 0.9780 0.0060
0.0013 0.9783 0.0009
0.0116 0.9783 0.0010
0.0268 0.9783 0.0011
0.0453 0.9783 0.0014
0.0666 0.9783 0.0016
0.0910 0.9783 0.0020
0.1227 0.9783 0.0029
0.1641 0.9767 0.0046
0.2180 0.9668 0.0071
0.2770 0.9540 0.0099
0.3376 0.9377 0.0131
0.3971 0.9192 0.0187
0.4556 0.9004 0.0269
0.5127 0.8816 0.0359
0.5731 0.8635 0.0407
0.6338 0.8474 0.0446
0.6955 0.8339 0.0410
0.7569 0.8236 0.0305
0.8164 0.8174 0.0168
0.8734 0.8155 0.0065
0.9287 0.8183 0.0004
0.9760 0.8343 0.0000
0.9963 0.8592 0.0015
0.9999 0.8846 0.0057
0.0012 0.9956 0.0068
0.0013 0.9958 0.0014
0.0110 0.9958 0.0011
0.0263 0.9958 0.0012
0.0448 0.9958 0.0014
0.0661 0.9958 0.0017
0.0905 0.9958 0.0021
0.1225 0.9958 0.0028
0.1638 0.9958 0.0044
0.2173 0.9958 0.0066
0.2757 0.9922 0.0094
0.3359 0.9858 0.0124
0.3962 0.9769 0.0164
0.4548 0.9653 0.0232
0.5111 0.9510 0.0323
0.5696 0.9343 0.0404
0.6304 0.9174 0.0452
0.6905 0.9021 0.0492
0.7522 0.8892 0.0430
0.8126 0.8794 0.0329
0.8712 0.8735 0.0177
0.9271 0.8716 0.0071
0.9757 0.8743 0.0004
0.9963 0.8860 0.0000
0.9999 0.9097 0.0016
0.0013 1.0000 0.0075
0.0014 1.0000 0.0019
0.0103 1.0000 0.0012
0.0256 1.0000 0.0013
0.0442 1.0000 0.0015
0.0657 1.0000 0.0018
0.0901 1.0000 0.0022
0.1239 1.0000 0.0048
0.1708 1.0000 0.0110
0.2316 1.0000 0.0190
0.2959 1.0000 0.0281
0.3351 0.9999 0.0120
0.3957 0.9987 0.0153
0.4549 0.9958 0.0205
0.5111 0.9909 0.0282
0.5680 0.9837 0.0380
0.6278 0.9746 0.0451
0.6882 0.9640 0.0498
0.7475 0.9528 0.0546
0.8090 0.9422 0.0453
0.8682 0.9334 0.0356
0.9258 0.9280 0.0193
0.9752 0.9263 0.0083
0.9963 0.9289 0.0007
0.9999 0.9359 0.0000
0.0000 0.0000 0.0131
0.0181 0.0000 0.0133
0.0412 0.0001 0.0136
0.0691 0.0011 0.0147
0.1062 0.0032 0.0173
0.1669 0.0067 0.0214
0.2346 0.0112 0.0250
0.3028 0.0155 0.0285
0.3688 0.0194 0.0321
0.4311 0.0233 0.0357
0.4887 0.0271 0.0394
0.5427 0.0307 0.0432
0.5961 0.0344 0.0470
0.6472 0.0381 0.0509
0.6962 0.0415 0.0553
0.7432 0.0450 0.0602
0.7885 0.0484 0.0655
0.8322 0.0517 0.0711
0.8745 0.0550 0.0771
0.9155 0.0583 0.0833
0.9540 0.0615 0.0896
0.9810 0.0645 0.0958
0.9945 0.0675 0.1020
0.9994 0.0706 0.1083
0.9997 0.0910 0.1277
0.0000 0.0219 0.0136
0.0185 0.0219 0.0136
0.0391 0.0227 0.0157
0.0677 0.0247 0.0184
0.1064 0.0274 0.0219
0.1565 0.0294 0.0250
0.2215 0.0314 0.0283
0.2905 0.0335 0.0315
0.3573 0.0357 0.0348
0.4205 0.0379 0.0382
0.4793 0.0403 0.0417
0.5342 0.0428 0.0453
0.5882 0.0453 0.0489
0.6400 0.0480 0.0528
0.6896 0.0506 0.0572
0.7372 0.0533 0.0621
0.7831 0.0560 0.0674
0.8273 0.0588 0.0730
0.8701 0.0616 0.0789
0.9114 0.0644 0.0851
0.9502 0.0671 0.0912
0.9790 0.0698 0.0974
0.9937 0.0726 0.1035
0.9992 0.0755 0.1097
0.9997 0.0944 0.1273
0.0000 0.0444 0.0142
0.0199 0.0449 0.0152
0.0432 0.0455 0.0194
0.0735 0.0456 0.0213
0.1130 0.0449 0.0217
0.1698 0.0440 0.0228
0.2440 0.0428 0.0241
0.3187 0.0416 0.0255
0.3903 0.0402 0.0271
0.4496 0.0415 0.0308
0.5039 0.0432 0.0347
0.5562 0.0453 0.0389
0.6075 0.0476 0.0431
0.6570 0.0499 0.0472
0.7046 0.0524 0.0515
0.7506 0.0549 0.0562
0.7950 0.0574 0.0615
0.8381 0.0601 0.0672
0.8799 0.0628 0.0733
0.9201 0.0655 0.0796
0.9575 0.0681 0.0859
0.9828 0.0708 0.0923
0.9952 0.0735 0.0987
0.9995 0.0763 0.1052
0.9997 0.0992 0.1264
0.0000 0.0693 0.0143
0.0197 0.0688 0.0154
0.0414 0.0685 0.0164
0.0705 0.0675 0.0216
0.1067 0.0667 0.0226
0.1587 0.0657 0.0234
0.2290 0.0644 0.0247
0.3027 0.0633 0.0261
0.3733 0.0626 0.0280
0.4405 0.0620 0.0299
0.5031 0.0612 0.0317
0.5633 0.0601 0.0336
0.6222 0.0585 0.0355
0.6791 0.0562 0.0376
0.7290 0.0553 0.0413
0.7701 0.0573 0.0474
0.8126 0.0596 0.0524
0.8540 0.0621 0.0581
0.8943 0.0646 0.0643
0.9328 0.0671 0.0708
0.9671 0.0696 0.0774
0.9875 0.0722 0.0842
0.9970 0.0749 0.0910
0.9996 0.0825 0.1023
0.9997 0.1066 0.1250
0.0000 0.0947 0.0133
0.0183 0.0939 0.0145
0.0385 0.0936 0.0146
0.0660 0.0924 0.0185
0.1010 0.0903 0.0218
0.1494 0.0891 0.0216
0.2146 0.0884 0.0229
0.2848 0.0882 0.0256
0.3535 0.0882 0.0280
0.4201 0.0882 0.0301
0.4829 0.0880 0.0322
0.5422 0.0872 0.0344
0.6011 0.0858 0.0369
0.6584 0.0837 0.0390
0.7142 0.0807 0.0409
0.7682 0.0770 0.0429
0.8207 0.0726 0.0450
0.8716 0.0675 0.0471
0.9133 0.0671 0.0519
0.9496 0.0694 0.0583
0.9775 0.0718 0.0652
0.9924 0.0743 0.0723
0.9987 0.0768 0.0797
0.9996 0.0922 0.0991
0.9997 0.1174 0.1231
0.0000 0.1274 0.0123
0.0169 0.1264 0.0137
0.0359 0.1245 0.0131
0.0621 0.1215 0.0155
0.0942 0.1186 0.0200
0.1402 0.1167 0.0201
0.2015 0.1160 0.0204
0.2707 0.1164 0.0221
0.3381 0.1174 0.0245
0.4025 0.1187 0.0283
0.4644 0.1198 0.0310
0.5220 0.1203 0.0343
0.5799 0.1200 0.0368
0.6368 0.1186 0.0391
0.6924 0.1160 0.0417
0.7468 0.1121 0.0443
0.8002 0.1068 0.0466
0.8521 0.1004 0.0486
0.9018 0.0930 0.0505
0.9493 0.0848 0.0527
0.9820 0.0805 0.0552
0.9960 0.0786 0.0582
0.9995 0.0821 0.0669
0.9996 0.1055 0.0952
0.9997 0.1324 0.1210
0.0001 0.1663 0.0116
0.0157 0.1631 0.0130
0.0334 0.1604 0.0120
0.0584 0.1565 0.0135
0.0880 0.1528 0.0177
0.1298 0.1497 0.0212
0.1889 0.1484 0.0189
0.2578 0.1488 0.0185
0.3248 0.1505 0.0199
0.3881 0.1532 0.0236
0.4488 0.1563 0.0274
0.5055 0.1591 0.0314
0.5615 0.1613 0.0344
0.6171 0.1623 0.0377
0.6716 0.1616 0.0416
0.7258 0.1589 0.0442
0.7786 0.1539 0.0468
0.8297 0.1467 0.0494
0.8792 0.1376 0.0523
0.9275 0.1269 0.0546
0.9709 0.1152 0.0567
0.9930 0.1031 0.0591
0.9994 0.0996 0.0620
0.9996 0.1237 0.0910
0.9997 0.1526 0.1189
0.0001 0.2099 0.0109
0.0145 0.2064 0.0124
0.0311 0.2032 0.0111
0.0550 0.1985 0.0121
0.0831 0.1936 0.0151
0.1210 0.1892 0.0196
0.1751 0.1862 0.0216
0.2442 0.1857 0.0177
0.3115 0.1874 0.0168
0.3758 0.1907 0.0179
0.4354 0.1955 0.0227
0.4923 0.2007 0.0255
0.5462 0.2059 0.0306
0.6006 0.2102 0.0350
0.6544 0.2130 0.0382
0.7064 0.2132 0.0416
0.7568 0.2108 0.0464
0.8069 0.2053 0.0493
0.8562 0.1969 0.0519
0.9045 0.1856 0.0550
0.9519 0.1719 0.0584
0.9851 0.1563 0.0616
0.9980 0.1396 0.0639
0.9995 0.1483 0.0871
0.9996 0.1797 0.1173
0.0001 0.2559 0.0103
0.0134 0.2522 0.0116
0.0289 0.2487 0.0102
0.0517 0.2433 0.0110
0.0787 0.2375 0.0129
0.1131 0.2319 0.0176
0.1630 0.2273 0.0211
0.2294 0.2249 0.0208
0.2981 0.2254 0.0162
0.3629 0.2284 0.0152
0.4239 0.2335 0.0172
0.4808 0.2402 0.0206
0.5340 0.2478 0.0253
0.5877 0.2551 0.0283
0.6388 0.2609 0.0341
0.6888 0.2646 0.0388
0.7383 0.2658 0.0421
0.7871 0.2643 0.0457
0.8348 0.2598 0.0504
0.8827 0.2520 0.0547
0.9305 0.2408 0.0582
0.9733 0.2264 0.0618
0.9943 0.2089 0.0658
0.9994 0.1996 0.0803
0.9996 0.2173 0.1162
0.0002 0.3023 0.0098
0.0123 0.2987 0.0109
0.0268 0.2951 0.0094
0.0487 0.2894 0.0100
0.0746 0.2828 0.0115
0.1067 0.2762 0.0149
0.1518 0.2702 0.0201
0.2143 0.2657 0.0229
0.2837 0.2640 0.0198
0.3502 0.2656 0.0144
0.4125 0.2699 0.0135
0.4705 0.2768 0.0159
0.5241 0.2851 0.0186
0.5754 0.2940 0.0240
0.6258 0.3023 0.0276
0.6748 0.3093 0.0316
0.7224 0.3145 0.0377
0.7698 0.3174 0.0428
0.8176 0.3176 0.0463
0.8652 0.3147 0.0502
0.9124 0.3087 0.0558
0.9592 0.2992 0.0617
0.9889 0.2858 0.0662
0.9991 0.2687 0.0705
0.9995 0.2838 0.1135
0.0002 0.3483 0.0093
0.0114 0.3448 0.0102
0.0250 0.3412 0.0087
0.0459 0.3354 0.0091
0.0707 0.3285 0.0103
0.1011 0.3210 0.0126
0.1425 0.3139 0.0176
0.2009 0.3076 0.0217
0.2688 0.3036 0.0229
0.3370 0.3027 0.0174
0.4010 0.3053 0.0126
0.4604 0.3107 0.0118
0.5139 0.3181 0.0141
0.5654 0.3271 0.0167
0.6147 0.3370 0.0217
0.6623 0.3467 0.0275
0.7102 0.3553 0.0300
0.7572 0.3625 0.0352
0.8038 0.3676 0.0419
0.8512 0.3702 0.0473
0.8992 0.3698 0.0513
0.9472 0.3661 0.0564
0.9833 0.3590 0.0638
0.9978 0.3480 0.0711
0.9994 0.3559 0.1111
