EA 50 Cinematic Luts Pack/EA_Cinematic Lut (14).cube
TITLE "Generated by Resolve"
LUT_3D_SIZE 33
0 0 0.00958267
0 0 0.012604
0 0 0.0167239
0 0 0.019089
0.0374609 0 0.0177157
0.112444 0 0.0145876
0.178515 0 0.0137331
0.242985 0 0.0131991
0.305913 0 0.0129549
0.366735 0 0.0131533
0.424552 0 0.0140841
0.472892 0 0.0174868
0.519188 0 0.0214084
0.564508 0 0.0255894
0.609003 0 0.030045
0.652796 0 0.0347906
0.69604 0 0.0398566
0.738735 0 0.0451667
0.780835 0 0.0506294
0.8224 0 0.0562448
0.863493 0 0.0619821
0.904097 0 0.0678569
0.944289 0 0.0738384
0.98407 0 0.0799268
1 0 0.0861219
1 0 0.0924239
1 0 0.0988022
1 0 0.105272
1 0 0.111833
1 0 0.118456
1 0 0.125154
1 0 0.131945
1 0 0.138781
0 0.00143435 0.0287785
0 0.000671397 0.0316014
0 0 0.0282902
0 0 0.0275578
0.0420844 0 0.0236515
0.11368 0 0.0180972
0.176913 0 0.0149386
0.239246 0 0.0122683
0.300801 0 0.0101015
0.361044 0 0.00862135
0.418967 0 0.00814832
0.47097 0 0.0099794
0.51722 0 0.013901
0.562478 0 0.0180972
0.606912 0 0.0225528
0.650675 0 0.0273136
0.693858 0 0.0323949
0.736568 0 0.0377966
0.778714 0 0.0433967
0.820325 0 0.0491188
0.861448 0 0.0549935
0.902098 0 0.0609751
0.942336 0 0.0670939
0.982162 0 0.0733196
1 0 0.0796368
1 0 0.0860609
1 0 0.092546
1 0 0.0991684
1 0 0.105821
1 0 0.112581
1 0 0.119402
1 0 0.126299
1 0 0.133288
0 0.0248569 0.041413
0 0.0243534 0.0530556
0 0.0244144 0.0481422
0 0.0214084 0.0395209
0.0451667 0.0131991 0.0305791
0.114183 0.00285344 0.0217288
0.174868 0 0.0158999
0.234989 0 0.0108186
0.294865 0 0.00648508
0.353994 0 0.00308232
0.411612 0 0.000885023
0.466514 0 0.00030518
0.512825 0 0.00407416
0.558114 0 0.00813306
0.602533 0 0.0124514
0.64625 0 0.0170748
0.689403 0 0.0220188
0.732097 0 0.0273289
0.774289 0 0.0328985
0.815946 0 0.0386206
0.857084 0 0.0444648
0.89778 0 0.0504463
0.938018 0 0.0565194
0.977859 0 0.0627451
1 0 0.0690471
1 0 0.0754559
1 0 0.0819562
1 0 0.0885176
1 0 0.095201
1 0 0.10193
1 0 0.108766
1 0 0.115633
1 0 0.122606
0 0.0513771 0.0464332
0 0.0498512 0.0628672
0 0.0504463 0.0640269
0 0.049485 0.0552987
0.0488136 0.0440833 0.0411078
0.113313 0.0356146 0.0269932
0.171237 0.0284123 0.017319
0.229252 0.0208133 0.00935378
0.287419 0.0128634 0.00257877
0.345296 0.00468452 0
0.402228 0 0
0.457298 0 0
0.505608 0 0
0.551064 0 0
0.59559 0 0.00111391
0.639384 0 0.00555428
0.682567 0 0.0103304
0.725277 0 0.0154879
0.767559 0 0.0209964
0.809293 0 0.0266728
0.850523 0 0.0325017
0.891279 0 0.0384375
0.931579 0 0.0444953
0.971466 0 0.05066
1 0 0.0569467
1 0 0.0633555
1 0 0.0698253
1 0 0.0763714
1 0 0.0830243
1 0 0.0897688
1 0 0.0965744
1 0 0.103456
1 0 0.110369
0 0.0804456 0.0451972
0 0.0776989 0.0641794
0 0.0779278 0.0711986
0.00802625 0.0772412 0.0661173
0.057847 0.0733196 0.0524147
0.115785 0.0671397 0.0352941
0.168597 0.0619211 0.0213321
0.22327 0.0556802 0.00956741
0.279255 0.0486152 0
0.335683 0.0410315 0
0.391684 0.0332189 0
0.446342 0.025452 0
0.496254 0.0185855 0
0.542031 0.0126192 0
0.586816 0.00694286 0
0.630793 0.00157168 0
0.674113 0 0
0.716915 0 0.00335698
0.759319 0 0.0087129
0.80119 0 0.014313
0.842542 0 0.0200504
0.883391 0 0.0259403
0.923781 0 0.0319371
0.96376 0 0.0380713
1 0 0.0443275
1 0 0.05066
1 0 0.0570993
1 0 0.0636301
1 0 0.0702525
1 0 0.0769665
1 0 0.0837415
1 0 0.0905776
1 0 0.0975052
0 0.111727 0.0386969
0 0.107805 0.0589609
0 0.107256 0.0702373
0.019852 0.106447 0.0696269
0.0684825 0.102617 0.0587015
0.122438 0.0975662 0.0424811
0.169818 0.0941787 0.0269627
0.219532 0.0897536 0.0121767
0.271901 0.0840925 0
0.325933 0.0774701 0
0.380468 0.0702525 0
0.434379 0.0628214 0
0.485069 0.0558022 0
0.531228 0.0496376 0
0.576349 0.0437476 0
0.620615 0.0381628 0
0.664164 0.032929 0
0.707149 0.0280766 0
0.749706 0.0236515 0
0.791775 0.0195468 0.00190738
0.83331 0.0155947 0.0075227
0.874311 0.0117952 0.0132906
0.914839 0.00814832 0.0191958
0.95494 0.00462348 0.0252537
0.994629 0.00122072 0.0314336
1 0 0.037705
1 0 0.0440833
1 0 0.0505837
1 0 0.0571603
1 0 0.0638132
1 0 0.070573
1 0 0.0773938
1 0 0.0842756
0 0.144686 0.0282444
0 0.139803 0.0489815
0 0.138399 0.0630808
0.0292973 0.137087 0.0665599
0.0770733 0.133181 0.0589761
0.130037 0.128206 0.0451972
0.174121 0.125734 0.030808
0.219348 0.122774 0.0153658
0.267262 0.1187 0.000366217
0.317693 0.11342 0
0.369757 0.107179 0
0.422141 0.100359 0
0.472465 0.0935378 0
0.518944 0.0872663 0
0.564446 0.0812085 0
0.609033 0.0754406 0
0.652888 0.0699779 0
0.696071 0.0649271 0
0.738842 0.0602884 0
0.781155 0.0560311 0
0.822889 0.051957 0
0.864088 0.0480507 0.000793469
0.904799 0.0442817 0.00653086
0.945052 0.0406653 0.0124666
0.984894 0.0371862 0.0185245
1 0.033814 0.0246891
1 0.0305638 0.0310063
1 0.0274052 0.0373999
1 0.0243534 0.0439155
1 0.0213931 0.0505226
1 0.0185245 0.0571908
1 0.0157321 0.0639658
1 0.0130159 0.0708019
0 0.178805 0.0151369
0 0.173236 0.0357977
0 0.171069 0.0515755
0.0360266 0.169162 0.0582284
0.0835126 0.164981 0.0541238
0.13611 0.159838 0.0430915
0.179095 0.157504 0.0309606
0.221515 0.155322 0.0167697
0.26566 0.152438 0.00172427
0.31223 0.148486 0
0.360891 0.143481 0
0.410849 0.137575 0
0.459648 0.131319 0
0.505943 0.125185 0
0.551507 0.119127 0
0.596307 0.113252 0
0.640406 0.107637 0
0.683894 0.102388 0
0.726879 0.0975509 0
0.769451 0.0931106 0
0.811368 0.0888991 0
0.852811 0.0848554 0
0.893721 0.0809796 0
0.934157 0.0772412 0
0.974166 0.07364 0.00578317
1 0.0701915 0.0117952
1 0.0668498 0.0179751
1 0.0636149 0.0242771
1 0.0604868 0.0306706
1 0.0574655 0.0371862
1 0.0545205 0.0438087
1 0.0516823 0.0504921
1 0.0489204 0.0572671
0 0.21355 0.000701915
0 0.207538 0.0207675
0.00329595 0.204822 0.0373999
0.0404059 0.202396 0.0462806
0.0881056 0.197803 0.045243
0.140078 0.192554 0.0370794
0.183017 0.190005 0.0274052
0.224262 0.188006 0.0153353
0.265965 0.185779 0.00163272
0.309361 0.182834 0
0.354681 0.178943 0
0.401617 0.174121 0
0.447883 0.168673 0
0.493309 0.162951 0
0.538415 0.157122 0
0.583047 0.151339 0
0.627161 0.145708 0
0.670787 0.140337 0
0.713954 0.135332 0
0.756741 0.130739 0
0.798917 0.126375 0
0.840589 0.122179 0
0.881697 0.118166 0
0.922316 0.114305 0
0.962539 0.110597 0
1 0.107027 0
1 0.103593 0.00520333
1 0.100267 0.0113375
1 0.0970474 0.0175937
1 0.0939498 0.0239719
1 0.0909438 0.030457
1 0.088014 0.0370794
1 0.0851911 0.0437476
0 0.248463 0
0 0.242298 0.00515755
0.00544747 0.239216 0.0220798
0.043183 0.236393 0.0324102
0.0911574 0.231434 0.0337224
0.142916 0.225971 0.0283055
0.185245 0.223362 0.0210574
0.226383 0.221195 0.0112612
0.266896 0.219196 0
0.30811 0.216815 0
0.350713 0.213764 0
0.39469 0.209888 0
0.438239 0.205234 0
0.482078 0.200198 0
0.526116 0.194842 0
0.570092 0.189349 0
0.613825 0.183886 0
0.657298 0.178561 0
0.700435 0.17351 0
0.743297 0.168811 0
0.785657 0.164309 0
0.827527 0.159976 0
0.868818 0.15584 0
0.909697 0.151843 0
0.950103 0.147997 0
0.98999 0.14432 0
1 0.140764 0
1 0.137346 0
1 0.134035 0.00480659
1 0.130831 0.011017
1 0.127749 0.0173495
1 0.124743 0.0238193
1 0.121843 0.030396
0 0.28304 0
0 0.276936 0
0.00726329 0.273793 0.00689708
0.0452125 0.270756 0.0179904
0.0932631 0.265568 0.0209659
0.144884 0.259892 0.0178531
0.186633 0.257221 0.0130007
0.22742 0.254948 0.00538643
0.267597 0.252857 0
0.307591 0.250736 0
0.348272 0.248203 0
0.38941 0.244862 0
0.430945 0.240986 0
0.472999 0.236683 0
0.515465 0.231983 0
0.558236 0.227008 0
0.60116 0.221881 0
0.644068 0.21677 0
0.68687 0.211841 0
0.72958 0.207126 0
0.771893 0.202594 0
0.813809 0.198169 0
0.855283 0.193912 0
0.8963 0.189792 0
0.936919 0.185824 0
0.977005 0.18204 0
1 0.178363 0
1 0.174807 0
1 0.17142 0
1 0.168109 0
1 0.164935 0.00459297
1 0.161852 0.0108644
1 0.158862 0.017258
0 0.314794 0
0 0.310033 0
0.0100404 0.307988 0
0.0475471 0.305043 0.00447089
0.0953384 0.299763 0.00852979
0.146654 0.293965 0.00721752
0.187884 0.291218 0.00448615
0.227787 0.289021 0
0.267781 0.286824 0
0.307271 0.284672 0
0.3467 0.282063 0
0.386114 0.27924 0
0.425849 0.276036 0
0.466087 0.272435 0
0.506859 0.268406 0
0.548089 0.264057 0
0.589731 0.25948 0
0.631724 0.254749 0
0.673869 0.25005 0
0.716091 0.245487 0
0.75816 0.240986 0
0.799878 0.236576 0
0.841306 0.232273 0
0.882368 0.228092 0
0.923064 0.224033 0
0.963348 0.220111 0
1 0.216327 0
1 0.212696 0
1 0.209171 0
1 0.205768 0
1 0.202457 0
1 0.199313 0
1 0.196231 0.00447089
0 0.346349 0
0 0.341558 0
0.0191501 0.339513 0
0.05449 0.337301 0
0.100328 0.332631 0.00128176
0.15021 0.327214 0.000198367
0.190417 0.32462 0
0.229404 0.322454 0
0.268513 0.320241 0
0.307698 0.317891 0
0.346136 0.315602 0
0.384298 0.313191 0
0.422553 0.310536 0
0.461143 0.307546 0
0.500252 0.304189 0
0.53991 0.300465 0
0.580118 0.296452 0
0.620768 0.292271 0
0.661921 0.287968 0
0.703334 0.283665 0
0.744793 0.279332 0
0.78616 0.275013 0
0.827344 0.270756 0
0.868269 0.266575 0
0.908904 0.262486 0
0.949218 0.258503 0
0.989181 0.254643 0
1 0.250889 0
1 0.247257 0
1 0.243763 0
1 0.240391 0
1 0.23711 0
1 0.233936 0
0 0.377951 0
0 0.373159 0
0.0281987 0.371115 0
0.0630045 0.368963 0
0.107973 0.364385 0
0.156695 0.359121 0
0.195605 0.356771 0
0.233112 0.35491 0
0.270558 0.353109 0
0.308537 0.35108 0
0.346288 0.349004 0
0.383505 0.346914 0
0.420584 0.344671 0
0.457832 0.342184 0
0.495445 0.339391 0
0.533578 0.336278 0
0.57229 0.33286 0
0.611597 0.329198 0
0.651453 0.325414 0
0.691737 0.321492 0
0.732326 0.317449 0
0.773022 0.313329 0
0.813703 0.309194 0
0.854307 0.305089 0
0.894728 0.30103 0
0.934936 0.297047 0
0.974853 0.293156 0
1 0.289357 0
1 0.285664 0
1 0.282078 0
1 0.278584 0
1 0.275212 0
1 0.271992 0
0 0.409598 0
0.00404364 0.404807 0
0.0369268 0.402823 0
0.0715038 0.400671 0
0.11577 0.396185 0
0.163516 0.391058 0
0.201251 0.388891 0
0.237461 0.387304 0
0.273487 0.385824 0
0.309895 0.384207 0
0.346868 0.382345 0
0.383398 0.380468 0
0.419593 0.378546 0
0.455741 0.376471 0
0.492119 0.374151 0
0.528878 0.371557 0
0.566186 0.368704 0
0.604074 0.365606 0
0.642603 0.36231 0
0.681636 0.358816 0
0.72105 0.355184 0
0.760845 0.351354 0
0.800809 0.347448 0
0.840864 0.343511 0
0.880873 0.339559 0
0.920714 0.335668 0
0.96051 0.331777 0
1 0.327962 0
1 0.324254 0
1 0.320607 0
1 0.317067 0
1 0.313619 0
1 0.310277 0
0 0.441245 0
0.0129244 0.436484 0
0.045716 0.434516 0
0.079942 0.43241 0
0.123629 0.428 0
0.170535 0.422995 0
0.207248 0.421012 0
0.242344 0.419623 0
0.277089 0.418418 0
0.312123 0.417166 0
0.347753 0.415671 0
0.383749 0.413977 0
0.419272 0.412284 0
0.454582 0.410498 0
0.489921 0.408576 0
0.525536 0.406439 0
0.561578 0.404074 0
0.598154 0.401495 0
0.635325 0.398688 0
0.67306 0.395651 0
0.711315 0.392386 0
0.749966 0.388968 0
0.788937 0.385397 0
0.828214 0.381704 0
0.867597 0.377951 0
0.907042 0.374151 0
0.946426 0.370382 0
0.985687 0.366644 0
1 0.362936 0
1 0.359274 0
1 0.355718 0
1 0.352239 0
1 0.348837 0
0 0.472862 0
0.0215915 0.468132 0
0.0543221 0.466209 0
0.0882887 0.464149 0
0.131487 0.459831 0
0.177691 0.454932 0
0.213504 0.453086 0
0.247593 0.451896 0
0.281239 0.450935 0
0.315038 0.449973 0
0.34934 0.448844 0
0.384344 0.44744 0
0.419379 0.445914 0
0.454047 0.444389 0
0.488594 0.442771 0
0.523247 0.441001 0
0.558206 0.439063 0
0.593606 0.436927 0
0.629526 0.434562 0
0.665965 0.431968 0
0.702968 0.429145 0
0.740459 0.426108 0
0.778363 0.422904 0
0.816617 0.419562 0
0.855238 0.416052 0
0.893996 0.412482 0
0.93286 0.408865 0
0.971725 0.405234 0
1 0.401602 0
1 0.398001 0
1 0.394461 0
1 0.390967 0
1 0.387549 0
0 0.504463 0
0.0300298 0.499748 0
0.0627298 0.497856 0
0.0964981 0.495857 0
0.1393 0.49163 0
0.184924 0.486839 0
0.219944 0.48513 0
0.253132 0.484123 0
0.285801 0.483375 0
0.318517 0.482658 0
0.351644 0.481849 0
0.385367 0.480812 0
0.41976 0.4795 0
0.453941 0.478157 0
0.487861 0.476783 0
0.521752 0.475334 0
0.555795 0.473747 0
0.590158 0.471977 0
0.624933 0.470024 0
0.660212 0.467826 0
0.69601 0.465415 0
0.732326 0.462791 0
0.769116 0.459968 0
0.806378 0.456962 0
0.843931 0.453834 0
0.88188 0.450523 0
0.920058 0.44712 0
0.958358 0.443671 0
0.996704 0.440177 0
1 0.436667 0
1 0.433188 0
1 0.42974 0
1 0.426337 0
0 0.536126 0
0.0383307 0.531395 0
0.0709697 0.529503 0
0.104555 0.52755 0
0.147021 0.523369 0
0.192126 0.518685 0
0.226505 0.517113 0
0.258869 0.516258 0
0.290654 0.515709 0
0.322408 0.515236 0
0.354467 0.514687 0
0.387045 0.513985 0
0.420356 0.513024 0
0.454108 0.511849 0
0.487541 0.510674 0
0.520821 0.509453 0
0.554131 0.508156 0
0.58761 0.506706 0
0.621408 0.505104 0
0.655619 0.503288 0
0.690288 0.501274 0
0.72549 0.499046 0
0.761166 0.496605 0
0.797345 0.493965 0
0.833951 0.491142 0
0.870939 0.488182 0
0.908186 0.4851 0
0.9458 0.481865 0
0.983551 0.478569 0
1 0.475212 0
1 0.471839 0
1 0.468482 0
1 0.465141 0
0.00386053 0.567834 0
0.0464942 0.563088 0
0.0791028 0.561196 0
0.11252 0.559258 0
0.154681 0.555138 0
0.199344 0.55053 0
0.233112 0.54905 0
0.264744 0.548348 0
0.295735 0.547967 0
0.326635 0.547692 0
0.357748 0.547402 0
0.389334 0.54699 0
0.4215 0.546365 0
0.454429 0.54548 0
0.487495 0.544457 0
0.520287 0.543435 0
0.553002 0.542367 0
0.585763 0.541192 0
0.618738 0.539879 0
0.652003 0.538415 0
0.685679 0.536751 0
0.719814 0.53489 0
0.754421 0.532815 0
0.789517 0.530556 0
0.825101 0.528084 0
0.861112 0.525444 0
0.89749 0.522652 0
0.934173 0.519753 0
0.971206 0.516701 0
1 0.513558 0
1 0.510338 0
1 0.507118 0
1 0.503853 0
0.011902 0.599588 0
0.0545663 0.594842 0
0.087129 0.59295 0
0.120378 0.591028 0
0.16231 0.586923 0
0.206577 0.582391 0
0.239811 0.581003 0
0.270802 0.580407 0
0.301045 0.580179 0
0.331136 0.580102 0
0.36141 0.580026 0
0.392065 0.579858 0
0.423255 0.579538 0
0.4551 0.578988 0
0.487617 0.578164 0
0.520043 0.577295 0
0.55227 0.576425 0
0.584436 0.575479 0
0.616693 0.574426 0
0.649195 0.573236 0
0.681987 0.571908 0
0.715175 0.570382 0
0.748791 0.568658 0
0.782879 0.566751 0
0.817426 0.564645 0
0.852461 0.562341 0
0.887922 0.559853 0
0.923766 0.557229 0
0.95993 0.554482 0
0.996338 0.551614 0
1 0.548623 0
1 0.545556 0
1 0.542458 0
0.0198367 0.631373 0
0.062501 0.626627 0
0.0950484 0.624735 0
0.127916 0.622889 0
0.169879 0.618753 0
0.213794 0.614267 0
0.246571 0.61297 0
0.276982 0.612467 0
0.306523 0.612375 0
0.335897 0.612451 0
0.365393 0.612573 0
0.395178 0.612634 0
0.425467 0.612573 0
0.456336 0.612314 0
0.487907 0.611811 0
0.519966 0.611093 0
0.551797 0.610376 0
0.583505 0.609613 0
0.615198 0.608789 0
0.647013 0.607858 0
0.679042 0.60679 0
0.711391 0.60557 0
0.744121 0.604166 0
0.777264 0.602579 0
0.810864 0.600809 0
0.844907 0.598856 0
0.879408 0.596704 0
0.914336 0.594385 0
0.94966 0.591913 0
0.985306 0.589334 0
1 0.586618 0
1 0.58378 0
1 0.58085 0
0.0276646 0.663218 0
0.0703441 0.658457 0
0.102876 0.656565 0
0.135653 0.654719 0
0.177401 0.650629 0
0.221012 0.646174 0
0.253376 0.644938 0
0.283253 0.644541 0
0.312169 0.644556 0
0.340856 0.644785 0
0.369635 0.645075 0
0.398657 0.645335 0
0.428092 0.645502 0
0.458091 0.645502 0
0.488701 0.645289 0
0.520012 0.644831 0
0.551537 0.644236 0
0.582849 0.643641 0
0.614084 0.643 0
0.645335 0.642283 0
0.676722 0.641459 0
0.708339 0.640497 0
0.740261 0.639384 0
0.772549 0.638102 0
0.805249 0.636652 0
0.838376 0.635004 0
0.871962 0.633188 0
0.905974 0.631189 0
0.940398 0.629023 0
0.975219 0.626703 0
1 0.624231 0
1 0.621698 0
1 0.619013 0
0.0353857 0.695094 0
0.0780804 0.690333 0
0.110597 0.688426 0
0.143297 0.686595 0
0.184863 0.682521 0
0.228199 0.678126 0
0.260197 0.676936 0
0.289601 0.676616 0
0.317968 0.676738 0
0.345998 0.677089 0
0.37409 0.677531 0
0.402411 0.677974 0
0.431098 0.67834 0
0.460258 0.678569 0
0.489967 0.678645 0
0.520378 0.678462 0
0.5514 0.67805 0
0.582422 0.677577 0
0.613245 0.677104 0
0.644038 0.676555 0
0.674876 0.675944 0
0.705867 0.675212 0
0.737087 0.674357 0
0.768612 0.67335 0
0.800504 0.67219 0
0.832792 0.670848 0
0.865492 0.669337 0
0.898619 0.667643 0
0.932158 0.665782 0
0.966125 0.663752 0
1 0.66157 0
1 0.659251 0
1 0.65684 0
0.0429999 0.727016 0
0.0857099 0.722255 0
0.118212 0.720333 0
0.150851 0.718517 0
0.192264 0.714458 0
0.23537 0.710094 0
0.267018 0.708965 0
0.295995 0.708721 0
0.323857 0.708919 0
0.351308 0.709377 0
0.378759 0.709957 0
0.406424 0.710552 0
0.434394 0.711101 0
0.462791 0.711543 0
0.491722 0.711849 0
0.521233 0.71194 0
0.551431 0.711803 0
0.582101 0.711467 0
0.612634 0.711116 0
0.64303 0.710735 0
0.673411 0.710292 0
0.703868 0.709758 0
0.734493 0.709133 0
0.765347 0.70837 0
0.796506 0.707469 0
0.828016 0.706401 0
0.859892 0.70518 0
0.892195 0.703777 0
0.924895 0.702205 0
0.958007 0.700481 0
0.991531 0.698589 0
1 0.696544 0
1 0.694347 0
0.0505226 0.758984 0
0.0932479 0.754208 0
0.12575 0.752285 0
0.158328 0.750469 0
0.199603 0.746426 0
0.242496 0.742092 0
0.273838 0.741009 0
0.302434 0.740826 0
0.329824 0.7411 0
0.356741 0.741665 0
0.383597 0.742367 0
0.410636 0.743099 0
0.437949 0.743816 0
0.465644 0.744442 0
0.493828 0.744945 0
0.52256 0.745281 0
0.551904 0.745418 0
0.581888 0.745312 0
0.612161 0.745068 0
0.642237 0.744808 0
0.672251 0.744518 0
0.702251 0.744183 0
0.732341 0.74374 0
0.762615 0.743206 0
0.793118 0.742535 0
0.823926 0.741726 0
0.855085 0.740749 0
0.886595 0.739635 0
0.918502 0.738338 0
0.95079 0.736889 0
0.98349 0.735286 0
1 0.733516 0
1 0.731594 0
0.0579538 0.790982 0
0.100694 0.786191 0
0.133181 0.784268 0
0.165713 0.782452 0
0.206867 0.778424 0
0.249577 0.774121 0
0.280659 0.773083 0
0.308904 0.772946 0
0.335866 0.773297 0
0.36228 0.773953 0
0.388586 0.774762 0
0.41503 0.775631 0
0.441733 0.776486 0
0.468788 0.777279 0
0.496254 0.777981 0
0.524269 0.778531 0
0.552804 0.778897 0
0.58201 0.779049 0
0.61178 0.778973 0
0.641627 0.778836 0
0.671305 0.778668 0
0.700923 0.77847 0
0.730587 0.77821 0
0.760327 0.777859 0
0.79028 0.777401 0
0.820462 0.776822 0
0.850919 0.776089 0
0.881727 0.775235 0
0.912886 0.774197 0
0.944411 0.773022 0
0.976349 0.771679 0
1 0.770184 0
1 0.768521 0
0.0652934 0.823011 0
0.108049 0.818219 0
0.140536 0.816297 0
0.173037 0.814481 0
0.213931 0.810498 0
0.256611 0.806165 0
0.287449 0.805173 0
0.315373 0.805097 0
0.341955 0.805508 0
