EA 50 Cinematic Luts Pack/EA_Cinematic Lut (1).cube
TITLE "Generated by Resolve"
LUT_3D_SIZE 33
0 0.146715 0.206683
0 0.145327 0.204974
0 0.143008 0.202335
0.0365454 0.135836 0.194873
0.0667735 0.132601 0.191348
0.0908064 0.130953 0.189395
0.112612 0.130037 0.188159
0.13344 0.129656 0.187411
0.15375 0.129427 0.186831
0.17406 0.12932 0.186374
0.194339 0.128923 0.185718
0.215381 0.128191 0.184771
0.237812 0.127016 0.183444
0.261173 0.125551 0.181903
0.285924 0.12369 0.180026
0.310384 0.121935 0.178256
0.335286 0.120104 0.176425
0.359747 0.118257 0.174624
0.38436 0.116365 0.172793
0.409018 0.114504 0.171008
0.433661 0.112718 0.169299
0.458381 0.110964 0.16762
0.482887 0.10927 0.166018
0.507561 0.107668 0.164508
0.532021 0.10631 0.16321
0.556466 0.104997 0.161959
0.580606 0.103868 0.160876
0.604608 0.102815 0.159869
0.62829 0.102022 0.159091
0.652003 0.101518 0.158572
0.675425 0.101503 0.158465
0.698787 0.101534 0.158404
0.721325 0.101839 0.158587
0 0.160021 0.210925
0 0.15816 0.208743
0.0148013 0.153811 0.204211
0.057145 0.147631 0.19765
0.083299 0.14583 0.195453
0.106111 0.144915 0.194034
0.127047 0.144442 0.193149
0.147143 0.144137 0.192187
0.166781 0.143877 0.191699
0.186404 0.14345 0.190921
0.206683 0.14284 0.190082
0.228199 0.141863 0.188968
0.251331 0.140398 0.187457
0.275669 0.138582 0.185687
0.300191 0.136706 0.183886
0.325292 0.134798 0.18204
0.350149 0.132982 0.180346
0.37496 0.131182 0.178622
0.4 0.129335 0.176867
0.424643 0.127611 0.175219
0.449744 0.125872 0.173571
0.474449 0.124392 0.172152
0.499657 0.123064 0.170855
0.524407 0.121828 0.16968
0.549142 0.120607 0.168536
0.573724 0.119677 0.16762
0.598413 0.119005 0.166949
0.622827 0.118624 0.166522
0.647044 0.118364 0.166186
0.670909 0.118425 0.166186
0.695109 0.119112 0.166583
0.718837 0.12018 0.167361
0.742519 0.121492 0.168338
0 0.17351 0.214862
0 0.171084 0.211948
0.0453498 0.163989 0.20441
0.0740978 0.161349 0.201389
0.0977951 0.159976 0.199466
0.119036 0.159136 0.198352
0.139223 0.158541 0.197543
0.158923 0.158175 0.197009
0.178775 0.157717 0.196307
0.198596 0.157153 0.195605
0.219699 0.156222 0.194568
0.242206 0.154894 0.19324
0.266209 0.153216 0.191562
0.290867 0.1514 0.189807
0.316152 0.149615 0.188128
0.341024 0.14786 0.186358
0.366094 0.146059 0.184619
0.391348 0.14432 0.18294
0.416388 0.142824 0.181476
0.44184 0.141314 0.180011
0.466804 0.139971 0.178714
0.49221 0.138659 0.177447
0.517464 0.13785 0.176562
0.54287 0.137087 0.175753
0.568002 0.136538 0.175113
0.593072 0.13611 0.174563
0.617945 0.136034 0.174334
0.643046 0.136416 0.174456
0.668086 0.137301 0.175082
0.693019 0.138521 0.175891
0.717372 0.139773 0.176791
0.741299 0.141421 0.177981
0.765042 0.143435 0.179477
0 0.186923 0.218601
0.0304875 0.180667 0.211948
0.0643473 0.176394 0.207431
0.0893111 0.174517 0.205341
0.11136 0.173404 0.204013
0.131838 0.172686 0.203098
0.151781 0.172244 0.202472
0.171405 0.17174 0.201755
0.190967 0.171237 0.201114
0.211933 0.170397 0.200137
0.2336 0.169436 0.199084
0.257542 0.167895 0.197498
0.282048 0.166217 0.195804
0.30721 0.164431 0.19408
0.332647 0.16289 0.192432
0.357839 0.161395 0.190906
0.383383 0.159884 0.189364
0.408576 0.158526 0.187961
0.434195 0.157229 0.186618
0.459693 0.156268 0.18555
0.485756 0.155459 0.184741
0.511421 0.154971 0.183978
0.537194 0.154406 0.183322
0.562814 0.15433 0.182925
0.588815 0.154635 0.182895
0.614633 0.155337 0.1832
0.640299 0.156176 0.183597
0.665553 0.157275 0.184237
0.690974 0.158938 0.185306
0.715877 0.160739 0.186572
0.740414 0.162783 0.187976
0.764508 0.164996 0.189548
0.787945 0.167483 0.191333
0.00910964 0.198672 0.221378
0.0533761 0.191546 0.214038
0.0804456 0.189029 0.211353
0.103441 0.18761 0.20972
0.124361 0.186725 0.208637
0.144442 0.186145 0.207828
0.164233 0.185809 0.207202
0.183917 0.185412 0.206561
0.20444 0.184817 0.205707
0.225498 0.1841 0.204761
0.249042 0.182803 0.203296
0.273442 0.18143 0.201785
0.298894 0.17998 0.200259
0.324544 0.178592 0.198703
0.349859 0.177234 0.197314
0.375616 0.176013 0.195834
0.401251 0.175143 0.19472
0.427436 0.174304 0.193637
0.453162 0.173663 0.192706
0.479347 0.173114 0.191943
0.505745 0.173266 0.191592
0.532479 0.173541 0.191501
0.558892 0.174136 0.191546
0.58526 0.174823 0.191714
0.61146 0.175769 0.192096
0.637446 0.177096 0.192752
0.663401 0.178683 0.193729
0.688975 0.180758 0.194858
0.714107 0.182788 0.196094
0.738613 0.185046 0.197452
0.76286 0.187503 0.198993
0.786496 0.190219 0.200778
0.809705 0.193088 0.202625
0.0394293 0.20737 0.221225
0.0704509 0.203769 0.217395
0.0947433 0.202029 0.215381
0.116487 0.201053 0.214069
0.137072 0.200504 0.213275
0.157015 0.200183 0.212482
0.176806 0.199847 0.211872
0.196902 0.199557 0.211093
0.218036 0.199161 0.210285
0.240772 0.198413 0.209186
0.264866 0.19736 0.207782
0.290166 0.196094 0.206241
0.316182 0.195132 0.204913
0.342123 0.194247 0.2038
0.368277 0.193484 0.202548
0.39408 0.192874 0.201541
0.420615 0.192401 0.200626
0.447013 0.192477 0.200107
0.474113 0.192782 0.199817
0.500984 0.193545 0.199771
0.527855 0.194217 0.199771
0.554437 0.195193 0.199893
0.581216 0.196429 0.200305
0.607782 0.197925 0.200977
0.634073 0.199542 0.201694
0.660166 0.201297 0.202594
0.685771 0.203647 0.203723
0.710948 0.205921 0.204868
0.73547 0.208438 0.206088
0.759533 0.211124 0.207431
0.783123 0.214008 0.208988
0.806287 0.217136 0.210712
0.828885 0.220493 0.212818
0.058793 0.219196 0.22356
0.0850843 0.217044 0.220981
0.107759 0.215915 0.219333
0.128618 0.21532 0.218296
0.149142 0.215183 0.217502
0.169238 0.215106 0.216968
0.18938 0.215122 0.216297
0.210361 0.214939 0.215595
0.232242 0.214725 0.214755
0.256535 0.214145 0.213581
0.281697 0.213565 0.212482
0.307927 0.213016 0.21117
0.333989 0.212467 0.210071
0.360403 0.212238 0.209003
0.387091 0.212436 0.208423
0.414374 0.212787 0.207965
0.441138 0.213367 0.20766
0.468345 0.213977 0.207416
0.49543 0.215259 0.207568
0.522652 0.21648 0.207752
0.549462 0.21799 0.207965
0.576043 0.219593 0.208286
0.602548 0.221302 0.208743
0.628626 0.22327 0.209369
0.654719 0.22533 0.210178
0.680186 0.227756 0.211124
0.705684 0.230243 0.212345
0.730159 0.232959 0.213443
0.754437 0.235843 0.214786
0.778195 0.238941 0.216342
0.801389 0.242222 0.217975
0.824079 0.245686 0.219928
0.846494 0.249577 0.221988
0.0733043 0.232975 0.226444
0.097612 0.231693 0.22443
0.119509 0.231205 0.223209
0.140368 0.231235 0.222324
0.160388 0.231388 0.221729
0.180758 0.231708 0.221057
0.201785 0.232136 0.22063
0.223789 0.232502 0.220035
0.247425 0.232486 0.219104
0.272389 0.232349 0.218128
0.299107 0.232502 0.217121
0.325902 0.232822 0.216434
0.35285 0.233371 0.215625
0.379507 0.234043 0.215045
0.406622 0.234821 0.214542
0.433585 0.235966 0.214328
0.461082 0.237201 0.214374
0.488197 0.238804 0.21445
0.515648 0.24036 0.21474
0.542504 0.242054 0.214847
0.569055 0.243961 0.215213
0.595758 0.245899 0.215625
0.621714 0.248081 0.216175
0.647791 0.250278 0.216846
0.673365 0.252979 0.217823
0.698955 0.255634 0.219013
0.723568 0.258534 0.220111
0.748104 0.261448 0.221485
0.771893 0.264668 0.22295
0.795392 0.26807 0.224598
0.818387 0.271687 0.226551
0.840803 0.275517 0.228473
0.86302 0.279698 0.230961
0.0848249 0.248981 0.229343
0.108034 0.248371 0.22771
0.129702 0.248676 0.226764
0.150698 0.249226 0.226154
0.171054 0.250111 0.225544
0.191791 0.25098 0.225055
0.213611 0.251896 0.224491
0.236896 0.252918 0.224033
0.262577 0.253681 0.223438
0.28925 0.25449 0.222705
0.31635 0.255238 0.222141
0.343557 0.256138 0.221408
0.370611 0.257389 0.221088
0.398169 0.258686 0.220783
0.425193 0.260197 0.220615
0.452567 0.261646 0.220569
0.47982 0.263569 0.220661
0.507195 0.265339 0.220935
0.534051 0.267292 0.221073
0.560922 0.269215 0.221469
0.587549 0.271336 0.22179
0.613687 0.273701 0.222416
0.640024 0.276081 0.223255
0.665583 0.278752 0.224048
0.691447 0.281636 0.22536
0.716304 0.284642 0.226459
0.741115 0.287724 0.227878
0.765164 0.291081 0.229358
0.788907 0.294545 0.230991
0.81207 0.298207 0.232914
0.834852 0.302159 0.234958
0.857267 0.306447 0.237537
0.878828 0.31075 0.239841
0.0932784 0.267948 0.231937
0.116091 0.26833 0.23064
0.138094 0.269047 0.229892
0.159182 0.270375 0.229389
0.181201 0.271931 0.229206
0.20354 0.273732 0.229099
0.226764 0.275364 0.228855
0.251926 0.276616 0.228382
0.278569 0.27805 0.227939
0.306142 0.279301 0.227573
0.333715 0.280659 0.227039
0.36112 0.282063 0.226841
0.388602 0.283574 0.226459
0.415824 0.285283 0.226337
0.443366 0.287007 0.226368
0.470603 0.288869 0.226352
0.49807 0.290974 0.22678
0.5252 0.293019 0.226886
0.552132 0.295201 0.227466
0.578958 0.297505 0.227863
0.605249 0.299962 0.228534
0.631724 0.302403 0.229358
0.657572 0.305287 0.230289
0.683665 0.308278 0.231586
0.708721 0.311391 0.232685
0.733654 0.314534 0.234073
0.7579 0.317937 0.235538
0.781857 0.321508 0.237232
0.805325 0.325261 0.239322
0.82826 0.329198 0.241291
0.850843 0.33341 0.243824
0.87277 0.337911 0.246265
0.894087 0.342428 0.248936
0.100923 0.289998 0.234562
0.125124 0.291157 0.233875
0.147723 0.292943 0.233494
0.170428 0.294759 0.233448
0.192752 0.296925 0.233417
0.216495 0.299016 0.233417
0.241398 0.30103 0.233539
0.26804 0.302708 0.233112
0.295689 0.304372 0.232959
0.323339 0.305898 0.232441
0.351049 0.307515 0.232303
0.378668 0.309255 0.232013
0.405997 0.311086 0.231983
0.433631 0.312886 0.231922
0.461173 0.314992 0.232059
0.488731 0.31725 0.232563
0.515969 0.319463 0.232761
0.542962 0.321736 0.233341
0.569863 0.324147 0.233738
0.596353 0.326757 0.23447
0.623056 0.329381 0.235325
0.648981 0.332265 0.23621
0.675196 0.335256 0.237476
0.700572 0.338582 0.238727
0.725811 0.341817 0.240223
0.750271 0.345342 0.241749
0.77438 0.348959 0.243488
0.798184 0.352682 0.245518
0.82118 0.356725 0.247547
0.844251 0.361074 0.250126
0.866239 0.365545 0.252491
0.887877 0.370016 0.255238
0.908583 0.374807 0.257923
0.112215 0.314733 0.238178
0.136049 0.316609 0.237705
0.159747 0.318822 0.237842
0.182956 0.321386 0.238025
0.206882 0.323766 0.2383
0.231113 0.326146 0.238499
0.257664 0.328176 0.23827
0.284993 0.330129 0.23827
0.312856 0.331823 0.237766
0.340673 0.333547 0.237613
0.368246 0.335439 0.237339
0.395972 0.337392 0.237369
0.42359 0.339467 0.237552
0.451102 0.341619 0.237598
0.478767 0.343938 0.238132
0.506249 0.34638 0.238453
0.533486 0.348821 0.239109
0.560555 0.351385 0.239551
0.587152 0.354101 0.240269
0.613947 0.356786 0.241093
0.640024 0.359777 0.242069
0.66659 0.362982 0.243519
0.692058 0.366308 0.244785
0.71754 0.369543 0.246357
0.742107 0.373114 0.247883
0.766491 0.376791 0.249638
0.790448 0.380621 0.251667
0.813718 0.384665 0.253666
0.836805 0.3888 0.256062
0.859129 0.3935 0.25864
0.881056 0.397971 0.261479
0.902022 0.402762 0.264256
0.92253 0.407645 0.267491
0.125032 0.341604 0.242374
0.149416 0.343893 0.242435
0.172869 0.346548 0.242573
0.196719 0.349218 0.242985
0.221057 0.351858 0.243244
0.246677 0.354192 0.243214
0.273899 0.356313 0.24329
0.301885 0.358282 0.242939
0.330037 0.360159 0.242863
0.357733 0.362264 0.24271
0.385626 0.364309 0.242756
0.413138 0.366522 0.242954
0.440848 0.368795 0.243061
0.468757 0.371405 0.243748
0.4963 0.373892 0.244038
0.523613 0.37641 0.244709
0.55079 0.379049 0.245197
0.5776 0.381857 0.246036
0.604562 0.384695 0.247044
0.630793 0.387747 0.248005
0.657221 0.390799 0.249348
0.683177 0.394339 0.250751
0.708797 0.397696 0.252384
0.733745 0.401297 0.25388
0.758404 0.404944 0.255787
0.782452 0.408804 0.257633
0.805829 0.412894 0.25977
0.829221 0.417121 0.262364
0.851652 0.421744 0.264973
0.873808 0.426169 0.267857
0.894911 0.43093 0.270695
0.915724 0.435752 0.273899
0.935592 0.440864 0.277211
0.138735 0.369619 0.247013
0.162554 0.372442 0.247135
0.186557 0.375219 0.247547
0.210697 0.378042 0.247837
0.235691 0.380774 0.248081
0.263096 0.383215 0.248356
0.290639 0.385397 0.248142
0.318837 0.387366 0.248127
0.346792 0.389517 0.247974
0.374838 0.391745 0.248112
0.402594 0.39411 0.248325
0.430365 0.396521 0.248478
0.458061 0.399023 0.249027
0.485985 0.401801 0.249516
0.513436 0.404456 0.250324
0.54081 0.407218 0.250919
0.567895 0.41001 0.251957
0.594797 0.41294 0.252888
0.621195 0.416068 0.25391
0.647944 0.419287 0.25536
0.673899 0.422827 0.256718
0.699718 0.426169 0.25832
0.724956 0.42974 0.259815
0.749691 0.433433 0.26186
0.773983 0.437308 0.263935
0.797574 0.441382 0.266087
0.820981 0.445472 0.268666
0.843793 0.450156 0.271382
0.866133 0.454566 0.274281
0.887449 0.459297 0.277058
0.908568 0.464057 0.280201
0.928618 0.469108 0.283421
0.94786 0.474372 0.286839
0.151705 0.398856 0.251637
0.176226 0.401724 0.252064
0.200275 0.404822 0.252598
0.22504 0.407767 0.252888
0.251667 0.4103 0.253193
0.279149 0.412909 0.253254
0.307698 0.415015 0.253285
0.335637 0.41738 0.253223
0.363973 0.419623 0.253422
0.391714 0.42211 0.253574
0.419577 0.424628 0.253864
0.447623 0.427344 0.254627
0.475502 0.430152 0.255161
0.503029 0.432868 0.256031
0.53048 0.43566 0.256672
0.557717 0.438575 0.257755
0.584802 0.441581 0.258686
0.611475 0.444709 0.259815
0.638086 0.447852 0.261128
0.664454 0.451499 0.262638
0.690379 0.454902 0.264408
0.715724 0.458488 0.266041
0.740688 0.462165 0.268193
0.765164 0.465995 0.270283
0.788922 0.470039 0.272511
0.812543 0.474098 0.275059
0.835554 0.478721 0.277699
0.858091 0.483116 0.280598
0.879667 0.487755 0.283345
0.900969 0.492424 0.286519
0.921248 0.497383 0.28983
0.940978 0.502495 0.293111
0.959487 0.507897 0.297047
0.16556 0.428809 0.256687
0.189532 0.432044 0.257237
0.214435 0.435126 0.257618
0.240589 0.438148 0.258244
0.267887 0.440864 0.258335
0.296147 0.443153 0.258457
0.324208 0.445594 0.258427
0.352804 0.447929 0.258732
0.380636 0.450553 0.259113
0.408865 0.453086 0.259525
0.436591 0.455772 0.260136
0.464759 0.458793 0.260853
0.492485 0.461585 0.261769
0.520058 0.464485 0.26244
0.547402 0.467414 0.263554
0.574578 0.470451 0.2645
0.601541 0.473548 0.265736
0.628168 0.476814 0.267247
0.654795 0.4804 0.268833
0.680751 0.483818 0.270756
0.706294 0.487358 0.27245
0.731411 0.49102 0.274647
0.756085 0.49482 0.276692
0.780026 0.498833 0.27892
0.803876 0.502831 0.281422
0.827054 0.507424 0.284092
0.84979 0.511696 0.286976
0.87155 0.516258 0.289738
0.89308 0.520836 0.292988
0.913649 0.525673 0.296223
0.933593 0.530663 0.299458
0.952575 0.535836 0.303243
0.970626 0.541482 0.307012
0.179171 0.459678 0.26183
0.204074 0.462882 0.262501
0.229267 0.466056 0.263035
0.256519 0.469123 0.263401
0.284566 0.471656 0.263752
0.312825 0.474205 0.263844
0.341482 0.4766 0.264225
0.369421 0.479271 0.264652
0.397833 0.481865 0.265141
0.425696 0.484703 0.265843
0.453986 0.487739 0.26656
0.481788 0.490562 0.267521
0.509422 0.493492 0.268284
0.536934 0.496452 0.269535
0.564202 0.499519 0.270741
0.591211 0.502663 0.272053
0.618006 0.505852 0.273625
0.644831 0.509453 0.275303
0.670924 0.51284 0.277241
0.696651 0.516365 0.27892
0.72195 0.519982 0.281086
0.746777 0.523735 0.283101
0.770947 0.527642 0.285374
0.794949 0.531579 0.287922
0.818158 0.535943 0.290517
0.841291 0.540261 0.293538
0.863188 0.544732 0.2963
0.884932 0.549172 0.299474
0.905684 0.553887 0.302602
0.92607 0.558679 0.305943
0.945495 0.563714 0.309438
0.963729 0.569299 0.313191
0.981292 0.574792 0.317311
0.193378 0.491035 0.267323
0.218814 0.494392 0.268055
0.245228 0.497765 0.268757
0.273136 0.500389 0.2692
0.301289 0.503044 0.269398
0.330098 0.505547 0.269871
0.358297 0.508278 0.270283
0.386786 0.510918 0.270863
0.414664 0.513741 0.271565
0.443122 0.516854 0.272419
0.471061 0.519707 0.273533
0.498787 0.522683 0.274464
0.526497 0.525597 0.275837
0.553735 0.528695 0.277165
0.581018 0.531777 0.278553
0.607797 0.534997 0.280171
0.634607 0.538445 0.281758
0.66099 0.541924 0.283787
0.686885 0.545388 0.285466
0.712322 0.548943 0.287678
0.737316 0.552605 0.28983
0.761852 0.55639 0.292165
0.78584 0.560296 0.294636
0.809384 0.56463 0.297276
0.832547 0.568734 0.300175
0.854658 0.573068 0.302876
0.876661 0.577401 0.305989
0.897627 0.581994 0.30901
0.918227 0.586603 0.312322
0.937865 0.591424 0.315709
0.956329 0.596613 0.319219
0.974456 0.602106 0.3234
0.991028 0.607691 0.32726
0.208225 0.522866 0.273228
0.234211 0.526513 0.274189
0.261982 0.529335 0.274754
0.289815 0.532174 0.275105
0.318822 0.534691 0.275593
0.347112 0.537438 0.276051
0.375723 0.540108 0.276799
0.403769 0.542962 0.277684
0.432135 0.545998 0.278614
0.460243 0.548974 0.279973
0.488106 0.551904 0.280995
0.516014 0.554803 0.282414
0.543252 0.557916 0.283742
0.570794 0.560937 0.285222
0.597543 0.564172 0.286809
0.624598 0.567651 0.288487
0.650996 0.570977 0.290517
0.677043 0.574365 0.292271
0.702632 0.577844 0.294545
0.727825 0.581415 0.296696
0.752483 0.585077 0.299046
0.776654 0.588861 0.301442
0.800244 0.592828 0.303929
0.823713 0.597086 0.306889
0.846189 0.601251 0.309499
0.868177 0.605447 0.312581
0.889448 0.609812 0.315618
0.910231 0.614298 0.318807
0.930159 0.618967 0.322148
0.949157 0.623957 0.325597
0.967376 0.629145 0.329549
0.984176 0.634501 0.333288
1 0.639872 0.337469
0.223819 0.555261 0.279591
0.25095 0.558419 0.280461
0.27863 0.561364 0.280964
0.307637 0.563928 0.281621
0.336004 0.56672 0.282383
0.364813 0.569375 0.283192
0.392935 0.572229 0.284184
0.421454 0.575357 0.285313
0.449699 0.578195 0.286625
0.477516 0.58117 0.287709
0.505455 0.584054 0.289158
0.532876 0.587121 0.290471
0.560464 0.590082 0.292042
0.58732 0.593256 0.293706
0.61442 0.596414 0.295415
0.641016 0.599939 0.297551
0.66717 0.603235 0.299321
0.692912 0.606592 0.301579
0.718242 0.61004 0.303655
0.743099 0.613611 0.30602
0.767483 0.617258 0.308385
0.791302 0.621195 0.310903
0.814847 0.625147 0.313695
0.837385 0.629191 0.316274
0.859648 0.633234 0.319326
0.881193 0.637446 0.322286
0.902068 0.641718 0.325414
0.922225 0.646159 0.328618
0.941558 0.650797 0.331868
0.960082 0.655802 0.33576
0.977386 0.661006 0.339452
0.993957 0.666133 0.343511
1 0.671489 0.347601
0.240345 0.587533 0.286519
0.267948 0.590555 0.287236
0.29662 0.59324 0.288182
0.325109 0.596002 0.289021
0.35407 0.598627 0.289921
0.382376 0.601465 0.290959
0.41088 0.604318 0.292119
0.439323 0.607385 0.293431
0.467048 0.610376 0.294606
0.495171 0.613184 0.296117
0.522545 0.616205 0.297658
0.550271 0.61912 0.299214
0.577234 0.622217 0.300954
0.604532 0.62536 0.30277
0.631083 0.628687 0.304799
0.657374 0.631891 0.306538
0.683253 0.635142 0.308766
0.708721 0.638498 0.31078
0.733761 0.641886 0.313115
0.758236 0.64538 0.31545
0.782238 0.648997 0.317845
0.805936 0.652873 0.320668
0.82884 0.656825 0.323262
0.851164 0.66067 0.326223
0.872831 0.664668 0.32903
0.893889 0.668803 0.332128
0.914366 0.673045 0.335256
0.933883 0.677455 0.33843
0.952895 0.682185 0.342184
0.970397 0.687068 0.345739
0.987228 0.691997 0.349783
1 0.697139 0.353796
1 0.702266 0.357809
0.257572 0.619684 0.293935
0.285939 0.622461 0.295048
0.314549 0.625223 0.295903
0.343557 0.627848 0.296895
0.371878 0.630671 0.297993
0.400687 0.633539 0.299245
0.429007 0.636484 0.300603
0.45687 0.639384 0.301885
0.484977 0.642176 0.303471
0.512413 0.645136 0.305058
0.540215 0.647944 0.306661
0.567224 0.65095 0.3084
0.594491 0.653864 0.310109
0.621241 0.657145 0.312169
0.647745 0.660319 0.313954
0.673701 0.663417 0.316152
0.699275 0.666606 0.318227
0.724437 0.669886 0.32047
0.749096 0.673243 0.322789
0.773434 0.676631 0.325109
0.797147 0.680415 0.327901
0.820218 0.684047 0.330343
0.842725 0.687755 0.333272
0.864576 0.6916 0.336019
0.885817 0.69546 0.33904
0.906401 0.699443 0.342077
0.926268 0.703593 0.345281
0.945464 0.707942 0.348684
0.963363 0.712764 0.3523
0.980484 0.717372 0.356161
0.996475 0.72224 0.360006
1 0.727169 0.364034
1 0.732219 0.368124
0.275959 0.65153 0.302098
0.304417 0.654307 0.303014
0.333318 0.656931 0.304158
0.361944 0.659617 0.305303
0.390402 0.662348 0.306615
0.418952 0.665309 0.308141
0.446983 0.668208 0.309545
0.475044 0.670924 0.311147
0.502556 0.673793 0.312673
0.530373 0.676539 0.314321
0.557473 0.679454 0.316075
0.584863 0.682261 0.317784
0.611704 0.68545 0.31986
0.638224 0.68838 0.321599
0.664317 0.691371 0.323812
0.690059 0.694408 0.325872
0.715343 0.697475 0.328038
0.740047 0.700648 0.330282
0.764508 0.703868 0.332601
0.788205 0.707332 0.335149
0.811688 0.710948 0.337667
0.834257 0.714412 0.340505
0.856275 0.717968 0.343282
0.877775 0.72166 0.346181
0.898543 0.725475 0.349218
0.918685 0.729335 0.3523
0.938125 0.73344 0.355596
0.95639 0.737865 0.359045
0.973816 0.74226 0.362753
0.989975 0.746929 0.366476
1 0.751537 0.370413
1 0.756313 0.374426
1 0.761105 0.378454
0.294697 0.683162 0.310674
0.323568 0.685771 0.311833
0.352239 0.688411 0.313085
0.380728 0.691112 0.314488
0.409384 0.693996 0.316045
0.437324 0.696742 0.317433
0.465492 0.699382 0.319051
0.49305 0.702159 0.320562
0.520851 0.704784 0.32224
0.547967 0.707546 0.323964
0.575372 0.710231 0.325689
0.60209 0.713161 0.327657
0.628931 0.716136 0.329519
0.655222 0.718883 0.33164
0.680903 0.721767 0.333639
0.706508 0.724651 0.33579
0.731273 0.727703 0.338048
0.755886 0.730678 0.340291
0.77969 0.733989 0.342809
0.803357 0.737255 0.345327
0.825956 0.740612 0.348028
0.848203 0.743969 0.350744
0.869734 0.747402 0.353552
0.890684 0.750896 0.356451
0.91107 0.754528 0.359472
0.930648 0.758328 0.362646
0.949569 0.762509 0.366033
0.967102 0.766598 0.369589
0.983536 0.770916 0.373281
0.999557 0.775326 0.37705
1 0.779873 0.381018
1 0.78436 0.384924
1 0.788861 0.388922
0.31429 0.714321 0.319921
0.342885 0.716884 0.321187
0.371405 0.719463 0.322545
0.399878 0.722148 0.324025
0.428077 0.724971 0.325582
0.45623 0.727474 0.327184
0.483742 0.730129 0.328847
0.511666 0.732647 0.330465
0.538842 0.735317 0.332235
0.566232 0.737835 0.333928
0.593072 0.740658 0.335897
0.620035 0.743328 0.337774
0.646128 0.746059 0.339773
0.672023 0.74876 0.34168
0.697719 0.7514 0.343801
0.722515 0.754208 0.346014
0.747295 0.757 0.348226
0.77116 0.759976 0.350652
0.795102 0.76318 0.353231
0.817807 0.766232 0.35581
0.840146 0.769345 0.358358
0.861875 0.772595 0.361151
0.883085 0.775876 0.364004
0.903563 0.779248 0.366934
0.9234 0.782696 0.370001
0.942641 0.786526 0.373312
0.960571 0.790372 0.376822
0.977508 0.794339 0.380407
0.993454 0.798398 0.384039
1 0.802548 0.387808
1 0.80679 0.391653
1 0.811017 0.395605
1 0.815351 0.399512
0.334173 0.745007 0.32958
0.362661 0.747463 0.330938
0.391119 0.750134 0.332509
0.419379 0.752697 0.334081
0.447364 0.755199 0.335668
0.474891 0.757733 0.337346
0.502785 0.760082 0.338949
0.529946 0.76257 0.340688
0.557382 0.764965 0.342382
0.584222 0.767468 0.344213
0.611307 0.770153 0.346227
0.637537 0.77261 0.348104
0.663355 0.775128 0.350149
0.689143 0.77763 0.352132
0.714061 0.780285 0.354345
0.738964 0.782818 0.356497
0.762936 0.78555 0.358877
0.78703 0.788449 0.361364
0.809995 0.791318 0.363928
0.832502 0.794217 0.366415
0.854383 0.797131 0.369146
0.875669 0.800122 0.371893
0.896361 0.80325 0.374792
0.916518 0.806424 0.377844
0.936019 0.809934 0.381109
0.954391 0.81326 0.384451
0.971557 0.816831 0.38793
0.987945 0.820569 0.391608
1 0.824338 0.395331
1 0.828031 0.398962
1 0.831632 0.402625
1 0.835386 0.406394
1 0.839109 0.410224
0.354314 0.775051 0.339666
0.382605 0.777447 0.341176
0.411063 0.780072 0.342885
0.438911 0.782406 0.344457
0.466545 0.784741 0.34612
0.49427 0.787045 0.347692
0.521462 0.789425 0.349462
0.548928 0.791608 0.351141
0.575952 0.793896 0.352972
0.602884 0.796368 0.354971
0.629328 0.798657 0.356909
0.655192 0.801007 0.358968
0.68098 0.80325 0.360876
0.705959 0.805631 0.363012
0.731014 0.807965 0.365133
0.755154 0.810468 0.367498
0.779522 0.813123 0.370001
0.802609 0.815656 0.372549
0.825406 0.818204 0.375158
0.847608 0.820874 0.377859
0.869169 0.823606 0.380682
0.890166 0.826307 0.383474
0.910292 0.829114 0.386419
0.930098 0.832135 0.389517
0.948852 0.835279 0.392813
0.966247 0.838407 0.396048
0.982651 0.841489 0.399451
0.998093 0.844648 0.40293
1 0.847944 0.40647
1 0.851255 0.410132
1 0.854688 0.413809
1 0.857862 0.417395
1 0.86099 0.420981
0.374929 0.80444 0.350271
0.403189 0.806867 0.35198
0.431128 0.809079 0.353597
0.458778 0.811292 0.355261
0.486381 0.813397 0.356863
0.513603 0.815534 0.358602
0.540993 0.817594 0.360342
0.567971 0.819699 0.362219
0.595163 0.821988 0.364279
