EA 50 Cinematic Luts Pack/EA_Cinematic Lut (15).cube
TITLE "Generated by Resolve"
LUT_3D_SIZE 9
0 0 0
0.0110628 0 0
0.249683 0 0
0.452033 0 0
0.630686 0 0
0.809644 0 0
0.98909 0 0
1 0 0
1 0 0
0 0.0858625 0
0.0168154 0.10016 0
0.208377 0.0835126 0
0.414466 0.0564279 0
0.59411 0.0339055 0
0.77406 0.0140841 0
0.954314 0 0
1 0 0
1 0 0
0 0.22121 0
0.041413 0.226886 0
0.189456 0.222919 0
0.360449 0.208759 0
0.541512 0.185306 0
0.724804 0.162875 0
0.907851 0.141848 0
1 0.121233 0
1 0.100725 0
0 0.354955 0
0.0512245 0.362692 0
0.189578 0.358343 0
0.332677 0.351598 0
0.492058 0.337026 0
0.668254 0.316793 0
0.851789 0.294697 0
1 0.272404 0
1 0.250431 0
0.00891127 0.481621 0
0.0820325 0.490013 0
0.201953 0.489189 0
0.329168 0.487114 0
0.469795 0.479774 0
0.626062 0.466743 0
0.797787 0.448402 0
0.979278 0.426886 0
1 0.404181 0
0.0430152 0.607858 0
0.114046 0.616648 0
0.22295 0.617945 0
0.334234 0.620249 0
0.465049 0.616648 0
0.606287 0.609018 0
0.761181 0.596506 0
0.929839 0.579293 0
1 0.558618 0
0.0765545 0.73434 0
0.146426 0.743206 0
0.248188 0.745724 0
0.347799 0.750851 0
0.466636 0.75108 0
0.600137 0.746441 0
0.742672 0.738384 0
0.897231 0.726055 0
1 0.709545 0
0.109529 0.861021 0
0.178439 0.870008 0
0.275853 0.873167 0
0.36672 0.88011 0
0.474449 0.883421 0
0.600015 0.881575 0
0.735424 0.876234 0
0.879484 0.867689 0
1 0.855375 0
0.142016 0.987915 0
0.210651 0.996857 0
0.304814 1 0
0.389013 1 0
0.488136 1 0
0.60354 1 0
0.733867 1 0
0.871336 1 0
1 0.996872 0
0 0 0.0850843
0 0 0.1084
0.199664 0 0.188525
0.417517 0 0.221927
0.596826 0 0.241276
0.776532 0 0.261326
0.956695 0 0.281224
1 0 0.300771
1 0 0.319936
0 0.0987869 0.0252995
0.00704967 0.0929122 0.14255
0.16791 0.0793927 0.16672
0.376486 0.049134 0.174166
0.571801 0.0207828 0.183505
0.748119 0 0.20029
0.92723 0 0.219272
1 0 0.237995
1 0 0.256397
0 0.211734 0.0204318
0.0873732 0.199481 0.16228
0.173281 0.209277 0.186419
0.335851 0.197833 0.147082
0.534997 0.16878 0.130602
0.711406 0.144167 0.144076
0.890974 0.123781 0.16202
1 0.104097 0.180667
1 0.0843061 0.199191
0 0.343206 0
0.097734 0.335836 0.112032
0.197665 0.336873 0.173373
0.317693 0.339117 0.143999
0.482551 0.323781 0.101579
0.660243 0.2981 0.0992752
0.84242 0.274372 0.109377
1 0.252613 0.124468
1 0.231388 0.140978
0.037583 0.467521 0
0.115892 0.470481 0.0695964
0.207584 0.473487 0.127108
0.318212 0.475624 0.131502
0.456016 0.468528 0.110689
0.612543 0.452277 0.0881971
0.787366 0.430472 0.0788128
0.97055 0.407187 0.0818341
1 0.383963 0.0915847
0.0765698 0.592325 0
0.151293 0.597604 0.0444038
0.238544 0.601465 0.110445
0.330877 0.607248 0.134386
0.453223 0.605264 0.123873
0.591608 0.596872 0.101061
0.746685 0.582422 0.0780652
0.91783 0.562722 0.0635691
1 0.540017 0.0594797
0.112474 0.717876 0
0.185122 0.723964 0.0176242
0.270405 0.728359 0.088716
0.351888 0.736461 0.127489
0.45864 0.739178 0.130999
0.58764 0.73492 0.114977
0.727962 0.726192 0.0915847
0.882414 0.712398 0.0679179
1 0.69395 0.0501717
0.146914 0.843976 0
0.218387 0.850538 0
0.302617 0.8551 0.0644846
0.37705 0.8645 0.113741
0.472313 0.870237 0.130831
0.589593 0.870069 0.123812
0.722469 0.864607 0.105211
0.864744 0.855467 0.0813153
1 0.841993 0.0570993
0.180362 0.970459 0
0.251164 0.977325 0
0.334478 0.98204 0.0389258
0.404623 0.992142 0.0956741
0.491234 0.999786 0.123919
0.597574 1 0.127382
0.722713 1 0.114855
0.858061 0.994186 0.0945754
1 0.984619 0.070222
0 0 0.282506
0 0 0.26421
0.164584 0 0.303166
0.384176 0 0.392477
0.566781 0 0.427207
0.746227 0 0.452338
0.927169 0 0.475181
1 0 0.496483
1 0 0.516793
0 0.129412 0.179385
0 0.0995041 0.248905
0.134157 0.093843 0.266911
0.336446 0.0571298 0.350942
0.547143 0.0215152 0.382132
0.723308 0 0.399512
0.903014 0 0.419364
1 0 0.43917
1 0 0.458518
0 0.250584 0.0927443
0.0498207 0.222202 0.187472
0.17322 0.211719 0.30013
0.305715 0.204059 0.330175
0.507271 0.17174 0.335546
0.698543 0.140505 0.342016
0.873594 0.11812 0.357336
1 0.0992294 0.376135
1 0.0800183 0.394629
0 0.367269 0.0614176
0.120943 0.33608 0.182452
0.253086 0.318929 0.319402
0.311498 0.335439 0.350256
0.468116 0.323003 0.309941
0.66331 0.291157 0.290669
0.837522 0.264164 0.301762
1 0.243076 0.319005
1 0.222965 0.337224
0.0155337 0.482521 0.0395819
0.144579 0.468513 0.151812
0.263645 0.456168 0.269368
0.335958 0.463813 0.337285
0.450996 0.466026 0.307912
0.612741 0.448707 0.263508
0.788098 0.420508 0.258686
0.96968 0.395377 0.267384
1 0.372793 0.281666
0.0759747 0.600946 0.0184634
0.189899 0.593439 0.130739
0.282139 0.591669 0.227268
0.34612 0.60116 0.291279
0.452064 0.603571 0.295933
0.587549 0.595315 0.27396
0.74229 0.577096 0.2495
0.916228 0.553597 0.238422
1 0.529046 0.240192
0.125963 0.721981 0
0.22855 0.718303 0.106233
0.317556 0.719219 0.20209
0.377279 0.729763 0.27483
0.465064 0.735958 0.299168
0.585534 0.733257 0.287938
0.722759 0.723507 0.263767
0.877119 0.70753 0.239246
1 0.686397 0.223316
0.169757 0.844984 0
0.264134 0.8439 0.0805371
0.351125 0.845685 0.175051
0.409064 0.856931 0.25301
0.486168 0.865599 0.292348
0.591348 0.867918 0.29546
0.7196 0.862715 0.278508
0.85951 0.85275 0.25388
1 0.837629 0.22887
0.209598 0.969314 0
0.298314 0.970031 0.0539712
0.384192 0.972335 0.147524
0.441138 0.983825 0.228641
0.511269 0.993881 0.278553
0.605158 0.999405 0.295445
0.721981 0.998581 0.287755
0.854688 0.992142 0.268177
0.996963 0.981872 0.243153
0 0 0.441123
0.00500496 0 0.440955
0.171969 0 0.427237
0.329351 0 0.467536
0.527794 0 0.545693
0.716869 0 0.595758
0.899199 0 0.628641
1 0 0.654704
1 0 0.678157
0 0.138567 0.368261
0 0.102312 0.418296
0.162188 0.0903182 0.39556
0.305608 0.0746624 0.437949
0.51632 0.0295262 0.523323
0.695506 0.00306706 0.55581
0.874678 0 0.580484
1 0 0.60322
1 0 0.624338
0 0.287205 0.216739
0 0.256245 0.3131
0.166186 0.221302 0.377615
0.275044 0.221576 0.401556
0.470054 0.182559 0.483268
0.676585 0.143938 0.511452
0.850675 0.118517 0.526558
1 0.0986038 0.546075
1 0.0792096 0.565728
0 0.40499 0.129824
0.0193484 0.377981 0.225925
0.218143 0.344244 0.315328
0.31397 0.340429 0.434638
0.441138 0.332387 0.464302
0.638651 0.297185 0.466804
0.826963 0.262791 0.4701
1 0.238819 0.483833
1 0.219699 0.502403
0 0.516503 0.088426
0.09337 0.495415 0.194675
0.289403 0.458946 0.310445
0.393652 0.448142 0.453727
0.447623 0.465156 0.4851
0.601267 0.450904 0.442969
0.793576 0.415991 0.420615
0.96611 0.386481 0.429206
1 0.36463 0.44567
0.0230106 0.628458 0.0603189
0.170642 0.611246 0.1729
0.31342 0.592294 0.280201
0.404547 0.586236 0.404028
0.472282 0.594232 0.472328
0.585336 0.595621 0.442115
0.745007 0.576043 0.395453
0.918532 0.545205 0.387976
1 0.518578 0.395193
0.0943618 0.743252 0.0369116
0.230716 0.729702 0.1514
0.358923 0.717815 0.259297
0.423453 0.72253 0.362325
0.482765 0.732326 0.426642
0.586984 0.734173 0.430732
0.721233 0.724483 0.407324
0.874693 0.704158 0.380758
1 0.678904 0.36791
0.155215 0.861036 0.014435
0.280293 0.850675 0.12845
0.397284 0.842741 0.234516
0.458946 0.850507 0.337224
0.514183 0.861524 0.410437
0.600381 0.867308 0.434363
0.720058 0.8636 0.422141
0.856611 0.852354 0.396475
1 0.834791 0.370352
0.208225 0.981216 0
0.323766 0.973663 0.104311
0.432578 0.968338 0.208515
0.492287 0.97705 0.309972
0.545907 0.988937 0.388556
0.621607 0.99736 0.427649
0.726299 0.998993 0.430091
0.854307 0.992737 0.412055
0.994034 0.98146 0.38613
0 0 0.564401
0.000427253 0 0.568261
0.178698 0 0.552346
0.313893 0 0.553353
0.473121 0 0.603067
0.671382 0 0.684886
0.865675 0 0.745983
1 0 0.78735
1 0 0.818418
0 0.142763 0.507927
0 0.107012 0.566567
0.179248 0.0849622 0.561944
0.318288 0.0822461 0.554528
0.465965 0.0595407 0.590066
0.658396 0.0183413 0.663386
0.846281 0 0.712062
1 0 0.744671
1 0 0.77052
0 0.304891 0.36405
0 0.267811 0.491615
0.154833 0.226581 0.536675
0.306401 0.221393 0.520745
0.442084 0.202945 0.560357
0.646906 0.153079 0.641001
0.823758 0.124086 0.670939
1 0.102693 0.695003
1 0.0826581 0.717571
0 0.43949 0.226978
0 0.416678 0.339193
0.117784 0.380331 0.430213
0.308553 0.351629 0.500954
0.412161 0.351614 0.52459
0.602899 0.309453 0.603189
0.806317 0.267552 0.628077
0.978821 0.239719 0.640772
1 0.219409 0.659892
0 0.554955 0.148974
0 0.534874 0.252018
0.189471 0.502525 0.342794
0.359945 0.474693 0.438102
0.451255 0.47129 0.557839
0.576089 0.462089 0.586343
0.770626 0.423728 0.585672
0.956451 0.386023 0.585672
1 0.360403 0.597742
0 0.665568 0.103304
0.0951705 0.646708 0.210437
0.263691 0.620676 0.311742
0.431464 0.590173 0.433494
0.530892 0.579461 0.576883
0.583383 0.596185 0.60795
0.735134 0.579843 0.563714
0.925048 0.541711 0.53817
1 0.509636 0.544182
0.0243229 0.776562 0.0706951
0.179141 0.758587 0.181842
0.341085 0.737026 0.290089
0.45597 0.724392 0.403708
0.542184 0.718379 0.527581
0.608316 0.725948 0.595453
0.720455 0.726223 0.564126
0.878538 0.70425 0.515068
1 0.670695 0.504875
0.102663 0.889632 0.0443732
0.250004 0.873259 0.157961
0.400839 0.855512 0.268269
0.501686 0.850477 0.383032
0.561532 0.855482 0.486336
0.619165 0.864744 0.550118
0.722744 0.865766 0.553384
0.856229 0.85449 0.528405
1 0.832013 0.499672
0.171603 1 0.0205539
0.310491 0.990967 0.135103
0.45005 0.97641 0.244953
0.539773 0.975448 0.357977
0.597131 0.983856 0.461326
0.650874 0.994553 0.534218
0.736584 0.999619 0.557443
0.855924 0.994797 0.544076
0.99205 0.981994 0.516869
0 0 0.681224
0 0 0.687999
0.181704 0 0.672877
0.320729 0 0.665995
0.454154 0 0.677287
0.61735 0 0.733028
0.815244 0 0.815915
1 0 0.884642
1 0 0.933989
0 0.146929 0.633417
0 0.113207 0.683864
0.176242 0.0894179 0.68365
0.327428 0.0854353 0.674846
0.45626 0.0809339 0.674449
0.608698 0.0532387 0.718532
0.803113 0.0123598 0.796307
0.996582 0 0.855787
1 0 0.896513
0 0.313054 0.51075
0 0.27361 0.625666
0.144961 0.233341 0.679805
0.32549 0.218067 0.681956
0.459648 0.215427 0.674617
0.60061 0.187167 0.704616
0.788128 0.140841 0.772808
0.975296 0.110811 0.819944
1 0.0886854 0.852216
0 0.463508 0.352544
0 0.435889 0.480842
0.0791333 0.393927 0.60354
0.299245 0.358953 0.654871
0.446464 0.354345 0.639521
0.577371 0.332311 0.675532
0.777371 0.277424 0.751171
0.952377 0.245777 0.778439
1 0.223697 0.801831
0 0.589914 0.233295
0 0.570642 0.343252
0.0822003 0.542885 0.450538
0.261234 0.512428 0.547433
0.447044 0.483711 0.618173
0.548394 0.482597 0.640726
0.735912 0.437034 0.715908
0.936736 0.391699 0.737377
1 0.361395 0.747585
0 0.704189 0.159686
0 0.686122 0.264759
0.171145 0.661463 0.363226
0.332799 0.635004 0.459907
0.498009 0.606851 0.554879
0.587762 0.603082 0.67425
0.711345 0.592416 0.701289
0.903395 0.550744 0.697322
1 0.509697 0.693965
0 0.815076 0.111772
0.0932174 0.796597 0.21854
0.266697 0.773587 0.321523
0.407294 0.753841 0.429129
0.569863 0.723079 0.550607
0.66743 0.711681 0.693309
0.719539 0.72781 0.723796
0.869856 0.709239 0.677333
1 0.667842 0.648508
0.0230106 0.925933 0.0759136
0.180835 0.907454 0.185443
0.350225 0.885374 0.2925
0.484871 0.87071 0.407645
0.594873 0.858152 0.52134
0.679179 0.851392 0.644465
0.744778 0.858244 0.71162
0.856489 0.857267 0.679042
1 0.832837 0.627512
0.105684 1 0.0465553
0.258778 1 0.158709
0.420661 0.999908 0.268177
0.54432 0.989197 0.385534
0.640848 0.984802 0.500923
0.699001 0.989273 0.603693
0.756024 0.997726 0.666682
0.859464 0.997787 0.668971
0.992416 0.984878 0.642344
0 0 0.79411
0 0 0.803021
0.181079 0 0.789868
0.327443 0 0.781018
0.458106 0 0.777859
0.595392 0 0.799344
0.762371 0 0.85893
0.960204 0 0.941955
1 0 1
0 0.151583 0.751583
0 0.118853 0.796368
0.169665 0.0937209 0.799191
0.331044 0.0870069 0.791333
0.465553 0.0864424 0.784909
0.594949 0.07776 0.793317
0.753414 0.0483253 0.844144
0.948486 0.00749218 0.923384
1 0 0.99028
0 0.318013 0.647501
0 0.278233 0.746975
0.135561 0.240558 0.793469
0.323903 0.223926 0.800427
0.471031 0.220829 0.792508
0.596475 0.21413 0.789899
0.743191 0.180514 0.828077
0.934249 0.135454 0.901686
1 0.101732 0.959457
0 0.47834 0.491524
0 0.444633 0.623514
0.0714275 0.401129 0.734356
0.291249 0.367575 0.795209
0.467399 0.352865 0.79794
0.599649 0.349493 0.789868
0.734966 0.315404 0.814008
0.918044 0.263813 0.876951
1 0.232197 0.922499
0 0.61799 0.343191
0 0.595209 0.464729
0.0295415 0.563455 0.588891
0.224414 0.52784 0.717952
0.439612 0.492912 0.769314
0.585443 0.48809 0.753735
0.712673 0.462165 0.785885
0.908339 0.402136 0.856352
1 0.367742 0.880903
0 0.740124 0.236698
0 0.721614 0.344945
0.0787823 0.698299 0.450889
0.227008 0.676844 0.564477
0.400748 0.646052 0.661036
0.584588 0.616526 0.730968
0.684749 0.614023 0.752132
0.869551 0.56492 0.823774
1 0.516091 0.841749
0 0.853956 0.165896
0 0.835813 0.270863
0.171069 0.813779 0.371984
0.315892 0.795773 0.477104
0.472267 0.768994 0.573465
0.635187 0.739712 0.667308
0.724483 0.735271 0.786007
0.847272 0.723018 0.81146
1 0.677989 0.804135
0 0.965118 0.116274
0.0901808 0.946593 0.222492
0.265003 0.924102 0.325246
0.411383 0.908171 0.43534
0.547097 0.888487 0.542992
0.707439 0.856672 0.663417
0.804211 0.844297 0.805142
0.856413 0.859693 0.834897
1 0.838819 0.786145
0.0202945 1 0.0778363
0.179751 1 0.186206
0.352193 1 0.291691
0.494499 1 0.40589
0.624857 1 0.521721
0.732982 0.992599 0.634699
0.816434 0.984787 0.756771
0.882002 0.990784 0.823072
0.993515 0.988479 0.789181
0 0 0.904372
0 0 0.914885
0.178088 0 0.903975
0.331701 0 0.894499
0.466636 0 0.888624
0.595926 0 0.89041
0.738155 0 0.919753
0.908553 0 0.981933
1 0 1
0 0.156725 0.865309
0 0.124712 0.906249
0.161746 0.098497 0.911192
0.330648 0.0893568 0.905318
0.473045 0.0881056 0.897459
0.601526 0.0867323 0.893278
0.735805 0.0740063 0.911559
0.899306 0.0433509 0.966857
1 0.00263981 1
0 0.322332 0.775418
0 0.283131 0.86215
0.124819 0.246433 0.902983
0.317662 0.22858 0.913069
0.475151 0.222919 0.906279
0.608133 0.222004 0.899474
0.734554 0.210147 0.904723
0.888777 0.175662 0.9505
1 0.131121 1
0 0.487526 0.631693
0 0.449836 0.757259
0.0624704 0.406119 0.852781
0.28278 0.375723 0.906569
0.467094 0.360037 0.914458
0.613153 0.357031 0.90663
0.736294 0.347814 0.901518
0.877775 0.308156 0.933639
1 0.258869 1
0 0.638437 0.470863
0 0.61033 0.600702
0.00154116 0.572671 0.728786
0.218021 0.536355 0.84683
0.433371 0.503288 0.908171
0.608118 0.48835 0.910658
0.739559 0.483955 0.901564
0.869703 0.443885 0.919738
1 0.386984 0.977356
0 0.77084 0.335744
0 0.750027 0.451942
0.0049897 0.723308 0.569558
0.175601 0.698665 0.700832
0.365667 0.663188 0.83003
0.578927 0.627482 0.880613
0.724437 0.622156 0.864546
0.848478 0.592233 0.892668
1 0.526986 0.957931
0 0.890532 0.237934
0 0.872145 0.345022
0.0747387 0.849699 0.449348
0.224506 0.833585 0.562493
0.367864 0.812222 0.676173
0.5393 0.78027 0.771572
0.72224 0.749645 0.840421
0.821698 0.745632 0.860059
1 0.692912 0.928084
0 1 0.168917
0 0.985916 0.273808
0.167926 0.963806 0.374838
0.316426 0.94905 0.483223
0.456718 0.931456 0.588769
0.610819 0.903563 0.684001
0.772503 0.872862 0.77644
0.861814 0.867628 0.894331
0.984085 0.853712 0.91812
0 1 0.117937
0.0865949 1 0.223804
0.262058 1 0.326024
0.409888 1 0.436011
0.552178 1 0.54696
0.685985 1 0.653895
0.845167 0.990539 0.772961
0.941649 0.97705 0.913573
0.994186 0.991669 0.942535
0 0.0055848 1
0 0 1
0.17348 0 1
0.333227 0 1
0.473548 0 0.999207
0.604212 0 0.995209
0.735439 0 1
0.882612 0 1
1 0 1
0 0.162173 0.97615
0 0.130694 1
0.153185 0.103716 1
0.32784 0.0926528 1
0.477562 0.0894636 1
0.61117 0.0895399 1
0.738964 0.0859388 1
0.878798 0.0697948 1
1 0.0381933 1
0 0.326741 0.896849
0 0.288441 0.973648
0.114214 0.252461 1
0.309926 0.233539 1
0.474937 0.225452 1
0.616342 0.224384 1
0.743709 0.221698 1
0.875456 0.205631 1
1 0.170611 1
0 0.493935 0.767056
0 0.454353 0.882948
0.0533303 0.411185 0.965743
0.272206 0.381781 1
0.461158 0.364981 1
0.617731 0.359579 1
0.750256 0.357992 1
0.874205 0.34284 1
1 0.303227 1
0 0.652705 0.606394
0 0.619699 0.738735
0 0.578058 0.860349
0.209354 0.541634 0.963165
0.425772 0.512306 1
0.609064 0.496757 1
0.755108 0.493553 1
0.876448 0.481712 1
1 0.435935 1
0 0.795285 0.45275
0 0.770703 0.577478
0 0.738643 0.70338
0.148028 0.708309 0.838773
0.36051 0.672938 0.957763
0.574395 0.639582 1
0.748806 0.624109 1
0.879911 0.61857 1
1 0.572457 1
0 0.922957 0.329137
0 0.90312 0.441962
0 0.878386 0.554238
0.15111 0.858976 0.679164
0.317647 0.835218 0.811322
0.505867 0.799084 0.939864
0.718273 0.76231 0.98938
0.863966 0.756344 0.972671
0.985046 0.722332 0.996719
0 1 0.237415
0 1 0.343786
0.0707408 1 0.446952
0.220462 0.985321 0.558556
0.366262 0.970184 0.672694
0.507729 0.948104 0.785657
0.677913 0.914717 0.879622
0.860441 0.882872 0.947234
0.959442 0.877272 0.965286
0 1 0.169604
0 1 0.274403
0.164431 1 0.375341
0.313237 1 0.48365
0.457832 1 0.593072
0.596597 1 0.698253
0.749462 1 0.792065
0.91043 1 0.882963
1 1 1
