EA 50 Cinematic Luts Pack/EA_Cinematic Lut (21).CUBE
#Created by: Adobe Photoshop Export Color Lookup Plugin
#Copyright: (C) Copyright 2018 Navpreet Singh
TITLE "Orange and Teal 4"
#LUT size
LUT_3D_SIZE 5
#data domain
#LUT data points
DOMAIN_MIN 0.000000 0.000000 0.000000
DOMAIN_MAX 0.903226 0.903226 0.903226
0.000000 0.000000 0.000000
0.142975 0.000000 0.000000
0.422363 0.000000 0.000000
0.753998 0.000000 0.000000
0.955414 0.000000 0.000000
0.000000 0.138489 0.138489
0.142975 0.142975 0.142975
0.477661 0.112030 0.112030
0.830719 0.084290 0.084290
0.974396 0.111969 0.111969
0.000000 0.407471 0.407471
0.075684 0.545990 0.545990
0.422363 0.422363 0.422363
0.793976 0.370331 0.370331
0.974396 0.370239 0.370239
0.000000 0.736237 0.736237
0.075684 0.832733 0.832733
0.255371 0.874847 0.874847
0.753998 0.753998 0.753998
0.974365 0.710754 0.710754
0.000000 0.943390 0.943390
0.099915 0.974396 0.974396
0.356262 0.974396 0.974396
0.704407 0.974396 0.974396
0.955414 0.955414 0.955414
0.000000 0.000000 0.000000
0.142975 0.000000 0.000000
0.422363 0.000000 0.000000
0.753998 0.000000 0.000000
0.955414 0.000000 0.000000
0.000000 0.138489 0.138489
0.142975 0.142975 0.142975
0.477661 0.112030 0.112030
0.830719 0.084290 0.084290
0.974396 0.111969 0.111969
0.000000 0.407471 0.407471
0.075684 0.545990 0.545990
0.422363 0.422363 0.422363
0.793976 0.370331 0.370331
0.974396 0.370239 0.370239
0.000000 0.736237 0.736237
0.075684 0.832733 0.832733
0.255371 0.874847 0.874847
0.753998 0.753998 0.753998
0.974365 0.710754 0.710754
0.000000 0.943390 0.943390
0.099915 0.974396 0.974396
0.356262 0.974396 0.974396
0.704407 0.974396 0.974396
0.955414 0.955414 0.955414
0.000000 0.000000 0.000000
0.142975 0.000000 0.000000
0.422363 0.000000 0.000000
0.753998 0.000000 0.000000
0.955414 0.000000 0.000000
0.000000 0.138489 0.138489
0.142975 0.142975 0.142975
0.477661 0.112030 0.112030
0.830719 0.084290 0.084290
0.974396 0.111969 0.111969
0.000000 0.407471 0.407471
0.075684 0.545990 0.545990
0.422363 0.422363 0.422363
0.793976 0.370331 0.370331
0.974396 0.370239 0.370239
0.000000 0.736237 0.736237
0.075684 0.832733 0.832733
0.255371 0.874847 0.874847
0.753998 0.753998 0.753998
0.974365 0.710754 0.710754
0.000000 0.943390 0.943390
0.099915 0.974396 0.974396
0.356262 0.974396 0.974396
0.704407 0.974396 0.974396
0.955414 0.955414 0.955414
0.000000 0.000000 0.000000
0.142975 0.000000 0.000000
0.422363 0.000000 0.000000
0.753998 0.000000 0.000000
0.955414 0.000000 0.000000
0.000000 0.138489 0.138489
0.142975 0.142975 0.142975
0.477661 0.112030 0.112030
0.830719 0.084290 0.084290
0.974396 0.111969 0.111969
0.000000 0.407471 0.407471
0.075684 0.545990 0.545990
0.422363 0.422363 0.422363
0.793976 0.370331 0.370331
0.974396 0.370239 0.370239
0.000000 0.736237 0.736237
0.075684 0.832733 0.832733
0.255371 0.874847 0.874847
0.753998 0.753998 0.753998
0.974365 0.710754 0.710754
0.000000 0.943390 0.943390
0.099915 0.974396 0.974396
0.356262 0.974396 0.974396
0.704407 0.974396 0.974396
0.955414 0.955414 0.955414
0.000000 0.000000 0.000000
0.142975 0.000000 0.000000
0.422363 0.000000 0.000000
0.753998 0.000000 0.000000
0.955414 0.000000 0.000000
0.000000 0.138489 0.138489
0.142975 0.142975 0.142975
0.477661 0.112030 0.112030
0.830719 0.084290 0.084290
0.974396 0.111969 0.111969
0.000000 0.407471 0.407471
0.075684 0.545990 0.545990
0.422363 0.422363 0.422363
0.793976 0.370331 0.370331
0.974396 0.370239 0.370239
0.000000 0.736237 0.736237
0.075684 0.832733 0.832733
0.255371 0.874847 0.874847
0.753998 0.753998 0.753998
0.974365 0.710754 0.710754
0.000000 0.943390 0.943390
0.099915 0.974396 0.974396
0.356262 0.974396 0.974396
0.704407 0.974396 0.974396
0.955414 0.955414 0.955414
