EA 50 Cinematic Luts Pack/EA_Cinematic Lut (25).cube
TITLE "Generated by Resolve"
LUT_3D_SIZE 33
0 0 0
0 0 0
0 0 0
0 0 0
0 0 0
0.0109102 0 0
0.038056 0 0
0.0690166 0 0
0.102525 0 0
0.137789 0 0
0.174319 0 0
0.204913 0 0
0.236316 0 0
0.26891 0 0
0.302541 0 0
0.337118 0 0
0.372305 0 0
0.408179 0 0
0.444389 0 0
0.480751 0 0
0.517037 0 0
0.552865 0 0
0.588174 0 0
0.622843 0 0
0.656733 0 0
0.689937 0 0
0.722515 0 0
0.755077 0 0
0.787381 0 0
0.819654 0 0
0.852033 0 0
0.884718 0 0
0.917433 0 0
0 0 0
0 0 0
0 0 0
0 0.00209049 0
0 0.00630198 0
0.0107729 0.00848402 0
0.0350805 0.00958267 0
0.0639811 0.00936904 0
0.0963607 0.0081178 0
0.131304 0.00605783 0
0.167849 0.00341802 0
0.202121 0.00138857 0
0.233295 1.5259e-05 0
0.265705 0 0
0.299275 0 0
0.333776 0 0
0.368887 0 0
0.40473 0 0
0.44094 0 0
0.477455 0 0
0.513634 0 0
0.549493 0 0
0.584848 0 0
0.619562 0 0
0.653544 0 0
0.686854 0 0
0.719539 0 0
0.752163 0 0
0.784619 0 0
0.81706 0 0
0.849638 0 0
0.882475 0 0
0.915358 0 0
0 0 0
0 0.00729381 0
0 0.0151827 0
0 0.0225834 0
0.00169375 0.0282902 0
0.0166629 0.0322576 0
0.0374151 0.0345312 0
0.0633402 0.0352331 0
0.0934462 0.034638 0
0.126833 0.0330205 0
0.162768 0.0305638 0
0.199802 0.0279088 0
0.230808 0.0263828 0
0.263127 0.0244907 0
0.296574 0.0222782 0
0.331029 0.019852 0
0.366094 0.0172885 0
0.401892 0.0146029 0
0.438132 0.0118715 0
0.474601 0.00924697 0
0.510796 0.00654612 0
0.546715 0.00393683 0
0.582132 0.00151064 0
0.616907 0 0
0.650935 0 0
0.684352 0 0
0.717327 0 0
0.749996 0 0
0.782513 0 0
0.815076 0 0
0.847868 0 0
0.880949 0 0
0.914046 0 0
0.00296025 0.022858 0
0.00460822 0.0292668 0
0.00460822 0.0365911 0
0.00708019 0.0439155 0
0.0132296 0.0501717 0
0.0248264 0.0550088 0
0.0421149 0.0582895 0
0.0649119 0.0599832 0
0.0924239 0.0602274 0
0.123873 0.0592355 0
0.158679 0.0572976 0
0.195361 0.0546731 0
0.228092 0.0527199 0
0.260349 0.0507973 0
0.293767 0.0485847 0
0.328176 0.046128 0
0.36321 0.0435645 0
0.399069 0.04094 0
0.435477 0.0384222 0
0.471839 0.0357214 0
0.50808 0.0330663 0
0.54406 0.0305638 0
0.579599 0.0282597 0
0.614511 0.0261692 0
0.648676 0.0243229 0
0.6822 0.0226902 0
0.715373 0.0215305 0
0.748211 0.0203403 0
0.780972 0.0192111 0
0.813733 0.0181277 0
0.846708 0.0171054 0
0.880064 0.0161593 0
0.913497 0.0153506 0
0.00486763 0.0485695 0
0.0108644 0.0534371 0
0.0148318 0.0594644 0
0.0190127 0.0657511 0
0.0248264 0.0719005 0
0.0345464 0.0771954 0
0.0491798 0.0811933 0
0.0691386 0.0837262 0
0.0940566 0.0848096 0
0.123476 0.0846571 0
0.15671 0.0832837 0
0.19234 0.0809491 0
0.22623 0.0787823 0
0.258473 0.0768902 0
0.291905 0.0747234 0
0.326345 0.0723278 0
0.36141 0.06981 0
0.397253 0.0672007 0
0.433753 0.0648051 0
0.470237 0.0622568 0
0.50663 0.0597696 0
0.542718 0.0573892 0
0.578363 0.0552224 0
0.613458 0.0533303 0
0.647852 0.0517281 0
0.681727 0.0504768 0
0.714961 0.0493935 0
0.748012 0.0484169 0
0.781064 0.0476234 0
0.814206 0.0469215 0
0.847456 0.0462196 0
0.881071 0.0455634 0
0.914916 0.0451667 0
0.0018616 0.0755932 0
0.0119936 0.0793622 0
0.0198367 0.0838941 0
0.0270237 0.0889906 0
0.0342412 0.0944991 0
0.0437018 0.0996872 0
0.0569009 0.104067 0
0.0747997 0.107195 0
0.0974746 0.10898 0
0.124773 0.109483 0
0.156344 0.108766 0
0.190814 0.106966 0
0.225025 0.104906 0
0.257298 0.103075 0
0.290761 0.100969 0
0.325261 0.0986801 0
0.360464 0.0963302 0
0.396567 0.0940108 0
0.43299 0.0915541 0
0.469596 0.0891432 0
0.506188 0.0868849 0
0.542504 0.0847791 0
0.578363 0.082826 0
0.613626 0.0811322 0
0.648386 0.0799115 0
0.682551 0.0789807 0
0.716045 0.0781872 0
0.749355 0.0775006 0
0.782696 0.076997 0
0.816205 0.0766918 0
0.849958 0.0764935 0
0.883986 0.0762798 0
0.91809 0.0761578 0
0 0.103761 0
0.0084535 0.106493 0
0.0200198 0.109926 0
0.0306096 0.113893 0
0.040238 0.118532 0
0.0507668 0.123262 0
0.0637675 0.127565 0
0.0805829 0.130999 0
0.101778 0.133379 0
0.127428 0.134554 0
0.157275 0.134295 0
0.190509 0.132998 0
0.224353 0.131258 0
0.256733 0.12961 0
0.290288 0.127642 0
0.32488 0.125475 0
0.360388 0.123476 0
0.396536 0.121233 0
0.433143 0.118975 0
0.469932 0.116777 0
0.506691 0.114733 0
0.543282 0.112902 0
0.579492 0.111345 0
0.615061 0.109972 0
0.65005 0.10901 0
0.68455 0.108446 0
0.718486 0.108095 0
0.75227 0.107912 0
0.785977 0.107805 0
0.81973 0.107774 0
0.853712 0.107836 0
0.88809 0.107973 0
0.922652 0.108354 0
0 0.133089 0
0.00138857 0.135073 0
0.0159762 0.137545 0
0.0297856 0.140551 0
0.0422065 0.144305 0
0.0546426 0.148409 0
0.0684672 0.152407 0
0.0851453 0.155825 0
0.105684 0.158602 0
0.130083 0.160113 0
0.158709 0.160403 0
0.190814 0.159594 0
0.223804 0.158251 0
0.256352 0.156802 0
0.290135 0.155108 0
0.32491 0.153185 0
0.360525 0.151339 0
0.396918 0.149371 0
0.433799 0.147433 0
0.470924 0.145617 0
0.507973 0.143862 0
0.544823 0.142321 0
0.581338 0.141115 0
0.617487 0.140352 0
0.652964 0.139895 0
0.687648 0.139528 0
0.721798 0.139437 0
0.755871 0.139544 0
0.789868 0.139757 0
0.82388 0.140002 0
0.85803 0.140261 0
0.89279 0.14081 0
0.927352 0.141192 0
0 0.163104 0
0 0.164706 0
0.0087129 0.166598 0
0.0252689 0.168856 0
0.0403906 0.171847 0
0.0550698 0.175311 0
0.0704204 0.178897 0
0.0878462 0.182193 0
0.108263 0.18497 0
0.132143 0.18674 0
0.159991 0.187457 0
0.191318 0.187182 0
0.223407 0.186236 0
0.256092 0.185016 0
0.290105 0.183612 0
0.325383 0.182239 0
0.361212 0.180652 0
0.397787 0.178897 0
0.434928 0.177264 0
0.472419 0.175845 0
0.509941 0.174609 0
0.547189 0.173495 0
0.583978 0.17258 0
0.620493 0.172229 0
0.656107 0.171939 0
0.691096 0.171893 0
0.72546 0.172045 0
0.75967 0.17232 0
0.793835 0.172717 0
0.828061 0.173205 0
0.862409 0.173678 0
0.897261 0.174334 0
0.931991 0.174914 0
0 0.193713 0
0 0.19527 0
0 0.196902 0
0.0178836 0.198749 0
0.0353704 0.201175 0
0.0522469 0.204044 0
0.0694438 0.207263 0
0.0882277 0.210483 0
0.109087 0.213092 0
0.132967 0.214969 0
0.160494 0.215946 0
0.191318 0.216098 0
0.222934 0.215595 0
0.255909 0.214725 0
0.290135 0.213611 0
0.32578 0.212665 0
0.361975 0.21149 0
0.399008 0.210269 0
0.436484 0.209003 0
0.474205 0.207858 0
0.511955 0.206882 0
0.549477 0.206088 0
0.586618 0.205554 0
0.623255 0.205341 0
0.659007 0.205219 0
0.694163 0.205386 0
0.728756 0.205783 0
0.763119 0.206241 0
0.797406 0.20679 0
0.831754 0.207431 0
0.866514 0.208331 0
0.901381 0.209033 0
0.936187 0.209689 0
0 0.224903 0
0 0.226688 0
0 0.228367 0
0.00828565 0.230076 0
0.0277256 0.232258 0
0.0466011 0.234791 0
0.0655375 0.237598 0
0.0858015 0.240604 0
0.107729 0.243198 0
0.132204 0.245243 0
0.159854 0.246448 0
0.190066 0.246708 0
0.221988 0.246601 0
0.255421 0.246281 0
0.290227 0.245823 0
0.326009 0.245075 0
0.362432 0.24419 0
0.399695 0.243259 0
0.437476 0.242344 0
0.475425 0.241474 0
0.513329 0.240696 0
0.55108 0.240162 0
0.588525 0.239963 0
0.625162 0.239796 0
0.661067 0.239841 0
0.696345 0.240146 0
0.73106 0.240711 0
0.765606 0.241382 0
0.800061 0.242115 0
0.834501 0.242893 0
0.869429 0.243977 0
0.904356 0.244785 0
0.939315 0.245624 0
0 0.254322 0
0 0.257725 0
0 0.260685 0
0 0.262577 0
0.0187533 0.264744 0
0.0393225 0.267277 0
0.0601205 0.270146 0
0.0816052 0.272816 0
0.104662 0.275349 0
0.130053 0.277501 0
0.158297 0.278721 0
0.188785 0.279347 0
0.220966 0.279576 0
0.254749 0.279698 0
0.289784 0.27953 0
0.32575 0.279042 0
0.362356 0.278416 0
0.399771 0.277684 0
0.437705 0.276982 0
0.475853 0.276371 0
0.513924 0.275807 0
0.551751 0.275395 0
0.589364 0.275395 0
0.626154 0.27541 0
0.662226 0.275685 0
0.697643 0.276143 0
0.732448 0.276829 0
0.767102 0.277638 0
0.801694 0.278538 0
0.836469 0.279667 0
0.871305 0.28069 0
0.906294 0.28159 0
0.941329 0.282536 0
0 0.284581 0
0 0.288289 0
0 0.2916 0
0 0.294484 0
0.0123751 0.297383 0
0.033463 0.300587 0
0.0551156 0.303609 0
0.0779431 0.306386 0
0.102144 0.308827 0
0.128222 0.310842 0
0.15671 0.312352 0
0.187503 0.313329 0
0.219928 0.313878 0
0.253849 0.314214 0
0.289052 0.314305 0
0.3252 0.314061 0
0.36202 0.31371 0
0.399588 0.313207 0
0.437644 0.312673 0
0.475898 0.31223 0
0.514183 0.31191 0
0.552361 0.31191 0
0.589837 0.311833 0
0.626719 0.311971 0
0.662913 0.312398 0
0.698466 0.313039 0
0.733394 0.313863 0
0.768124 0.314778 0
0.802991 0.315984 0
0.837766 0.317143 0
0.872572 0.318196 0
0.907668 0.319188 0
0.942748 0.320211 0
0 0.316274 0
0 0.320241 0
0 0.323934 0
0 0.327276 0
0.0090486 0.330617 0
0.0304875 0.334081 0
0.052491 0.337377 0
0.075639 0.340429 0
0.100206 0.343175 0
0.126543 0.345464 0
0.15523 0.347173 0
0.186175 0.348348 0
0.218936 0.349294 0
0.253086 0.349905 0
0.288273 0.350042 0
0.324529 0.349996 0
0.361486 0.349844 0
0.399252 0.349584 0
0.437446 0.349279 0
0.475807 0.348974 0
0.514412 0.349035 0
0.552483 0.348974 0
0.590082 0.349065 0
0.62707 0.34934 0
0.66331 0.349874 0
0.69894 0.350622 0
0.733959 0.351598 0
0.76878 0.352636 0
0.803647 0.353872 0
0.838529 0.355154 0
0.873396 0.356283 0
0.908537 0.357366 0
0.943664 0.358465 0
0 0.34963 0
0 0.353979 0
0 0.3579 0
0 0.361486 0
0.00621042 0.365316 0
0.027863 0.368933 0
0.0500954 0.372366 0
0.0734569 0.37557 0
0.0982681 0.378515 0
0.12488 0.381033 0
0.15378 0.38294 0
0.184878 0.384298 0
0.217929 0.38555 0
0.252079 0.386236 0
0.287465 0.386633 0
0.323842 0.38677 0
0.360906 0.386786 0
0.398764 0.386709 0
0.43711 0.386603 0
0.475593 0.386465 0
0.514214 0.386618 0
0.552407 0.386709 0
0.590097 0.386938 0
0.627161 0.387366 0
0.663493 0.387991 0
0.699153 0.38883 0
0.734218 0.389868 0
0.769253 0.391165 0
0.804166 0.392493 0
0.838926 0.393668 0
0.873793 0.394842 0
0.908949 0.395972 0
0.944091 0.397101 0
0 0.384268 0
0 0.388907 0
0 0.393088 0
0 0.396841 0
0.00347906 0.400885 0
0.0253452 0.404639 0
0.0478523 0.40827 0
0.0714427 0.411643 0
0.0964218 0.41471 0
0.123247 0.41738 0
0.152361 0.419501 0
0.183764 0.421134 0
0.216861 0.422477 0
0.251133 0.423301 0
0.286641 0.42388 0
0.323186 0.424231 0
0.360372 0.424445 0
0.398306 0.424506 0
0.436713 0.424521 0
0.475517 0.424781 0
0.514061 0.424887 0
0.552239 0.425025 0
0.58996 0.42533 0
0.62707 0.425849 0
0.663447 0.426581 0
0.699153 0.427497 0
0.734234 0.428595 0
0.769406 0.430076 0
0.804181 0.431296 0
0.838956 0.432517 0
0.873838 0.433738 0
0.908965 0.434867 0
0.944076 0.435996 0
0 0.419913 0
0 0.424704 0
0 0.429084 0
0 0.433188 0
0.00117494 0.437201 0
0.0232242 0.441062 0
0.0459449 0.444846 0
0.0697948 0.448402 0
0.0950027 0.451621 0
0.121965 0.454414 0
0.151354 0.456748 0
0.183032 0.458671 0
0.216114 0.459983 0
0.250523 0.460975 0
0.286122 0.461677 0
0.322774 0.462165 0
0.360067 0.462547 0
0.398108 0.46276 0
0.436545 0.462867 0
0.475441 0.463264 0
0.513954 0.463416 0
0.552193 0.463676 0
0.589929 0.464057 0
0.627054 0.464607 0
0.663432 0.4654 0
0.699138 0.466361 0
0.73434 0.467628 0
0.76939 0.469017 0
0.80415 0.470253 0
0.838865 0.471473 0
0.873716 0.472679 0
0.908797 0.473808 0
0.943877 0.474937 0
0 0.456428 0
0 0.461357 0
0 0.466026 0
0 0.470222 0
0 0.474296 0
0.0214084 0.478264 0
0.0442969 0.482155 0
0.0683452 0.485817 0
0.0937514 0.489189 0
0.120928 0.492119 0
0.150393 0.494514 0
0.182254 0.496574 0
0.215473 0.498024 0
0.250019 0.499153 0
0.285725 0.499992 0
0.322438 0.500603 0
0.359792 0.501076 0
0.397879 0.501381 0
0.436561 0.501778 0
0.475273 0.502052 0
0.513787 0.502266 0
0.552026 0.502571 0
0.589776 0.502998 0
0.626886 0.503609 0
0.663233 0.504417 0
0.699031 0.505516 0
0.734264 0.506844 0
0.7691 0.508049 0
0.8038 0.509285 0
0.838483 0.510491 0
0.873243 0.51165 0
0.908232 0.512734 0
0.943221 0.513817 0
0 0.493538 0
0 0.498634 0
0 0.503395 0
0 0.507759 0
0 0.51194 0
0.0201267 0.51606 0
0.0431678 0.520043 0
0.0673381 0.523781 0
0.0928969 0.52723 0
0.120287 0.530327 0
0.150103 0.533028 0
0.181857 0.534936 0
0.215167 0.536461 0
0.24979 0.537667 0
0.285603 0.538613 0
0.322377 0.5393 0
0.359747 0.539818 0
0.398047 0.540383 0
0.436622 0.540734 0
0.475242 0.540963 0
0.513756 0.541222 0
0.551965 0.541543 0
0.58967 0.541985 0
0.626749 0.542596 0
0.66305 0.543404 0
0.698741 0.544457 0
0.733959 0.54583 0
0.768704 0.546975 0
0.803311 0.548165 0
0.837919 0.54934 0
0.872602 0.550454 0
0.9075 0.551461 0
0.942351 0.552453 0
0 0.53106 0
0 0.536461 0
0 0.541405 0
0 0.545708 0
0 0.549981 0
0.0194247 0.554192 0
0.042649 0.558297 0
0.0669718 0.562127 0
0.0926528 0.565637 0
0.120394 0.569009 0
0.150088 0.571542 0
0.181933 0.573526 0
0.215335 0.575097 0
0.250019 0.576349 0
0.285847 0.577325 0
0.322652 0.578042 0
0.360037 0.578622 0
0.398291 0.579156 0
0.436912 0.579568 0
0.475471 0.579797 0
0.513939 0.580056 0
0.552102 0.580392 0
0.589761 0.580835 0
0.626749 0.581415 0
0.663035 0.582269 0
0.698817 0.583429 0
0.733715 0.584512 0
0.768383 0.585626 0
0.802869 0.58674 0
0.837324 0.587808 0
0.8719 0.588846 0
0.906676 0.589792 0
0.941634 0.59089 0
0 0.568933 0
0 0.574578 0
0 0.579477 0
0 0.583902 0
0 0.588266 0
0.0194553 0.592523 0
0.0427863 0.596674 0
0.0672465 0.60058 0
0.0930495 0.60415 0
0.120806 0.607523 0
0.150637 0.610117 0
0.182559 0.612116 0
0.216007 0.613718 0
0.250736 0.615 0
0.286595 0.615976 0
0.323384 0.616693 0
0.360922 0.617426 0
0.399115 0.617929 0
0.437537 0.618204 0
0.476081 0.618418 0
0.514458 0.618647 0
0.552529 0.618921 0
0.590112 0.619333 0
0.627008 0.619883 0
0.663417 0.620905 0
0.698833 0.621759 0
0.733623 0.622751 0
0.768154 0.623789 0
0.802533 0.624826 0
0.836851 0.625803 0
0.871244 0.626703 0
0.905867 0.627512 0
0.940627 0.628473 0
0 0.607065 0
0 0.612696 0
0 0.617655 0
0 0.622141 0
0 0.626581 0
0.0202792 0.6309 0
0.0436866 0.635081 0
0.0682383 0.639017 0
0.0943465 0.642847 0
0.121996 0.646036 0
0.151843 0.648585 0
0.18378 0.650584 0
0.217258 0.652171 0
0.252003 0.653422 0
0.287861 0.654383 0
0.324636 0.655085 0
0.362264 0.655909 0
0.400259 0.656229 0
0.438621 0.656458 0
0.477073 0.656626 0
0.515389 0.656809 0
0.553338 0.657023 0
0.590784 0.657343 0
0.627588 0.657832 0
0.663844 0.658732 0
0.699153 0.659541 0
0.733761 0.66041 0
0.768124 0.661326 0
0.802365 0.662242 0
0.836545 0.663127 0
0.870771 0.663905 0
0.905348 0.664714 0
0.939849 0.665446 0
0 0.645289 0
0 0.650797 0
0 0.655802 0
0 0.660334 0
0 0.66479 0
0.0219272 0.669139 0
0.0454261 0.673335 0
0.0699931 0.677256 0
0.0962081 0.681132 0
0.123857 0.684245 0
0.153719 0.686778 0
0.185672 0.688746 0
0.219165 0.690303 0
0.25388 0.691493 0
0.289708 0.692393 0
0.326543 0.693141 0
0.364004 0.693812 0
0.401938 0.694072 0
0.440192 0.694194 0
0.478523 0.69427 0
0.516716 0.694377 0
0.554589 0.694514 0
0.591913 0.694774 0
0.628763 0.695354 0
0.664622 0.695888 0
0.699763 0.696574 0
0.734234 0.697353 0
0.768414 0.698116 0
0.802426 0.698863 0
0.836423 0.699596 0
0.870497 0.700252 0
0.905013 0.701045 0
0.939162 0.701457 0
0 0.683162 0
0 0.688716 0
0 0.693751 0
0 0.698299 0
0.00155642 0.702754 0
0.024445 0.707088 0
0.0479744 0.711269 0
0.0727855 0.715373 0
0.0988174 0.719005 0
0.126467 0.722072 0
0.156313 0.724544 0
0.188251 0.726436 0
0.221729 0.727916 0
0.256413 0.729061 0
0.292302 0.729992 0
0.329122 0.730694 0
0.366308 0.73106 0
0.40415 0.731258 0
0.442313 0.731289 0
0.480507 0.731258 0
0.518547 0.731212 0
0.556252 0.731228 0
0.593423 0.731365 0
0.630182 0.731868 0
0.665812 0.732235 0
0.700755 0.732738 0
0.735042 0.733394 0
0.769055 0.734035 0
0.802884 0.734646 0
0.836622 0.735164 0
0.870588 0.735744 0
0.904799 0.736263 0
0.938766 0.736538 0
0 0.720806 0
0 0.726345 0
0 0.731365 0
0 0.735897 0
0.00495918 0.740322 0
0.027863 0.74464 0
0.0515908 0.748974 0
0.0762798 0.75288 0
0.10219 0.756359 0
0.129824 0.759365 0
0.159655 0.761761 0
0.191562 0.763546 0
0.224948 0.76492 0
0.259556 0.765957 0
0.295323 0.766735 0
0.332128 0.767391 0
0.369192 0.76762 0
0.406882 0.767651 0
0.444938 0.767575 0
0.483009 0.767437 0
0.520897 0.767254 0
0.558404 0.767102 0
0.595605 0.767269 0
0.631968 0.767437 0
0.667445 0.767666 0
0.70219 0.768002 0
0.736217 0.768444 0
0.770031 0.768917 0
0.803677 0.769375 0
0.837339 0.769879 0
0.871061 0.77026 0
0.90486 0.770397 0
0.938628 0.77052 0
0 0.758083 0
0 0.763607 0
0 0.768597 0
0 0.773068 0
0.00906386 0.777447 0
0.0319371 0.781689 0
0.0556039 0.785916 0
0.0803082 0.789792 0
0.106157 0.793149 0
0.13373 0.796033 0
0.1635 0.798337 0
0.195361 0.800031 0
0.228672 0.801282 0
0.263249 0.802228 0
0.299046 0.803006 0
0.335515 0.803311 0
0.372488 0.803433 0
0.410056 0.803296 0
0.447898 0.803021 0
0.485817 0.802716 0
0.523568 0.802411 0
0.56112 0.802319 0
0.59794 0.802136 0
0.634012 0.802045 0
0.669306 0.802121 0
0.703853 0.802304 0
0.737682 0.802563 0
0.771237 0.802808 0
0.804639 0.803067 0
0.838071 0.803372 0
0.871641 0.803662 0
0.905241 0.803616 0
0.938781 0.80354 0
0 0.794934 0
0 0.800397 0
0 0.805341 0
0 0.80975 0
0.0137484 0.814038 0
0.0367285 0.818326 0
0.0602884 0.822416 0
0.0848096 0.826062 0
0.110613 0.829328 0
0.138094 0.832074 0
0.167758 0.834211 0
0.199512 0.835767 0
0.232746 0.836881 0
0.267445 0.837903 0
0.302876 0.838285 0
0.339193 0.838407 0
0.376043 0.838361 0
0.413474 0.838087 0
0.451148 0.837644 0
0.488853 0.83711 0
0.526406 0.836606 0
0.56376 0.836332 0
0.600458 0.836027 0
0.636286 0.835721 0
0.671305 0.835554 0
0.705653 0.835569 0
0.739315 0.835691 0
0.772671 0.835798 0
0.805936 0.835935 0
0.839231 0.836149 0
0.87248 0.836133 0
0.905913 0.835981 0
0.9393 0.835782 0
0 0.831449 0
0 0.83682 0
0 0.841642 0
0 0.84596 0
0.0185397 0.850156 0
0.0415808 0.854475 0
0.0648966 0.858274 0
0.0892958 0.861769 0
0.115023 0.864897 0
