EA 50 Cinematic Luts Pack/EA_Cinematic Lut (29).cube
TITLE "This spectacular grade will extract the saturation of the warm hues and turn your shot into a fantasy tale."
LUT_3D_SIZE 25
0.0000 0.0000 0.0000
0.0265 0.0000 0.0004
0.0566 0.0000 0.0010
0.0919 0.0000 0.0020
0.1320 0.0000 0.0032
0.1757 0.0000 0.0049
0.2226 0.0000 0.0070
0.2725 0.0000 0.0095
0.3246 0.0000 0.0125
0.3786 0.0000 0.0159
0.4340 0.0000 0.0199
0.4901 0.0000 0.0243
0.5515 0.0000 0.0293
0.6187 0.0000 0.0348
0.6851 0.0000 0.0405
0.7460 0.0000 0.0462
0.8015 0.0000 0.0520
0.8504 0.0000 0.0577
0.8902 0.0000 0.0635
0.9207 0.0000 0.0692
0.9462 0.0000 0.0748
0.9669 0.0000 0.0805
0.9827 0.0000 0.0861
0.9937 0.0000 0.0917
0.9998 0.0000 0.0973
0.0103 0.0132 0.0081
0.0313 0.0147 0.0012
0.0632 0.0138 0.0000
0.0996 0.0131 0.0000
0.1403 0.0124 0.0000
0.1850 0.0114 0.0000
0.2332 0.0102 0.0000
0.2841 0.0089 0.0000
0.3374 0.0075 0.0000
0.3924 0.0060 0.0000
0.4489 0.0042 0.0000
0.5065 0.0023 0.0000
0.5711 0.0002 0.0000
0.6370 0.0000 0.0055
0.7009 0.0000 0.0116
0.7590 0.0000 0.0186
0.8124 0.0000 0.0262
0.8589 0.0000 0.0342
0.8962 0.0000 0.0421
0.9253 0.0000 0.0500
0.9498 0.0000 0.0571
0.9695 0.0000 0.0642
0.9845 0.0000 0.0711
0.9947 0.0000 0.0779
1.0000 0.0102 0.0952
0.0249 0.0322 0.0193
0.0412 0.0341 0.0122
0.0645 0.0353 0.0028
0.1032 0.0340 0.0000
0.1445 0.0329 0.0000
0.1887 0.0320 0.0000
0.2359 0.0311 0.0000
0.2869 0.0296 0.0000
0.3402 0.0279 0.0000
0.3952 0.0260 0.0000
0.4518 0.0239 0.0000
0.5092 0.0217 0.0000
0.5740 0.0192 0.0000
0.6424 0.0164 0.0000
0.7084 0.0131 0.0000
0.7678 0.0099 0.0000
0.8219 0.0065 0.0000
0.8681 0.0031 0.0000
0.9038 0.0000 0.0016
0.9314 0.0000 0.0112
0.9544 0.0000 0.0215
0.9729 0.0000 0.0324
0.9868 0.0000 0.0431
0.9961 0.0000 0.0525
1.0000 0.0320 0.0982
0.0447 0.0595 0.0362
0.0573 0.0614 0.0295
0.0748 0.0636 0.0192
0.1043 0.0652 0.0052
0.1481 0.0633 0.0000
0.1935 0.0617 0.0000
0.2411 0.0603 0.0000
0.2908 0.0590 0.0000
0.3429 0.0576 0.0000
0.3978 0.0555 0.0000
0.4545 0.0532 0.0000
0.5123 0.0507 0.0000
0.5776 0.0480 0.0000
0.6460 0.0451 0.0000
0.7116 0.0421 0.0000
0.7708 0.0391 0.0000
0.8243 0.0358 0.0000
0.8700 0.0322 0.0000
0.9053 0.0284 0.0000
0.9337 0.0241 0.0000
0.9571 0.0194 0.0000
0.9756 0.0141 0.0000
0.9891 0.0087 0.0000
0.9976 0.0034 0.0000
1.0000 0.0632 0.1034
0.0667 0.0948 0.0557
0.0774 0.0966 0.0508
0.0922 0.0986 0.0427
0.1149 0.1012 0.0275
0.1489 0.1027 0.0088
0.1968 0.1005 0.0000
0.2455 0.0985 0.0000
0.2959 0.0967 0.0000
0.3482 0.0951 0.0000
0.4020 0.0937 0.0000
0.4575 0.0922 0.0000
0.5154 0.0898 0.0000
0.5809 0.0872 0.0000
0.6492 0.0844 0.0000
0.7148 0.0813 0.0000
0.7741 0.0780 0.0000
0.8274 0.0743 0.0000
0.8722 0.0709 0.0000
0.9070 0.0669 0.0000
0.9351 0.0627 0.0000
0.9582 0.0583 0.0000
0.9764 0.0536 0.0000
0.9896 0.0484 0.0000
0.9979 0.0432 0.0000
1.0000 0.1024 0.1100
0.0914 0.1331 0.0748
0.1007 0.1345 0.0710
0.1133 0.1363 0.0653
0.1325 0.1387 0.0550
0.1590 0.1415 0.0370
0.1968 0.1427 0.0131
0.2483 0.1404 0.0000
0.3001 0.1382 0.0000
0.3532 0.1362 0.0000
0.4077 0.1344 0.0000
0.4633 0.1328 0.0000
0.5202 0.1312 0.0000
0.5845 0.1297 0.0000
0.6530 0.1272 0.0000
0.7185 0.1247 0.0000
0.7772 0.1219 0.0000
0.8299 0.1190 0.0000
0.8745 0.1156 0.0000
0.9088 0.1121 0.0000
0.9366 0.1081 0.0000
0.9594 0.1044 0.0000
0.9772 0.1005 0.0000
0.9902 0.0961 0.0000
0.9982 0.0915 0.0000
1.0000 0.1443 0.1180
0.1181 0.1735 0.0935
0.1262 0.1747 0.0905
0.1371 0.1763 0.0861
0.1537 0.1786 0.0786
0.1768 0.1813 0.0663
0.2067 0.1842 0.0464
0.2481 0.1853 0.0186
0.3027 0.1829 0.0000
0.3572 0.1806 0.0000
0.4127 0.1784 0.0000
0.4688 0.1764 0.0000
0.5266 0.1745 0.0000
0.5920 0.1729 0.0000
0.6590 0.1715 0.0000
0.7224 0.1701 0.0000
0.7805 0.1677 0.0000
0.8328 0.1650 0.0000
0.8767 0.1622 0.0000
0.9104 0.1591 0.0000
0.9379 0.1558 0.0000
0.9605 0.1523 0.0000
0.9781 0.1485 0.0000
0.9908 0.1445 0.0000
0.9985 0.1404 0.0000
1.0000 0.1888 0.1275
0.1464 0.2160 0.1118
0.1536 0.2170 0.1093
0.1632 0.2185 0.1058
0.1779 0.2206 0.1000
0.1983 0.2232 0.0908
0.2247 0.2261 0.0770
0.2576 0.2291 0.0554
0.3023 0.2300 0.0251
0.3597 0.2275 0.0000
0.4164 0.2251 0.0000
0.4736 0.2228 0.0000
0.5330 0.2207 0.0000
0.5995 0.2189 0.0000
0.6666 0.2172 0.0000
0.7294 0.2156 0.0000
0.7856 0.2141 0.0000
0.8359 0.2127 0.0000
0.8790 0.2102 0.0000
0.9122 0.2075 0.0000
0.9393 0.2046 0.0000
0.9616 0.2015 0.0000
0.9789 0.1982 0.0000
0.9913 0.1947 0.0000
0.9988 0.1909 0.0000
1.0000 0.2354 0.1373
0.1763 0.2601 0.1292
0.1827 0.2611 0.1272
0.1914 0.2624 0.1245
0.2046 0.2643 0.1200
0.2228 0.2667 0.1129
0.2464 0.2696 0.1025
0.2759 0.2727 0.0872
0.3114 0.2758 0.0644
0.3593 0.2767 0.0329
0.4194 0.2742 0.0000
0.4777 0.2718 0.0000
0.5387 0.2693 0.0000
0.6063 0.2672 0.0000
0.6738 0.2653 0.0000
0.7360 0.2634 0.0000
0.7918 0.2617 0.0000
0.8414 0.2600 0.0000
0.8825 0.2585 0.0000
0.9142 0.2570 0.0000
0.9408 0.2546 0.0000
0.9628 0.2518 0.0000
0.9798 0.2489 0.0000
0.9919 0.2457 0.0000
0.9990 0.2424 0.0000
1.0000 0.2837 0.1472
0.2076 0.3059 0.1462
0.2135 0.3067 0.1445
0.2214 0.3079 0.1422
0.2334 0.3097 0.1385
0.2499 0.3120 0.1330
0.2714 0.3148 0.1250
0.2982 0.3179 0.1136
0.3305 0.3212 0.0972
0.3684 0.3244 0.0741
0.4189 0.3250 0.0416
0.4805 0.3225 0.0000
0.5431 0.3198 0.0000
0.6120 0.3174 0.0000
0.6800 0.3152 0.0000
0.7420 0.3131 0.0000
0.7976 0.3112 0.0000
0.8465 0.3093 0.0000
0.8867 0.3076 0.0000
0.9175 0.3059 0.0000
0.9432 0.3043 0.0000
0.9641 0.3027 0.0000
0.9806 0.3004 0.0000
0.9924 0.2975 0.0000
0.9993 0.2946 0.0000
1.0000 0.3333 0.1584
0.2406 0.3529 0.1628
0.2460 0.3537 0.1614
0.2533 0.3548 0.1595
0.2642 0.3564 0.1564
0.2794 0.3585 0.1518
0.2989 0.3611 0.1453
0.3234 0.3640 0.1363
0.3529 0.3673 0.1241
0.3875 0.3706 0.1067
0.4275 0.3738 0.0835
0.4798 0.3742 0.0503
0.5462 0.3715 0.0000
0.6163 0.3689 0.0000
0.6850 0.3665 0.0000
0.7472 0.3642 0.0000
0.8028 0.3620 0.0000
0.8512 0.3599 0.0000
0.8905 0.3580 0.0000
0.9206 0.3561 0.0000
0.9458 0.3544 0.0000
0.9663 0.3527 0.0000
0.9820 0.3510 0.0000
0.9931 0.3495 0.0000
0.9996 0.3472 0.0000
1.0000 0.3836 0.1708
0.2749 0.4006 0.1792
0.2798 0.4013 0.1780
0.2865 0.4023 0.1762
0.2966 0.4037 0.1736
0.3105 0.4056 0.1697
0.3286 0.4080 0.1643
0.3510 0.4108 0.1569
0.3781 0.4140 0.1471
0.4099 0.4173 0.1339
0.4466 0.4207 0.1160
0.4877 0.4236 0.0928
0.5451 0.4237 0.0592
0.6194 0.4212 0.0000
0.6889 0.4187 0.0000
0.7514 0.4162 0.0000
0.8072 0.4138 0.0000
0.8553 0.4115 0.0000
0.8939 0.4094 0.0000
0.9236 0.4073 0.0000
0.9483 0.4054 0.0000
0.9683 0.4036 0.0000
0.9835 0.4018 0.0000
0.9941 0.4001 0.0000
0.9999 0.3985 0.0000
1.0000 0.4341 0.1852
0.3103 0.4486 0.1955
0.3149 0.4492 0.1944
0.3211 0.4501 0.1928
0.3304 0.4514 0.1905
0.3433 0.4531 0.1871
0.3599 0.4553 0.1824
0.3807 0.4579 0.1762
0.4056 0.4608 0.1680
0.4350 0.4640 0.1574
0.4687 0.4672 0.1434
0.5068 0.4703 0.1247
0.5535 0.4730 0.1019
0.6178 0.4732 0.0675
0.6916 0.4708 0.0000
0.7546 0.4683 0.0000
0.8107 0.4658 0.0000
0.8589 0.4634 0.0000
0.8969 0.4612 0.0000
0.9262 0.4590 0.0000
0.9506 0.4569 0.0000
0.9702 0.4549 0.0000
0.9850 0.4530 0.0000
0.9950 0.4512 0.0000
1.0000 0.4530 0.0555
1.0000 0.4837 0.2037
0.3466 0.4955 0.2118
0.3508 0.4960 0.2108
0.3565 0.4968 0.2093
0.3652 0.4979 0.2072
0.3771 0.4994 0.2041
0.3926 0.5014 0.2000
0.4118 0.5037 0.1945
0.4349 0.5064 0.1875
0.4621 0.5093 0.1785
0.4928 0.5123 0.1671
0.5298 0.5153 0.1524
0.5743 0.5185 0.1331
0.6257 0.5213 0.1106
0.6896 0.5213 0.0760
0.7566 0.5189 0.0048
0.8133 0.5164 0.0000
0.8615 0.5140 0.0000
0.8992 0.5116 0.0000
0.9284 0.5094 0.0000
0.9526 0.5072 0.0000
0.9718 0.5051 0.0000
0.9862 0.5032 0.0000
0.9958 0.5013 0.0000
1.0000 0.5054 0.0956
0.9999 0.5315 0.2227
0.3837 0.5416 0.2283
0.3876 0.5421 0.2273
0.3930 0.5428 0.2260
0.4011 0.5438 0.2241
0.4122 0.5453 0.2213
0.4266 0.5470 0.2176
0.4445 0.5492 0.2127
0.4659 0.5517 0.2064
0.4906 0.5544 0.1985
0.5207 0.5572 0.1887
0.5571 0.5604 0.1765
0.5995 0.5637 0.1612
0.6461 0.5669 0.1414
0.6967 0.5695 0.1192
0.7549 0.5695 0.0845
0.8148 0.5671 0.0122
0.8635 0.5645 0.0000
0.9010 0.5621 0.0000
0.9302 0.5597 0.0000
0.9542 0.5573 0.0000
0.9731 0.5551 0.0000
0.9871 0.5529 0.0000
0.9962 0.5507 0.0000
0.9997 0.5563 0.1257
0.9998 0.5794 0.2436
0.4218 0.5879 0.2453
0.4255 0.5883 0.2444
0.4305 0.5889 0.2432
0.4381 0.5899 0.2413
0.4484 0.5912 0.2387
0.4619 0.5928 0.2353
0.4781 0.5947 0.2308
0.4980 0.5968 0.2250
0.5225 0.5993 0.2179
0.5524 0.6020 0.2092
0.5877 0.6051 0.1988
0.6274 0.6082 0.1859
0.6705 0.6114 0.1698
0.7150 0.6146 0.1495
0.7609 0.6169 0.1276
0.8134 0.6168 0.0930
0.8646 0.6145 0.0209
0.9025 0.6120 0.0000
0.9318 0.6096 0.0000
0.9557 0.6071 0.0000
0.9743 0.6046 0.0000
0.9880 0.6023 0.0000
0.9968 0.6001 0.0000
0.9998 0.6064 0.1523
0.9999 0.6261 0.2668
0.4606 0.6329 0.2630
0.4640 0.6333 0.2621
0.4686 0.6338 0.2609
0.4755 0.6346 0.2591
0.4850 0.6356 0.2567
0.4975 0.6370 0.2533
0.5136 0.6387 0.2491
0.5336 0.6406 0.2438
0.5582 0.6430 0.2373
0.5874 0.6456 0.2294
0.6206 0.6484 0.2200
0.6574 0.6514 0.2086
0.6966 0.6545 0.1949
0.7365 0.6575 0.1782
0.7766 0.6605 0.1573
0.8184 0.6626 0.1358
0.8634 0.6623 0.1013
0.9030 0.6600 0.0314
0.9328 0.6574 0.0000
0.9567 0.6550 0.0000
0.9753 0.6526 0.0000
0.9888 0.6502 0.0000
0.9973 0.6480 0.0000
0.9999 0.6543 0.1774
0.9999 0.6710 0.2925
0.4994 0.6759 0.2811
0.5027 0.6762 0.2803
0.5072 0.6767 0.2791
0.5142 0.6774 0.2774
0.5239 0.6783 0.2751
0.5365 0.6795 0.2720
0.5529 0.6811 0.2680
0.5729 0.6830 0.2631
0.5967 0.6852 0.2569
0.6241 0.6876 0.2496
0.6549 0.6901 0.2409
0.6884 0.6928 0.2306
0.7233 0.6956 0.2184
0.7589 0.6984 0.2039
0.7953 0.7012 0.1863
0.8311 0.7040 0.1649
0.8669 0.7057 0.1438
0.9019 0.7053 0.1095
0.9330 0.7031 0.0421
0.9575 0.7007 0.0000
0.9760 0.6984 0.0000
0.9894 0.6961 0.0000
0.9977 0.6938 0.0000
0.9999 0.6997 0.2027
1.0000 0.7136 0.3210
0.5416 0.7167 0.2994
0.5449 0.7170 0.2986
0.5495 0.7174 0.2976
0.5566 0.7181 0.2960
0.5664 0.7189 0.2938
0.5790 0.7201 0.2909
0.5948 0.7215 0.2872
0.6138 0.7231 0.2826
0.6359 0.7250 0.2769
0.6612 0.7271 0.2700
0.6890 0.7293 0.2617
0.7189 0.7318 0.2521
0.7498 0.7343 0.2409
0.7820 0.7370 0.2279
0.8147 0.7396 0.2125
0.8468 0.7422 0.1943
0.8767 0.7447 0.1730
0.9044 0.7463 0.1515
0.9321 0.7458 0.1173
0.9575 0.7438 0.0529
0.9766 0.7415 0.0000
0.9899 0.7393 0.0000
0.9980 0.7372 0.0000
1.0000 0.7422 0.2290
1.0000 0.7534 0.3526
0.5868 0.7550 0.3179
0.5901 0.7553 0.3172
0.5945 0.7557 0.3163
0.6013 0.7562 0.3147
0.6106 0.7570 0.3126
0.6226 0.7580 0.3099
0.6373 0.7592 0.3065
0.6549 0.7606 0.3021
0.6751 0.7623 0.2968
0.6979 0.7641 0.2905
0.7226 0.7662 0.2828
0.7488 0.7684 0.2739
0.7766 0.7707 0.2633
0.8055 0.7732 0.2512
0.8346 0.7756 0.2373
0.8629 0.7782 0.2212
0.8888 0.7807 0.2023
0.9114 0.7830 0.1811
0.9340 0.7844 0.1593
0.9568 0.7839 0.1251
0.9766 0.7820 0.0629
0.9903 0.7798 0.0000
0.9983 0.7777 0.0000
1.0000 0.7817 0.2585
1.0000 0.7910 0.3877
0.6329 0.7915 0.3366
0.6359 0.7917 0.3359
0.6401 0.7920 0.3351
0.6464 0.7926 0.3336
0.6550 0.7933 0.3316
0.6659 0.7942 0.3291
0.6794 0.7953 0.3259
0.6952 0.7966 0.3218
0.7132 0.7982 0.3169
0.7331 0.7999 0.3110
0.7548 0.8018 0.3039
0.7783 0.8039 0.2955
0.8032 0.8061 0.2859
0.8288 0.8085 0.2747
0.8543 0.8109 0.2616
0.8787 0.8134 0.2467
0.9007 0.8159 0.2298
0.9208 0.8183 0.2101
0.9396 0.8206 0.1892
0.9583 0.8219 0.1668
0.9761 0.8214 0.1329
0.9902 0.8195 0.0722
0.9985 0.8174 0.0000
1.0000 0.8204 0.2943
1.0000 0.8281 0.4285
0.6782 0.8274 0.3555
0.6809 0.8277 0.3548
0.6847 0.8280 0.3540
0.6903 0.8284 0.3526
0.6980 0.8291 0.3507
0.7078 0.8299 0.3483
0.7196 0.8310 0.3453
0.7333 0.8322 0.3416
0.7490 0.8336 0.3369
0.7667 0.8353 0.3314
0.7862 0.8371 0.3249
0.8070 0.8391 0.3172
0.8290 0.8412 0.3081
0.8513 0.8434 0.2978
0.8732 0.8458 0.2858
0.8937 0.8482 0.2721
0.9124 0.8507 0.2563
0.9304 0.8531 0.2383
0.9472 0.8556 0.2180
0.9626 0.8579 0.1972
0.9772 0.8592 0.1743
0.9900 0.8587 0.1404
0.9985 0.8569 0.0817
1.0000 0.8583 0.3375
1.0000 0.8643 0.4752
0.7210 0.8630 0.3745
0.7234 0.8632 0.3738
0.7267 0.8635 0.3730
0.7315 0.8639 0.3717
0.7382 0.8645 0.3700
0.7467 0.8653 0.3677
0.7570 0.8663 0.3648
0.7693 0.8674 0.3613
0.7833 0.8688 0.3570
0.7991 0.8703 0.3519
0.8162 0.8720 0.3457
0.8344 0.8739 0.3386
0.8534 0.8760 0.3302
0.8724 0.8782 0.3206
0.8908 0.8805 0.3096
0.9078 0.8829 0.2970
0.9243 0.8854 0.2825
0.9402 0.8880 0.2659
0.9551 0.8905 0.2471
0.9686 0.8930 0.2260
0.9804 0.8952 0.2052
0.9908 0.8963 0.1819
0.9984 0.8958 0.1479
0.9996 0.8953 0.4099
0.9997 0.8993 0.5315
0.7607 0.8983 0.3935
0.7628 0.8985 0.3930
0.7657 0.8988 0.3922
0.7701 0.8992 0.3910
0.7760 0.8998 0.3893
0.7836 0.9006 0.3872
0.7928 0.9015 0.3845
0.8036 0.9026 0.3812
0.8160 0.9039 0.3772
0.8297 0.9054 0.3724
0.8445 0.9071 0.3667
0.8601 0.9089 0.3600
0.8760 0.9109 0.3523
0.8917 0.9130 0.3434
0.9066 0.9152 0.3332
0.9214 0.9176 0.3215
0.9359 0.9200 0.3082
0.9499 0.9225 0.2931
0.9629 0.9250 0.2757
0.9746 0.9275 0.2561
0.9846 0.9299 0.2340
0.9928 0.9320 0.2133
0.9980 0.9317 0.3016
0.9991 0.9302 0.5055
0.9995 0.9331 0.6176
0.8582 0.9194 0.5001
0.8594 0.9196 0.4999
0.8610 0.9199 0.4997
0.8634 0.9203 0.4993
0.8667 0.9210 0.4987
0.8709 0.9218 0.4980
0.8760 0.9228 0.4972
0.8818 0.9239 0.4962
0.8883 0.9254 0.4948
0.8954 0.9270 0.4932
0.9028 0.9289 0.4911
0.9108 0.9310 0.4885
0.9192 0.9333 0.4853
0.9280 0.9359 0.4812
0.9372 0.9387 0.4762
0.9464 0.9417 0.4698
0.9556 0.9449 0.4618
0.9646 0.9484 0.4512
0.9733 0.9520 0.4369
0.9814 0.9559 0.4168
0.9887 0.9599 0.3872
0.9949 0.9641 0.3398
0.9978 0.9615 0.5030
0.9989 0.9609 0.6414
0.9995 0.9643 0.7777
0.0024 0.0004 0.0152
0.0267 0.0000 0.0359
0.0568 0.0000 0.0358
0.0926 0.0000 0.0352
0.1327 0.0000 0.0356
0.1761 0.0000 0.0373
0.2229 0.0000 0.0395
0.2726 0.0000 0.0417
0.3248 0.0000 0.0443
0.3788 0.0000 0.0471
0.4341 0.0000 0.0502
0.4902 0.0000 0.0535
0.5516 0.0000 0.0570
0.6189 0.0000 0.0606
0.6852 0.0000 0.0646
0.7462 0.0000 0.0686
0.8017 0.0000 0.0728
0.8505 0.0000 0.0772
0.8902 0.0000 0.0819
0.9208 0.0000 0.0863
0.9462 0.0000 0.0910
0.9669 0.0000 0.0957
0.9827 0.0000 0.1004
0.9937 0.0000 0.1051
0.9998 0.0000 0.1099
0.0091 0.0140 0.0336
0.0313 0.0147 0.0359
0.0656 0.0133 0.0326
0.1073 0.0109 0.0273
0.1530 0.0079 0.0222
0.2028 0.0042 0.0156
0.2558 0.0000 0.0077
0.3019 0.0000 0.0103
0.3511 0.0000 0.0133
0.4023 0.0000 0.0168
0.4554 0.0000 0.0207
0.5100 0.0000 0.0252
0.5717 0.0000 0.0302
0.6372 0.0000 0.0357
0.7012 0.0000 0.0413
0.7592 0.0000 0.0470
0.8125 0.0000 0.0527
0.8590 0.0000 0.0584
0.8963 0.0000 0.0640
0.9254 0.0000 0.0697
0.9498 0.0000 0.0754
0.9695 0.0000 0.0810
0.9845 0.0000 0.0866
0.9948 0.0000 0.0921
1.0000 0.0104 0.1073
0.0199 0.0338 0.0384
0.0428 0.0338 0.0452
0.0645 0.0353 0.0374
0.1066 0.0333 0.0272
0.1541 0.0300 0.0181
0.2057 0.0254 0.0084
0.2591 0.0203 0.0000
0.3089 0.0178 0.0000
0.3605 0.0154 0.0000
0.4139 0.0130 0.0000
0.4688 0.0105 0.0000
0.5260 0.0081 0.0000
0.5909 0.0056 0.0000
0.6578 0.0030 0.0000
0.7213 0.0003 0.0000
0.7763 0.0000 0.0066
0.8266 0.0000 0.0143
0.8699 0.0000 0.0227
0.9039 0.0000 0.0316
0.9314 0.0000 0.0407
0.9544 0.0000 0.0492
0.9729 0.0000 0.0571
0.9868 0.0000 0.0647
0.9961 0.0000 0.0720
1.0000 0.0323 0.1100
0.0347 0.0626 0.0449
0.0592 0.0611 0.0580
0.0753 0.0637 0.0487
0.1043 0.0653 0.0399
0.1512 0.0627 0.0242
0.2028 0.0586 0.0104
0.2562 0.0540 0.0000
0.3066 0.0513 0.0000
0.3597 0.0482 0.0000
0.4143 0.0452 0.0000
0.4700 0.0423 0.0000
0.5278 0.0395 0.0000
0.5931 0.0366 0.0000
0.6601 0.0336 0.0000
0.7234 0.0304 0.0000
0.7808 0.0271 0.0000
0.8326 0.0234 0.0000
0.8762 0.0194 0.0000
0.9098 0.0150 0.0000
0.9372 0.0103 0.0000
0.9598 0.0056 0.0000
0.9775 0.0010 0.0000
0.9900 0.0000 0.0093
0.9978 0.0000 0.0219
1.0000 0.0635 0.1142
0.0587 0.0975 0.0622
0.0792 0.0963 0.0726
0.0932 0.0985 0.0663
0.1152 0.1013 0.0543
0.1489 0.1028 0.0430
0.1995 0.1000 0.0217
0.2545 0.0958 0.0027
0.3071 0.0924 0.0000
0.3600 0.0898 0.0000
0.4140 0.0874 0.0000
0.4702 0.0844 0.0000
0.5289 0.0812 0.0000
0.5950 0.0778 0.0000
0.6625 0.0743 0.0000
0.7262 0.0707 0.0000
0.7835 0.0672 0.0000
0.8349 0.0634 0.0000
0.8780 0.0595 0.0000
0.9112 0.0553 0.0000
0.9384 0.0509 0.0000
0.9607 0.0463 0.0000
0.9782 0.0414 0.0000
0.9908 0.0363 0.0000
0.9985 0.0308 0.0000
1.0000 0.1026 0.1201
0.0843 0.1353 0.0799
0.1024 0.1342 0.0883
0.1145 0.1361 0.0834
0.1331 0.1387 0.0747
0.1592 0.1416 0.0605
0.1968 0.1428 0.0466
0.2507 0.1401 0.0200
0.3076 0.1362 0.0000
0.3619 0.1333 0.0000
0.4170 0.1306 0.0000
0.4727 0.1283 0.0000
0.5305 0.1261 0.0000
0.5964 0.1235 0.0000
0.6643 0.1204 0.0000
0.7284 0.1173 0.0000
0.7858 0.1140 0.0000
0.8372 0.1105 0.0000
0.8800 0.1068 0.0000
0.9128 0.1030 0.0000
0.9397 0.0992 0.0000
0.9617 0.0951 0.0000
0.9789 0.0907 0.0000
0.9913 0.0860 0.0000
0.9987 0.0810 0.0000
1.0000 0.1445 0.1273
0.1120 0.1754 0.0976
0.1277 0.1745 0.1045
0.1383 0.1762 0.1006
0.1546 0.1785 0.0938
0.1772 0.1814 0.0833
0.2068 0.1844 0.0671
0.2481 0.1854 0.0509
0.3048 0.1826 0.0191
0.3632 0.1791 0.0000
0.4196 0.1762 0.0000
0.4761 0.1735 0.0000
0.5351 0.1711 0.0000
0.6012 0.1690 0.0000
0.6679 0.1671 0.0000
0.7308 0.1649 0.0000
0.7881 0.1620 0.0000
0.8391 0.1589 0.0000
0.8816 0.1557 0.0000
0.9141 0.1522 0.0000
0.9409 0.1486 0.0000
0.9628 0.1447 0.0000
0.9798 0.1406 0.0000
0.9918 0.1367 0.0000
0.9990 0.1325 0.0000
1.0000 0.1890 0.1358
0.1411 0.2176 0.1151
0.1549 0.2168 0.1207
0.1644 0.2183 0.1175
0.1789 0.2204 0.1122
0.1989 0.2231 0.1041
0.2250 0.2262 0.0919
0.2577 0.2292 0.0739
0.3023 0.2301 0.0557
0.3614 0.2273 0.0189
0.4214 0.2239 0.0000
0.4791 0.2211 0.0000
0.5398 0.2185 0.0000
0.6071 0.2163 0.0000
0.6741 0.2141 0.0000
0.7360 0.2122 0.0000
0.7916 0.2103 0.0000
0.8413 0.2083 0.0000
0.8833 0.2054 0.0000
0.9154 0.2023 0.0000
0.9420 0.1991 0.0000
0.9636 0.1957 0.0000
0.9804 0.1921 0.0000
0.9923 0.1883 0.0000
0.9992 0.1843 0.0000
1.0000 0.2355 0.1449
0.1715 0.2616 0.1320
0.1839 0.2609 0.1367
0.1925 0.2622 0.1341
0.2055 0.2642 0.1298
0.2234 0.2667 0.1234
0.2469 0.2696 0.1141
0.2761 0.2728 0.1005
0.3115 0.2760 0.0810
0.3593 0.2767 0.0611
0.4207 0.2741 0.0195
0.4817 0.2709 0.0000
0.5440 0.2680 0.0000
0.6123 0.2655 0.0000
0.6798 0.2632 0.0000
0.7415 0.2610 0.0000
0.7969 0.2589 0.0000
0.8458 0.2570 0.0000
0.8860 0.2552 0.0000
0.9169 0.2533 0.0000
0.9432 0.2504 0.0000
0.9646 0.2473 0.0000
0.9811 0.2441 0.0000
0.9927 0.2408 0.0000
0.9994 0.2372 0.0000
1.0000 0.2839 0.1542
0.2033 0.3072 0.1485
0.2146 0.3066 0.1525
0.2224 0.3078 0.1503
0.2344 0.3096 0.1467
0.2507 0.3119 0.1416
0.2719 0.3148 0.1342
0.2985 0.3179 0.1238
0.3306 0.3213 0.1091
0.3684 0.3245 0.0892
0.4189 0.3251 0.0670
0.4815 0.3224 0.0213
0.5470 0.3191 0.0000
0.6167 0.3164 0.0000
0.6848 0.3139 0.0000
0.7465 0.3114 0.0000
0.8018 0.3092 0.0000
0.8502 0.3071 0.0000
0.8896 0.3051 0.0000
0.9198 0.3031 0.0000
0.9451 0.3013 0.0000
0.9656 0.2996 0.0000
0.9818 0.2967 0.0000
0.9932 0.2937 0.0000
0.9996 0.2905 0.0000
1.0000 0.3334 0.1647
0.2367 0.3541 0.1648
0.2470 0.3536 0.1683
0.2542 0.3546 0.1664
0.2652 0.3562 0.1633
0.2801 0.3584 0.1590
0.2995 0.3610 0.1529
0.3238 0.3641 0.1445
0.3531 0.3673 0.1331
0.3877 0.3707 0.1174
0.4275 0.3739 0.0973
0.4798 0.3742 0.0732
0.5470 0.3714 0.0240
0.6197 0.3684 0.0000
0.6888 0.3657 0.0000
0.7508 0.3631 0.0000
0.8062 0.3606 0.0000
0.8543 0.3583 0.0000
0.8929 0.3561 0.0000
0.9226 0.3541 0.0000
0.9475 0.3521 0.0000
0.9676 0.3502 0.0000
0.9830 0.3484 0.0000
0.9937 0.3467 0.0000
0.9999 0.3440 0.0000
1.0000 0.3837 0.1764
