EA 50 Cinematic Luts Pack/EA_Cinematic Lut (38).cube
TITLE "A subdued, frigid grade that will add some dramatic quality to your video."
LUT_3D_SIZE 25
0.0186 0.0087 0.0228
0.0710 0.0047 0.0162
0.0830 0.0065 0.0207
0.0990 0.0095 0.0273
0.1179 0.0140 0.0355
0.1397 0.0199 0.0447
0.1666 0.0285 0.0559
0.1950 0.0388 0.0674
0.2245 0.0508 0.0790
0.2564 0.0644 0.0906
0.2912 0.0799 0.1023
0.3281 0.0978 0.1141
0.3662 0.1188 0.1260
0.4046 0.1422 0.1382
0.4423 0.1673 0.1507
0.4784 0.1935 0.1637
0.5120 0.2203 0.1773
0.5424 0.2466 0.1915
0.5711 0.2719 0.2066
0.5994 0.2952 0.2225
0.6276 0.3159 0.2392
0.6558 0.3351 0.2567
0.6840 0.3545 0.2742
0.7121 0.3738 0.2918
0.7397 0.3929 0.3095
0.0162 0.0224 0.0179
0.0421 0.0227 0.0215
0.0566 0.0246 0.0368
0.0767 0.0277 0.0454
0.1012 0.0318 0.0521
0.1331 0.0369 0.0585
0.1678 0.0425 0.0653
0.1980 0.0516 0.0747
0.2278 0.0630 0.0850
0.2603 0.0761 0.0957
0.2957 0.0911 0.1065
0.3331 0.1090 0.1176
0.3709 0.1300 0.1291
0.4089 0.1532 0.1411
0.4462 0.1778 0.1534
0.4818 0.2034 0.1663
0.5148 0.2293 0.1798
0.5449 0.2546 0.1940
0.5732 0.2788 0.2090
0.6015 0.3011 0.2248
0.6296 0.3208 0.2416
0.6576 0.3397 0.2589
0.6857 0.3588 0.2763
0.7137 0.3778 0.2938
0.7413 0.3967 0.3114
0.0263 0.0385 0.0290
0.0452 0.0399 0.0266
0.0633 0.0414 0.0356
0.0777 0.0460 0.0525
0.0965 0.0531 0.0652
0.1214 0.0611 0.0750
0.1482 0.0705 0.0841
0.1817 0.0790 0.0911
0.2178 0.0876 0.0980
0.2575 0.0970 0.1050
0.2966 0.1106 0.1138
0.3340 0.1287 0.1242
0.3725 0.1490 0.1350
0.4111 0.1708 0.1463
0.4490 0.1938 0.1581
0.4850 0.2178 0.1705
0.5182 0.2417 0.1835
0.5480 0.2653 0.1974
0.5762 0.2880 0.2123
0.6042 0.3087 0.2281
0.6321 0.3274 0.2448
0.6601 0.3459 0.2620
0.6879 0.3646 0.2792
0.7158 0.3833 0.2965
0.7432 0.4019 0.3140
0.0418 0.0660 0.0439
0.0535 0.0690 0.0393
0.0725 0.0710 0.0434
0.0909 0.0749 0.0542
0.1061 0.0818 0.0722
0.1237 0.0911 0.0861
0.1457 0.1022 0.0977
0.1710 0.1151 0.1074
0.1987 0.1298 0.1169
0.2339 0.1428 0.1241
0.2746 0.1559 0.1313
0.3197 0.1692 0.1386
0.3674 0.1825 0.1461
0.4123 0.1983 0.1548
0.4504 0.2197 0.1663
0.4862 0.2415 0.1783
0.5193 0.2630 0.1911
0.5492 0.2838 0.2047
0.5778 0.3034 0.2191
0.6063 0.3210 0.2344
0.6347 0.3383 0.2506
0.6630 0.3558 0.2670
0.6913 0.3734 0.2835
0.7189 0.3916 0.3007
0.7462 0.4095 0.3179
0.0593 0.1075 0.0607
0.0641 0.1121 0.0535
0.0820 0.1139 0.0565
0.1011 0.1175 0.0615
0.1196 0.1233 0.0734
0.1350 0.1325 0.0919
0.1526 0.1444 0.1071
0.1703 0.1600 0.1195
0.1976 0.1736 0.1301
0.2239 0.1904 0.1406
0.2539 0.2081 0.1510
0.2949 0.2226 0.1589
0.3399 0.2367 0.1668
0.3869 0.2504 0.1750
0.4346 0.2638 0.1835
0.4801 0.2764 0.1922
0.5206 0.2891 0.2016
0.5504 0.3064 0.2149
0.5790 0.3224 0.2292
0.6075 0.3384 0.2444
0.6358 0.3548 0.2601
0.6641 0.3714 0.2760
0.6923 0.3881 0.2921
0.7205 0.4049 0.3084
0.7482 0.4216 0.3248
0.0767 0.1630 0.0775
0.0800 0.1675 0.0713
0.0921 0.1704 0.0706
0.1108 0.1733 0.0741
0.1300 0.1783 0.0801
0.1488 0.1853 0.0929
0.1648 0.1955 0.1116
0.1818 0.2083 0.1279
0.2007 0.2234 0.1412
0.2234 0.2388 0.1543
0.2546 0.2529 0.1647
0.2847 0.2693 0.1766
0.3184 0.2855 0.1886
0.3630 0.2981 0.1977
0.4091 0.3098 0.2069
0.4550 0.3204 0.2165
0.4979 0.3305 0.2263
0.5369 0.3404 0.2363
0.5725 0.3505 0.2469
0.6081 0.3604 0.2574
0.6370 0.3752 0.2721
0.6653 0.3907 0.2874
0.6935 0.4063 0.3029
0.7216 0.4220 0.3187
0.7493 0.4375 0.3346
0.0941 0.2245 0.0946
0.0969 0.2283 0.0894
0.1028 0.2324 0.0849
0.1209 0.2344 0.0881
0.1403 0.2380 0.0922
0.1598 0.2435 0.0991
0.1791 0.2505 0.1125
0.1958 0.2601 0.1316
0.2119 0.2721 0.1490
0.2329 0.2842 0.1644
0.2535 0.2985 0.1780
0.2851 0.3098 0.1921
0.3204 0.3211 0.2039
0.3537 0.3340 0.2177
0.3887 0.3474 0.2320
0.4328 0.3584 0.2427
0.4762 0.3690 0.2534
0.5163 0.3794 0.2639
0.5526 0.3896 0.2745
0.5875 0.3998 0.2852
0.6225 0.4098 0.2959
0.6574 0.4196 0.3067
0.6924 0.4292 0.3175
0.7229 0.4419 0.3312
0.7506 0.4560 0.3466
0.1118 0.2832 0.1119
0.1142 0.2860 0.1074
0.1171 0.2897 0.1019
0.1315 0.2918 0.1025
0.1504 0.2941 0.1058
0.1706 0.2976 0.1106
0.1907 0.3024 0.1184
0.2106 0.3082 0.1325
0.2283 0.3155 0.1525
0.2458 0.3247 0.1715
0.2689 0.3342 0.1891
0.2917 0.3458 0.2045
0.3188 0.3576 0.2212
0.3553 0.3681 0.2355
0.3914 0.3798 0.2495
0.4251 0.3927 0.2649
0.4588 0.4059 0.2802
0.4979 0.4166 0.2914
0.5348 0.4268 0.3022
0.5690 0.4369 0.3131
0.6033 0.4467 0.3238
0.6377 0.4562 0.3347
0.6722 0.4654 0.3455
0.7069 0.4740 0.3563
0.7413 0.4824 0.3671
0.1297 0.3311 0.1294
0.1318 0.3331 0.1253
0.1344 0.3357 0.1207
0.1427 0.3385 0.1172
0.1615 0.3399 0.1204
0.1812 0.3425 0.1241
0.2023 0.3459 0.1296
0.2231 0.3506 0.1385
0.2446 0.3561 0.1536
0.2647 0.3633 0.1749
0.2839 0.3723 0.1958
0.3079 0.3817 0.2158
0.3325 0.3925 0.2339
0.3569 0.4047 0.2506
0.3903 0.4152 0.2692
0.4278 0.4254 0.2832
0.4615 0.4369 0.2981
0.4920 0.4489 0.3134
0.5212 0.4609 0.3288
0.5534 0.4707 0.3406
0.5865 0.4798 0.3516
0.6198 0.4886 0.3625
0.6535 0.4969 0.3734
0.6875 0.5049 0.3843
0.7216 0.5125 0.3952
0.1482 0.3761 0.1477
0.1501 0.3778 0.1440
0.1524 0.3801 0.1398
0.1559 0.3836 0.1333
0.1729 0.3851 0.1355
0.1925 0.3871 0.1389
0.2139 0.3898 0.1434
0.2356 0.3936 0.1496
0.2587 0.3983 0.1596
0.2826 0.4038 0.1761
0.3045 0.4107 0.1990
0.3249 0.4192 0.2222
0.3463 0.4288 0.2446
0.3746 0.4379 0.2652
0.3993 0.4489 0.2829
0.4261 0.4599 0.3017
0.4611 0.4689 0.3180
0.4954 0.4777 0.3313
0.5233 0.4878 0.3467
0.5492 0.4980 0.3622
0.5745 0.5081 0.3777
0.6047 0.5165 0.3901
0.6374 0.5239 0.4011
0.6703 0.5309 0.4121
0.7037 0.5374 0.4230
0.1671 0.4205 0.1670
0.1688 0.4219 0.1636
0.1709 0.4239 0.1595
0.1741 0.4268 0.1537
0.1850 0.4292 0.1513
0.2049 0.4306 0.1548
0.2253 0.4330 0.1584
0.2486 0.4358 0.1637
0.2728 0.4397 0.1708
0.2979 0.4443 0.1823
0.3235 0.4494 0.2004
0.3466 0.4558 0.2254
0.3676 0.4635 0.2510
0.3891 0.4719 0.2747
0.4167 0.4797 0.2964
0.4410 0.4889 0.3152
0.4645 0.4986 0.3317
0.4929 0.5067 0.3515
0.5236 0.5141 0.3664
0.5522 0.5216 0.3799
0.5765 0.5300 0.3957
0.6013 0.5380 0.4112
0.6265 0.5464 0.4268
0.6559 0.5539 0.4396
0.6883 0.5605 0.4507
0.1865 0.4624 0.1875
0.1881 0.4636 0.1843
0.1901 0.4651 0.1802
0.1929 0.4675 0.1748
0.1979 0.4705 0.1680
0.2169 0.4716 0.1712
0.2382 0.4732 0.1750
0.2617 0.4754 0.1794
0.2873 0.4782 0.1854
0.3132 0.4817 0.1938
0.3393 0.4859 0.2067
0.3658 0.4904 0.2268
0.3894 0.4958 0.2541
0.4104 0.5023 0.2805
0.4315 0.5093 0.3048
0.4576 0.5159 0.3273
0.4804 0.5232 0.3470
0.5019 0.5308 0.3646
0.5230 0.5382 0.3834
0.5502 0.5446 0.4008
0.5776 0.5512 0.4150
0.6044 0.5582 0.4291
0.6286 0.5660 0.4449
0.6533 0.5739 0.4604
0.6782 0.5818 0.4755
0.2064 0.4993 0.2095
0.2078 0.5003 0.2064
0.2098 0.5015 0.2023
0.2124 0.5034 0.1970
0.2160 0.5059 0.1898
0.2299 0.5075 0.1888
0.2520 0.5086 0.1927
0.2754 0.5103 0.1967
0.3018 0.5123 0.2021
0.3288 0.5148 0.2091
0.3555 0.5180 0.2187
0.3819 0.5215 0.2335
0.4086 0.5252 0.2556
0.4319 0.5296 0.2833
0.4524 0.5348 0.3102
0.4723 0.5405 0.3350
0.4919 0.5467 0.3578
0.5166 0.5523 0.3787
0.5359 0.5592 0.3971
0.5543 0.5668 0.4137
0.5766 0.5736 0.4340
0.6031 0.5798 0.4500
0.6306 0.5861 0.4637
0.6561 0.5929 0.4779
0.6801 0.6003 0.4930
0.2270 0.5308 0.2333
0.2283 0.5315 0.2304
0.2301 0.5324 0.2262
0.2327 0.5337 0.2209
0.2362 0.5356 0.2139
0.2441 0.5376 0.2077
0.2659 0.5384 0.2114
0.2905 0.5395 0.2158
0.3161 0.5412 0.2204
0.3440 0.5430 0.2269
0.3716 0.5454 0.2350
0.3985 0.5482 0.2463
0.4245 0.5515 0.2624
0.4506 0.5550 0.2849
0.4728 0.5590 0.3128
0.4917 0.5639 0.3399
0.5097 0.5693 0.3651
0.5272 0.5752 0.3884
0.5492 0.5805 0.4102
0.5674 0.5871 0.4295
0.5854 0.5941 0.4469
0.6033 0.6015 0.4656
0.6288 0.6073 0.4832
0.6552 0.6133 0.4976
0.6827 0.6193 0.5104
0.2490 0.5586 0.2588
0.2503 0.5592 0.2560
0.2521 0.5600 0.2522
0.2547 0.5612 0.2468
0.2581 0.5629 0.2399
0.2626 0.5651 0.2309
0.2811 0.5662 0.2318
0.3060 0.5671 0.2363
0.3316 0.5684 0.2409
0.3589 0.5700 0.2466
0.3871 0.5720 0.2538
0.4145 0.5744 0.2627
0.4412 0.5772 0.2750
0.4658 0.5803 0.2916
0.4899 0.5834 0.3145
0.5103 0.5872 0.3424
0.5275 0.5918 0.3698
0.5436 0.5971 0.3953
0.5595 0.6028 0.4191
0.5803 0.6081 0.4415
0.5983 0.6143 0.4614
0.6161 0.6209 0.4790
0.6337 0.6280 0.4949
0.6544 0.6345 0.5145
0.6802 0.6403 0.5304
0.2726 0.5855 0.2846
0.2739 0.5860 0.2821
0.2756 0.5867 0.2785
0.2782 0.5878 0.2734
0.2815 0.5893 0.2670
0.2858 0.5912 0.2587
0.2973 0.5929 0.2537
0.3216 0.5937 0.2579
0.3481 0.5947 0.2628
0.3744 0.5962 0.2675
0.4026 0.5978 0.2739
0.4301 0.5998 0.2814
0.4564 0.6023 0.2909
0.4815 0.6049 0.3040
0.5038 0.6079 0.3210
0.5258 0.6110 0.3441
0.5440 0.6148 0.3722
0.5599 0.6195 0.3997
0.5752 0.6247 0.4255
0.5908 0.6302 0.4495
0.6079 0.6359 0.4718
0.6286 0.6411 0.4919
0.6463 0.6475 0.5100
0.6639 0.6543 0.5264
0.6813 0.6616 0.5441
0.2974 0.6117 0.3106
0.2987 0.6122 0.3083
0.3004 0.6128 0.3050
0.3029 0.6138 0.2999
0.3061 0.6152 0.2942
0.3101 0.6170 0.2865
0.3153 0.6192 0.2767
0.3380 0.6200 0.2798
0.3642 0.6208 0.2845
0.3907 0.6221 0.2892
0.4176 0.6236 0.2945
0.4456 0.6253 0.3015
0.4715 0.6274 0.3093
0.4953 0.6297 0.3192
0.5184 0.6323 0.3331
0.5380 0.6354 0.3505
0.5579 0.6386 0.3738
0.5754 0.6424 0.4018
0.5912 0.6469 0.4293
0.6063 0.6520 0.4553
0.6216 0.6573 0.4791
0.6371 0.6631 0.5011
0.6588 0.6679 0.5219
0.6764 0.6742 0.5405
0.6941 0.6810 0.5580
0.3232 0.6379 0.3367
0.3244 0.6383 0.3345
0.3260 0.6389 0.3315
0.3285 0.6398 0.3268
0.3315 0.6411 0.3212
0.3354 0.6427 0.3142
0.3402 0.6448 0.3052
0.3552 0.6463 0.3021
0.3805 0.6470 0.3064
0.4076 0.6480 0.3114
0.4331 0.6494 0.3159
0.4597 0.6509 0.3218
0.4853 0.6525 0.3289
0.5091 0.6545 0.3373
0.5304 0.6569 0.3476
0.5510 0.6596 0.3620
0.5693 0.6628 0.3799
0.5890 0.6660 0.4034
0.6065 0.6698 0.4313
0.6222 0.6743 0.4588
0.6371 0.6792 0.4843
0.6523 0.6844 0.5081
0.6677 0.6901 0.5303
0.6890 0.6950 0.5519
0.7068 0.7012 0.5714
0.3496 0.6638 0.3627
0.3506 0.6642 0.3607
0.3522 0.6648 0.3579
0.3544 0.6657 0.3535
0.3574 0.6668 0.3481
0.3610 0.6683 0.3415
0.3655 0.6702 0.3332
0.3727 0.6723 0.3244
0.3970 0.6730 0.3283
0.4230 0.6738 0.3330
0.4488 0.6750 0.3377
0.4736 0.6763 0.3427
0.4984 0.6777 0.3490
0.5215 0.6795 0.3563
0.5427 0.6816 0.3652
0.5622 0.6842 0.3762
0.5821 0.6870 0.3910
0.6004 0.6903 0.4093
0.6200 0.6935 0.4329
0.6374 0.6973 0.4608
0.6530 0.7015 0.4876
0.6678 0.7064 0.5130
0.6829 0.7116 0.5369
0.6984 0.7174 0.5599
0.7178 0.7223 0.5892
0.3760 0.6897 0.3886
0.3770 0.6901 0.3868
0.3785 0.6906 0.3842
0.3806 0.6914 0.3801
0.3834 0.6925 0.3748
0.3868 0.6939 0.3687
0.3910 0.6957 0.3610
0.3962 0.6978 0.3514
0.4139 0.6990 0.3504
0.4387 0.6998 0.3548
0.4646 0.7007 0.3598
0.4878 0.7018 0.3642
0.5109 0.7032 0.3696
0.5336 0.7046 0.3765
0.5540 0.7067 0.3840
0.5739 0.7090 0.3933
0.5935 0.7117 0.4049
0.6130 0.7146 0.4200
0.6312 0.7180 0.4388
0.6508 0.7212 0.4624
0.6681 0.7248 0.4894
0.6837 0.7291 0.5161
0.6985 0.7339 0.5416
0.7181 0.7374 0.5862
0.7361 0.7419 0.6239
0.4025 0.7157 0.4145
0.4035 0.7161 0.4128
0.4048 0.7166 0.4104
0.4068 0.7173 0.4066
0.4095 0.7184 0.4014
0.4126 0.7197 0.3957
0.4166 0.7213 0.3886
0.4213 0.7233 0.3797
0.4310 0.7252 0.3728
0.4546 0.7260 0.3768
0.4787 0.7267 0.3814
0.5020 0.7276 0.3862
0.5235 0.7289 0.3908
0.5446 0.7304 0.3968
0.5655 0.7321 0.4040
0.5854 0.7343 0.4119
0.6050 0.7368 0.4215
0.6246 0.7396 0.4337
0.6438 0.7426 0.4491
0.6620 0.7459 0.4680
0.6814 0.7490 0.4910
0.7023 0.7513 0.5326
0.7238 0.7535 0.5834
0.7425 0.7569 0.6262
0.7596 0.7611 0.6625
0.4287 0.7420 0.4405
0.4297 0.7424 0.4388
0.4309 0.7428 0.4366
0.4327 0.7436 0.4330
0.4352 0.7445 0.4281
0.4382 0.7458 0.4226
0.4418 0.7474 0.4159
0.4461 0.7493 0.4078
0.4512 0.7516 0.3978
0.4704 0.7525 0.3990
0.4929 0.7531 0.4032
0.5156 0.7539 0.4082
0.5360 0.7551 0.4126
0.5558 0.7566 0.4178
0.5763 0.7583 0.4242
0.5967 0.7602 0.4315
0.6167 0.7625 0.4399
0.6360 0.7652 0.4498
0.6561 0.7679 0.4640
0.6822 0.7686 0.5032
0.7066 0.7696 0.5452
0.7306 0.7710 0.5890
0.7514 0.7731 0.6327
0.7696 0.7763 0.6714
0.7861 0.7805 0.7054
0.4545 0.7689 0.4663
0.4553 0.7692 0.4648
0.4564 0.7697 0.4627
0.4581 0.7704 0.4594
0.4604 0.7713 0.4548
0.4632 0.7725 0.4494
0.4663 0.7740 0.4431
0.4702 0.7759 0.4354
0.4747 0.7780 0.4262
0.4860 0.7797 0.4213
0.5070 0.7803 0.4252
0.5330 0.7802 0.4365
0.5584 0.7802 0.4503
0.5821 0.7807 0.4644
0.6063 0.7810 0.4804
0.6310 0.7814 0.4988
0.6545 0.7821 0.5185
0.6778 0.7830 0.5408
0.6999 0.7845 0.5655
0.7220 0.7859 0.5936
0.7426 0.7878 0.6237
0.7623 0.7900 0.6559
0.7818 0.7925 0.6891
0.7996 0.7957 0.7226
0.8178 0.8001 0.7533
0.5254 0.7894 0.5250
0.5274 0.7895 0.5251
0.5302 0.7896 0.5252
0.5343 0.7898 0.5254
0.5398 0.7900 0.5257
0.5466 0.7904 0.5265
0.5543 0.7909 0.5280
0.5634 0.7915 0.5302
0.5737 0.7922 0.5329
0.5852 0.7930 0.5364
0.6014 0.7932 0.5451
0.6187 0.7935 0.5551
0.6369 0.7939 0.5663
0.6548 0.7946 0.5781
0.6729 0.7956 0.5909
0.6917 0.7966 0.6055
0.7109 0.7978 0.6218
0.7291 0.7995 0.6392
0.7472 0.8017 0.6585
0.7648 0.8045 0.6796
0.7826 0.8079 0.7028
0.7996 0.8124 0.7274
0.8186 0.8179 0.7536
0.8417 0.8246 0.7802
0.8658 0.8332 0.8069
0.6293 0.8036 0.6245
0.6306 0.8037 0.6248
0.6325 0.8039 0.6252
0.6352 0.8042 0.6259
0.6390 0.8046 0.6268
0.6438 0.8052 0.6281
0.6494 0.8060 0.6302
0.6560 0.8069 0.6329
0.6637 0.8081 0.6363
0.6723 0.8095 0.6404
0.6831 0.8107 0.6468
0.6958 0.8117 0.6553
0.7094 0.8129 0.6649
0.7234 0.8144 0.6754
0.7372 0.8166 0.6865
0.7515 0.8192 0.6990
0.7663 0.8222 0.7128
0.7814 0.8258 0.7278
0.7964 0.8302 0.7441
0.8126 0.8354 0.7617
0.8323 0.8415 0.7806
0.8550 0.8486 0.8011
0.8788 0.8570 0.8223
0.9035 0.8666 0.8470
0.9283 0.8775 0.8802
0.0207 0.0078 0.0522
0.0471 0.0083 0.0498
0.0537 0.0128 0.0446
0.0738 0.0165 0.0475
0.1000 0.0201 0.0529
0.1304 0.0240 0.0586
0.1661 0.0293 0.0660
0.1960 0.0389 0.0756
0.2254 0.0509 0.0861
0.2572 0.0646 0.0969
0.2920 0.0800 0.1078
0.3288 0.0979 0.1190
0.3668 0.1189 0.1305
0.4051 0.1424 0.1423
0.4428 0.1675 0.1546
0.4789 0.1938 0.1674
0.5124 0.2205 0.1809
0.5428 0.2468 0.1950
0.5713 0.2719 0.2099
0.5997 0.2953 0.2258
0.6279 0.3160 0.2425
0.6561 0.3352 0.2598
0.6842 0.3545 0.2771
0.7123 0.3739 0.2946
0.7400 0.3930 0.3121
0.0062 0.0233 0.0460
0.0395 0.0230 0.0450
0.0798 0.0203 0.0425
0.1063 0.0206 0.0445
0.1274 0.0243 0.0498
0.1518 0.0306 0.0577
0.1778 0.0389 0.0669
0.2051 0.0489 0.0768
0.2338 0.0606 0.0871
0.2654 0.0741 0.0977
0.2998 0.0895 0.1086
0.3361 0.1079 0.1197
0.3736 0.1290 0.1311
0.4112 0.1522 0.1429
0.4483 0.1769 0.1552
0.4836 0.2026 0.1680
0.5163 0.2285 0.1814
0.5461 0.2539 0.1956
0.5744 0.2782 0.2105
0.6025 0.3006 0.2263
0.6306 0.3204 0.2431
0.6586 0.3393 0.2603
0.6865 0.3584 0.2776
0.7145 0.3775 0.2950
0.7432 0.3953 0.3117
0.0214 0.0393 0.0457
0.0436 0.0396 0.0536
0.0685 0.0407 0.0498
0.0957 0.0421 0.0585
0.1227 0.0459 0.0639
0.1502 0.0513 0.0704
0.1779 0.0586 0.0779
0.2062 0.0677 0.0862
0.2358 0.0785 0.0952
0.2684 0.0914 0.1047
0.3036 0.1070 0.1146
0.3406 0.1251 0.1249
0.3786 0.1454 0.1357
0.4165 0.1673 0.1469
0.4532 0.1911 0.1589
0.4879 0.2158 0.1716
0.5200 0.2405 0.1849
0.5493 0.2646 0.1989
0.5773 0.2874 0.2138
0.6052 0.3083 0.2296
0.6331 0.3269 0.2463
0.6610 0.3455 0.2633
0.6888 0.3642 0.2805
0.7166 0.3830 0.2978
0.7452 0.4005 0.3143
0.0391 0.0671 0.0555
0.0555 0.0684 0.0614
0.0698 0.0723 0.0553
0.0946 0.0744 0.0651
0.1165 0.0792 0.0763
0.1358 0.0873 0.0896
0.1636 0.0952 0.0966
0.1907 0.1059 0.1049
0.2253 0.1152 0.1111
0.2644 0.1250 0.1173
0.3038 0.1381 0.1250
0.3411 0.1556 0.1346
0.3793 0.1748 0.1447
0.4174 0.1953 0.1554
0.4549 0.2168 0.1668
0.4901 0.2388 0.1789
0.5226 0.2606 0.1916
0.5520 0.2817 0.2052
0.5805 0.3015 0.2196
0.6088 0.3195 0.2349
0.6369 0.3369 0.2511
0.6645 0.3549 0.2679
0.6921 0.3731 0.2848
0.7197 0.3912 0.3019
0.7481 0.4082 0.3182
0.0574 0.1087 0.0694
0.0699 0.1101 0.0746
0.0771 0.1159 0.0666
0.0997 0.1186 0.0708
0.1205 0.1235 0.0818
0.1408 0.1308 0.0964
0.1601 0.1418 0.1094
0.1816 0.1550 0.1215
0.2110 0.1672 0.1293
0.2377 0.1836 0.1395
0.2751 0.1972 0.1471
0.3185 0.2101 0.1542
0.3647 0.2228 0.1615
0.4120 0.2354 0.1691
0.4561 0.2498 0.1779
0.4913 0.2687 0.1896
0.5237 0.2871 0.2021
0.5531 0.3047 0.2154
0.5815 0.3209 0.2297
0.6098 0.3370 0.2449
0.6380 0.3534 0.2605
0.6662 0.3701 0.2764
0.6943 0.3869 0.2925
0.7223 0.4037 0.3087
0.7511 0.4195 0.3243
0.0752 0.1641 0.0844
0.0852 0.1654 0.0889
0.0905 0.1711 0.0816
0.1088 0.1747 0.0816
0.1293 0.1791 0.0876
0.1496 0.1855 0.0996
0.1698 0.1939 0.1155
0.1893 0.2056 0.1299
0.2063 0.2214 0.1437
0.2332 0.2348 0.1551
0.2659 0.2483 0.1642
0.2968 0.2646 0.1757
0.3359 0.2787 0.1855
0.3813 0.2908 0.1939
0.4276 0.3021 0.2027
0.4726 0.3125 0.2116
0.5140 0.3220 0.2209
0.5510 0.3315 0.2305
0.5826 0.3438 0.2428
0.6110 0.3587 0.2575
0.6392 0.3740 0.2725
0.6673 0.3895 0.2878
0.6954 0.4052 0.3033
0.7234 0.4209 0.3191
0.7521 0.4357 0.3342
0.0929 0.2255 0.1003
0.1011 0.2266 0.1041
0.1054 0.2314 0.0977
0.1180 0.2359 0.0940
0.1387 0.2391 0.0983
0.1595 0.2440 0.1054
0.1798 0.2507 0.1180
0.2002 0.2587 0.1352
0.2166 0.2708 0.1517
0.2383 0.2829 0.1653
0.2605 0.2963 0.1807
0.2944 0.3073 0.1923
0.3304 0.3185 0.2035
0.3640 0.3311 0.2170
0.4026 0.3432 0.2293
0.4470 0.3535 0.2394
0.4894 0.3636 0.2497
0.5283 0.3735 0.2599
0.5636 0.3834 0.2702
0.5985 0.3932 0.2807
0.6334 0.4029 0.2911
0.6684 0.4124 0.3017
0.6967 0.4266 0.3164
0.7246 0.4409 0.3316
0.7532 0.4545 0.3462
0.1107 0.2839 0.1166
0.1177 0.2847 0.1200
0.1213 0.2883 0.1143
0.1281 0.2931 0.1073
0.1489 0.2949 0.1112
0.1694 0.2983 0.1158
0.1905 0.3027 0.1238
0.2112 0.3083 0.1373
0.2321 0.3147 0.1558
0.2493 0.3241 0.1740
0.2743 0.3331 0.1905
0.2964 0.3450 0.2054
0.3263 0.3558 0.2226
0.3638 0.3660 0.2354
0.3998 0.3776 0.2491
0.4334 0.3903 0.2642
0.4687 0.4028 0.2783
0.5080 0.4128 0.2888
0.5440 0.4227 0.2993
0.5781 0.4325 0.3098
0.6123 0.4421 0.3204
0.6467 0.4514 0.3311
0.6813 0.4605 0.3417
0.7159 0.4691 0.3523
0.7470 0.4793 0.3648
0.1288 0.3316 0.1336
0.1349 0.3322 0.1366
0.1380 0.3348 0.1315
0.1424 0.3387 0.1238
0.1592 0.3408 0.1247
0.1801 0.3430 0.1288
0.2014 0.3464 0.1342
0.2228 0.3509 0.1432
0.2452 0.3562 0.1579
0.2653 0.3634 0.1784
0.2873 0.3717 0.1983
0.3135 0.3805 0.2176
0.3370 0.3917 0.2347
0.3609 0.4038 0.2538
0.3970 0.4136 0.2700
0.4349 0.4236 0.2830
0.4680 0.4351 0.2977
0.4983 0.4470 0.3129
0.5275 0.4587 0.3277
0.5608 0.4680 0.3385
0.5939 0.4769 0.3492
0.6274 0.4855 0.3599
0.6611 0.4938 0.3706
0.6952 0.5017 0.3813
0.7264 0.5105 0.3935
0.1473 0.3766 0.1516
0.1528 0.3771 0.1542
0.1555 0.3794 0.1496
0.1594 0.3828 0.1424
0.1703 0.3859 0.1392
0.1913 0.3876 0.1431
0.2129 0.3903 0.1476
0.2353 0.3939 0.1539
0.2584 0.3986 0.1639
0.2832 0.4039 0.1801
0.3050 0.4108 0.2024
0.3281 0.4187 0.2247
0.3505 0.4281 0.2468
0.3788 0.4372 0.2663
0.4029 0.4484 0.2832
0.4314 0.4587 0.3033
0.4666 0.4677 0.3183
0.5009 0.4763 0.3310
0.5281 0.4865 0.3464
0.5537 0.4967 0.3617
0.5790 0.5068 0.3771
0.6110 0.5147 0.3882
0.6436 0.5220 0.3991
0.6767 0.5289 0.4099
0.7077 0.5363 0.4219
0.1663 0.4208 0.1706
0.1712 0.4213 0.1731
0.1737 0.4232 0.1687
0.1772 0.4262 0.1619
0.1824 0.4300 0.1547
0.2028 0.4313 0.1583
0.2244 0.4334 0.1623
0.2477 0.4362 0.1675
0.2726 0.4399 0.1749
0.2976 0.4445 0.1863
0.3241 0.4495 0.2042
0.3470 0.4559 0.2287
0.3705 0.4631 0.2535
0.3917 0.4716 0.2767
0.4206 0.4791 0.2976
0.4443 0.4884 0.3158
0.4671 0.4982 0.3341
0.4971 0.5059 0.3524
0.5277 0.5132 0.3665
0.5560 0.5207 0.3798
0.5804 0.5291 0.3954
0.6052 0.5371 0.4108
0.6304 0.5455 0.4263
0.6613 0.5524 0.4380
0.6915 0.5597 0.4499
