EA 50 Cinematic Luts Pack/EA_Cinematic Lut (32).cube
TITLE "A sweet, warm grade that makes the footage look very pleasant and proportional in hues. "
LUT_3D_SIZE 25
0.0000 0.0000 0.0000
0.0108 0.0000 0.0000
0.0330 0.0000 0.0000
0.0646 0.0000 0.0000
0.0991 0.0000 0.0000
0.1359 0.0000 0.0000
0.1746 0.0000 0.0000
0.2147 0.0000 0.0000
0.2557 0.0003 0.0000
0.2968 0.0098 0.0000
0.3389 0.0195 0.0000
0.3824 0.0295 0.0000
0.4268 0.0395 0.0000
0.4716 0.0497 0.0000
0.5157 0.0599 0.0000
0.5602 0.0704 0.0002
0.6052 0.0811 0.0017
0.6493 0.0919 0.0037
0.6920 0.1030 0.0066
0.7330 0.1141 0.0101
0.7719 0.1253 0.0143
0.8080 0.1367 0.0194
0.8416 0.1483 0.0248
0.8731 0.1599 0.0300
0.9032 0.1716 0.0351
0.0014 0.0000 0.0000
0.0142 0.0000 0.0000
0.0395 0.0000 0.0000
0.0727 0.0000 0.0000
0.1077 0.0000 0.0000
0.1444 0.0000 0.0000
0.1830 0.0010 0.0000
0.2223 0.0078 0.0000
0.2625 0.0153 0.0000
0.3028 0.0233 0.0000
0.3445 0.0316 0.0000
0.3875 0.0404 0.0000
0.4315 0.0495 0.0000
0.4758 0.0588 0.0000
0.5196 0.0685 0.0000
0.5638 0.0783 0.0005
0.6085 0.0885 0.0020
0.6523 0.0989 0.0041
0.6948 0.1095 0.0068
0.7355 0.1203 0.0105
0.7740 0.1312 0.0149
0.8099 0.1423 0.0200
0.8432 0.1535 0.0251
0.8745 0.1649 0.0304
0.9046 0.1764 0.0355
0.0034 0.0144 0.0000
0.0133 0.0171 0.0000
0.0419 0.0165 0.0000
0.0753 0.0175 0.0000
0.1102 0.0196 0.0000
0.1493 0.0214 0.0000
0.1884 0.0247 0.0000
0.2283 0.0292 0.0000
0.2686 0.0343 0.0000
0.3092 0.0401 0.0000
0.3509 0.0469 0.0000
0.3936 0.0544 0.0000
0.4373 0.0624 0.0000
0.4811 0.0708 0.0000
0.5244 0.0797 0.0000
0.5685 0.0888 0.0007
0.6129 0.0983 0.0023
0.6563 0.1082 0.0045
0.6983 0.1182 0.0075
0.7387 0.1286 0.0112
0.7768 0.1391 0.0157
0.8123 0.1498 0.0208
0.8454 0.1607 0.0259
0.8765 0.1717 0.0309
0.9064 0.1829 0.0361
0.0069 0.0471 0.0000
0.0173 0.0493 0.0000
0.0394 0.0510 0.0000
0.0776 0.0500 0.0000
0.1144 0.0509 0.0000
0.1513 0.0530 0.0000
0.1916 0.0548 0.0000
0.2331 0.0570 0.0000
0.2740 0.0603 0.0000
0.3147 0.0646 0.0000
0.3568 0.0695 0.0000
0.4002 0.0751 0.0000
0.4444 0.0813 0.0000
0.4881 0.0882 0.0000
0.5311 0.0959 0.0001
0.5751 0.1041 0.0013
0.6190 0.1128 0.0030
0.6619 0.1219 0.0054
0.7034 0.1312 0.0083
0.7432 0.1409 0.0121
0.7809 0.1508 0.0167
0.8159 0.1609 0.0217
0.8485 0.1713 0.0268
0.8794 0.1819 0.0319
0.9090 0.1927 0.0370
0.0127 0.0815 0.0006
0.0239 0.0833 0.0000
0.0427 0.0854 0.0000
0.0739 0.0866 0.0000
0.1163 0.0852 0.0000
0.1558 0.0859 0.0000
0.1944 0.0878 0.0000
0.2339 0.0901 0.0000
0.2773 0.0914 0.0000
0.3196 0.0940 0.0000
0.3626 0.0974 0.0000
0.4061 0.1017 0.0000
0.4503 0.1066 0.0000
0.4941 0.1121 0.0000
0.5377 0.1181 0.0007
0.5824 0.1248 0.0022
0.6264 0.1319 0.0044
0.6688 0.1400 0.0068
0.7098 0.1485 0.0102
0.7490 0.1573 0.0140
0.7861 0.1665 0.0186
0.8205 0.1759 0.0234
0.8526 0.1857 0.0285
0.8831 0.1957 0.0333
0.9125 0.2059 0.0384
0.0218 0.1172 0.0076
0.0328 0.1188 0.0021
0.0506 0.1204 0.0000
0.0746 0.1228 0.0000
0.1121 0.1231 0.0000
0.1571 0.1215 0.0000
0.1986 0.1220 0.0000
0.2385 0.1239 0.0000
0.2788 0.1261 0.0000
0.3209 0.1281 0.0000
0.3666 0.1296 0.0000
0.4112 0.1325 0.0000
0.4563 0.1360 0.0000
0.5001 0.1404 0.0004
0.5441 0.1455 0.0016
0.5887 0.1511 0.0033
0.6325 0.1572 0.0055
0.6752 0.1637 0.0086
0.7164 0.1706 0.0122
0.7557 0.1779 0.0169
0.7921 0.1861 0.0214
0.8259 0.1948 0.0259
0.8575 0.2038 0.0307
0.8876 0.2131 0.0355
0.9166 0.2227 0.0403
0.0340 0.1539 0.0216
0.0434 0.1555 0.0115
0.0600 0.1568 0.0059
0.0816 0.1589 0.0000
0.1115 0.1609 0.0000
0.1530 0.1607 0.0000
0.1997 0.1592 0.0042
0.2427 0.1596 0.0035
0.2836 0.1611 0.0014
0.3244 0.1635 0.0000
0.3666 0.1662 0.0000
0.4132 0.1677 0.0004
0.4606 0.1696 0.0017
0.5055 0.1728 0.0022
0.5505 0.1765 0.0030
0.5950 0.1811 0.0049
0.6387 0.1862 0.0075
0.6811 0.1918 0.0106
0.7220 0.1978 0.0147
0.7609 0.2043 0.0192
0.7974 0.2111 0.0240
0.8312 0.2183 0.0287
0.8628 0.2258 0.0336
0.8927 0.2341 0.0383
0.9215 0.2429 0.0430
0.0481 0.1920 0.0376
0.0550 0.1935 0.0268
0.0704 0.1946 0.0209
0.0906 0.1963 0.0091
0.1153 0.1990 0.0000
0.1507 0.2003 0.0000
0.1957 0.1995 0.0000
0.2435 0.1981 0.0128
0.2873 0.1984 0.0124
0.3293 0.1999 0.0075
0.3717 0.2024 0.0014
0.4157 0.2049 0.0015
0.4612 0.2075 0.0025
0.5084 0.2090 0.0056
0.5549 0.2114 0.0078
0.6003 0.2148 0.0089
0.6447 0.2186 0.0103
0.6871 0.2233 0.0136
0.7277 0.2284 0.0177
0.7663 0.2340 0.0220
0.8023 0.2400 0.0268
0.8357 0.2463 0.0314
0.8670 0.2531 0.0360
0.8969 0.2602 0.0410
0.9260 0.2676 0.0458
0.0628 0.2311 0.0539
0.0674 0.2327 0.0426
0.0817 0.2336 0.0380
0.1008 0.2351 0.0286
0.1238 0.2373 0.0093
0.1519 0.2402 0.0000
0.1915 0.2410 0.0000
0.2397 0.2397 0.0047
0.2881 0.2384 0.0255
0.3334 0.2387 0.0260
0.3774 0.2403 0.0188
0.4209 0.2429 0.0069
0.4658 0.2453 0.0063
0.5093 0.2481 0.0064
0.5560 0.2500 0.0106
0.6038 0.2517 0.0158
0.6490 0.2545 0.0186
0.6920 0.2581 0.0202
0.7332 0.2620 0.0221
0.7716 0.2667 0.0257
0.8072 0.2719 0.0302
0.8403 0.2775 0.0344
0.8713 0.2834 0.0390
0.9010 0.2898 0.0437
0.9300 0.2964 0.0484
0.0781 0.2715 0.0705
0.0804 0.2732 0.0587
0.0939 0.2740 0.0547
0.1120 0.2753 0.0474
0.1341 0.2773 0.0335
0.1600 0.2799 0.0042
0.1933 0.2823 0.0000
0.2348 0.2831 0.0000
0.2849 0.2813 0.0160
0.3342 0.2801 0.0387
0.3814 0.2804 0.0400
0.4267 0.2819 0.0327
0.4716 0.2839 0.0281
0.5149 0.2867 0.0143
0.5590 0.2894 0.0146
0.6037 0.2923 0.0164
0.6504 0.2939 0.0235
0.6957 0.2957 0.0291
0.7370 0.2989 0.0311
0.7758 0.3026 0.0330
0.8118 0.3066 0.0348
0.8448 0.3113 0.0382
0.8756 0.3165 0.0426
0.9052 0.3221 0.0470
0.9341 0.3281 0.0515
0.0941 0.3132 0.0873
0.0942 0.3150 0.0750
0.1070 0.3157 0.0715
0.1241 0.3168 0.0655
0.1453 0.3185 0.0548
0.1695 0.3209 0.0354
0.1978 0.3240 0.0000
0.2359 0.3256 0.0000
0.2791 0.3263 0.0000
0.3311 0.3240 0.0308
0.3820 0.3229 0.0522
0.4306 0.3230 0.0542
0.4764 0.3245 0.0466
0.5207 0.3263 0.0413
0.5644 0.3292 0.0245
0.6088 0.3318 0.0253
0.6517 0.3349 0.0253
0.6956 0.3372 0.0308
0.7388 0.3389 0.0373
0.7793 0.3409 0.0421
0.8151 0.3444 0.0438
0.8483 0.3482 0.0457
0.8796 0.3523 0.0474
0.9093 0.3570 0.0508
0.9381 0.3622 0.0551
0.1106 0.3558 0.1043
0.1089 0.3577 0.0917
0.1208 0.3583 0.0881
0.1370 0.3594 0.0831
0.1572 0.3608 0.0746
0.1806 0.3629 0.0599
0.2074 0.3656 0.0299
0.2374 0.3690 0.0000
0.2792 0.3698 0.0000
0.3249 0.3700 0.0000
0.3790 0.3676 0.0454
0.4310 0.3665 0.0658
0.4799 0.3666 0.0684
0.5254 0.3678 0.0608
0.5704 0.3697 0.0549
0.6137 0.3727 0.0354
0.6572 0.3752 0.0358
0.6988 0.3781 0.0361
0.7388 0.3814 0.0371
0.7794 0.3831 0.0449
0.8170 0.3848 0.0510
0.8513 0.3872 0.0551
0.8825 0.3908 0.0568
0.9125 0.3947 0.0585
0.9418 0.3989 0.0604
0.1276 0.3993 0.1215
0.1260 0.4010 0.1101
0.1352 0.4018 0.1047
0.1505 0.4027 0.1005
0.1697 0.4040 0.0934
0.1923 0.4059 0.0817
0.2175 0.4083 0.0623
0.2463 0.4113 0.0171
0.2810 0.4139 0.0000
0.3233 0.4149 0.0000
0.3729 0.4144 0.0014
0.4282 0.4120 0.0600
0.4802 0.4109 0.0794
0.5287 0.4108 0.0827
0.5750 0.4121 0.0754
0.6198 0.4140 0.0688
0.6629 0.4163 0.0641
0.7037 0.4194 0.0466
0.7436 0.4222 0.0469
0.7808 0.4255 0.0469
0.8169 0.4280 0.0517
0.8517 0.4298 0.0589
0.8845 0.4316 0.0648
0.9152 0.4344 0.0680
0.9446 0.4380 0.0697
0.1450 0.4434 0.1386
0.1436 0.4449 0.1285
0.1499 0.4460 0.1215
0.1646 0.4468 0.1176
0.1829 0.4480 0.1116
0.2046 0.4496 0.1020
0.2290 0.4518 0.0867
0.2560 0.4545 0.0593
0.2857 0.4579 0.0011
0.3251 0.4596 0.0000
0.3692 0.4606 0.0000
0.4221 0.4595 0.0170
0.4777 0.4571 0.0744
0.5288 0.4558 0.0931
0.5781 0.4558 0.0970
0.6241 0.4571 0.0901
0.6677 0.4589 0.0828
0.7093 0.4611 0.0785
0.7479 0.4644 0.0572
0.7855 0.4669 0.0578
0.8198 0.4700 0.0581
0.8517 0.4734 0.0581
0.8844 0.4751 0.0662
0.9158 0.4767 0.0731
0.9466 0.4784 0.0786
0.1627 0.4874 0.1557
0.1614 0.4888 0.1466
0.1650 0.4901 0.1382
0.1791 0.4908 0.1346
0.1966 0.4918 0.1294
0.2174 0.4933 0.1214
0.2410 0.4952 0.1089
0.2666 0.4976 0.0895
0.2953 0.5005 0.0500
0.3264 0.5040 0.0000
0.3708 0.5048 0.0000
0.4169 0.5057 0.0000
0.4715 0.5040 0.0384
0.5262 0.5015 0.0888
0.5779 0.5005 0.1069
0.6266 0.5006 0.1113
0.6716 0.5017 0.1048
0.7136 0.5035 0.0971
0.7532 0.5055 0.0920
0.7892 0.5089 0.0677
0.8238 0.5113 0.0688
0.8556 0.5140 0.0691
0.8855 0.5172 0.0690
0.9153 0.5197 0.0729
0.9460 0.5213 0.0805
0.1807 0.5315 0.1728
0.1795 0.5328 0.1645
0.1805 0.5342 0.1548
0.1942 0.5348 0.1514
0.2108 0.5358 0.1468
0.2307 0.5371 0.1400
0.2534 0.5389 0.1296
0.2782 0.5411 0.1139
0.3052 0.5439 0.0884
0.3358 0.5472 0.0334
0.3725 0.5499 0.0000
0.4177 0.5508 0.0000
0.4655 0.5515 0.0000
0.5201 0.5490 0.0584
0.5754 0.5468 0.1032
0.6263 0.5458 0.1208
0.6738 0.5458 0.1257
0.7172 0.5469 0.1197
0.7571 0.5487 0.1116
0.7940 0.5506 0.1060
0.8276 0.5531 0.0964
0.8588 0.5562 0.0797
0.8889 0.5588 0.0801
0.9177 0.5618 0.0802
0.9459 0.5653 0.0799
0.1991 0.5770 0.1899
0.1979 0.5782 0.1823
0.1965 0.5799 0.1714
0.2097 0.5804 0.1681
0.2254 0.5814 0.1641
0.2445 0.5826 0.1581
0.2663 0.5842 0.1493
0.2904 0.5862 0.1363
0.3165 0.5887 0.1170
0.3460 0.5917 0.0813
0.3777 0.5953 0.0067
0.4196 0.5971 0.0000
0.4654 0.5980 0.0000
0.5135 0.5983 0.0000
0.5694 0.5956 0.0776
0.6243 0.5934 0.1176
0.6736 0.5924 0.1347
0.7191 0.5922 0.1400
0.7602 0.5931 0.1345
0.7974 0.5946 0.1262
0.8313 0.5965 0.1200
0.8628 0.5987 0.1161
0.8919 0.6022 0.0902
0.9210 0.6046 0.0911
0.9496 0.6075 0.0913
0.2176 0.6230 0.2070
0.2166 0.6241 0.2000
0.2150 0.6257 0.1898
0.2253 0.6265 0.1849
0.2406 0.6273 0.1811
0.2587 0.6284 0.1759
0.2797 0.6299 0.1682
0.3030 0.6317 0.1573
0.3287 0.6340 0.1413
0.3565 0.6368 0.1175
0.3881 0.6400 0.0690
0.4210 0.6436 0.0000
0.4673 0.6443 0.0000
0.5121 0.6451 0.0000
0.5626 0.6448 0.0000
0.6181 0.6420 0.0950
0.6713 0.6397 0.1318
0.7185 0.6388 0.1486
0.7617 0.6386 0.1541
0.8001 0.6393 0.1493
0.8343 0.6409 0.1408
0.8661 0.6427 0.1341
0.8960 0.6448 0.1295
0.9238 0.6484 0.1010
0.9527 0.6507 0.1020
0.2364 0.6690 0.2240
0.2353 0.6700 0.2175
0.2339 0.6715 0.2083
0.2411 0.6725 0.2015
0.2559 0.6732 0.1980
0.2732 0.6742 0.1932
0.2933 0.6755 0.1865
0.3160 0.6771 0.1771
0.3412 0.6792 0.1637
0.3684 0.6817 0.1445
0.3984 0.6845 0.1119
0.4308 0.6878 0.0490
0.4687 0.6905 0.0000
0.5137 0.6911 0.0000
0.5594 0.6919 0.0000
0.6116 0.6911 0.0180
0.6656 0.6883 0.1114
0.7164 0.6862 0.1460
0.7611 0.6853 0.1623
0.8013 0.6850 0.1683
0.8368 0.6857 0.1639
0.8688 0.6872 0.1555
0.8990 0.6890 0.1483
0.9280 0.6910 0.1433
0.9562 0.6939 0.1286
0.2550 0.7146 0.2410
0.2541 0.7156 0.2350
0.2527 0.7170 0.2264
0.2571 0.7183 0.2180
0.2714 0.7189 0.2145
0.2879 0.7198 0.2103
0.3073 0.7210 0.2043
0.3294 0.7225 0.1960
0.3541 0.7244 0.1845
0.3807 0.7266 0.1685
0.4092 0.7294 0.1457
0.4411 0.7323 0.1020
0.4737 0.7358 0.0156
0.5153 0.7374 0.0000
0.5606 0.7381 0.0000
0.6071 0.7389 0.0000
0.6593 0.7375 0.0461
0.7113 0.7349 0.1274
0.7592 0.7328 0.1600
0.8008 0.7319 0.1760
0.8378 0.7316 0.1824
0.8711 0.7322 0.1784
0.9016 0.7337 0.1701
0.9309 0.7354 0.1628
0.9571 0.7381 0.1894
0.2737 0.7604 0.2580
0.2728 0.7613 0.2523
0.2716 0.7626 0.2444
0.2732 0.7641 0.2345
0.2871 0.7647 0.2311
0.3029 0.7655 0.2272
0.3218 0.7667 0.2218
0.3433 0.7680 0.2145
0.3674 0.7698 0.2045
0.3935 0.7718 0.1907
0.4215 0.7743 0.1717
0.4517 0.7770 0.1417
0.4838 0.7802 0.0866
0.5162 0.7838 0.0000
0.5622 0.7844 0.0000
0.6074 0.7854 0.0000
0.6539 0.7860 0.0000
0.7053 0.7841 0.0708
0.7546 0.7814 0.1432
0.7992 0.7795 0.1740
0.8373 0.7786 0.1898
0.8719 0.7783 0.1964
0.9038 0.7790 0.1930
0.9336 0.7805 0.1848
0.9553 0.7835 0.2672
0.2925 0.8063 0.2751
0.2917 0.8072 0.2698
0.2905 0.8084 0.2623
0.2895 0.8101 0.2509
0.3029 0.8106 0.2477
0.3185 0.8114 0.2440
0.3367 0.8124 0.2391
0.3577 0.8137 0.2325
0.3812 0.8153 0.2236
0.4067 0.8172 0.2117
0.4341 0.8194 0.1955
0.4629 0.8220 0.1733
0.4940 0.8248 0.1336
0.5260 0.8282 0.0637
0.5636 0.8309 0.0000
0.6090 0.8318 0.0000
0.6532 0.8328 0.0000
0.6991 0.8332 0.0000
0.7490 0.8309 0.0936
0.7952 0.8284 0.1587
0.8361 0.8266 0.1880
0.8717 0.8258 0.2036
0.9047 0.8256 0.2106
0.9358 0.8263 0.2076
0.9534 0.8281 0.3510
0.3115 0.8523 0.2923
0.3107 0.8531 0.2873
0.3096 0.8542 0.2802
0.3078 0.8559 0.2688
0.3190 0.8566 0.2645
0.3344 0.8574 0.2608
0.3521 0.8583 0.2563
0.3725 0.8595 0.2503
0.3954 0.8610 0.2424
0.4203 0.8626 0.2318
0.4472 0.8647 0.2177
0.4751 0.8670 0.1989
0.5044 0.8698 0.1711
0.5362 0.8729 0.1214
0.5689 0.8767 0.0269
0.6108 0.8786 0.0000
0.6551 0.8796 0.0000
0.6978 0.8808 0.0000
0.7428 0.8810 0.0000
0.7902 0.8782 0.1152
0.8327 0.8758 0.1741
0.8707 0.8740 0.2021
0.9045 0.8733 0.2176
0.9366 0.8731 0.2248
0.9523 0.8714 0.4399
0.3310 0.8985 0.3097
0.3302 0.8992 0.3049
0.3291 0.9003 0.2982
0.3274 0.9020 0.2875
0.3356 0.9030 0.2812
0.3509 0.9036 0.2777
0.3681 0.9046 0.2735
0.3879 0.9056 0.2681
0.4101 0.9070 0.2609
0.4345 0.9086 0.2514
0.4608 0.9105 0.2390
0.4879 0.9128 0.2226
0.5161 0.9155 0.2008
0.5470 0.9183 0.1646
0.5795 0.9218 0.1037
0.6120 0.9259 0.0000
0.6569 0.9267 0.0000
0.6998 0.9277 0.0000
0.7412 0.9287 0.0000
0.7846 0.9285 0.0049
0.8281 0.9257 0.1359
0.8676 0.9232 0.1893
0.9036 0.9215 0.2162
0.9364 0.9208 0.2315
0.9528 0.9129 0.5296
0.5171 0.9203 0.4506
0.5187 0.9207 0.4496
0.5208 0.9211 0.4481
0.5240 0.9219 0.4460
0.5293 0.9227 0.4438
0.5371 0.9236 0.4416
0.5470 0.9247 0.4402
0.5584 0.9261 0.4381
0.5710 0.9279 0.4348
0.5847 0.9300 0.4302
0.5990 0.9327 0.4233
0.6136 0.9361 0.4133
0.6281 0.9401 0.3987
0.6416 0.9453 0.3758
0.6497 0.9530 0.3241
0.6533 0.9630 0.2279
0.6674 0.9715 0.0834
0.7117 0.9715 0.1147
0.7534 0.9715 0.1489
0.7926 0.9716 0.1779
0.8366 0.9669 0.2828
0.8812 0.9557 0.4548
0.9124 0.9505 0.5362
0.9372 0.9492 0.5942
0.9568 0.9505 0.6478
0.0006 0.0000 0.0000
0.0104 0.0000 0.0000
0.0417 0.0000 0.0000
0.0762 0.0000 0.0000
0.1144 0.0000 0.0000
0.1547 0.0000 0.0000
0.1970 0.0000 0.0000
0.2370 0.0000 0.0000
0.2745 0.0000 0.0000
0.3132 0.0000 0.0000
0.3537 0.0055 0.0000
0.3957 0.0171 0.0000
0.4389 0.0285 0.0000
0.4822 0.0400 0.0000
0.5253 0.0510 0.0000
0.5691 0.0623 0.0010
0.6132 0.0736 0.0027
0.6565 0.0850 0.0049
0.6985 0.0963 0.0078
0.7387 0.1080 0.0117
0.7769 0.1195 0.0162
0.8124 0.1312 0.0212
0.8454 0.1430 0.0263
0.8765 0.1550 0.0315
0.9064 0.1669 0.0365
0.0000 0.0000 0.0001
0.0123 0.0000 0.0000
0.0393 0.0000 0.0000
0.0688 0.0000 0.0000
0.1031 0.0000 0.0000
0.1395 0.0000 0.0000
0.1779 0.0054 0.0000
0.2177 0.0120 0.0000
0.2583 0.0193 0.0001
0.2990 0.0270 0.0006
0.3410 0.0351 0.0014
0.3843 0.0436 0.0024
0.4286 0.0525 0.0037
0.4732 0.0617 0.0054
0.5172 0.0711 0.0075
0.5616 0.0808 0.0100
0.6065 0.0909 0.0132
0.6505 0.1011 0.0170
0.6931 0.1116 0.0211
0.7340 0.1222 0.0253
0.7728 0.1331 0.0296
0.8088 0.1441 0.0340
0.8422 0.1552 0.0385
0.8737 0.1666 0.0431
0.9069 0.1731 0.0357
0.0037 0.0146 0.0016
0.0114 0.0179 0.0000
0.0395 0.0176 0.0001
0.0748 0.0184 0.0000
0.1117 0.0194 0.0000
0.1488 0.0221 0.0000
0.1870 0.0260 0.0000
0.2263 0.0309 0.0001
0.2661 0.0365 0.0005
0.3063 0.0428 0.0011
0.3478 0.0497 0.0019
0.3907 0.0571 0.0030
0.4346 0.0650 0.0043
0.4786 0.0733 0.0060
0.5222 0.0820 0.0081
0.5664 0.0911 0.0108
0.6109 0.1005 0.0140
0.6545 0.1102 0.0178
0.6967 0.1202 0.0218
0.7373 0.1304 0.0260
0.7756 0.1408 0.0303
0.8113 0.1515 0.0346
0.8444 0.1623 0.0391
0.8757 0.1733 0.0437
0.9087 0.1797 0.0363
0.0080 0.0470 0.0063
0.0120 0.0510 0.0000
0.0367 0.0519 0.0000
0.0728 0.0519 0.0000
0.1140 0.0513 0.0010
0.1510 0.0535 0.0000
0.1926 0.0547 0.0006
0.2335 0.0571 0.0009
0.2737 0.0607 0.0014
0.3144 0.0651 0.0021
0.3562 0.0703 0.0030
0.3989 0.0763 0.0041
0.4424 0.0830 0.0055
0.4859 0.0902 0.0072
0.5290 0.0979 0.0094
0.5732 0.1061 0.0121
0.6172 0.1147 0.0154
0.6602 0.1237 0.0192
0.7019 0.1330 0.0231
0.7419 0.1426 0.0272
0.7797 0.1524 0.0314
0.8149 0.1625 0.0357
0.8476 0.1729 0.0401
0.8785 0.1834 0.0446
0.9113 0.1896 0.0372
0.0147 0.0813 0.0149
0.0185 0.0847 0.0030
0.0380 0.0865 0.0000
0.0711 0.0875 0.0000
0.1114 0.0871 0.0009
0.1560 0.0858 0.0069
0.1937 0.0884 0.0007
0.2347 0.0901 0.0016
0.2780 0.0913 0.0029
0.3200 0.0940 0.0033
0.3625 0.0977 0.0042
0.4059 0.1020 0.0055
0.4501 0.1070 0.0071
0.4938 0.1125 0.0092
0.5373 0.1187 0.0116
0.5813 0.1259 0.0144
0.6248 0.1335 0.0177
0.6673 0.1416 0.0213
0.7084 0.1500 0.0251
0.7478 0.1588 0.0290
0.7850 0.1680 0.0331
0.8195 0.1774 0.0373
0.8518 0.1871 0.0416
0.8823 0.1971 0.0460
0.9147 0.2030 0.0385
0.0241 0.1169 0.0271
0.0279 0.1197 0.0120
0.0461 0.1214 0.0042
0.0712 0.1237 0.0000
0.1079 0.1245 0.0000
0.1531 0.1230 0.0049
0.1988 0.1220 0.0131
0.2378 0.1245 0.0027
0.2781 0.1266 0.0029
0.3215 0.1281 0.0050
0.3670 0.1296 0.0069
0.4115 0.1326 0.0076
0.4562 0.1363 0.0090
0.5000 0.1407 0.0111
0.5440 0.1458 0.0138
0.5885 0.1514 0.0170
0.6323 0.1575 0.0205
0.6750 0.1640 0.0243
0.7159 0.1712 0.0280
0.7546 0.1792 0.0316
0.7911 0.1874 0.0355
0.8250 0.1961 0.0395
0.8567 0.2051 0.0437
0.8868 0.2144 0.0479
0.9189 0.2200 0.0404
0.0366 0.1537 0.0401
0.0402 0.1561 0.0267
0.0554 0.1577 0.0154
0.0786 0.1597 0.0038
0.1079 0.1620 0.0000
0.1486 0.1622 0.0000
0.1963 0.1605 0.0123
0.2428 0.1596 0.0224
0.2835 0.1613 0.0153
0.3239 0.1640 0.0064
0.3668 0.1663 0.0074
0.4137 0.1676 0.0111
0.4609 0.1696 0.0136
0.5058 0.1729 0.0148
0.5504 0.1768 0.0167
0.5949 0.1814 0.0198
0.6386 0.1865 0.0232
0.6810 0.1921 0.0267
0.7219 0.1981 0.0305
0.7608 0.2045 0.0344
0.7973 0.2114 0.0384
0.8311 0.2186 0.0426
0.8623 0.2267 0.0465
0.8920 0.2352 0.0506
0.9236 0.2405 0.0430
0.0505 0.1917 0.0540
0.0535 0.1938 0.0421
0.0658 0.1955 0.0308
0.0879 0.1970 0.0191
0.1127 0.1996 0.0012
0.1468 0.2016 0.0000
0.1921 0.2008 0.0007
0.2406 0.1992 0.0232
0.2872 0.1985 0.0323
0.3295 0.1999 0.0275
0.3713 0.2028 0.0117
0.4152 0.2053 0.0121
0.4616 0.2074 0.0157
0.5088 0.2090 0.0207
0.5552 0.2114 0.0232
0.6006 0.2148 0.0246
0.6448 0.2188 0.0264
0.6871 0.2235 0.0298
0.7277 0.2286 0.0333
0.7662 0.2342 0.0370
0.8022 0.2402 0.0409
0.8356 0.2466 0.0450
0.8669 0.2533 0.0491
0.8968 0.2604 0.0534
0.9283 0.2650 0.0460
0.0650 0.2309 0.0685
0.0677 0.2328 0.0580
0.0771 0.2345 0.0464
0.0981 0.2358 0.0371
0.1216 0.2379 0.0205
0.1490 0.2410 0.0000
0.1880 0.2422 0.0000
0.2369 0.2408 0.0075
0.2856 0.2394 0.0350
0.3308 0.2398 0.0367
0.3774 0.2403 0.0382
0.4205 0.2433 0.0193
0.4654 0.2456 0.0201
0.5089 0.2485 0.0203
0.5563 0.2500 0.0267
0.6042 0.2517 0.0316
0.6492 0.2546 0.0336
0.6922 0.2581 0.0351
0.7333 0.2621 0.0368
0.7716 0.2669 0.0403
0.8072 0.2721 0.0440
0.8402 0.2777 0.0478
0.8713 0.2836 0.0519
0.9010 0.2900 0.0560
0.9321 0.2942 0.0485
0.0802 0.2713 0.0836
0.0825 0.2730 0.0741
0.0893 0.2748 0.0620
0.1094 0.2759 0.0544
0.1320 0.2778 0.0421
0.1578 0.2805 0.0161
0.1888 0.2836 0.0000
0.2313 0.2844 0.0000
0.2826 0.2823 0.0203
0.3319 0.2810 0.0472
0.3790 0.2813 0.0491
0.4268 0.2819 0.0497
0.4714 0.2841 0.0426
0.5146 0.2870 0.0288
0.5587 0.2897 0.0290
0.6041 0.2922 0.0322
0.6508 0.2939 0.0382
0.6960 0.2957 0.0430
0.7372 0.2990 0.0446
0.7760 0.3026 0.0461
0.8119 0.3067 0.0477
0.8447 0.3115 0.0513
0.8756 0.3167 0.0551
0.9051 0.3223 0.0591
0.9361 0.3262 0.0516
0.0961 0.3130 0.0993
0.0981 0.3145 0.0906
0.1024 0.3164 0.0780
0.1216 0.3174 0.0715
0.1432 0.3191 0.0617
0.1678 0.3214 0.0442
0.1960 0.3244 0.0050
0.2324 0.3267 0.0000
0.2759 0.3274 0.0000
0.3291 0.3248 0.0347
0.3799 0.3236 0.0598
0.4284 0.3239 0.0622
0.4765 0.3245 0.0619
0.5208 0.3263 0.0572
0.5641 0.3294 0.0377
0.6085 0.3320 0.0383
0.6514 0.3352 0.0383
0.6959 0.3371 0.0445
0.7391 0.3389 0.0502
0.7795 0.3410 0.0544
0.8152 0.3444 0.0560
0.8484 0.3482 0.0576
0.8797 0.3523 0.0592
0.9092 0.3571 0.0627
0.9400 0.3606 0.0552
