EA 50 Cinematic Luts Pack/EA_Cinematic Lut (16).cube
TITLE "Generated by Resolve"
LUT_3D_SIZE 33
0 0 0.0139773
0 0 0.0204013
0 0 0.0254063
0.00457771 0 0.0281987
0.0728771 0 0.0269932
0.147707 0 0.0239109
0.213993 0 0.0230106
0.27892 0 0.0223392
0.342504 0 0.021912
0.40415 0 0.0218967
0.462898 0 0.0225681
0.512291 0 0.0256962
0.559731 0 0.0293126
0.606271 0 0.0331579
0.652049 0 0.0372625
0.697215 0 0.0416419
0.741863 0 0.0463264
0.786007 0 0.0512398
0.829602 0 0.0563058
0.872724 0 0.0614939
0.915373 0 0.0668193
0.95761 0 0.0722515
0.999435 0 0.0777905
1 0 0.0834363
1 0 0.0891737
1 0 0.0950027
1 0 0.100908
1 0 0.106905
1 0 0.112978
1 0 0.119112
1 0 0.125338
1 0 0.131609
1 0 0.137957
0 0 0.0311437
0 0 0.0373846
0 0 0.0349584
0.0106966 0 0.034638
0.0754711 0 0.0308995
0.146914 0 0.025391
0.210361 0 0.0221714
0.273136 0 0.019379
0.335363 0 0.0170291
0.396414 0 0.0153353
0.455283 0 0.0146029
0.508339 0 0.016144
0.555718 0 0.0197757
0.602213 0 0.0236362
0.647944 0 0.0277409
0.693049 0 0.0321355
0.737636 0 0.0368353
0.781811 0 0.0418555
0.825452 0 0.0470436
0.86862 0 0.0523537
0.911315 0 0.0578012
0.953582 0 0.0633555
0.995438 0 0.0690166
1 0 0.0747997
1 0 0.0806592
1 0 0.0866102
1 0 0.0926375
1 0 0.0987564
1 0 0.104936
1 0 0.111208
1 0 0.11754
1 0 0.123949
1 0 0.130419
0 0.00984207 0.0424659
0 0.0127413 0.0575265
0 0.0137026 0.0534981
0.0154879 0.0110933 0.0452888
0.0772412 0.00306706 0.0365148
0.146105 0 0.0277104
0.207004 0 0.0218204
0.267582 0 0.0166323
0.328115 0 0.0121157
0.388067 0 0.00849927
0.446616 0 0.00602731
0.502571 0 0.00517281
0.550027 0 0.00863661
0.596536 0 0.0123598
0.642252 0 0.0163272
0.687327 0 0.0205844
0.731884 0 0.0251469
0.776028 0 0.0300755
0.81973 0 0.0352331
0.862913 0 0.0405432
0.905638 0 0.0459602
0.947936 0 0.0515145
0.989822 0 0.057145
1 0 0.0629129
1 0 0.0687572
1 0 0.0746929
1 0 0.0807202
1 0 0.0868086
1 0 0.0930037
1 0 0.0992599
1 0 0.105592
1 0 0.111971
1 0 0.118441
0 0.036759 0.0464485
0 0.0386511 0.0663157
0 0.0401312 0.0683604
0.0256809 0.0395819 0.060029
0.0798505 0.0343633 0.0460212
0.144213 0.0259251 0.0319371
0.20235 0.018677 0.0222171
0.260807 0.010956 0.0141299
0.319646 0.00282292 0.00717174
0.378332 0 0.00149538
0.43621 0 0
0.492317 0 0
0.541787 0 0
0.588449 0 0.000183108
0.634287 0 0.00396735
0.679438 0 0.0080415
0.724025 0 0.0124361
0.768185 0 0.0171969
0.811963 0 0.0223087
0.855238 0 0.0275731
0.898039 0 0.0329595
0.940414 0 0.038468
0.982345 0 0.0440833
1 0 0.0498054
1 0 0.0556344
1 0 0.0615549
1 0 0.0675669
1 0 0.07364
1 0 0.0798047
1 0 0.0860609
1 0 0.0923781
1 0 0.0987564
1 0 0.10518
0 0.0661784 0.0444038
0 0.0668345 0.0667735
0.00393683 0.0679484 0.0746929
0.0389105 0.0676585 0.0700236
0.0880598 0.06392 0.0565042
0.145861 0.0577859 0.0394141
0.198871 0.0525063 0.025391
0.254002 0.0461433 0.0135042
0.310643 0.0388952 0.00358587
0.36788 0.0310979 0
0.424842 0.0230259 0
0.480552 0.0149844 0
0.531594 0.00781262 0
0.578592 0.00151064 0
0.624674 0 0
0.670008 0 0
0.714733 0 0
0.758984 0 0.00424201
0.802884 0 0.00918593
0.846296 0 0.0143587
0.889235 0 0.0196841
0.931701 0 0.0251316
0.973724 0 0.0306859
1 0 0.0363775
1 0 0.0421607
1 0 0.0480507
1 0 0.0540169
1 0 0.0600748
1 0 0.0661936
1 0 0.0724346
1 0 0.078706
1 0 0.0850538
1 0 0.0914778
0 0.0977188 0.0372168
0 0.0972152 0.0608835
0.0162356 0.0975357 0.0730449
0.0500496 0.0971389 0.0728466
0.0980087 0.093492 0.0621042
0.151827 0.0884871 0.0459144
0.199405 0.0850385 0.0303502
0.249577 0.0804913 0.0154269
0.302602 0.0746624 0.00222782
0.357443 0.0678111 0
0.41294 0.0603494 0
0.467887 0.0526284 0
0.519722 0.0452888 0
0.567117 0.0388037 0
0.613519 0.0325628 0
0.659144 0.0266117 0
0.704097 0.0209964 0
0.748531 0.0157473 0
0.792599 0.0109255 0
0.83621 0.00639353 0.00128176
0.879316 0.00202945 0.00646983
0.92192 0 0.0117952
0.964096 0 0.0172732
1 0 0.0228733
1 0 0.0285954
1 0 0.0343938
1 0 0.0403143
1 0 0.0463264
1 0 0.05243
1 0 0.0585946
1 0 0.0648508
1 0 0.0711833
1 0 0.0775616
0 0.130907 0.0261845
0 0.129427 0.0503395
0.0249332 0.128923 0.0653239
0.0589303 0.128008 0.0692149
0.10605 0.124285 0.0618143
0.158846 0.119356 0.0480812
0.203143 0.116823 0.0336309
0.248829 0.113741 0.0180514
0.297414 0.109483 0.00288396
0.348653 0.103975 0
0.401663 0.0974899 0
0.455085 0.0903792 0
0.506569 0.0832532 0
0.554269 0.0766461 0
0.601068 0.0702373 0
0.646998 0.0641031 0
0.692256 0.0582742 0
0.736889 0.0528267 0
0.78117 0.0477913 0
0.825025 0.0431067 0
0.86833 0.0386053 0
0.911147 0.0342565 0
0.953506 0.0300603 0.00404364
0.995422 0.0259861 0.00952163
1 0.0220493 0.0151217
1 0.0182193 0.0208286
1 0.0144808 0.0266728
1 0.0108644 0.0325933
1 0.00732433 0.0386206
1 0.00387579 0.0447395
1 0.000518807 0.0509194
1 0 0.0571908
1 0 0.0635386
0 0.165194 0.0126345
0 0.163043 0.0366979
0.0304417 0.161761 0.0533761
0.0652018 0.160266 0.0604257
0.112016 0.156252 0.0565042
0.164477 0.151171 0.0455024
0.20766 0.148775 0.0333257
0.250538 0.146471 0.0190127
0.295354 0.143404 0.00378424
0.342733 0.139223 0
0.39234 0.133974 0
0.443336 0.127779 0
0.493294 0.121218 0
0.54081 0.114748 0
0.587655 0.108339 0
0.633814 0.102098 0
0.679316 0.0961166 0
0.724254 0.0904707 0
0.76875 0.0852216 0
0.812863 0.0803693 0
0.856352 0.0757305 0
0.899397 0.0712596 0
0.941955 0.0669261 0
0.98407 0.0627451 0
1 0.0587015 0.00192264
1 0.0547799 0.00747692
1 0.0509651 0.0131685
1 0.0472419 0.0190127
1 0.0436408 0.024918
1 0.0401312 0.0309453
1 0.0366979 0.0370642
1 0.0333562 0.0432593
1 0.0300908 0.0495308
0 0.200092 0
0.00157168 0.197498 0.0213016
0.0336156 0.195666 0.038819
0.0692149 0.193637 0.0481117
0.116243 0.189227 0.0472419
0.168078 0.184024 0.0391394
0.211215 0.18143 0.0294041
0.252918 0.179294 0.0171969
0.295293 0.176898 0.00332647
0.339498 0.173724 0
0.385763 0.169574 0
0.433738 0.164462 0
0.481163 0.158709 0
0.52781 0.152667 0
0.574197 0.146487 0
0.620188 0.140337 0
0.665705 0.134325 0
0.710781 0.128573 0
0.755459 0.123171 0
0.799786 0.118151 0
0.843534 0.113359 0
0.886824 0.108721 0
0.929564 0.104265 0
0.971862 0.0999619 0
1 0.0957961 0
1 0.0917678 0
1 0.0878462 4.57771e-05
1 0.0840467 0.00570687
1 0.080354 0.0114595
1 0.0767529 0.0173648
1 0.0732586 0.0233616
1 0.0698405 0.0294804
1 0.0665141 0.0356603
0 0.235126 0
0.002533 0.232364 0.00540169
0.0354925 0.230182 0.023209
0.0716869 0.227756 0.0339513
0.119005 0.22298 0.0354467
0.170611 0.217563 0.0300603
0.213153 0.214893 0.0227665
0.254749 0.212604 0.0128481
0.295918 0.210422 0.000885023
0.337957 0.207828 0
0.381506 0.204517 0
0.426535 0.200351 0
0.471214 0.195392 0
0.516289 0.190036 0
0.561624 0.184329 0
0.606943 0.17847 0
0.652079 0.172625 0
0.697002 0.166903 0
0.74165 0.161456 0
0.786038 0.156329 0
0.829984 0.151415 0
0.873457 0.146639 0
0.916411 0.142061 0
0.958953 0.137606 0
1 0.133318 0
1 0.129168 0
1 0.125139 0
1 0.121233 0
1 0.117449 0
1 0.113756 0.00411994
1 0.110185 0.00996414
1 0.106676 0.0159304
1 0.103273 0.0220035
0 0.26978 0
0.00393683 0.267094 0
0.0370794 0.264836 0.00779736
0.073518 0.262211 0.0193179
0.120897 0.257206 0.0224613
0.172381 0.25156 0.0194095
0.214313 0.248829 0.0144961
0.255573 0.246433 0.00674449
0.296407 0.244175 0
0.337224 0.241825 0
0.378836 0.239048 0
0.421042 0.235416 0
0.463722 0.231235 0
0.506981 0.226596 0
0.550744 0.221546 0
0.594858 0.216205 0
0.6392 0.210712 0
0.683558 0.205203 0
0.727871 0.199863 0
0.772107 0.194751 0
0.816007 0.189776 0
0.859525 0.184924 0
0.902647 0.180224 0
0.945342 0.175647 0
0.98764 0.171221 0
1 0.166964 0
1 0.162829 0
1 0.158801 0
1 0.15491 0
1 0.151125 0
1 0.147448 0
1 0.143877 0.00274662
1 0.140383 0.00865187
0 0.30161 0
0.00924697 0.300252 0
0.039704 0.299092 0
0.0756847 0.296559 0.00563058
0.12282 0.291447 0.00988785
0.173983 0.285695 0.00860609
0.215412 0.282902 0.00581369
0.255787 0.280568 0.000137331
0.296437 0.278202 0
0.336736 0.275822 0
0.377111 0.272969 0
0.417578 0.269856 0
0.458457 0.266346 0
0.499916 0.262409 0
0.541985 0.258045 0
0.584573 0.253315 0
0.627619 0.248356 0
0.671061 0.243244 0
0.714717 0.238132 0
0.758465 0.233158 0
0.802106 0.228229 0
0.845441 0.223392 0
0.888518 0.218647 0
0.931258 0.214008 0
0.973632 0.209491 0
1 0.205112 0
1 0.200855 0
1 0.19675 0
1 0.192737 0
1 0.188846 0
1 0.185046 0
1 0.181399 0
1 0.177829 0
0 0.333196 0
0.0185702 0.331807 0
0.0487221 0.330648 0
0.082536 0.328862 0
0.127718 0.324361 0.002533
0.177447 0.318975 0.00149538
0.217853 0.316335 0.00015259
0.257313 0.314046 0
0.297078 0.31165 0
0.337072 0.309087 0
0.376455 0.306538 0
0.415671 0.303853 0
0.45507 0.300893 0
0.494881 0.297566 0
0.535286 0.293858 0
0.576288 0.289769 0
0.617914 0.285374 0
0.659998 0.280812 0
0.702663 0.276097 0
0.745617 0.271382 0
0.788663 0.266621 0
0.831632 0.26186 0
0.874449 0.25716 0
0.917052 0.252522 0
0.959381 0.247974 0
1 0.243534 0
1 0.2392 0
1 0.234974 0
1 0.230854 0
1 0.226871 0
1 0.223011 0
1 0.219226 0
1 0.215549 0
0 0.364813 0
0.0277714 0.363424 0
0.0577096 0.36228 0
0.0910048 0.360525 0
0.135317 0.35613 0
0.183902 0.350912 0
0.222995 0.348501 0
0.26096 0.346517 0
0.299062 0.344533 0
0.337865 0.34229 0
0.376562 0.339956 0
0.414832 0.337575 0
0.453056 0.335027 0
0.491524 0.332219 0
0.530434 0.329076 0
0.569909 0.325597 0
0.61004 0.321798 0
0.650797 0.317739 0
0.692164 0.313558 0
0.733974 0.309224 0
0.77615 0.304738 0
0.818448 0.300191 0
0.860777 0.295628 0
0.903044 0.291066 0
0.945159 0.286549 0
0.987091 0.282094 0
1 0.277729 0
1 0.273457 0
1 0.269276 0
1 0.265202 0
1 0.261219 0
1 0.257359 0
1 0.25362 0
0.00695811 0.39646 0
0.0368505 0.395071 0
0.066453 0.393988 0
0.0995193 0.392233 0
0.143114 0.38793 0
0.190707 0.382849 0
0.228656 0.380636 0
0.265339 0.378912 0
0.302007 0.377249 0
0.339239 0.375418 0
0.377157 0.373297 0
0.41474 0.371145 0
0.452079 0.368917 0
0.489448 0.366491 0
0.527108 0.363836 0
0.565225 0.360876 0
0.603937 0.357641 0
0.64329 0.354147 0
0.683314 0.350454 0
0.723873 0.346548 0
0.764874 0.342473 0
0.806287 0.338216 0
0.847898 0.333867 0
0.889601 0.329473 0
0.931319 0.325078 0
0.972885 0.320714 0
1 0.31635 0
1 0.312062 0
1 0.307866 0
1 0.303731 0
1 0.299702 0
1 0.295766 0
1 0.29192 0
0.0158694 0.428092 0
0.0457923 0.426734 0
0.0753033 0.42565 0
0.108019 0.423957 0
0.151034 0.41973 0
0.197787 0.414755 0
0.234714 0.412726 0
0.270268 0.411215 0
0.305669 0.409827 0
0.341512 0.408347 0
0.378088 0.406607 0
0.415137 0.404623 0
0.451804 0.402625 0
0.488334 0.400519 0
0.524971 0.398245 0
0.561929 0.395743 0
0.599374 0.392996 0
0.637415 0.390021 0
0.676097 0.386816 0
0.715373 0.383352 0
0.755199 0.37966 0
0.795468 0.375814 0
0.836072 0.371801 0
0.877012 0.367651 0
0.918105 0.363439 0
0.959258 0.359182 0
1 0.354925 0
1 0.350713 0
1 0.346532 0
1 0.342382 0
1 0.338338 0
1 0.334356 0
1 0.330449 0
0.0245823 0.459663 0
0.0545663 0.458335 0
0.0840162 0.457313 0
0.116457 0.455665 0
0.158984 0.451514 0
0.205051 0.446662 0
0.241062 0.444755 0
0.275608 0.443458 0
0.309911 0.442313 0
0.344533 0.441123 0
0.379767 0.439734 0
0.415839 0.438056 0
0.452018 0.436225 0
0.487892 0.434363 0
0.523735 0.43238 0
0.559747 0.430259 0
0.596109 0.427955 0
0.632959 0.425422 0
0.670375 0.422644 0
0.70837 0.419638 0
0.746944 0.416388 0
0.786038 0.412909 0
0.825589 0.409262 0
0.865522 0.405463 0
0.905821 0.401511 0
0.946319 0.397467 0
0.986923 0.393378 0
1 0.389258 0
1 0.385153 0
1 0.381064 0
1 0.377035 0
1 0.373037 0
1 0.369116 0
0.0331426 0.491218 0
0.0631418 0.489891 0
0.0925612 0.488899 0
0.124804 0.487312 0
0.166934 0.483253 0
0.212406 0.478508 0
0.247654 0.476753 0
0.281285 0.475608 0
0.314611 0.474693 0
0.34815 0.473747 0
0.382208 0.472679 0
0.416999 0.471366 0
0.452537 0.469749 0
0.487938 0.468071 0
0.52314 0.466346 0
0.558389 0.46453 0
0.593835 0.462562 0
0.629664 0.46041 0
0.665934 0.458045 0
0.702754 0.455436 0
0.740124 0.452613 0
0.778042 0.449546 0
0.816495 0.446281 0
0.855406 0.442802 0
0.894667 0.439231 0
0.93434 0.435462 0
0.974258 0.431586 0
1 0.427649 0
1 0.423682 0
1 0.419684 0
1 0.415702 0
1 0.411749 0
1 0.407858 0
0.0415961 0.522805 0
0.0716106 0.521477 0
0.100969 0.52047 0
0.133028 0.518929 0
0.174838 0.514931 0
0.219806 0.510292 0
0.254383 0.508659 0
0.28719 0.507683 0
0.319646 0.50695 0
0.352224 0.506264 0
0.385229 0.50547 0
0.41886 0.504479 0
0.4533 0.503197 0
0.488273 0.501686 0
0.523003 0.50016 0
0.557641 0.498589 0
0.59234 0.496895 0
0.627283 0.495064 0
0.662593 0.49305 0
0.698344 0.490822 0
0.734585 0.488396 0
0.771389 0.485725 0
0.808713 0.482841 0
0.846555 0.479744 0
0.884871 0.476463 0
0.923568 0.473045 0
0.96257 0.46949 0
1 0.465782 0
1 0.461997 0
1 0.458152 0
1 0.454292 0
1 0.450431 0
1 0.446601 0
0.0499886 0.554421 0
0.0800031 0.553094 0
0.109316 0.552087 0
0.141207 0.550561 0
0.182712 0.546609 0
0.227222 0.542046 0
0.261204 0.540505 0
0.293294 0.539681 0
0.324941 0.539117 0
0.356664 0.538643 0
0.388724 0.538094 0
0.421347 0.537392 0
0.454673 0.536461 0
0.488807 0.535241 0
0.523171 0.533867 0
0.557321 0.532479 0
0.591424 0.531029 0
0.62565 0.529458 0
0.660121 0.527749 0
0.694926 0.525856 0
0.73019 0.523781 0
0.765942 0.521477 0
0.802182 0.518975 0
0.838956 0.516258 0
0.876219 0.513329 0
0.91397 0.510231 0
0.952071 0.50695 0
0.990539 0.503578 0
1 0.500038 0
1 0.496406 0
1 0.492714 0
1 0.488975 0
1 0.485222 0
0.0582742 0.586069 0
0.088304 0.584741 0
0.117586 0.583734 0
0.14931 0.582223 0
0.190585 0.578302 0
0.234699 0.5738 0
0.268147 0.572366 0
0.299596 0.571633 0
0.330495 0.571237 0
0.36141 0.570932 0
0.392615 0.570611 0
0.424323 0.570169 0
0.456657 0.569528 0
0.489738 0.568643 0
0.523537 0.567483 0
0.557321 0.566247 0
0.590951 0.564981 0
0.624567 0.563653 0
0.658335 0.562203 0
0.692378 0.560601 0
0.726741 0.558831 0
0.761547 0.556863 0
0.796811 0.554711 0
0.832563 0.552346 0
0.868803 0.549783 0
0.905562 0.547005 0
0.942763 0.54406 0
0.980377 0.540963 0
1 0.537728 0
1 0.534371 0
1 0.530892 0
1 0.527337 0
1 0.52372 0
0.0664988 0.617761 0
0.0965286 0.616419 0
0.125795 0.615412 0
0.157153 0.613977 0
0.198444 0.610025 0
0.242222 0.60557 0
0.275196 0.604212 0
0.306065 0.603586 0
0.336263 0.603326 0
0.366445 0.603174 0
0.396887 0.603052 0
0.427726 0.602823 0
0.459159 0.602457 0
0.491249 0.601862 0
0.524117 0.601007 0
0.557519 0.599924 0
0.590768 0.598825 0
0.623926 0.597681 0
0.657115 0.596445 0
0.690471 0.595102 0
0.724086 0.593606 0
0.758038 0.591943 0
0.792416 0.590097 0
0.827222 0.588067 0
0.862516 0.58584 0
0.898283 0.583413 0
0.934539 0.580789 0
0.971222 0.578012 0
1 0.575051 0
1 0.571969 0
1 0.56878 0
1 0.565438 0
1 0.562005 0
0.0746319 0.64947 0
0.104692 0.648127 0
0.133928 0.647105 0
0.165194 0.645685 0
0.206271 0.641764 0
0.249744 0.637354 0
0.282307 0.636072 0
0.312642 0.635538 0
0.342229 0.635386 0
0.371725 0.635386 0
0.40145 0.635416 0
0.43151 0.635401 0
0.462104 0.635248 0
0.493324 0.634928 0
0.525216 0.634379 0
0.557885 0.633539 0
0.590814 0.632578 0
0.62359 0.631571 0
0.656321 0.630533 0
0.689113 0.629389 0
0.722072 0.628138 0
0.755306 0.626749 0
0.788861 0.625193 0
0.822828 0.623468 0
0.857221 0.621561 0
0.892073 0.619455 0
0.927398 0.617151 0
0.96318 0.614679 0
0.99939 0.612024 0
1 0.609216 0
1 0.606256 0
1 0.60322 0
1 0.600031 0
0.0827039 0.681208 0
0.112764 0.679866 0
0.142 0.678843 0
0.173175 0.677424 0
0.214084 0.673533 0
0.257282 0.669154 0
0.289464 0.667933 0
0.319341 0.667475 0
0.348363 0.667414 0
0.377218 0.667552 0
0.406256 0.667735 0
0.435615 0.667903 0
0.465446 0.667948 0
0.495827 0.667857 0
0.526833 0.667582 0
0.558602 0.667033 0
0.591028 0.666255 0
0.623499 0.665385 0
0.655833 0.664485 0
0.688151 0.663539 0
0.720577 0.662501 0
0.75317 0.661341 0
0.786038 0.660029 0
0.819242 0.658579 0
0.852827 0.656962 0
0.886824 0.655146 0
0.921263 0.653162 0
0.956176 0.650996 0
0.991501 0.648646 0
1 0.646143 0
1 0.643473 0
1 0.64065 0
1 0.637736 0
0.0906996 0.712993 0
0.120775 0.71162 0
0.149996 0.710597 0
0.181109 0.709194 0
0.221866 0.705318 0
0.26482 0.700984 0
0.296666 0.699794 0
0.326116 0.699428 0
0.35462 0.699458 0
0.382895 0.699687 0
0.411292 0.700023 0
0.440009 0.700328 0
0.469108 0.700572 0
0.498726 0.700694 0
0.528969 0.700633 0
0.559823 0.700374 0
0.591424 0.699855 0
0.62356 0.699123 0
0.655589 0.69836 0
0.687526 0.697566 0
0.719478 0.696696 0
0.751553 0.695735 0
0.78381 0.694667 0
0.816327 0.693446 0
0.849195 0.692088 0
0.882429 0.690562 0
0.916045 0.688869 0
0.950118 0.686976 0
0.984619 0.684932 0
1 0.682719 0
1 0.680323 0
1 0.677775 0
1 0.67509 0
0.0986191 0.744793 0
0.12871 0.74342 0
0.157916 0.742397 0
0.188983 0.740978 0
0.229603 0.737118 0
0.272343 0.732815 0
0.303899 0.731685 0
0.332952 0.73138 0
0.360998 0.731487 0
0.388724 0.731823 0
0.416526 0.732265 0
0.444617 0.732723 0
0.473075 0.733135 0
0.501991 0.733425 0
0.531472 0.733577 0
0.561563 0.733547 0
0.592294 0.733303 0
0.623743 0.732799 0
0.655528 0.732143 0
0.687144 0.731487 0
0.71873 0.73077 0
0.750332 0.729992 0
0.782071 0.729107 0
0.814008 0.728115 0
0.84622 0.726986 0
0.878737 0.725719 0
0.911635 0.724269 0
0.944915 0.722667 0
0.978607 0.720897 0
1 0.718975 0
1 0.716869 0
1 0.714595 0
1 0.712169 0
0.106477 0.776623 0
0.136584 0.775235 0
0.165789 0.774212 0
0.196811 0.772793 0
0.237293 0.768948 0
0.27985 0.764675 0
0.311131 0.763577 0
0.339849 0.763333 0
0.367468 0.7635 0
0.394705 0.763928 0
0.421942 0.764492 0
0.449439 0.765072 0
0.477287 0.765621 0
0.505562 0.766094 0
0.534325 0.766445 0
0.563684 0.766613 0
0.593637 0.766613 0
0.624292 0.766369 0
0.655573 0.765896 0
0.686946 0.765332 0
0.718196 0.764752 0
0.749447 0.764111 0
0.780743 0.763409 0
0.812161 0.7626 0
0.843793 0.761685 0
0.8757 0.760632 0
0.907912 0.759441 0
0.940475 0.758099 0
0.973434 0.756588 0
1 0.754925 0
1 0.753094 0
1 0.751095 0
1 0.748943 0
0.114275 0.808469 0
0.144396 0.807095 0
0.173587 0.806058 0
0.204578 0.804639 0
0.244816 0.800839 0
0.287343 0.796551 0
0.318379 0.795499 0
0.346777 0.795285 0
0.374014 0.795544 0
