EA 50 Cinematic Luts Pack/EA_Cinematic Lut (45).cube
TITLE "This cold, low-key grading will add a bit of nobleness and drama to regular, plain shots."
LUT_3D_SIZE 25
0.0000 0.0000 0.0000
0.0215 0.0013 0.0048
0.0533 0.0028 0.0112
0.0942 0.0038 0.0201
0.1424 0.0034 0.0309
0.1973 0.0000 0.0423
0.2519 0.0000 0.0594
0.3130 0.0000 0.0757
0.3777 0.0000 0.0877
0.4348 0.0000 0.0981
0.4836 0.0000 0.1082
0.5279 0.0000 0.1182
0.5691 0.0000 0.1280
0.6094 0.0000 0.1377
0.6491 0.0000 0.1473
0.6883 0.0000 0.1569
0.7269 0.0000 0.1665
0.7644 0.0000 0.1762
0.8006 0.0000 0.1859
0.8351 0.0000 0.1956
0.8680 0.0000 0.2054
0.9001 0.0000 0.2153
0.9316 0.0000 0.2254
0.9626 0.0000 0.2355
0.9935 0.0000 0.2454
0.0052 0.0479 0.0296
0.0242 0.0524 0.0209
0.0606 0.0511 0.0185
0.1068 0.0473 0.0179
0.1611 0.0390 0.0168
0.2258 0.0199 0.0090
0.2919 0.0000 0.0075
0.3500 0.0000 0.0330
0.4073 0.0000 0.0600
0.4564 0.0000 0.0812
0.5008 0.0000 0.0947
0.5419 0.0000 0.1068
0.5812 0.0000 0.1182
0.6202 0.0000 0.1293
0.6589 0.0000 0.1398
0.6971 0.0000 0.1502
0.7348 0.0000 0.1605
0.7715 0.0000 0.1706
0.8069 0.0000 0.1806
0.8407 0.0000 0.1908
0.8731 0.0000 0.2009
0.9048 0.0000 0.2111
0.9359 0.0000 0.2213
0.9666 0.0000 0.2317
0.9973 0.0000 0.2419
0.0123 0.0911 0.0672
0.0239 0.0960 0.0484
0.0582 0.0961 0.0482
0.1044 0.0947 0.0403
0.1578 0.0919 0.0333
0.2203 0.0846 0.0227
0.2910 0.0704 0.0055
0.3664 0.0491 0.0000
0.4318 0.0215 0.0000
0.4829 0.0000 0.0118
0.5224 0.0000 0.0524
0.5601 0.0000 0.0829
0.5973 0.0000 0.0996
0.6347 0.0000 0.1139
0.6720 0.0000 0.1269
0.7089 0.0000 0.1389
0.7455 0.0000 0.1505
0.7810 0.0000 0.1617
0.8153 0.0000 0.1728
0.8482 0.0000 0.1835
0.8800 0.0000 0.1942
0.9111 0.0000 0.2048
0.9417 0.0000 0.2154
0.9721 0.0000 0.2260
1.0000 0.0361 0.2396
0.0233 0.1288 0.0954
0.0298 0.1333 0.0835
0.0567 0.1348 0.0809
0.1002 0.1347 0.0783
0.1538 0.1332 0.0690
0.2142 0.1302 0.0525
0.2836 0.1236 0.0281
0.3640 0.1126 0.0000
0.4286 0.1032 0.0000
0.4838 0.0893 0.0000
0.5332 0.0688 0.0000
0.5790 0.0325 0.0000
0.6211 0.0000 0.0162
0.6562 0.0000 0.0705
0.6913 0.0000 0.0973
0.7265 0.0000 0.1154
0.7612 0.0000 0.1309
0.7951 0.0000 0.1450
0.8279 0.0000 0.1579
0.8595 0.0000 0.1703
0.8903 0.0000 0.1821
0.9205 0.0000 0.1937
0.9505 0.0000 0.2052
0.9804 0.0000 0.2165
1.0000 0.1058 0.2409
0.0372 0.1649 0.1183
0.0437 0.1681 0.1104
0.0534 0.1722 0.0963
0.0977 0.1717 0.1017
0.1480 0.1716 0.0976
0.2074 0.1699 0.0898
0.2739 0.1665 0.0723
0.3519 0.1609 0.0360
0.4279 0.1514 0.0000
0.4822 0.1443 0.0000
0.5305 0.1358 0.0000
0.5767 0.1234 0.0000
0.6219 0.1072 0.0000
0.6663 0.0847 0.0000
0.7098 0.0444 0.0000
0.7497 0.0000 0.0205
0.7821 0.0000 0.0840
0.8138 0.0000 0.1099
0.8445 0.0000 0.1299
0.8746 0.0000 0.1465
0.9041 0.0000 0.1615
0.9334 0.0000 0.1754
0.9625 0.0000 0.1887
0.9917 0.0000 0.2014
1.0000 0.1524 0.2427
0.0525 0.2008 0.1401
0.0588 0.2033 0.1342
0.0655 0.2070 0.1233
0.0924 0.2095 0.1154
0.1439 0.2087 0.1203
0.1995 0.2083 0.1144
0.2636 0.2064 0.1056
0.3412 0.2027 0.0859
0.4187 0.1967 0.0398
0.4803 0.1891 0.0000
0.5305 0.1820 0.0000
0.5753 0.1750 0.0000
0.6193 0.1669 0.0000
0.6641 0.1554 0.0000
0.7080 0.1414 0.0000
0.7506 0.1234 0.0000
0.7914 0.0989 0.0000
0.8305 0.0565 0.0000
0.8652 0.0000 0.0252
0.8935 0.0000 0.0935
0.9216 0.0000 0.1214
0.9497 0.0000 0.1427
0.9779 0.0000 0.1609
1.0000 0.0781 0.1889
1.0000 0.1940 0.2453
0.0680 0.2384 0.1612
0.0741 0.2405 0.1566
0.0801 0.2438 0.1481
0.0893 0.2487 0.1321
0.1365 0.2490 0.1332
0.1941 0.2480 0.1374
0.2543 0.2474 0.1299
0.3273 0.2451 0.1200
0.4072 0.2409 0.0956
0.4740 0.2342 0.0415
0.5274 0.2276 0.0000
0.5742 0.2209 0.0000
0.6197 0.2135 0.0000
0.6633 0.2064 0.0000
0.7059 0.1982 0.0000
0.7487 0.1871 0.0000
0.7898 0.1740 0.0000
0.8288 0.1582 0.0000
0.8660 0.1384 0.0000
0.9018 0.1117 0.0000
0.9368 0.0681 0.0000
0.9695 0.0000 0.0292
0.9966 0.0000 0.1015
1.0000 0.1615 0.1906
1.0000 0.2357 0.2491
0.0831 0.2786 0.1819
0.0892 0.2804 0.1782
0.0948 0.2831 0.1712
0.1030 0.2874 0.1586
0.1255 0.2915 0.1444
0.1851 0.2905 0.1501
0.2475 0.2892 0.1532
0.3155 0.2885 0.1443
0.3926 0.2861 0.1332
0.4620 0.2816 0.1061
0.5230 0.2745 0.0407
0.5723 0.2683 0.0000
0.6175 0.2626 0.0000
0.6630 0.2551 0.0000
0.7066 0.2473 0.0000
0.7480 0.2395 0.0000
0.7879 0.2309 0.0000
0.8271 0.2195 0.0000
0.8643 0.2065 0.0000
0.9002 0.1916 0.0000
0.9354 0.1739 0.0000
0.9700 0.1524 0.0000
1.0000 0.1424 0.0741
1.0000 0.2187 0.1937
1.0000 0.2793 0.2542
0.0976 0.3192 0.2024
0.1039 0.3206 0.1995
0.1091 0.3229 0.1934
0.1169 0.3266 0.1830
0.1270 0.3316 0.1657
0.1724 0.3332 0.1604
0.2368 0.3320 0.1660
0.3067 0.3306 0.1682
0.3807 0.3298 0.1579
0.4489 0.3273 0.1454
0.5110 0.3227 0.1153
0.5686 0.3156 0.0320
0.6164 0.3098 0.0000
0.6605 0.3048 0.0000
0.7049 0.2981 0.0000
0.7481 0.2903 0.0000
0.7885 0.2826 0.0000
0.8265 0.2746 0.0000
0.8626 0.2657 0.0000
0.8985 0.2541 0.0000
0.9338 0.2405 0.0000
0.9684 0.2255 0.0000
1.0000 0.2157 0.0586
1.0000 0.2729 0.1975
1.0000 0.3225 0.2604
0.1111 0.3600 0.2233
0.1172 0.3612 0.2206
0.1227 0.3632 0.2154
0.1301 0.3664 0.2063
0.1397 0.3709 0.1919
0.1532 0.3765 0.1695
0.2227 0.3754 0.1756
0.2946 0.3739 0.1818
0.3716 0.3724 0.1825
0.4384 0.3715 0.1707
0.4984 0.3687 0.1565
0.5558 0.3640 0.1231
0.6134 0.3566 0.0012
0.6597 0.3514 0.0000
0.7033 0.3463 0.0000
0.7454 0.3408 0.0000
0.7873 0.3335 0.0000
0.8268 0.3255 0.0000
0.8632 0.3179 0.0000
0.8982 0.3098 0.0000
0.9323 0.3009 0.0000
0.9667 0.2897 0.0000
1.0000 0.2790 0.0316
1.0000 0.3241 0.2018
1.0000 0.3653 0.2677
0.1236 0.4013 0.2441
0.1294 0.4023 0.2417
0.1354 0.4040 0.2374
0.1424 0.4069 0.2293
0.1516 0.4108 0.2167
0.1629 0.4159 0.1974
0.2028 0.4189 0.1844
0.2772 0.4176 0.1908
0.3586 0.4158 0.1967
0.4302 0.4143 0.1960
0.4882 0.4131 0.1825
0.5434 0.4101 0.1664
0.5989 0.4054 0.1293
0.6560 0.3982 0.0000
0.7018 0.3929 0.0000
0.7447 0.3878 0.0000
0.7851 0.3828 0.0000
0.8246 0.3763 0.0000
0.8624 0.3688 0.0000
0.8985 0.3608 0.0000
0.9327 0.3532 0.0000
0.9665 0.3451 0.0000
1.0000 0.3363 0.0016
1.0000 0.3728 0.2063
1.0000 0.4078 0.2757
0.1345 0.4427 0.2644
0.1401 0.4436 0.2622
0.1466 0.4451 0.2587
0.1533 0.4476 0.2515
0.1623 0.4511 0.2406
0.1733 0.4557 0.2240
0.1877 0.4613 0.1997
0.2549 0.4614 0.1985
0.3387 0.4599 0.2053
0.4185 0.4578 0.2108
0.4803 0.4561 0.2087
0.5333 0.4546 0.1934
0.5860 0.4516 0.1752
0.6416 0.4468 0.1337
0.6976 0.4398 0.0000
0.7426 0.4345 0.0000
0.7843 0.4294 0.0000
0.8233 0.4243 0.0000
0.8599 0.4190 0.0000
0.8967 0.4118 0.0000
0.9322 0.4041 0.0000
0.9668 0.3962 0.0000
1.0000 0.3892 0.0145
1.0000 0.4198 0.2154
1.0000 0.4500 0.2853
0.1434 0.4837 0.2841
0.1488 0.4845 0.2820
0.1561 0.4857 0.2792
0.1625 0.4879 0.2727
0.1712 0.4909 0.2630
0.1819 0.4950 0.2488
0.1945 0.5000 0.2277
0.2242 0.5045 0.2046
0.3123 0.5029 0.2117
0.3994 0.5011 0.2189
0.4687 0.4989 0.2240
0.5252 0.4968 0.2205
0.5752 0.4954 0.2033
0.6278 0.4925 0.1827
0.6833 0.4876 0.1363
0.7378 0.4810 0.0000
0.7815 0.4759 0.0000
0.8221 0.4707 0.0000
0.8594 0.4658 0.0000
0.8948 0.4608 0.0000
0.9300 0.4546 0.0000
0.9653 0.4472 0.0000
1.0000 0.4396 0.0100
1.0000 0.4655 0.2271
1.0000 0.4911 0.2985
0.1499 0.5243 0.3032
0.1553 0.5251 0.3014
0.1625 0.5261 0.2987
0.1696 0.5280 0.2931
0.1780 0.5308 0.2844
0.1887 0.5344 0.2719
0.2011 0.5390 0.2538
0.2164 0.5446 0.2278
0.2783 0.5463 0.2173
0.3739 0.5445 0.2247
0.4514 0.5424 0.2319
0.5138 0.5397 0.2361
0.5669 0.5376 0.2313
0.6165 0.5362 0.2122
0.6690 0.5330 0.1887
0.7239 0.5281 0.1365
0.7764 0.5216 0.0000
0.8188 0.5164 0.0000
0.8578 0.5112 0.0000
0.8942 0.5062 0.0000
0.9290 0.5013 0.0000
0.9629 0.4963 0.0000
0.9982 0.4894 0.0000
1.0000 0.5092 0.2356
0.9999 0.5313 0.3119
0.1537 0.5658 0.3222
0.1590 0.5665 0.3204
0.1662 0.5675 0.3180
0.1744 0.5692 0.3132
0.1826 0.5718 0.3051
0.1931 0.5752 0.2938
0.2055 0.5794 0.2780
0.2194 0.5846 0.2555
0.2384 0.5905 0.2234
0.3390 0.5891 0.2292
0.4298 0.5870 0.2372
0.4984 0.5844 0.2444
0.5556 0.5817 0.2472
0.6080 0.5795 0.2411
0.6575 0.5780 0.2201
0.7097 0.5746 0.1934
0.7636 0.5694 0.1336
0.8135 0.5629 0.0000
0.8542 0.5574 0.0000
0.8920 0.5521 0.0000
0.9278 0.5469 0.0000
0.9623 0.5418 0.0000
0.9960 0.5366 0.0000
0.9998 0.5527 0.2408
0.9999 0.5725 0.3238
0.1543 0.6078 0.3409
0.1597 0.6084 0.3393
0.1669 0.6093 0.3369
0.1763 0.6108 0.3328
0.1844 0.6132 0.3253
0.1948 0.6163 0.3149
0.2071 0.6202 0.3006
0.2211 0.6250 0.2809
0.2374 0.6306 0.2532
0.2903 0.6339 0.2316
0.3986 0.6319 0.2401
0.4776 0.6294 0.2485
0.5411 0.6263 0.2557
0.5959 0.6239 0.2572
0.6486 0.6215 0.2497
0.6978 0.6198 0.2269
0.7492 0.6163 0.1964
0.8017 0.6109 0.1269
0.8487 0.6046 0.0000
0.8882 0.5989 0.0000
0.9251 0.5936 0.0000
0.9607 0.5881 0.0000
0.9952 0.5829 0.0000
0.9999 0.5963 0.2513
0.9999 0.6139 0.3364
0.1512 0.6499 0.3595
0.1566 0.6505 0.3579
0.1639 0.6513 0.3556
0.1747 0.6526 0.3521
0.1830 0.6548 0.3451
0.1932 0.6576 0.3353
0.2057 0.6613 0.3222
0.2198 0.6656 0.3045
0.2355 0.6709 0.2803
0.2559 0.6767 0.2465
0.3525 0.6769 0.2415
0.4493 0.6747 0.2497
0.5209 0.6717 0.2586
0.5815 0.6686 0.2657
0.6359 0.6662 0.2658
0.6886 0.6636 0.2571
0.7370 0.6616 0.2321
0.7872 0.6578 0.1974
0.8378 0.6522 0.1146
0.8821 0.6459 0.0000
0.9210 0.6401 0.0000
0.9576 0.6348 0.0000
0.9933 0.6293 0.0000
0.9999 0.6395 0.2630
1.0000 0.6549 0.3544
0.1433 0.6921 0.3779
0.1490 0.6927 0.3763
0.1565 0.6935 0.3742
0.1678 0.6946 0.3708
0.1774 0.6965 0.3644
0.1880 0.6992 0.3553
0.2005 0.7026 0.3430
0.2150 0.7066 0.3268
0.2309 0.7115 0.3051
0.2482 0.7171 0.2752
0.2855 0.7223 0.2400
0.4112 0.7199 0.2502
0.4952 0.7171 0.2592
0.5608 0.7140 0.2675
0.6211 0.7107 0.2745
0.6752 0.7080 0.2734
0.7273 0.7051 0.2631
0.7746 0.7030 0.2358
0.8233 0.6991 0.1961
0.8722 0.6934 0.0922
0.9146 0.6871 0.0000
0.9531 0.6814 0.0000
0.9898 0.6759 0.0000
0.9999 0.6825 0.2719
1.0000 0.6958 0.3730
0.1298 0.7344 0.3961
0.1357 0.7349 0.3946
0.1437 0.7356 0.3925
0.1554 0.7366 0.3892
0.1672 0.7383 0.3836
0.1779 0.7408 0.3748
0.1908 0.7439 0.3632
0.2056 0.7476 0.3481
0.2221 0.7521 0.3283
0.2398 0.7573 0.3018
0.2620 0.7631 0.2657
0.3493 0.7649 0.2473
0.4601 0.7624 0.2574
0.5366 0.7589 0.2672
0.6002 0.7560 0.2757
0.6600 0.7525 0.2820
0.7137 0.7497 0.2799
0.7648 0.7467 0.2676
0.8108 0.7445 0.2377
0.8577 0.7404 0.1923
0.9055 0.7345 0.0187
0.9465 0.7284 0.0000
0.9850 0.7226 0.0000
1.0000 0.7256 0.2749
1.0000 0.7367 0.3917
0.1084 0.7763 0.4141
0.1150 0.7768 0.4127
0.1236 0.7774 0.4106
0.1363 0.7784 0.4074
0.1508 0.7799 0.4024
0.1621 0.7823 0.3939
0.1755 0.7852 0.3829
0.1909 0.7887 0.3685
0.2082 0.7929 0.3501
0.2268 0.7977 0.3262
0.2461 0.8033 0.2937
0.2742 0.8092 0.2493
0.4094 0.8076 0.2532
0.5036 0.8046 0.2632
0.5756 0.8012 0.2741
0.6394 0.7979 0.2831
0.6982 0.7944 0.2883
0.7513 0.7914 0.2851
0.8009 0.7883 0.2708
0.8452 0.7859 0.2378
0.8909 0.7817 0.1853
0.9374 0.7758 0.0000
0.9780 0.7697 0.0000
1.0000 0.7690 0.2686
1.0000 0.7777 0.4110
0.0762 0.8183 0.4321
0.0838 0.8188 0.4306
0.0938 0.8194 0.4287
0.1082 0.8203 0.4255
0.1265 0.8216 0.4211
0.1387 0.8238 0.4129
0.1533 0.8265 0.4022
0.1699 0.8298 0.3886
0.1882 0.8338 0.3712
0.2079 0.8384 0.3490
0.2284 0.8437 0.3199
0.2529 0.8495 0.2807
0.3239 0.8532 0.2453
0.4593 0.8502 0.2579
0.5441 0.8468 0.2684
0.6139 0.8435 0.2796
0.6779 0.8399 0.2892
0.7355 0.8364 0.2931
0.7875 0.8331 0.2889
0.8354 0.8299 0.2724
0.8783 0.8274 0.2358
0.9235 0.8230 0.1739
0.9689 0.8172 0.0000
1.0000 0.8132 0.2382
1.0000 0.8191 0.4311
0.0243 0.8606 0.4501
0.0344 0.8610 0.4487
0.0476 0.8615 0.4467
0.0659 0.8624 0.4436
0.0884 0.8636 0.4393
0.1049 0.8656 0.4317
0.1213 0.8681 0.4214
0.1398 0.8712 0.4082
0.1598 0.8749 0.3916
0.1813 0.8792 0.3708
0.2039 0.8842 0.3441
0.2268 0.8900 0.3086
0.2580 0.8959 0.2604
0.3891 0.8959 0.2480
0.5034 0.8926 0.2607
0.5830 0.8892 0.2729
0.6517 0.8859 0.2838
0.7156 0.8819 0.2938
0.7716 0.8784 0.2966
0.8224 0.8750 0.2911
0.8687 0.8718 0.2722
0.9109 0.8693 0.2313
0.9559 0.8649 0.1570
0.9999 0.8591 0.0866
1.0000 0.8606 0.4494
0.0000 0.9019 0.4703
0.0000 0.9025 0.4684
0.0000 0.9034 0.4658
0.0000 0.9046 0.4618
0.0269 0.9058 0.4575
0.0535 0.9075 0.4506
0.0741 0.9099 0.4404
0.0963 0.9128 0.4276
0.1200 0.9163 0.4117
0.1447 0.9203 0.3918
0.1698 0.9250 0.3668
0.1954 0.9304 0.3346
0.2237 0.9364 0.2915
0.2678 0.9422 0.2328
0.4440 0.9388 0.2490
0.5436 0.9355 0.2620
0.6215 0.9321 0.2758
0.6891 0.9287 0.2865
0.7525 0.9245 0.2970
0.8068 0.9209 0.2985
0.8559 0.9173 0.2918
0.9012 0.9140 0.2702
0.9431 0.9113 0.2239
0.9882 0.9068 0.1304
1.0000 0.9024 0.4642
0.0000 0.9429 0.4922
0.0000 0.9435 0.4904
0.0000 0.9442 0.4879
0.0000 0.9455 0.4840
0.0000 0.9471 0.4785
0.0000 0.9493 0.4707
0.0000 0.9521 0.4595
0.0271 0.9549 0.4470
0.0599 0.9583 0.4315
0.0915 0.9621 0.4124
0.1221 0.9665 0.3887
0.1522 0.9716 0.3589
0.1816 0.9773 0.3197
0.2466 0.9821 0.2773
0.4373 0.9784 0.2949
0.5441 0.9745 0.3140
0.6207 0.9713 0.3290
0.6903 0.9673 0.3475
0.7493 0.9640 0.3596
0.8024 0.9608 0.3659
0.8463 0.9597 0.3488
0.8884 0.9596 0.2906
0.9331 0.9561 0.2661
0.9749 0.9534 0.2128
0.9991 0.9446 0.4774
0.0000 0.9841 0.5150
0.0000 0.9846 0.5133
0.0000 0.9854 0.5108
0.0000 0.9866 0.5070
0.0000 0.9882 0.5017
0.0000 0.9902 0.4944
0.0000 0.9929 0.4838
0.0000 0.9961 0.4704
0.0000 0.9999 0.4534
0.1713 0.9997 0.4487
0.3307 0.9975 0.4515
0.4485 0.9957 0.4556
0.5246 0.9932 0.4609
0.5842 0.9912 0.4683
0.6409 0.9885 0.4813
0.6923 0.9857 0.4973
0.7384 0.9832 0.5136
0.7802 0.9809 0.5308
0.8188 0.9788 0.5500
0.8536 0.9772 0.5707
0.8850 0.9762 0.5907
0.9126 0.9769 0.6025
0.9395 0.9785 0.6026
0.9661 0.9820 0.5703
0.9932 0.9831 0.5823
0.0021 0.0000 0.0463
0.0245 0.0000 0.0630
0.0586 0.0000 0.0639
0.1001 0.0000 0.0696
0.1470 0.0000 0.0764
0.1979 0.0000 0.0838
0.2524 0.0000 0.0908
0.3133 0.0000 0.0982
0.3780 0.0000 0.1060
0.4350 0.0000 0.1141
0.4839 0.0000 0.1223
0.5280 0.0000 0.1307
0.5691 0.0000 0.1393
0.6095 0.0000 0.1478
0.6493 0.0000 0.1566
0.6885 0.0000 0.1654
0.7271 0.0000 0.1744
0.7646 0.0000 0.1835
0.8006 0.0000 0.1927
0.8352 0.0000 0.2020
0.8681 0.0000 0.2115
0.9002 0.0000 0.2212
0.9316 0.0000 0.2309
0.9627 0.0000 0.2406
0.9936 0.0000 0.2502
0.0032 0.0504 0.0744
0.0248 0.0537 0.0632
0.0547 0.0553 0.0737
0.0940 0.0570 0.0809
0.1419 0.0570 0.0859
0.1970 0.0538 0.0903
0.2587 0.0445 0.0939
0.3323 0.0258 0.0961
0.4069 0.0000 0.0975
0.4561 0.0000 0.1064
0.5006 0.0000 0.1154
0.5418 0.0000 0.1244
0.5811 0.0000 0.1335
0.6202 0.0000 0.1427
0.6589 0.0000 0.1518
0.6970 0.0000 0.1610
0.7348 0.0000 0.1703
0.7715 0.0000 0.1797
0.8069 0.0000 0.1891
0.8407 0.0000 0.1987
0.8731 0.0000 0.2083
0.9048 0.0000 0.2181
0.9358 0.0000 0.2280
0.9666 0.0000 0.2379
0.9974 0.0000 0.2467
0.0092 0.0929 0.0897
0.0291 0.0954 0.0820
0.0573 0.0971 0.0821
0.0995 0.0968 0.0859
0.1540 0.0937 0.0852
0.2172 0.0863 0.0830
0.2905 0.0703 0.0759
0.3684 0.0451 0.0705
0.4375 0.0069 0.0631
0.4825 0.0000 0.0811
0.5221 0.0000 0.0954
0.5599 0.0000 0.1079
0.5972 0.0000 0.1195
0.6346 0.0000 0.1305
0.6719 0.0000 0.1411
0.7089 0.0000 0.1514
0.7454 0.0000 0.1616
0.7810 0.0000 0.1718
0.8153 0.0000 0.1818
0.8482 0.0000 0.1919
0.8800 0.0000 0.2020
0.9111 0.0000 0.2121
0.9417 0.0000 0.2223
0.9721 0.0000 0.2326
1.0000 0.0369 0.2446
0.0198 0.1300 0.1088
0.0393 0.1318 0.1026
0.0569 0.1353 0.0958
0.0990 0.1355 0.0965
0.1499 0.1345 0.0969
0.2091 0.1320 0.0938
0.2788 0.1255 0.0872
0.3603 0.1145 0.0750
0.4407 0.0909 0.0367
0.5033 0.0497 0.0000
0.5500 0.0084 0.0000
0.5861 0.0000 0.0420
0.6209 0.0000 0.0826
0.6560 0.0000 0.1022
0.6911 0.0000 0.1180
0.7264 0.0000 0.1320
0.7611 0.0000 0.1449
0.7951 0.0000 0.1570
0.8278 0.0000 0.1686
0.8594 0.0000 0.1798
0.8902 0.0000 0.1909
0.9205 0.0000 0.2018
0.9505 0.0000 0.2127
0.9804 0.0000 0.2236
1.0000 0.1061 0.2457
0.0339 0.1657 0.1286
0.0518 0.1672 0.1230
0.0616 0.1711 0.1134
0.0984 0.1720 0.1138
0.1470 0.1721 0.1109
0.2049 0.1707 0.1081
0.2689 0.1679 0.1022
0.3481 0.1620 0.0905
0.4290 0.1507 0.0635
0.4954 0.1338 0.0021
0.5439 0.1206 0.0000
0.5893 0.1037 0.0000
0.6339 0.0801 0.0000
0.6776 0.0374 0.0000
0.7167 0.0000 0.0263
0.7495 0.0000 0.0843
0.7820 0.0000 0.1090
0.8137 0.0000 0.1280
0.8445 0.0000 0.1441
0.8745 0.0000 0.1586
0.9041 0.0000 0.1721
0.9333 0.0000 0.1849
0.9625 0.0000 0.1972
0.9917 0.0000 0.2093
1.0000 0.1526 0.2474
0.0493 0.2014 0.1485
0.0657 0.2026 0.1437
0.0751 0.2057 0.1366
0.0927 0.2098 0.1251
0.1439 0.2090 0.1301
0.1986 0.2088 0.1253
0.2615 0.2070 0.1208
0.3366 0.2037 0.1107
0.4143 0.1982 0.0935
0.4837 0.1874 0.0466
0.5399 0.1754 0.0000
0.5845 0.1670 0.0000
0.6292 0.1562 0.0000
0.6736 0.1425 0.0000
0.7170 0.1252 0.0000
0.7590 0.1019 0.0000
0.7992 0.0649 0.0000
0.8366 0.0000 0.0094
0.8651 0.0000 0.0861
0.8934 0.0000 0.1157
0.9216 0.0000 0.1374
0.9496 0.0000 0.1556
0.9778 0.0000 0.1717
1.0000 0.0778 0.1974
1.0000 0.1942 0.2499
0.0648 0.2390 0.1681
0.0799 0.2400 0.1640
0.0888 0.2427 0.1584
0.1003 0.2472 0.1468
0.1374 0.2491 0.1417
0.1937 0.2483 0.1456
0.2534 0.2478 0.1393
0.3254 0.2457 0.1332
0.4047 0.2416 0.1159
0.4709 0.2354 0.0945
0.5318 0.2254 0.0230
0.5815 0.2161 0.0000
0.6269 0.2079 0.0000
0.6705 0.1998 0.0000
0.7135 0.1899 0.0000
0.7559 0.1773 0.0000
0.7965 0.1625 0.0000
0.8351 0.1442 0.0000
0.8718 0.1204 0.0000
0.9073 0.0847 0.0000
0.9421 0.0072 0.0000
0.9694 0.0000 0.0876
0.9966 0.0000 0.1220
1.0000 0.1614 0.1988
1.0000 0.2358 0.2534
0.0800 0.2791 0.1878
0.0941 0.2800 0.1842
0.1026 0.2823 0.1795
0.1138 0.2860 0.1702
0.1254 0.2917 0.1516
0.1860 0.2905 0.1577
0.2472 0.2895 0.1606
0.3147 0.2888 0.1526
0.3911 0.2865 0.1447
0.4605 0.2821 0.1232
0.5207 0.2755 0.0944
0.5770 0.2660 0.0000
0.6232 0.2590 0.0000
0.6689 0.2506 0.0000
0.7123 0.2422 0.0000
0.7536 0.2337 0.0000
0.7936 0.2239 0.0000
0.8325 0.2114 0.0000
0.8694 0.1973 0.0000
0.9052 0.1810 0.0000
0.9401 0.1615 0.0000
0.9746 0.1367 0.0000
1.0000 0.1422 0.1036
1.0000 0.2186 0.2015
1.0000 0.2795 0.2582
0.0944 0.3196 0.2077
0.1078 0.3204 0.2044
0.1160 0.3223 0.2003
0.1270 0.3254 0.1926
0.1371 0.3304 0.1771
0.1725 0.3333 0.1669
0.2377 0.3320 0.1728
0.3067 0.3308 0.1750
0.3799 0.3301 0.1653
0.4483 0.3277 0.1545
0.5098 0.3231 0.1308
0.5666 0.3164 0.0928
0.6202 0.3081 0.0000
0.6646 0.3025 0.0000
0.7097 0.2948 0.0000
0.7528 0.2864 0.0000
0.7930 0.2781 0.0000
0.8309 0.2695 0.0000
0.8669 0.2598 0.0000
0.9029 0.2469 0.0000
0.9380 0.2326 0.0000
0.9726 0.2167 0.0000
1.0000 0.2155 0.0971
1.0000 0.2728 0.2051
1.0000 0.3226 0.2643
0.1079 0.3604 0.2280
0.1208 0.3611 0.2250
0.1288 0.3627 0.2213
0.1398 0.3654 0.2147
0.1496 0.3698 0.2014
0.1618 0.3755 0.1807
0.2233 0.3754 0.1818
0.2941 0.3741 0.1875
0.3717 0.3726 0.1888
0.4378 0.3718 0.1775
0.4979 0.3690 0.1648
0.5549 0.3643 0.1375
0.6121 0.3572 0.0775
0.6627 0.3501 0.0000
0.7066 0.3446 0.0000
0.7493 0.3383 0.0000
0.7911 0.3305 0.0000
0.8306 0.3220 0.0000
0.8667 0.3140 0.0000
0.9016 0.3054 0.0000
0.9357 0.2961 0.0000
0.9704 0.2836 0.0000
1.0000 0.2789 0.0871
1.0000 0.3241 0.2092
1.0000 0.3654 0.2714
0.1202 0.4017 0.2482
0.1330 0.4022 0.2456
0.1406 0.4037 0.2423
0.1519 0.4059 0.2368
0.1612 0.4098 0.2251
0.1725 0.4149 0.2072
0.2028 0.4191 0.1899
0.2779 0.4176 0.1966
0.3580 0.4160 0.2020
0.4302 0.4144 0.2019
0.4877 0.4133 0.1889
0.5430 0.4103 0.1742
0.5981 0.4057 0.1430
0.6559 0.3983 0.0564
0.7042 0.3919 0.0000
0.7473 0.3865 0.0000
0.7878 0.3811 0.0000
0.8277 0.3740 0.0000
0.8654 0.3660 0.0000
0.9015 0.3577 0.0000
0.9357 0.3498 0.0000
0.9694 0.3412 0.0000
1.0000 0.3363 0.0682
1.0000 0.3728 0.2136
1.0000 0.4079 0.2793
