EA 50 Cinematic Luts Pack/EA_Cinematic Lut (7).cube
TITLE "Generated by Resolve"
LUT_3D_SIZE 5
0.238895 0.063798 0.15201
0.295811 0.0885023 0.173877
0.37763 0.106111 0.190326
0.487953 0.115648 0.200473
0.606958 0.130159 0.214832
0.252216 0.203357 0.188479
0.318761 0.238193 0.211414
0.428489 0.277287 0.235798
0.553689 0.318883 0.262043
0.674998 0.365957 0.293126
0.255146 0.442161 0.211688
0.353353 0.496849 0.247623
0.476402 0.547036 0.282628
0.602502 0.597009 0.320653
0.712398 0.649989 0.364096
0.285313 0.727047 0.279088
0.403372 0.776471 0.323461
0.530907 0.819699 0.364263
0.648676 0.860822 0.405081
0.738308 0.903456 0.449058
0.354864 0.975128 0.403052
0.478782 1 0.442771
0.597604 1 0.475898
0.694362 1 0.509346
0.76733 1 0.546227
0.24184 0.0711223 0.235065
0.299382 0.0962692 0.257649
0.383688 0.112062 0.273747
0.495933 0.122499 0.289128
0.616846 0.141482 0.316228
0.254994 0.213382 0.279118
0.325704 0.252735 0.314153
0.437812 0.293462 0.351034
0.563165 0.33576 0.38938
0.683574 0.383307 0.432074
0.260395 0.4607 0.343389
0.361654 0.514809 0.389258
0.485603 0.564446 0.432425
0.610956 0.613626 0.475837
0.717891 0.666041 0.522499
0.293126 0.743221 0.436377
0.41236 0.791089 0.483803
0.53901 0.832609 0.526528
0.654902 0.871885 0.568902
0.741085 0.911025 0.612543
0.362936 0.984009 0.568322
0.485695 1 0.606378
0.602625 1 0.63827
0.696239 1 0.670954
0.76878 1 0.706294
0.24387 0.0761578 0.34374
0.301137 0.100053 0.377035
0.388373 0.114122 0.403983
0.502403 0.126192 0.43151
0.625376 0.150576 0.469642
0.255741 0.220523 0.422278
0.331426 0.264622 0.466575
0.445487 0.306645 0.508232
0.571511 0.350057 0.550576
0.690852 0.398856 0.596704
0.26479 0.476646 0.505669
0.369162 0.530556 0.553948
0.493919 0.580026 0.598642
0.618296 0.628946 0.642725
0.722942 0.680781 0.68896
0.300755 0.758251 0.605051
0.420615 0.804334 0.650431
0.546899 0.84419 0.691463
0.660517 0.881773 0.730495
0.743404 0.917769 0.769543
0.370932 0.991913 0.730266
0.49247 1 0.762707
0.607431 1 0.78941
0.698711 1 0.817945
0.77113 1 0.848478
0.244617 0.0781109 0.496223
0.301579 0.100572 0.531548
0.392508 0.114672 0.561837
0.509194 0.130068 0.59443
0.634165 0.160098 0.638346
0.257221 0.229084 0.585534
0.337133 0.276295 0.631846
0.453223 0.319905 0.6748
0.579721 0.364874 0.717021
0.698299 0.414969 0.762188
0.269429 0.492576 0.671778
0.376928 0.546441 0.718105
0.50251 0.595956 0.759838
0.626337 0.644892 0.800855
0.728161 0.696529 0.842771
0.308751 0.773465 0.762631
0.429603 0.818082 0.803143
0.555032 0.85655 0.8383
0.666438 0.892134 0.870665
0.746899 0.925826 0.900893
0.379126 1 0.868482
0.499962 1 0.891051
0.613626 1 0.909346
0.702647 1 0.929885
0.775509 1 0.954025
0.244846 0.0786755 0.657053
0.302464 0.100572 0.691569
0.397223 0.11577 0.72163
0.517372 0.136965 0.756802
0.643595 0.170993 0.800732
0.259525 0.240238 0.745312
0.343679 0.289464 0.789624
0.461707 0.334539 0.82919
0.588922 0.381003 0.868223
0.706371 0.432593 0.908522
0.275532 0.510491 0.821256
0.385977 0.564538 0.861814
0.512352 0.614084 0.89691
0.635081 0.662776 0.929137
0.734783 0.714199 0.962905
0.318181 0.79089 0.889738
0.439902 0.834424 0.921279
0.565042 0.871489 0.947814
0.673426 0.904341 0.97203
0.751507 0.93576 0.996048
0.388479 1 0.968338
0.508751 1 0.985321
0.620859 1 1
0.707774 1 1
0.780407 1 1
