EA 50 Cinematic Luts Pack/EA_Cinematic Lut (28).cube
TITLE "A truly cinematic look with no compromise on sharpness, contrast, color balance and illumination."
LUT_3D_SIZE 25
0.0000 0.0000 0.0000
0.0305 0.0019 0.0012
0.0706 0.0053 0.0025
0.1088 0.0119 0.0050
0.1456 0.0229 0.0093
0.1812 0.0395 0.0164
0.2161 0.0587 0.0295
0.2509 0.0791 0.0466
0.2857 0.1004 0.0639
0.3203 0.1222 0.0812
0.3556 0.1442 0.0986
0.3913 0.1661 0.1157
0.4283 0.1876 0.1316
0.4661 0.2087 0.1465
0.5038 0.2289 0.1604
0.5450 0.2471 0.1711
0.5895 0.2630 0.1790
0.6364 0.2771 0.1835
0.6834 0.2903 0.1864
0.7285 0.3048 0.1910
0.7716 0.3212 0.1988
0.8149 0.3373 0.2058
0.8553 0.3518 0.2111
0.8571 0.3516 0.2115
0.8603 0.3540 0.2131
0.0144 0.0281 0.0099
0.0396 0.0303 0.0087
0.0831 0.0314 0.0078
0.1203 0.0366 0.0109
0.1557 0.0457 0.0158
0.1887 0.0594 0.0251
0.2217 0.0755 0.0391
0.2554 0.0930 0.0542
0.2893 0.1115 0.0696
0.3233 0.1308 0.0854
0.3577 0.1502 0.1013
0.3911 0.1670 0.1155
0.4281 0.1884 0.1314
0.4660 0.2094 0.1464
0.5037 0.2295 0.1603
0.5450 0.2476 0.1710
0.5895 0.2635 0.1789
0.6364 0.2775 0.1833
0.6834 0.2908 0.1862
0.7285 0.3052 0.1909
0.7716 0.3216 0.1987
0.8148 0.3377 0.2056
0.8554 0.3522 0.2110
0.8571 0.3520 0.2114
0.8613 0.3559 0.2139
0.0345 0.0622 0.0243
0.0508 0.0625 0.0273
0.0856 0.0663 0.0206
0.1292 0.0676 0.0191
0.1664 0.0729 0.0255
0.2017 0.0818 0.0363
0.2360 0.0939 0.0494
0.2685 0.1094 0.0633
0.3005 0.1267 0.0781
0.3334 0.1452 0.0934
0.3669 0.1644 0.1091
0.4013 0.1839 0.1245
0.4370 0.2035 0.1390
0.4737 0.2228 0.1527
0.5111 0.2411 0.1651
0.5522 0.2574 0.1742
0.5962 0.2720 0.1809
0.6421 0.2852 0.1848
0.6879 0.2979 0.1876
0.7314 0.3120 0.1927
0.7739 0.3276 0.2001
0.8164 0.3425 0.2065
0.8564 0.3558 0.2113
0.8605 0.3592 0.2138
0.8639 0.3611 0.2159
0.0647 0.1000 0.0485
0.0646 0.1001 0.0486
0.0970 0.1027 0.0487
0.1317 0.1065 0.0424
0.1746 0.1085 0.0428
0.2129 0.1136 0.0505
0.2480 0.1222 0.0615
0.2815 0.1334 0.0745
0.3150 0.1467 0.0885
0.3481 0.1623 0.1025
0.3808 0.1796 0.1170
0.4146 0.1975 0.1312
0.4497 0.2157 0.1448
0.4852 0.2338 0.1577
0.5226 0.2510 0.1687
0.5634 0.2666 0.1770
0.6067 0.2808 0.1829
0.6513 0.2940 0.1866
0.6955 0.3074 0.1903
0.7372 0.3226 0.1971
0.7792 0.3381 0.2044
0.8217 0.3530 0.2107
0.8619 0.3667 0.2156
0.8649 0.3679 0.2173
0.8685 0.3686 0.2181
0.0965 0.1401 0.0752
0.0965 0.1402 0.0752
0.1153 0.1407 0.0800
0.1426 0.1458 0.0710
0.1781 0.1495 0.0675
0.2196 0.1520 0.0716
0.2584 0.1565 0.0780
0.2938 0.1641 0.0880
0.3282 0.1742 0.0995
0.3621 0.1865 0.1129
0.3962 0.2003 0.1266
0.4311 0.2152 0.1395
0.4656 0.2316 0.1517
0.5004 0.2479 0.1633
0.5383 0.2632 0.1723
0.5789 0.2774 0.1793
0.6218 0.2906 0.1840
0.6652 0.3033 0.1874
0.7077 0.3167 0.1918
0.7479 0.3319 0.1994
0.7891 0.3472 0.2067
0.8305 0.3622 0.2131
0.8708 0.3755 0.2172
0.8740 0.3760 0.2176
0.8772 0.3766 0.2181
0.1278 0.1810 0.1026
0.1278 0.1810 0.1027
0.1278 0.1812 0.1029
0.1603 0.1841 0.1049
0.1882 0.1893 0.0935
0.2243 0.1929 0.0930
0.2648 0.1959 0.0983
0.3042 0.2000 0.1047
0.3408 0.2069 0.1138
0.3758 0.2162 0.1250
0.4111 0.2271 0.1361
0.4463 0.2394 0.1480
0.4821 0.2525 0.1593
0.5192 0.2652 0.1689
0.5575 0.2783 0.1759
0.5978 0.2909 0.1814
0.6397 0.3031 0.1852
0.6815 0.3154 0.1887
0.7216 0.3291 0.1948
0.7612 0.3438 0.2023
0.8017 0.3583 0.2091
0.8425 0.3726 0.2149
0.8830 0.3853 0.2182
0.8859 0.3857 0.2186
0.8890 0.3861 0.2190
0.1589 0.2222 0.1302
0.1589 0.2222 0.1302
0.1588 0.2224 0.1304
0.1809 0.2229 0.1353
0.2056 0.2277 0.1283
0.2339 0.2334 0.1161
0.2710 0.2371 0.1186
0.3100 0.2405 0.1246
0.3511 0.2441 0.1311
0.3886 0.2504 0.1392
0.4254 0.2586 0.1479
0.4623 0.2682 0.1570
0.4990 0.2783 0.1652
0.5369 0.2885 0.1725
0.5768 0.2985 0.1788
0.6186 0.3083 0.1833
0.6596 0.3189 0.1868
0.6993 0.3310 0.1915
0.7375 0.3445 0.1988
0.7767 0.3583 0.2057
0.8163 0.3719 0.2119
0.8564 0.3854 0.2171
0.8974 0.3972 0.2193
0.9002 0.3976 0.2197
0.9031 0.3979 0.2200
0.1903 0.2638 0.1569
0.1903 0.2639 0.1569
0.1903 0.2640 0.1570
0.1975 0.2640 0.1594
0.2256 0.2671 0.1598
0.2508 0.2723 0.1514
0.2803 0.2783 0.1392
0.3180 0.2817 0.1433
0.3572 0.2852 0.1490
0.3989 0.2886 0.1545
0.4389 0.2942 0.1611
0.4782 0.3009 0.1661
0.5158 0.3083 0.1721
0.5553 0.3159 0.1758
0.5956 0.3239 0.1801
0.6365 0.3323 0.1843
0.6770 0.3413 0.1892
0.7164 0.3517 0.1963
0.7552 0.3629 0.2034
0.7939 0.3755 0.2096
0.8329 0.3881 0.2151
0.8722 0.4006 0.2198
0.9139 0.4115 0.2205
0.9165 0.4118 0.2207
0.9193 0.4122 0.2210
0.2219 0.3061 0.1827
0.2219 0.3062 0.1827
0.2219 0.3062 0.1828
0.2218 0.3064 0.1830
0.2481 0.3074 0.1886
0.2711 0.3124 0.1831
0.2972 0.3179 0.1733
0.3275 0.3237 0.1623
0.3663 0.3270 0.1658
0.4067 0.3304 0.1697
0.4503 0.3335 0.1724
0.4915 0.3375 0.1767
0.5313 0.3423 0.1791
0.5718 0.3477 0.1813
0.6122 0.3542 0.1850
0.6529 0.3610 0.1875
0.6921 0.3694 0.1937
0.7309 0.3783 0.2008
0.7705 0.3877 0.2074
0.8106 0.3972 0.2133
0.8509 0.4069 0.2185
0.8896 0.4185 0.2228
0.9305 0.4286 0.2229
0.9347 0.4285 0.2215
0.9373 0.4288 0.2217
0.2530 0.3492 0.2076
0.2530 0.3492 0.2076
0.2530 0.3493 0.2077
0.2530 0.3494 0.2079
0.2672 0.3496 0.2122
0.2927 0.3533 0.2117
0.3170 0.3585 0.2043
0.3443 0.3644 0.1922
0.3757 0.3698 0.1819
0.4160 0.3726 0.1834
0.4580 0.3757 0.1850
0.5003 0.3781 0.1867
0.5429 0.3806 0.1886
0.5847 0.3842 0.1912
0.6261 0.3889 0.1931
0.6657 0.3948 0.1979
0.7055 0.4014 0.2021
0.7453 0.4082 0.2056
0.7850 0.4162 0.2114
0.8249 0.4243 0.2168
0.8651 0.4326 0.2213
0.9057 0.4411 0.2253
0.9485 0.4480 0.2251
0.9553 0.4469 0.2207
0.9577 0.4472 0.2210
0.2829 0.3933 0.2306
0.2829 0.3933 0.2306
0.2829 0.3934 0.2307
0.2829 0.3935 0.2308
0.2828 0.3937 0.2310
0.3145 0.3950 0.2372
0.3373 0.3998 0.2313
0.3632 0.4051 0.2216
0.3917 0.4108 0.2076
0.4244 0.4158 0.1981
0.4663 0.4182 0.1980
0.5070 0.4205 0.1996
0.5490 0.4226 0.2015
0.5928 0.4247 0.2041
0.6356 0.4276 0.2079
0.6769 0.4316 0.2099
0.7178 0.4362 0.2116
0.7573 0.4420 0.2165
0.7981 0.4479 0.2186
0.8389 0.4542 0.2204
0.8791 0.4613 0.2244
0.9196 0.4684 0.2277
0.9614 0.4746 0.2278
0.9724 0.4715 0.2197
0.9749 0.4717 0.2199
0.3118 0.4373 0.2521
0.3118 0.4374 0.2521
0.3118 0.4374 0.2521
0.3117 0.4375 0.2522
0.3117 0.4377 0.2524
0.3332 0.4376 0.2583
0.3583 0.4412 0.2562
0.3827 0.4461 0.2485
0.4097 0.4514 0.2371
0.4395 0.4568 0.2217
0.4733 0.4613 0.2143
0.5137 0.4630 0.2154
0.5548 0.4650 0.2175
0.5966 0.4674 0.2208
0.6416 0.4687 0.2213
0.6850 0.4708 0.2244
0.7272 0.4737 0.2259
0.7687 0.4773 0.2263
0.8096 0.4819 0.2283
0.8505 0.4869 0.2304
0.8919 0.4921 0.2302
0.9331 0.4975 0.2302
0.9741 0.5033 0.2311
0.9880 0.4993 0.2186
0.9898 0.4995 0.2186
0.3411 0.4804 0.2733
0.3411 0.4805 0.2733
0.3411 0.4805 0.2734
0.3410 0.4806 0.2735
0.3410 0.4808 0.2736
0.3446 0.4809 0.2748
0.3799 0.4819 0.2808
0.4029 0.4862 0.2750
0.4290 0.4908 0.2660
0.4565 0.4959 0.2534
0.4863 0.5009 0.2373
0.5193 0.5047 0.2333
0.5607 0.5061 0.2339
0.6024 0.5081 0.2359
0.6438 0.5104 0.2389
0.6906 0.5108 0.2370
0.7336 0.5127 0.2398
0.7769 0.5146 0.2413
0.8194 0.5176 0.2405
0.8618 0.5210 0.2388
0.9027 0.5255 0.2408
0.9443 0.5298 0.2394
0.9860 0.5342 0.2359
0.9964 0.5298 0.2192
0.9971 0.5301 0.2192
0.3715 0.5220 0.2955
0.3715 0.5220 0.2955
0.3715 0.5221 0.2955
0.3715 0.5222 0.2956
0.3714 0.5223 0.2957
0.3713 0.5225 0.2959
0.4002 0.5221 0.3037
0.4245 0.5255 0.3009
0.4486 0.5298 0.2938
0.4749 0.5345 0.2834
0.5019 0.5393 0.2700
0.5315 0.5441 0.2537
0.5658 0.5477 0.2519
0.6080 0.5491 0.2522
0.6502 0.5509 0.2534
0.6922 0.5528 0.2550
0.7384 0.5532 0.2537
0.7821 0.5547 0.2546
0.8265 0.5561 0.2554
0.8698 0.5584 0.2541
0.9128 0.5612 0.2509
0.9548 0.5646 0.2486
0.9931 0.5684 0.2471
0.9969 0.5702 0.2581
0.9970 0.5716 0.2624
0.4023 0.5642 0.3176
0.4023 0.5642 0.3176
0.4022 0.5642 0.3176
0.4022 0.5643 0.3177
0.4021 0.5645 0.3178
0.4021 0.5646 0.3180
0.4139 0.5646 0.3212
0.4472 0.5658 0.3257
0.4698 0.5700 0.3199
0.4939 0.5741 0.3120
0.5193 0.5787 0.3010
0.5472 0.5834 0.2866
0.5773 0.5882 0.2705
0.6128 0.5914 0.2704
0.6555 0.5927 0.2699
0.6982 0.5940 0.2700
0.7404 0.5958 0.2715
0.7858 0.5964 0.2701
0.8308 0.5972 0.2686
0.8755 0.5984 0.2688
0.9200 0.5997 0.2670
0.9627 0.6017 0.2622
0.9948 0.6072 0.2734
0.9969 0.6119 0.2982
0.9970 0.6132 0.3018
0.4332 0.6066 0.3392
0.4332 0.6066 0.3392
0.4332 0.6067 0.3392
0.4331 0.6067 0.3393
0.4331 0.6069 0.3394
0.4330 0.6070 0.3395
0.4329 0.6072 0.3397
0.4687 0.6066 0.3488
0.4911 0.6101 0.3455
0.5132 0.6139 0.3394
0.5378 0.6179 0.3303
0.5641 0.6226 0.3184
0.5924 0.6273 0.3036
0.6232 0.6318 0.2888
0.6598 0.6347 0.2884
0.7030 0.6355 0.2869
0.7458 0.6369 0.2869
0.7884 0.6384 0.2874
0.8330 0.6392 0.2859
0.8790 0.6394 0.2822
0.9237 0.6401 0.2813
0.9683 0.6405 0.2787
0.9937 0.6488 0.3138
0.9965 0.6542 0.3360
0.9966 0.6553 0.3392
0.4639 0.6488 0.3606
0.4639 0.6488 0.3606
0.4639 0.6488 0.3606
0.4639 0.6489 0.3607
0.4638 0.6490 0.3608
0.4637 0.6491 0.3609
0.4637 0.6493 0.3611
0.4826 0.6491 0.3661
0.5121 0.6499 0.3708
0.5331 0.6535 0.3658
0.5567 0.6573 0.3585
0.5819 0.6616 0.3490
0.6085 0.6663 0.3364
0.6375 0.6707 0.3204
0.6690 0.6748 0.3069
0.7065 0.6772 0.3061
0.7500 0.6781 0.3044
0.7931 0.6791 0.3032
0.8357 0.6804 0.3026
0.8795 0.6813 0.3014
0.9269 0.6807 0.2953
0.9709 0.6813 0.2930
0.9922 0.6902 0.3496
0.9960 0.6962 0.3683
0.9961 0.6972 0.3711
0.4937 0.6905 0.3822
0.4937 0.6905 0.3822
0.4937 0.6905 0.3822
0.4936 0.6906 0.3823
0.4936 0.6907 0.3823
0.4935 0.6908 0.3825
0.4935 0.6910 0.3826
0.4938 0.6912 0.3830
0.5329 0.6898 0.3954
0.5539 0.6931 0.3918
0.5756 0.6965 0.3861
0.6000 0.7005 0.3784
0.6257 0.7050 0.3677
0.6529 0.7090 0.3536
0.6823 0.7128 0.3364
0.7144 0.7168 0.3249
0.7526 0.7191 0.3242
0.7962 0.7197 0.3212
0.8395 0.7205 0.3187
0.8821 0.7217 0.3179
0.9252 0.7228 0.3170
0.9739 0.7215 0.3079
0.9906 0.7311 0.3808
0.9956 0.7373 0.4038
0.9956 0.7382 0.4063
0.5219 0.7314 0.4046
0.5219 0.7314 0.4046
0.5219 0.7314 0.4047
0.5219 0.7315 0.4047
0.5219 0.7316 0.4048
0.5218 0.7317 0.4049
0.5217 0.7319 0.4050
0.5216 0.7321 0.4052
0.5461 0.7313 0.4132
0.5744 0.7320 0.4175
0.5950 0.7351 0.4129
0.6179 0.7386 0.4065
0.6431 0.7425 0.3974
0.6688 0.7462 0.3853
0.6967 0.7500 0.3700
0.7269 0.7542 0.3523
0.7594 0.7581 0.3430
0.7983 0.7600 0.3414
0.8422 0.7605 0.3373
0.8853 0.7613 0.3344
0.9282 0.7624 0.3332
0.9705 0.7636 0.3319
0.9885 0.7711 0.4166
0.9952 0.7773 0.4429
0.9952 0.7781 0.4451
0.5500 0.7712 0.4267
0.5500 0.7712 0.4267
0.5499 0.7712 0.4267
0.5499 0.7713 0.4268
0.5499 0.7713 0.4269
0.5498 0.7714 0.4270
0.5498 0.7716 0.4271
0.5497 0.7718 0.4273
0.5581 0.7716 0.4302
0.5951 0.7699 0.4431
0.6146 0.7729 0.4390
0.6362 0.7762 0.4335
0.6602 0.7794 0.4260
0.6855 0.7828 0.4156
0.7119 0.7865 0.4024
0.7404 0.7907 0.3869
0.7711 0.7950 0.3687
0.8043 0.7985 0.3603
0.8438 0.8001 0.3580
0.8875 0.8006 0.3536
0.9311 0.8013 0.3501
0.9733 0.8024 0.3509
0.9847 0.8107 0.4545
0.9944 0.8166 0.4850
0.9944 0.8173 0.4869
0.5773 0.8099 0.4493
0.5773 0.8100 0.4493
0.5773 0.8100 0.4493
0.5773 0.8100 0.4494
0.5772 0.8101 0.4494
0.5772 0.8102 0.4495
0.5771 0.8103 0.4496
0.5770 0.8105 0.4498
0.5769 0.8107 0.4500
0.6067 0.8092 0.4612
0.6334 0.8098 0.4651
0.6546 0.8128 0.4604
0.6776 0.8156 0.4538
0.7025 0.8187 0.4450
0.7278 0.8224 0.4337
0.7547 0.8263 0.4200
0.7840 0.8305 0.4035
0.8152 0.8346 0.3844
0.8489 0.8379 0.3770
0.8889 0.8394 0.3749
0.9328 0.8398 0.3698
0.9702 0.8413 0.3973
0.9833 0.8479 0.4987
0.9944 0.8537 0.5322
0.9944 0.8544 0.5339
0.6033 0.8475 0.4725
0.6032 0.8475 0.4725
0.6032 0.8475 0.4725
0.6032 0.8475 0.4725
0.6032 0.8476 0.4726
0.6031 0.8477 0.4727
0.6030 0.8478 0.4728
0.6030 0.8480 0.4729
0.6029 0.8482 0.4731
0.6177 0.8475 0.4788
0.6526 0.8458 0.4909
0.6730 0.8483 0.4867
0.6950 0.8511 0.4811
0.7189 0.8540 0.4737
0.7442 0.8574 0.4640
0.7701 0.8613 0.4520
0.7979 0.8653 0.4371
0.8277 0.8693 0.4193
0.8590 0.8733 0.3998
0.8933 0.8764 0.3947
0.9339 0.8778 0.3922
0.9676 0.8790 0.4520
0.9827 0.8837 0.5479
0.9949 0.8897 0.5858
0.9949 0.8904 0.5874
0.6291 0.8835 0.4955
0.6291 0.8835 0.4955
0.6291 0.8835 0.4955
0.6291 0.8836 0.4955
0.6291 0.8836 0.4956
0.6290 0.8837 0.4957
0.6290 0.8838 0.4958
0.6289 0.8840 0.4959
0.6288 0.8841 0.4961
0.6286 0.8843 0.4963
0.6651 0.8824 0.5097
0.6915 0.8831 0.5127
0.7129 0.8857 0.5079
0.7354 0.8886 0.5015
0.7600 0.8916 0.4933
0.7855 0.8952 0.4827
0.8123 0.8992 0.4698
0.8413 0.9032 0.4537
0.8714 0.9073 0.4352
0.9028 0.9113 0.4172
0.9378 0.9141 0.4126
0.9657 0.9145 0.5133
0.9828 0.9177 0.6055
0.9956 0.9239 0.6461
0.9956 0.9245 0.6476
0.6757 0.9126 0.5459
0.6757 0.9126 0.5459
0.6758 0.9126 0.5459
0.6758 0.9126 0.5460
0.6759 0.9127 0.5462
0.6759 0.9127 0.5464
0.6761 0.9128 0.5468
0.6762 0.9128 0.5472
0.6764 0.9129 0.5476
0.6766 0.9130 0.5482
0.6985 0.9114 0.5608
0.7316 0.9098 0.5779
0.7504 0.9127 0.5765
0.7697 0.9159 0.5734
0.7903 0.9194 0.5684
0.8121 0.9234 0.5600
0.8349 0.9279 0.5483
0.8594 0.9328 0.5319
0.8861 0.9378 0.5090
0.9150 0.9430 0.4765
0.9453 0.9466 0.4736
0.9679 0.9468 0.5854
0.9850 0.9494 0.6721
0.9961 0.9552 0.7124
0.9968 0.9564 0.7161
0.7488 0.9336 0.6337
0.7488 0.9336 0.6337
0.7488 0.9336 0.6338
0.7489 0.9337 0.6339
0.7489 0.9337 0.6340
0.7490 0.9337 0.6342
0.7491 0.9338 0.6344
0.7493 0.9338 0.6347
0.7495 0.9339 0.6351
0.7497 0.9340 0.6356
0.7544 0.9339 0.6387
0.7777 0.9346 0.6499
0.7939 0.9374 0.6520
0.8106 0.9406 0.6533
0.8279 0.9441 0.6539
0.8460 0.9479 0.6536
0.8651 0.9522 0.6516
0.8852 0.9569 0.6482
0.9065 0.9619 0.6436
0.9294 0.9671 0.6365
0.9536 0.9724 0.6296
0.9775 0.9765 0.6473
0.9920 0.9788 0.7297
0.9974 0.9838 0.7935
0.9982 0.9856 0.8016
0.0090 0.0089 0.0137
0.0290 0.0115 0.0156
0.0703 0.0135 0.0150
0.1124 0.0149 0.0129
0.1523 0.0196 0.0115
0.1859 0.0369 0.0178
0.2193 0.0570 0.0311
0.2533 0.0779 0.0477
0.2875 0.0995 0.0648
0.3217 0.1215 0.0819
0.3567 0.1437 0.0992
0.3923 0.1657 0.1161
0.4291 0.1873 0.1320
0.4668 0.2084 0.1468
0.5044 0.2286 0.1607
0.5455 0.2468 0.1714
0.5901 0.2627 0.1792
0.6369 0.2768 0.1837
0.6839 0.2901 0.1866
0.7289 0.3045 0.1912
0.7720 0.3210 0.1990
0.8152 0.3371 0.2059
0.8557 0.3515 0.2112
0.8575 0.3513 0.2117
0.8608 0.3539 0.2133
0.0171 0.0294 0.0216
0.0432 0.0305 0.0205
0.0828 0.0327 0.0190
0.1215 0.0374 0.0186
0.1579 0.0459 0.0205
0.1915 0.0590 0.0284
0.2246 0.0747 0.0413
0.2580 0.0923 0.0557
0.2914 0.1110 0.0708
0.3250 0.1305 0.0864
0.3591 0.1502 0.1022
0.3934 0.1690 0.1173
0.4290 0.1881 0.1319
0.4667 0.2091 0.1467
0.5044 0.2292 0.1606
0.5456 0.2474 0.1712
0.5901 0.2632 0.1791
0.6369 0.2772 0.1835
0.6839 0.2905 0.1864
0.7289 0.3049 0.1911
0.7720 0.3214 0.1989
0.8152 0.3375 0.2058
0.8557 0.3519 0.2111
0.8575 0.3517 0.2116
0.8617 0.3558 0.2140
0.0374 0.0627 0.0350
0.0480 0.0638 0.0341
0.0859 0.0668 0.0304
0.1310 0.0676 0.0252
0.1677 0.0731 0.0308
0.2028 0.0820 0.0406
0.2368 0.0942 0.0522
0.2691 0.1097 0.0654
0.3010 0.1270 0.0798
0.3338 0.1454 0.0948
0.3673 0.1646 0.1102
0.4017 0.1841 0.1254
0.4374 0.2036 0.1398
0.4744 0.2226 0.1531
0.5118 0.2408 0.1654
0.5529 0.2572 0.1745
0.5969 0.2718 0.1812
0.6427 0.2849 0.1850
0.6884 0.2977 0.1878
0.7319 0.3118 0.1930
0.7744 0.3274 0.2003
0.8168 0.3423 0.2067
0.8569 0.3557 0.2115
0.8609 0.3590 0.2140
0.8642 0.3609 0.2161
0.0655 0.1005 0.0543
0.0655 0.1005 0.0545
0.0969 0.1032 0.0554
0.1319 0.1069 0.0486
0.1761 0.1085 0.0447
0.2136 0.1138 0.0533
0.2484 0.1225 0.0642
0.2821 0.1336 0.0768
0.3155 0.1468 0.0901
0.3485 0.1624 0.1037
0.3811 0.1797 0.1180
0.4149 0.1976 0.1320
0.4499 0.2159 0.1455
0.4855 0.2340 0.1583
0.5229 0.2511 0.1693
0.5636 0.2667 0.1775
0.6069 0.2809 0.1834
0.6515 0.2941 0.1871
0.6957 0.3075 0.1908
0.7375 0.3225 0.1975
0.7797 0.3378 0.2046
0.8221 0.3528 0.2109
0.8623 0.3665 0.2158
0.8652 0.3677 0.2175
0.8689 0.3684 0.2183
0.0945 0.1411 0.0769
0.0945 0.1412 0.0770
0.1157 0.1408 0.0839
0.1428 0.1460 0.0754
0.1784 0.1498 0.0712
0.2203 0.1521 0.0738
0.2590 0.1566 0.0794
0.2942 0.1643 0.0895
0.3285 0.1744 0.1011
0.3623 0.1867 0.1143
0.3965 0.2004 0.1278
0.4314 0.2153 0.1403
0.4659 0.2317 0.1524
0.5007 0.2480 0.1639
0.5385 0.2633 0.1728
0.5791 0.2774 0.1799
0.6220 0.2906 0.1845
0.6653 0.3033 0.1879
0.7078 0.3168 0.1923
0.7480 0.3320 0.1999
0.7893 0.3473 0.2071
0.8306 0.3623 0.2135
0.8711 0.3753 0.2172
0.8743 0.3759 0.2177
0.8776 0.3764 0.2181
0.1264 0.1817 0.1037
0.1264 0.1817 0.1038
0.1263 0.1819 0.1040
0.1603 0.1842 0.1078
0.1882 0.1894 0.0966
0.2245 0.1930 0.0955
0.2652 0.1960 0.1002
0.3048 0.2000 0.1054
0.3413 0.2070 0.1146
0.3761 0.2163 0.1260
0.4113 0.2272 0.1371
0.4465 0.2396 0.1489
0.4822 0.2526 0.1601
0.5194 0.2652 0.1695
0.5577 0.2784 0.1765
0.5980 0.2910 0.1820
0.6399 0.3031 0.1857
0.6816 0.3154 0.1892
0.7217 0.3292 0.1953
0.7613 0.3438 0.2028
0.8018 0.3584 0.2095
0.8426 0.3727 0.2154
0.8833 0.3851 0.2183
0.8862 0.3855 0.2187
0.8893 0.3860 0.2191
0.1579 0.2227 0.1311
0.1579 0.2228 0.1311
0.1579 0.2229 0.1313
0.1811 0.2230 0.1375
0.2056 0.2278 0.1306
0.2339 0.2335 0.1184
0.2711 0.2372 0.1204
0.3106 0.2404 0.1258
0.3515 0.2441 0.1316
0.3889 0.2505 0.1399
0.4257 0.2587 0.1487
0.4626 0.2683 0.1576
0.4992 0.2784 0.1660
0.5370 0.2886 0.1733
0.5769 0.2986 0.1794
0.6187 0.3083 0.1840
0.6598 0.3189 0.1874
0.6995 0.3311 0.1920
0.7376 0.3446 0.1993
0.7768 0.3583 0.2062
0.8164 0.3720 0.2123
0.8565 0.3854 0.2176
0.8977 0.3971 0.2194
0.9005 0.3974 0.2197
0.9034 0.3978 0.2201
0.1896 0.2643 0.1575
0.1896 0.2643 0.1576
0.1895 0.2644 0.1577
0.1965 0.2644 0.1600
0.2257 0.2672 0.1614
0.2509 0.2724 0.1531
0.2804 0.2784 0.1409
0.3181 0.2818 0.1448
0.3575 0.2853 0.1501
0.3995 0.2886 0.1554
0.4392 0.2943 0.1616
0.4785 0.3009 0.1665
0.5160 0.3083 0.1727
0.5555 0.3159 0.1764
0.5957 0.3240 0.1808
0.6366 0.3324 0.1850
0.6771 0.3414 0.1899
0.7165 0.3517 0.1969
0.7553 0.3630 0.2039
0.7940 0.3756 0.2100
0.8330 0.3882 0.2155
0.8723 0.4007 0.2202
0.9142 0.4114 0.2205
0.9168 0.4117 0.2208
0.9196 0.4120 0.2210
0.2213 0.3065 0.1832
0.2213 0.3065 0.1833
0.2213 0.3066 0.1833
0.2213 0.3068 0.1835
0.2481 0.3075 0.1898
0.2711 0.3125 0.1845
0.2972 0.3180 0.1747
0.3276 0.3238 0.1636
0.3664 0.3271 0.1669
0.4069 0.3305 0.1706
0.4507 0.3335 0.1731
0.4917 0.3375 0.1770
0.5316 0.3423 0.1795
0.5720 0.3478 0.1819
0.6124 0.3542 0.1855
0.6530 0.3611 0.1880
0.6921 0.3694 0.1944
0.7310 0.3784 0.2014
0.7706 0.3877 0.2080
0.8107 0.3973 0.2139
0.8510 0.4070 0.2190
0.8897 0.4185 0.2232
0.9308 0.4285 0.2230
0.9350 0.4283 0.2216
0.9376 0.4287 0.2218
0.2525 0.3495 0.2081
0.2525 0.3495 0.2081
0.2525 0.3496 0.2081
0.2525 0.3497 0.2083
0.2666 0.3498 0.2126
0.2928 0.3534 0.2128
0.3170 0.3586 0.2055
0.3444 0.3644 0.1934
0.3758 0.3699 0.1830
0.4162 0.3727 0.1843
0.4581 0.3757 0.1858
0.5007 0.3781 0.1873
0.5433 0.3805 0.1893
0.5849 0.3842 0.1916
0.6263 0.3889 0.1935
0.6659 0.3949 0.1984
0.7056 0.4014 0.2026
0.7454 0.4083 0.2061
0.7851 0.4162 0.2120
0.8250 0.4244 0.2173
0.8652 0.4327 0.2219
0.9057 0.4412 0.2258
0.9488 0.4478 0.2252
0.9556 0.4468 0.2208
0.9580 0.4471 0.2210
0.2825 0.3935 0.2310
0.2825 0.3935 0.2310
0.2825 0.3936 0.2310
0.2824 0.3937 0.2311
0.2824 0.3939 0.2313
0.3145 0.3950 0.2380
0.3373 0.3999 0.2322
0.3632 0.4052 0.2226
0.3918 0.4109 0.2087
0.4245 0.4158 0.1990
0.4664 0.4182 0.1989
0.5071 0.4205 0.2004
0.5493 0.4226 0.2021
0.5931 0.4246 0.2047
0.6358 0.4276 0.2082
0.6771 0.4316 0.2102
0.7179 0.4362 0.2121
0.7574 0.4420 0.2170
0.7982 0.4479 0.2190
0.8390 0.4543 0.2210
0.8792 0.4613 0.2250
0.9196 0.4684 0.2282
0.9618 0.4744 0.2279
0.9728 0.4713 0.2198
0.9753 0.4715 0.2199
