EA 50 Cinematic Luts Pack/EA_Cinematic Lut (26).cube
TITLE "Generated by Resolve"
LUT_3D_SIZE 5
0 0.0295567 0.0577707
0.103151 0 0
0.433936 0 0
0.700236 0 0
0.903502 0 0
0 0.221546 0.099733
0.137469 0.164172 0.0308537
0.451438 0.143374 0
0.728191 0.139544 0
0.946624 0.158053 0
0 0.475944 0.06009
0.130251 0.428412 0.00825513
0.456321 0.422858 0
0.741558 0.43061 0
0.964553 0.45565 0
0 0.778408 0.0632944
0.133455 0.734722 0.0183108
0.461479 0.729519 0.000717174
0.741588 0.734462 0
0.955337 0.752819 0
0 1 0.0953841
0.151873 1 0.0429541
0.471687 0.999786 0.0187839
0.742535 0.995132 0
0.948165 1 0
0 0.0508888 0.181186
0.129717 0 0.0728161
0.457588 0 0.0382239
0.723644 0 0.000320439
0.927596 0 0
0 0.227893 0.171115
0.163577 0.170703 0.127092
0.457481 0.15465 0.0871901
0.753628 0.145068 0.0537728
0.9729 0.165164 0.0500038
0 0.483391 0.15407
0.17789 0.432853 0.148196
0.486137 0.433097 0.136934
0.770687 0.440085 0.0946212
0.992813 0.464149 0.0947738
0 0.790082 0.167041
0.160494 0.745541 0.137575
0.490837 0.738537 0.126268
0.768673 0.74197 0.110979
0.980529 0.758846 0.103944
0 1 0.201877
0.175372 1 0.159243
0.497429 1 0.139696
0.768002 1 0.121889
0.972641 1 0.112978
0 0.0564736 0.457069
0.135653 0 0.366888
0.472465 0 0.267796
0.738277 0 0.224872
0.942885 0 0.207401
0 0.238453 0.337423
0.0799115 0.160418 0.334142
0.477363 0.1505 0.293111
0.7729 0.140963 0.283406
0.993439 0.162341 0.282475
0 0.458106 0.340551
0.111513 0.418708 0.314336
0.511589 0.438956 0.347768
0.773877 0.448508 0.333471
1 0.462806 0.323903
0 0.77763 0.349294
0.136004 0.739086 0.332891
0.530831 0.735317 0.373785
0.789212 0.742916 0.369879
0.99736 0.756008 0.333654
0 1 0.390494
0.167346 1 0.363851
0.512139 1 0.361883
0.785626 0.997345 0.350942
0.988937 1 0.343603
0 0.0615244 0.760067
0.0767681 0 0.694255
0.472831 0 0.583658
0.750668 0 0.507164
0.955703 0 0.482429
0 0.245289 0.639338
0 0.139666 0.63537
0.466194 0.113878 0.621775
0.787717 0.131106 0.56463
1 0.155688 0.560525
0 0.479164 0.522103
0 0.399786 0.502846
0.405158 0.405921 0.583734
0.791257 0.441871 0.588586
1 0.45449 0.601053
0 0.749172 0.59324
0 0.680461 0.537728
0.441077 0.697826 0.568261
0.809567 0.743694 0.627329
0.993561 0.757443 0.617212
0 1 0.61384
0.0745251 0.985962 0.575189
0.472313 0.982193 0.593561
0.819165 0.987686 0.643702
1 1 0.649195
0 0.0691081 1
0.0103761 0 0.989319
0.443702 0 0.898405
0.758663 0 0.797909
0.972229 0 0.749264
0 0.25568 0.92604
0 0.149905 0.92047
0.401892 0.104662 0.920623
0.789624 0.114855 0.85893
1 0.149233 0.82649
0 0.50193 0.778988
0 0.412436 0.787488
0.29308 0.367224 0.843931
0.766766 0.391928 0.880827
1 0.444694 0.859205
0 0.766094 0.754086
0 0.690471 0.685145
0.220356 0.645945 0.700725
0.676219 0.683742 0.813275
1 0.746059 0.844495
0 1 0.838972
0 0.93373 0.772259
0.294011 0.890364 0.742077
0.708888 0.929656 0.794553
1 1 0.884184
