EA 50 Cinematic Luts Pack/EA_Cinematic Lut (9).cube
TITLE "Generated by Resolve"
LUT_3D_SIZE 33
0 0.00956741 0
0.0170138 0.0037995 0
0.0591745 0.00125124 0
0.0986954 0 0
0.136736 0 0
0.173999 0 0
0.210742 0 0
0.24712 0 0
0.283268 0 0
0.319356 0.000137331 0
0.355047 0.00120546 0
0.390478 0.00242618 0
0.42562 0.00370794 0
0.460456 0.0049897 0
0.494942 0.00621042 0
0.529046 0.00732433 0
0.562554 0.00805676 0
0.59588 0.00885023 0
0.629038 0.00967422 0
0.662058 0.0105592 0
0.695155 0.0117189 0
0.727947 0.0127413 0
0.760632 0.0138094 0
0.793179 0.0149233 0
0.825666 0.0160983 0
0.858152 0.0174716 0
0.890639 0.0189822 0
0.922911 0.0204166 0
0.955108 0.0218967 0
0.987289 0.0234684 0
1 0.0251774 0
1 0.0271305 0
1 0.029099 0
0 0.0269169 0
0.0223697 0.0258946 0.00679026
0.0607767 0.024918 0
0.100572 0.0232547 0
0.138933 0.0222782 0
0.176516 0.0218814 0
0.213611 0.0219577 0
0.250568 0.0226596 0
0.287037 0.0234989 0
0.323293 0.0246586 0
0.359335 0.0260471 0
0.395132 0.0275883 0
0.43064 0.0292058 0
0.466011 0.0309911 0
0.50074 0.0324407 0
0.534981 0.0336461 0
0.568627 0.0345159 0
0.601999 0.0353399 0
0.635294 0.036286 0
0.668559 0.0374151 0
0.701534 0.0384222 0
0.734417 0.0395209 0
0.767239 0.0407263 0
0.799969 0.0420081 0
0.832685 0.0434119 0
0.8654 0.0449378 0
0.897948 0.0464485 0
0.930495 0.0481117 0
0.963027 0.049836 0
0.995483 0.0516365 0
1 0.0536355 0
1 0.0558022 0
1 0.0580301 0
0.0138705 0.0461585 0.0100252
0.0344396 0.0461738 0.0244755
0.0614633 0.0475624 0.00875868
0.100252 0.0466163 0
0.139086 0.0457771 0
0.177111 0.0454871 0
0.214817 0.0459297 0
0.252018 0.0467079 0
0.288975 0.0478676 0
0.325704 0.0493629 0
0.362203 0.0511025 0
0.398459 0.0530098 0
0.434607 0.0551766 0
0.470222 0.057145 0
0.505394 0.0589609 0
0.540032 0.0605173 0
0.573999 0.0616617 0
0.607492 0.062562 0
0.641062 0.0637522 0
0.674342 0.0648508 0
0.7075 0.0660105 0
0.740536 0.0672465 0
0.773495 0.068574 0
0.806653 0.0702373 0
0.839582 0.0718242 0
0.872435 0.0734874 0
0.905211 0.0752117 0
0.937972 0.0770581 0
0.970871 0.0791485 0
1 0.081529 0
1 0.0838026 0
1 0.0861677 0
1 0.0887007 0
0.0273747 0.0655833 0.0258793
0.0463417 0.0659953 0.0398871
0.0665904 0.0686351 0.0315862
0.100267 0.0692607 0.0100404
0.138277 0.0691539 0
0.176852 0.0693828 0
0.214862 0.0699016 0
0.252537 0.0709087 0
0.289967 0.0723735 0
0.327199 0.0742199 0
0.364401 0.076524 0
0.401236 0.0788891 0
0.43772 0.0812848 0
0.473838 0.08365 0
0.509483 0.0858625 0
0.54461 0.0878309 0
0.579278 0.0896162 0
0.613046 0.0907149 0
0.646586 0.0918288 0
0.680034 0.0930495 0
0.713451 0.0944228 0
0.746792 0.0959182 0
0.78027 0.0977035 0
0.813428 0.0993515 0
0.846616 0.101152 0
0.87982 0.103136 0
0.913054 0.105287 0
0.946242 0.10753 0
0.979583 0.110048 0
1 0.112596 0
1 0.115404 0
1 0.118379 0
1 0.121431 0
0.0396887 0.0849622 0.0407874
0.057969 0.0856641 0.0545052
0.0764019 0.0884718 0.0508125
0.102449 0.0912947 0.0340581
0.138491 0.0922408 0.0125734
0.176165 0.0930495 0
0.214405 0.0940108 0
0.252583 0.0954147 0
0.290547 0.0972457 0
0.328466 0.0995956 0
0.366079 0.102174 0
0.403418 0.104921 0
0.440497 0.107805 0
0.477211 0.110658 0
0.51342 0.113359 0
0.549249 0.115938 0
0.584253 0.117968 0
0.618494 0.119463 0
0.652369 0.120836 0
0.686107 0.122286 0
0.719753 0.123827 0
0.753628 0.125811 0
0.787305 0.127749 0
0.82092 0.129809 0
0.854459 0.13193 0
0.887999 0.134203 0
0.92192 0.136995 0
0.955688 0.139788 0
0.989456 0.142702 0
1 0.145678 0
1 0.148836 0
1 0.152239 0
1 0.15613 0
0.0515602 0.104417 0.0552071
0.0695354 0.105318 0.0687419
0.087129 0.108354 0.0680858
0.10898 0.112108 0.0560616
0.140276 0.114656 0.037171
0.176593 0.116457 0.0163577
0.214252 0.118242 0
0.252583 0.120211 0
0.291218 0.122713 0
0.329564 0.125399 0
0.367727 0.128389 0
0.405631 0.131579 0
0.443275 0.13489 0
0.480735 0.138399 0
0.517693 0.141741 0
0.553994 0.144701 0
0.589548 0.147204 0
0.624292 0.149126 0
0.658534 0.150805 0
0.692943 0.15285 0
0.727092 0.154833 0
0.761105 0.156878 0
0.795132 0.159121 0
0.829267 0.161639 0
0.863462 0.16437 0
0.897871 0.167468 0
0.931975 0.170397 0
0.96614 0.173541 0
1 0.176928 0
1 0.180499 0
1 0.184146 0
1 0.188174 0
1 0.19205 0
0.0633097 0.124025 0.0694438
0.0813764 0.125353 0.0830854
0.0984512 0.128481 0.0844129
0.11873 0.132403 0.0758679
0.143481 0.136873 0.0603952
0.178637 0.13959 0.0416876
0.215488 0.142504 0.0219577
0.253544 0.145495 0.00238041
0.292103 0.14847 0
0.330846 0.15172 0
0.369604 0.155276 0
0.408209 0.159045 0
0.446616 0.163027 0
0.484611 0.166979 0
0.522118 0.170748 0
0.559136 0.174334 0
0.595468 0.177523 0
0.6309 0.180056 0
0.665721 0.182254 0
0.70045 0.184527 0
0.735149 0.187015 0
0.769848 0.189685 0
0.80444 0.192416 0
0.838987 0.195285 0
0.873899 0.198688 0
0.908629 0.20206 0
0.943358 0.20557 0
0.978012 0.20914 0
1 0.212818 0
1 0.216938 0
1 0.220981 0
1 0.225071 0
1 0.229221 0
0.0752575 0.144045 0.0838026
0.0932021 0.145449 0.0972915
0.11017 0.148821 0.100191
0.129564 0.153079 0.0945144
0.152407 0.158053 0.0825208
0.18204 0.162844 0.0661479
0.218372 0.166781 0.0483864
0.255726 0.170718 0.0297246
0.294087 0.174716 0.0111543
0.332998 0.178744 0
0.372137 0.18294 0
0.411536 0.187579 0
0.450568 0.192157 0
0.489265 0.196704 0
0.527459 0.201068 0
0.565103 0.205203 0
0.602289 0.209155 0
0.638758 0.212665 0
0.674189 0.215366 0
0.709361 0.218036 0
0.744503 0.220874 0
0.77969 0.223987 0
0.815106 0.227481 0
0.850385 0.231022 0
0.885451 0.234516 0
0.920501 0.238148 0
0.955581 0.241978 0
0.990646 0.24593 0
1 0.250187 0
1 0.254337 0
1 0.258564 0
1 0.262943 0
1 0.26743 0
0.0873884 0.164385 0.0982681
0.105455 0.166049 0.111864
0.122454 0.16965 0.115969
0.141314 0.174258 0.112581
0.163485 0.179889 0.1037
0.188602 0.18616 0.0902724
0.222522 0.191241 0.0741894
0.259571 0.19617 0.0572671
0.297627 0.201282 0.039826
0.336599 0.2065 0.0225071
0.376226 0.211856 0.00601205
0.415808 0.217029 0
0.455406 0.222293 0
0.494881 0.227649 0
0.53402 0.232929 0
0.572625 0.237964 0
0.610559 0.242588 0
0.647532 0.246509 0
0.68365 0.249821 0
0.719524 0.253117 0
0.755245 0.256474 0
0.791028 0.26009 0
0.826734 0.263828 0
0.862303 0.267613 0
0.897826 0.271504 0
0.933227 0.275441 0
0.968582 0.279484 0
1 0.283986 0
1 0.288334 0
1 0.29276 0
1 0.297246 0
1 0.301808 0
1 0.306752 0
0.0999924 0.18529 0.113146
0.118349 0.187366 0.126986
0.135561 0.191318 0.132204
0.15436 0.196445 0.130892
0.175631 0.202243 0.124178
0.199924 0.209033 0.113603
0.228397 0.216358 0.0999008
0.26511 0.222324 0.0848249
0.30309 0.228519 0.0690776
0.342153 0.235065 0.0531319
0.381781 0.241489 0.0370336
0.421866 0.247852 0.0214237
0.462013 0.254063 0.00642405
0.502007 0.260151 0
0.542062 0.266407 0
0.581384 0.27216 0
0.619989 0.277424 0
0.657633 0.281971 0
0.694255 0.28571 0
0.730617 0.289433 0
0.76704 0.293431 0
0.803128 0.297292 0
0.839063 0.301183 0
0.874922 0.305196 0
0.910765 0.309377 0
0.946746 0.313817 0
0.982651 0.318364 0
1 0.322789 0
1 0.327321 0
1 0.332006 0
1 0.336782 0
1 0.341833 0
1 0.346853 0
0.113329 0.207019 0.128679
0.132189 0.209674 0.143008
0.149844 0.214145 0.14934
0.168505 0.219593 0.149569
0.18938 0.225818 0.144961
0.213031 0.233005 0.136706
0.239521 0.241306 0.125689
0.272663 0.249714 0.112886
0.310842 0.25713 0.0991073
0.349813 0.264607 0.0846265
0.389441 0.272114 0.0697032
0.429648 0.279606 0.0546883
0.470237 0.286961 0.0399939
0.511086 0.294331 0.0259556
0.551293 0.301045 0.0119173
0.591058 0.307362 0
0.630182 0.313176 0
0.668406 0.318303 0
0.705608 0.322606 0
0.742565 0.326863 0
0.779126 0.330953 0
0.815625 0.335164 0
0.852033 0.339467 0
0.888273 0.343786 0
0.924544 0.348318 0
0.960845 0.353048 0
0.996918 0.357702 0
1 0.362448 0
1 0.367224 0
1 0.372061 0
1 0.377371 0
1 0.382422 0
1 0.387533 0
0.128023 0.230167 0.145525
0.147066 0.233082 0.160006
0.165057 0.237934 0.167193
0.183993 0.243977 0.169024
0.204959 0.250919 0.166552
0.228321 0.258717 0.16054
0.254459 0.26775 0.152117
0.283009 0.277607 0.141222
0.319936 0.286397 0.129137
0.359274 0.295125 0.116564
0.399145 0.303807 0.103258
0.439399 0.312306 0.0893721
0.480278 0.320867 0.0754864
0.520989 0.328847 0.0613413
0.561547 0.33637 0.0472725
0.601663 0.343313 0.0332494
0.641077 0.349615 0.0191501
0.679988 0.355505 0.00509651
0.717617 0.360265 0
0.754849 0.364797 0
0.791852 0.369284 0
0.828702 0.373816 0
0.865476 0.378439 0
0.902434 0.383444 0
0.938979 0.388174 0
0.975372 0.392935 0
1 0.397772 0
1 0.402716 0
1 0.407828 0
1 0.413169 0
1 0.41828 0
1 0.423453 0
1 0.428702 0
0.143938 0.254597 0.163531
0.163577 0.258152 0.178576
0.182055 0.263523 0.186694
0.201175 0.270008 0.189792
0.222309 0.277638 0.189181
0.245655 0.286152 0.185306
0.271321 0.295521 0.178775
0.299275 0.305821 0.170092
0.330922 0.316594 0.159625
0.369909 0.326177 0.148425
0.410269 0.336141 0.136995
0.450736 0.345693 0.124575
0.491341 0.354879 0.111421
0.532021 0.363638 0.0977646
0.572656 0.371939 0.0839094
0.612985 0.379629 0.0699016
0.653025 0.386892 0.0559854
0.691859 0.39292 0.0413977
0.729809 0.398123 0.0264134
0.767483 0.403174 0.0116579
0.804974 0.408164 0
0.842252 0.413108 0
0.879683 0.418372 0
0.91664 0.423316 0
0.95349 0.428351 0
0.990234 0.433417 0
1 0.438483 0
1 0.443641 0
1 0.449104 0
1 0.454337 0
1 0.459617 0
1 0.464927 0
1 0.470253 0
0.161349 0.280568 0.183001
0.18146 0.284657 0.198505
0.200427 0.29073 0.20763
0.220279 0.297917 0.212131
0.241352 0.305898 0.212894
0.264302 0.314611 0.210468
0.289525 0.3243 0.205615
0.317052 0.334997 0.198856
0.346639 0.346578 0.19028
0.381979 0.357977 0.180545
0.421988 0.368475 0.170169
0.462608 0.378897 0.159152
0.50338 0.389029 0.147311
0.544121 0.398657 0.134676
0.58471 0.407691 0.121309
0.62536 0.416373 0.10782
0.665187 0.423941 0.0935836
0.704219 0.430549 0.0788434
0.742489 0.436332 0.0637675
0.780514 0.441886 0.0489662
0.818677 0.447639 0.0347295
0.856382 0.453071 0.0204623
0.893889 0.458396 0.00639353
0.931151 0.463661 0
0.968261 0.468925 0
1 0.474205 0
1 0.479866 0
1 0.485176 0
1 0.490486 0
1 0.495811 0
1 0.501183 0
1 0.506584 0
1 0.512322 0
0.180484 0.308324 0.20415
0.200916 0.312764 0.219944
0.220478 0.319432 0.229953
0.240406 0.326863 0.235279
0.261463 0.335119 0.237201
0.284215 0.344152 0.236164
0.30898 0.354025 0.232715
0.33611 0.365057 0.227588
0.365286 0.377081 0.22092
0.396307 0.389776 0.212589
0.434607 0.401129 0.203204
0.47512 0.412192 0.193317
0.516045 0.423117 0.182742
0.557122 0.433799 0.171481
0.597879 0.443748 0.159213
0.638117 0.452766 0.145876
0.677836 0.460883 0.131792
0.716869 0.467979 0.117021
0.755489 0.474525 0.102083
0.794202 0.48101 0.0875563
0.832395 0.487037 0.0729839
0.870359 0.492836 0.0585946
0.908141 0.498527 0.0444343
0.945754 0.504158 0.0304723
0.983139 0.509712 0.0166476
1 0.515557 0.00334173
1 0.521019 0
1 0.526497 0
1 0.531945 0
1 0.537377 0
1 0.542809 0
1 0.548577 0
1 0.553964 0
0.200778 0.337285 0.226429
0.22179 0.342336 0.242771
0.241321 0.348959 0.252995
0.261372 0.356619 0.259037
0.282445 0.365164 0.262013
0.305119 0.374533 0.262257
0.329732 0.384817 0.260288
0.356374 0.396017 0.256504
0.384848 0.407965 0.251072
0.415167 0.420798 0.244221
0.448386 0.433982 0.236088
0.488319 0.44567 0.227192
0.529335 0.457343 0.217838
0.570413 0.46862 0.207599
0.611063 0.479103 0.19617
0.651301 0.488807 0.183703
0.690913 0.49749 0.170092
0.729946 0.505226 0.155612
0.769116 0.51284 0.141283
0.807767 0.519722 0.126574
0.84622 0.526268 0.11194
0.884459 0.532555 0.0974441
0.922469 0.538628 0.0831769
0.960525 0.544823 0.0693065
0.99823 0.550744 0.0554665
1 0.556481 0.0416724
1 0.562127 0.0280156
1 0.567727 0.0144656
1 0.573251 0.000991836
1 0.57908 0
1 0.584573 0
1 0.590005 0
1 0.595407 0
0.222202 0.367407 0.24979
0.243259 0.372519 0.266163
0.263111 0.379477 0.276905
0.28333 0.387381 0.28365
0.304372 0.396124 0.287449
0.327214 0.405982 0.289036
0.351431 0.416342 0.288136
0.377478 0.427543 0.285389
0.405371 0.439551 0.281117
0.434989 0.452399 0.275547
0.466453 0.466056 0.268757
0.50251 0.479438 0.26099
0.542947 0.491402 0.252323
0.58378 0.503014 0.242863
0.624399 0.514061 0.23238
0.664515 0.524239 0.220661
0.70425 0.533669 0.207996
0.743664 0.542458 0.194491
0.782666 0.550469 0.180301
0.821454 0.557992 0.165835
0.860044 0.565103 0.151293
0.898451 0.571893 0.136767
0.936889 0.578637 0.122576
0.97499 0.585046 0.108385
1 0.591134 0.0942855
1 0.59707 0.080293
1 0.602869 0.0664225
1 0.608591 0.0526894
1 0.614527 0.0393225
1 0.620127 0.025803
1 0.625574 0.0122683
1 0.630976 0
1 0.636332 0
0.244388 0.398337 0.273899
0.265614 0.403647 0.29041
0.285664 0.410773 0.301518
0.306065 0.418952 0.308919
0.327489 0.428229 0.313832
0.349828 0.437888 0.315953
0.373709 0.44831 0.315969
0.399313 0.459541 0.314229
0.426673 0.471595 0.311009
0.455787 0.484474 0.306584
0.48658 0.498238 0.301076
0.518593 0.512306 0.294057
0.556664 0.525017 0.286015
0.597116 0.53698 0.277272
0.637583 0.548379 0.267567
0.677821 0.559197 0.256855
0.717723 0.569375 0.245167
0.757122 0.578729 0.232456
0.796262 0.587488 0.218982
0.835157 0.595682 0.20499
0.873823 0.603387 0.190677
0.912673 0.611032 0.176562
0.950927 0.61796 0.162051
0.988983 0.624582 0.147601
1 0.630961 0.133242
1 0.637125 0.119051
1 0.64329 0.105104
1 0.649241 0.0912184
1 0.654917 0.0772869
1 0.660517 0.0634623
1 0.665995 0.0496834
1 0.671336 0.0359197
1 0.676829 0.0224308
0.267399 0.430106 0.298772
0.288853 0.43566 0.315511
0.309026 0.442924 0.326894
0.329793 0.451514 0.335042
0.350881 0.460594 0.340261
0.373098 0.47039 0.343175
0.396674 0.480842 0.34403
0.42179 0.492027 0.343099
0.448875 0.504311 0.341054
0.477226 0.517006 0.337392
0.507012 0.530388 0.332601
0.538231 0.544228 0.326452
0.57113 0.558206 0.319081
0.610452 0.570443 0.310826
0.650935 0.582467 0.302098
0.691112 0.593713 0.29221
0.731014 0.604395 0.281361
0.77052 0.614374 0.269505
0.809735 0.623774 0.256886
0.848783 0.632685 0.24361
0.887739 0.641215 0.229953
0.926238 0.649012 0.215717
0.964508 0.656367 0.201266
1 0.663325 0.186694
1 0.669978 0.172122
1 0.676524 0.157794
1 0.682857 0.143572
1 0.688792 0.12929
1 0.694514 0.115007
1 0.700069 0.100801
1 0.705516 0.0866865
1 0.71107 0.0728618
1 0.716381 0.0589303
0.29102 0.462547 0.324254
0.313008 0.468635 0.341482
0.33341 0.476112 0.353246
0.353872 0.484443 0.361425
0.374838 0.493523 0.367086
0.396826 0.503288 0.370565
0.420081 0.513726 0.372091
0.445075 0.525185 0.372244
0.471199 0.53695 0.37052
0.498787 0.549371 0.367498
0.52784 0.562448 0.363348
0.558068 0.576028 0.357992
0.589609 0.590066 0.351492
0.624567 0.603906 0.344121
0.664103 0.61593 0.335683
0.704082 0.627543 0.326497
0.743999 0.638682 0.316472
0.783658 0.649302 0.305562
0.823011 0.659297 0.293767
0.862272 0.66894 0.281407
0.900923 0.677714 0.268055
0.939345 0.685954 0.254124
0.977584 0.693736 0.239872
1 0.701091 0.225345
1 0.70837 0.211032
1 0.714931 0.196277
1 0.721218 0.181552
1 0.727291 0.166903
1 0.73312 0.152346
1 0.738811 0.137896
1 0.744396 0.123568
1 0.749615 0.109087
1 0.754742 0.0947127
0.315557 0.495903 0.350607
0.337407 0.501884 0.367697
0.357855 0.509407 0.379629
0.378378 0.5178 0.388144
0.399283 0.526925 0.394263
0.421042 0.536645 0.398199
0.444266 0.547311 0.400595
0.468406 0.558251 0.400946
0.493904 0.569802 0.399802
0.52079 0.581979 0.39736
0.54905 0.594751 0.393759
0.578897 0.608377 0.389425
0.609476 0.62211 0.383581
0.641123 0.636149 0.376608
0.677501 0.649042 0.368612
0.716991 0.660899 0.359976
0.75671 0.672343 0.350591
0.796643 0.68365 0.340719
0.835981 0.694087 0.329656
0.874937 0.703899 0.317678
0.913588 0.713146 0.304952
0.951919 0.721813 0.291539
0.990036 0.729961 0.277562
1 0.737926 0.263462
1 0.74519 0.248829
1 0.752026 0.233997
1 0.75845 0.219028
1 0.764569 0.203998
1 0.770535 0.189136
1 0.776425 0.174441
1 0.781826 0.159594
1 0.786969 0.144686
1 0.791943 0.129793
0.340322 0.529519 0.377157
0.362188 0.535531 0.394263
0.382666 0.543084 0.406332
0.403037 0.551492 0.415106
0.424186 0.560815 0.421759
0.445853 0.570565 0.42623
0.468376 0.580758 0.428717
0.492027 0.591501 0.429541
0.516915 0.602808 0.42887
0.543069 0.614664 0.426871
0.570855 0.627405 0.424048
0.599603 0.640421 0.419944
0.629328 0.653864 0.414725
0.660136 0.667552 0.408331
0.691798 0.681468 0.400839
0.729778 0.693645 0.392554
0.769421 0.705623 0.384009
0.808804 0.716838 0.37435
0.848005 0.72755 0.363882
0.886915 0.737728 0.352575
0.92546 0.747311 0.340398
0.96376 0.75639 0.32755
1 0.765209 0.314336
1 0.773129 0.300145
1 0.780591 0.285557
1 0.787671 0.27071
1 0.794339 0.25565
1 0.800931 0.240742
1 0.806821 0.225406
1 0.812451 0.210056
1 0.817868 0.194781
1 0.823041 0.179492
1 0.828 0.164324
0.365209 0.563302 0.40383
0.387137 0.56939 0.420966
0.407645 0.576944 0.433143
0.428031 0.58558 0.442374
0.449073 0.594659 0.449119
0.470344 0.604166 0.453758
0.4925 0.614191 0.456596
0.515694 0.62472 0.457816
0.540002 0.635767 0.457557
0.565835 0.647669 0.456321
0.592493 0.659724 0.453544
0.62034 0.672267 0.449729
0.649317 0.685283 0.444968
0.679164 0.698665 0.439124
0.710277 0.712566 0.432502
0.74313 0.725978 0.424598
0.781353 0.737713 0.415946
0.820325 0.74905 0.406699
0.859312 0.759976 0.396735
0.898085 0.770397 0.385977
0.936843 0.780575 0.37467
0.974945 0.789868 0.362249
1 0.798688 0.349172
1 0.806943 0.335454
1 0.814649 0.321065
1 0.821866 0.306233
1 0.828977 0.291402
1 0.835431 0.276066
1 0.841489 0.260563
1 0.847135 0.244892
1 0.852476 0.22916
1 0.857633 0.213489
1 0.862806 0.198077
0.390219 0.597223 0.430579
0.412222 0.603403 0.447807
0.432914 0.611124 0.460243
0.452995 0.619471 0.469368
0.473716 0.628305 0.476158
0.494743 0.637659 0.481041
0.516503 0.647456 0.484138
0.539361 0.657893 0.485801
0.563256 0.668803 0.48603
0.588083 0.680034 0.484779
0.614008 0.691722 0.482338
0.641016 0.703838 0.478813
0.669078 0.716381 0.474311
0.698268 0.729595 0.469154
0.728374 0.742931 0.462791
0.759121 0.75639 0.455329
0.793194 0.768963 0.44686
0.831235 0.78027 0.437781
0.869795 0.791226 0.428138
0.908614 0.80209 0.418097
0.946944 0.812222 0.407034
0.984924 0.821759 0.395117
1 0.830671 0.382345
1 0.839155 0.368963
1 0.84715 0.355016
1 0.854902 0.340703
1 0.86183 0.325582
1 0.86833 0.31014
1 0.874495 0.294499
1 0.880293 0.278676
1 0.886 0.262959
1 0.891035 0.24683
1 0.895827 0.230701
0.415183 0.631128 0.457282
0.437308 0.63743 0.474601
0.457664 0.6448 0.486778
0.477577 0.652995 0.495933
0.498054 0.661631 0.502785
0.518776 0.670787 0.50782
0.540337 0.680537 0.511299
0.562753 0.690715 0.513237
0.585855 0.701106 0.513497
0.609964 0.71191 0.512444
0.635157 0.723201 0.510262
0.661387 0.734936 0.507012
0.68893 0.747356 0.503105
0.717098 0.759793 0.497917
0.745983 0.772564 0.491783
0.775906 0.785595 0.484703
0.806455 0.798795 0.476661
0.842008 0.810742 0.467918
0.879881 0.821744 0.458518
0.917937 0.832273 0.448417
0.955947 0.842451 0.437675
0.993759 0.852171 0.426215
1 0.861357 0.413947
1 0.870115 0.401053
1 0.878294 0.387411
1 0.885954 0.373175
1 0.893126 0.358297
1 0.899763 0.342901
1 0.905943 0.327138
1 0.912032 0.311391
1 0.91754 0.295216
1 0.92256 0.278767
1 0.927123 0.262058
0.440055 0.664958 0.483848
0.461769 0.670848 0.500755
0.482002 0.678096 0.512886
0.501778 0.686152 0.522057
0.522042 0.694621 0.528984
0.542687 0.703792 0.534356
0.563653 0.713069 0.537774
0.585412 0.722774 0.539696
0.607996 0.73286 0.540185
0.631434 0.743282 0.539315
0.655924 0.754177 0.537346
0.681544 0.765637 0.534478
0.707942 0.777295 0.530434
0.735256 0.789288 0.525505
0.763409 0.801556 0.519631
0.792172 0.814038 0.512734
0.822019 0.826947 0.50518
0.852796 0.839857 0.496681
0.889067 0.850858 0.487297
0.926406 0.861311 0.477317
0.963928 0.871366 0.466728
1 0.881102 0.455543
1 0.890623 0.44387
1 0.899519 0.431342
1 0.907668 0.417868
1 0.915389 0.4038
1 0.922667 0.389227
1 0.929473 0.373999
1 0.935927 0.35845
1 0.941543 0.342107
1 0.946746 0.325444
1 0.951598 0.308583
1 0.956008 0.291463
0.464256 0.698131 0.509728
0.485786 0.703853 0.526452
0.505776 0.710857 0.538399
0.525338 0.718685 0.547509
0.545632 0.72723 0.554742
0.565682 0.735866 0.559869
0.586191 0.744823 0.563317
0.607385 0.754116 0.56527
0.629389 0.763821 0.565866
0.652308 0.773968 0.565255
0.676249 0.784619 0.563607
0.700816 0.795331 0.560586
0.726299 0.806424 0.556603
0.752758 0.817914 0.551781
0.780087 0.82974 0.546151
0.808316 0.84213 0.539895
0.837034 0.854276 0.532296
0.866392 0.866651 0.523873
0.897826 0.878645 0.514626
0.934127 0.889128 0.504799
0.971145 0.899245 0.494469
1 0.909026 0.483574
1 0.918273 0.471901
1 0.927138 0.459602
1 0.935485 0.446525
1 0.943069 0.432517
1 0.950271 0.41796
1 0.95697 0.402838
1 0.963104 0.386999
1 0.968612 0.370504
1 0.973419 0.353353
1 0.97763 0.335698
1 0.981613 0.317937
0.487785 0.730663 0.534936
0.509178 0.736248 0.551492
0.529274 0.743343 0.563607
0.548516 0.750866 0.572534
0.568109 0.75874 0.579293
0.587823 0.767117 0.584451
0.60798 0.775799 0.587976
0.628672 0.784756 0.589975
0.650355 0.794324 0.590875
