EA 50 Cinematic Luts Pack/EA_Cinematic Lut (30).cube
TITLE "A very powerful colorization that emphasizes the shadows and midtones of the shot and cools down the whole look."
LUT_3D_SIZE 9
0.0000 0.0000 0.0000
0.0221 0.0000 0.0003
0.0872 0.0000 0.0012
0.1834 0.0000 0.0028
0.3038 0.0000 0.0053
0.4696 0.0000 0.0090
0.6928 0.0000 0.0142
0.8936 0.0000 0.0201
0.9997 0.0000 0.0263
0.0000 0.0214 0.0001
0.0222 0.0214 0.0000
0.0881 0.0213 0.0000
0.1852 0.0205 0.0000
0.3076 0.0194 0.0000
0.4785 0.0179 0.0000
0.7051 0.0159 0.0000
0.9039 0.0134 0.0000
1.0000 0.0206 0.0248
0.0000 0.0901 0.0003
0.0218 0.0901 0.0000
0.0870 0.0899 0.0000
0.1829 0.0896 0.0000
0.3053 0.0887 0.0000
0.4770 0.0873 0.0000
0.7032 0.0857 0.0000
0.9023 0.0837 0.0000
1.0000 0.0896 0.0245
0.0000 0.2115 0.0006
0.0215 0.2117 0.0000
0.0864 0.2118 0.0000
0.1826 0.2118 0.0000
0.3043 0.2119 0.0000
0.4746 0.2111 0.0000
0.7006 0.2099 0.0000
0.9012 0.2075 0.0000
1.0000 0.2124 0.0266
0.0000 0.4318 0.0012
0.0213 0.4321 0.0000
0.0861 0.4323 0.0000
0.1825 0.4324 0.0000
0.3046 0.4324 0.0000
0.4730 0.4326 0.0000
0.6980 0.4318 0.0000
0.8989 0.4302 0.0000
1.0000 0.4334 0.0269
0.0000 0.6332 0.0019
0.0210 0.6334 0.0000
0.0860 0.6336 0.0000
0.1821 0.6337 0.0000
0.3043 0.6338 0.0000
0.4733 0.6337 0.0000
0.6966 0.6337 0.0000
0.8962 0.6329 0.0000
0.9998 0.6325 0.0203
0.0000 0.8026 0.0029
0.0206 0.8028 0.0000
0.0856 0.8028 0.0000
0.1815 0.8028 0.0000
0.3034 0.8026 0.0000
0.4721 0.8022 0.0000
0.6954 0.8016 0.0000
0.8945 0.8015 0.0000
0.9998 0.8009 0.0000
0.0000 0.9308 0.0042
0.0199 0.9310 0.0000
0.0850 0.9310 0.0000
0.1807 0.9309 0.0000
0.3021 0.9309 0.0000
0.4698 0.9307 0.0000
0.6937 0.9304 0.0000
0.8943 0.9305 0.0000
0.9997 0.9307 0.0000
0.0000 0.9998 0.0059
0.0190 0.9998 0.0000
0.0844 0.9998 0.0000
0.1801 0.9999 0.0000
0.3014 0.9999 0.0000
0.4691 0.9999 0.0000
0.6930 0.9998 0.0000
0.8945 0.9999 0.0000
1.0000 0.9999 0.0027
0.0000 0.0000 0.0512
0.0221 0.0000 0.0513
0.0874 0.0000 0.0519
0.1834 0.0000 0.0530
0.3038 0.0000 0.0541
0.4697 0.0000 0.0559
0.6928 0.0000 0.0586
0.8936 0.0000 0.0619
0.9997 0.0000 0.0656
0.0000 0.0214 0.0514
0.0223 0.0213 0.0530
0.1009 0.0170 0.0479
0.2192 0.0071 0.0342
0.3525 0.0000 0.0214
0.5317 0.0000 0.0207
0.7379 0.0006 0.0311
0.9134 0.0052 0.0424
1.0000 0.0206 0.0652
0.0000 0.0901 0.0511
0.0174 0.0916 0.0467
0.0875 0.0901 0.0465
0.1915 0.0869 0.0378
0.3227 0.0815 0.0299
0.5047 0.0772 0.0272
0.7278 0.0749 0.0302
0.9165 0.0721 0.0314
1.0000 0.0896 0.0650
0.0000 0.2115 0.0511
0.0152 0.2139 0.0440
0.0837 0.2133 0.0441
0.1831 0.2121 0.0457
0.3079 0.2109 0.0420
0.4823 0.2086 0.0411
0.7109 0.2056 0.0396
0.9116 0.1996 0.0309
1.0000 0.2125 0.0659
0.0000 0.4318 0.0516
0.0173 0.4337 0.0473
0.0835 0.4338 0.0461
0.1818 0.4331 0.0483
0.3049 0.4326 0.0479
0.4760 0.4318 0.0433
0.7058 0.4286 0.0354
0.9109 0.4204 0.0082
1.0000 0.4333 0.0668
0.0000 0.6332 0.0521
0.0148 0.6348 0.0444
0.0803 0.6352 0.0410
0.1790 0.6349 0.0422
0.3029 0.6347 0.0409
0.4741 0.6342 0.0336
0.7045 0.6329 0.0034
0.9046 0.6301 0.0000
0.9998 0.6325 0.0625
0.0000 0.8026 0.0529
0.0000 0.8070 0.0056
0.0633 0.8070 0.0000
0.1666 0.8064 0.0000
0.2947 0.8055 0.0000
0.4676 0.8041 0.0000
0.6969 0.8025 0.0000
0.8986 0.8011 0.0000
0.9999 0.8008 0.0489
0.0000 0.9308 0.0537
0.0000 0.9332 0.0070
0.0619 0.9333 0.0000
0.1643 0.9330 0.0000
0.2910 0.9327 0.0000
0.4613 0.9321 0.0000
0.6905 0.9313 0.0000
0.8951 0.9310 0.0000
1.0000 0.9307 0.0406
0.0000 0.9998 0.0545
0.0137 1.0000 0.0439
0.0805 1.0000 0.0438
0.1776 1.0000 0.0448
0.3000 1.0000 0.0463
0.4678 1.0000 0.0467
0.6922 0.9998 0.0458
0.8941 0.9999 0.0405
1.0000 0.9999 0.0528
0.0000 0.0000 0.1269
0.0222 0.0000 0.1272
0.0875 0.0000 0.1272
0.1834 0.0000 0.1275
0.3039 0.0000 0.1282
0.4697 0.0000 0.1297
0.6931 0.0000 0.1314
0.8938 0.0000 0.1335
0.9998 0.0000 0.1362
0.0000 0.0214 0.1271
0.0191 0.0182 0.1633
0.0994 0.0157 0.1409
0.2153 0.0066 0.1359
0.3482 0.0000 0.1260
0.5283 0.0000 0.1197
0.7366 0.0008 0.1199
0.9135 0.0049 0.1234
1.0000 0.0207 0.1360
0.0000 0.0900 0.1270
0.0163 0.0913 0.1289
0.0873 0.0894 0.1304
0.1873 0.0874 0.1297
0.3162 0.0835 0.1264
0.4927 0.0809 0.1254
0.7137 0.0806 0.1270
0.9062 0.0801 0.1289
1.0000 0.0896 0.1365
0.0000 0.2116 0.1264
0.0147 0.2139 0.1241
0.0861 0.2118 0.1291
0.1832 0.2115 0.1291
0.3084 0.2102 0.1257
0.4835 0.2077 0.1242
0.7124 0.2046 0.1226
0.9128 0.1983 0.1178
1.0000 0.2126 0.1365
0.0000 0.4319 0.1265
0.0168 0.4340 0.1243
0.0863 0.4320 0.1297
0.1820 0.4327 0.1282
0.3051 0.4321 0.1290
0.4766 0.4311 0.1258
0.7069 0.4276 0.1206
0.9117 0.4191 0.1084
1.0000 0.4332 0.1382
0.0000 0.6333 0.1269
0.0138 0.6350 0.1220
0.0837 0.6341 0.1273
0.1788 0.6349 0.1238
0.3030 0.6346 0.1232
0.4743 0.6340 0.1206
0.7049 0.6323 0.1087
0.9108 0.6274 0.0855
0.9998 0.6325 0.1342
0.0000 0.8026 0.1273
0.0000 0.8069 0.1050
0.0653 0.8064 0.1080
0.1643 0.8068 0.1014
0.2928 0.8060 0.0996
0.4658 0.8047 0.0948
0.6979 0.8028 0.0854
0.9067 0.8002 0.0410
0.9999 0.8008 0.1253
0.0000 0.9308 0.1277
0.0000 0.9331 0.1045
0.0106 0.9376 0.0449
0.1241 0.9376 0.0296
0.2635 0.9368 0.0221
0.4381 0.9357 0.0077
0.6813 0.9338 0.0000
0.8973 0.9321 0.0000
1.0000 0.9307 0.1200
0.0000 0.9998 0.1283
0.0138 1.0000 0.1218
0.0805 1.0000 0.1220
0.1777 1.0000 0.1223
0.3001 1.0000 0.1232
0.4679 1.0000 0.1238
0.6922 0.9999 0.1233
0.8941 1.0000 0.1201
1.0000 0.9999 0.1277
0.0000 0.0000 0.2349
0.0221 0.0000 0.2351
0.0874 0.0000 0.2355
0.1833 0.0000 0.2347
0.3040 0.0000 0.2343
0.4701 0.0000 0.2359
0.6933 0.0000 0.2379
0.8938 0.0000 0.2411
0.9998 0.0000 0.2436
0.0000 0.0215 0.2352
0.0000 0.0008 0.4611
0.1087 0.0032 0.3278
0.2082 0.0069 0.2672
0.3412 0.0000 0.2552
0.5221 0.0000 0.2434
0.7335 0.0014 0.2374
0.9130 0.0049 0.2366
1.0000 0.0208 0.2432
0.0000 0.0899 0.2344
0.0070 0.0909 0.2606
0.0857 0.0877 0.2562
0.1893 0.0856 0.2446
0.3173 0.0819 0.2433
0.4931 0.0800 0.2398
0.7145 0.0799 0.2383
0.9072 0.0790 0.2385
1.0000 0.0898 0.2429
0.0000 0.2116 0.2342
0.0142 0.2135 0.2365
0.0839 0.2125 0.2373
0.1833 0.2109 0.2418
0.3033 0.2115 0.2445
0.4736 0.2107 0.2438
0.6998 0.2093 0.2439
0.9031 0.2053 0.2427
1.0000 0.2127 0.2436
0.0000 0.4320 0.2345
0.0166 0.4339 0.2336
0.0845 0.4330 0.2360
0.1857 0.4299 0.2446
0.3054 0.4309 0.2452
0.4782 0.4297 0.2399
0.7096 0.4255 0.2348
0.9137 0.4160 0.2252
1.0000 0.4333 0.2441
0.0000 0.6334 0.2344
0.0129 0.6353 0.2309
0.0818 0.6347 0.2339
0.1833 0.6331 0.2427
0.3031 0.6341 0.2380
0.4746 0.6334 0.2376
0.7056 0.6315 0.2270
0.9117 0.6262 0.2089
0.9999 0.6325 0.2408
0.0000 0.8027 0.2345
0.0000 0.8067 0.2182
0.0632 0.8067 0.2191
0.1696 0.8053 0.2265
0.2923 0.8058 0.2178
0.4658 0.8043 0.2158
0.6979 0.8023 0.2102
0.9070 0.7993 0.1837
1.0000 0.8007 0.2336
0.0000 0.9308 0.2343
0.0000 0.9331 0.2161
0.0073 0.9376 0.1766
0.1308 0.9367 0.1833
0.2625 0.9368 0.1717
0.4375 0.9354 0.1673
0.6803 0.9338 0.1600
0.8978 0.9322 0.1476
1.0000 0.9307 0.2284
0.0000 0.9998 0.2347
0.0141 1.0000 0.2293
0.0807 1.0000 0.2296
0.1778 1.0000 0.2300
0.3003 1.0000 0.2306
0.4679 1.0000 0.2317
0.6922 0.9999 0.2313
0.8940 1.0000 0.2287
1.0000 0.9999 0.2349
0.0000 0.0000 0.3987
0.0221 0.0000 0.3987
0.0874 0.0000 0.3985
0.1829 0.0000 0.3974
0.3038 0.0000 0.3960
0.4710 0.0000 0.3959
0.6938 0.0000 0.3985
0.8941 0.0000 0.4013
0.9998 0.0000 0.4045
0.0000 0.0214 0.3982
0.0000 0.0000 0.6445
0.1019 0.0000 0.5604
0.2169 0.0000 0.4939
0.3323 0.0018 0.4358
0.5134 0.0003 0.4198
0.7295 0.0022 0.4100
0.9126 0.0045 0.4051
1.0000 0.0209 0.4048
0.0000 0.0898 0.3963
0.0000 0.0871 0.4770
0.0819 0.0831 0.4622
0.1917 0.0808 0.4353
0.3162 0.0813 0.4152
0.4928 0.0793 0.4102
0.7147 0.0791 0.4070
0.9082 0.0777 0.4053
1.0000 0.0898 0.4054
0.0000 0.2117 0.3965
0.0083 0.2137 0.4107
0.0799 0.2123 0.4119
0.1825 0.2100 0.4135
0.3078 0.2094 0.4063
0.4797 0.2078 0.4086
0.7041 0.2070 0.4084
0.9056 0.2027 0.4072
1.0000 0.2128 0.4049
0.0000 0.4320 0.3976
0.0157 0.4338 0.3995
0.0833 0.4333 0.4005
0.1824 0.4321 0.4028
0.3056 0.4305 0.4104
0.4688 0.4326 0.4156
0.6966 0.4306 0.4143
0.9043 0.4236 0.4099
1.0000 0.4333 0.4050
0.0000 0.6335 0.3979
0.0123 0.6352 0.3969
0.0803 0.6351 0.3980
0.1797 0.6344 0.4018
0.3083 0.6317 0.4136
0.4750 0.6323 0.4146
0.7076 0.6299 0.4027
0.9138 0.6237 0.3880
1.0000 0.6323 0.4036
0.0000 0.8026 0.3975
0.0000 0.8064 0.3876
0.0607 0.8067 0.3871
0.1659 0.8059 0.3909
0.2989 0.8035 0.4026
0.4657 0.8038 0.3934
0.6980 0.8014 0.3914
0.9074 0.7981 0.3679
1.0000 0.8006 0.3974
0.0000 0.9308 0.3962
0.0000 0.9330 0.3829
0.0030 0.9375 0.3501
0.1265 0.9367 0.3547
0.2703 0.9353 0.3653
0.4362 0.9353 0.3494
0.6800 0.9334 0.3443
0.8977 0.9315 0.3361
1.0000 0.9307 0.3919
0.0000 0.9998 0.3962
0.0143 1.0000 0.3920
0.0810 1.0000 0.3921
0.1781 1.0000 0.3924
0.3005 1.0000 0.3931
0.4682 1.0000 0.3940
0.6923 1.0000 0.3942
0.8940 1.0000 0.3924
1.0000 0.9999 0.3971
0.0000 0.0000 0.5865
0.0220 0.0000 0.5865
0.0871 0.0000 0.5855
0.1826 0.0000 0.5844
0.3033 0.0000 0.5840
0.4709 0.0000 0.5836
0.6943 0.0000 0.5839
0.8944 0.0000 0.5864
0.9996 0.0000 0.5900
0.0000 0.0213 0.5855
0.0000 0.0000 0.7735
0.0903 0.0000 0.7314
0.2057 0.0000 0.6864
0.3352 0.0000 0.6516
0.5039 0.0025 0.6142
0.7232 0.0043 0.6015
0.9116 0.0044 0.5970
0.9997 0.0211 0.5902
0.0000 0.0897 0.5834
0.0000 0.0822 0.6770
0.0750 0.0754 0.6912
0.1913 0.0747 0.6526
0.3190 0.0760 0.6227
0.4896 0.0794 0.6023
0.7135 0.0789 0.5971
0.9090 0.0759 0.5972
0.9998 0.0901 0.5900
0.0000 0.2117 0.5837
0.0018 0.2125 0.6133
0.0762 0.2108 0.6138
0.1811 0.2082 0.6122
0.3088 0.2067 0.6044
0.4808 0.2068 0.5965
0.7082 0.2042 0.5974
0.9081 0.1993 0.5990
0.9998 0.2131 0.5900
0.0000 0.4319 0.5858
0.0122 0.4338 0.5924
0.0802 0.4332 0.5938
0.1787 0.4319 0.5984
0.3047 0.4294 0.6022
0.4771 0.4286 0.5967
0.7062 0.4243 0.6014
0.9081 0.4177 0.6024
1.0000 0.4330 0.5908
0.0000 0.6331 0.5863
0.0098 0.6350 0.5888
0.0780 0.6348 0.5896
0.1774 0.6343 0.5912
0.3034 0.6331 0.5941
0.4747 0.6316 0.6026
0.6941 0.6317 0.6070
0.9010 0.6284 0.5986
0.9995 0.6322 0.5888
0.0000 0.8022 0.5866
0.0000 0.8056 0.5846
0.0582 0.8062 0.5843
0.1625 0.8055 0.5853
0.2925 0.8041 0.5891
0.4738 0.8005 0.6010
0.6977 0.7994 0.6024
0.9042 0.7974 0.5839
0.9996 0.8003 0.5856
0.0000 0.9305 0.5847
0.0000 0.9325 0.5784
0.0000 0.9370 0.5618
0.1222 0.9363 0.5633
0.2642 0.9352 0.5668
0.4267 0.9354 0.5562
0.6701 0.9339 0.5412
0.8984 0.9316 0.5227
0.9997 0.9305 0.5818
0.0000 0.9996 0.5840
0.0143 0.9997 0.5814
0.0810 0.9998 0.5814
0.1782 0.9998 0.5813
0.3007 0.9999 0.5815
0.4684 0.9999 0.5821
0.6922 0.9995 0.5829
0.8937 0.9997 0.5821
0.9998 0.9997 0.5846
0.0000 0.0000 0.7658
0.0219 0.0000 0.7653
0.0868 0.0000 0.7651
0.1824 0.0000 0.7640
0.3033 0.0000 0.7637
0.4709 0.0000 0.7646
0.6946 0.0000 0.7645
0.8950 0.0000 0.7650
0.9999 0.0000 0.7663
0.0000 0.0213 0.7646
0.0000 0.0000 0.8845
0.0825 0.0000 0.8666
0.1965 0.0000 0.8436
0.3280 0.0000 0.8229
0.5099 0.0000 0.8057
0.7182 0.0057 0.7817
0.9102 0.0051 0.7772
0.9999 0.0218 0.7664
0.0000 0.0895 0.7634
0.0000 0.0781 0.8384
0.0665 0.0659 0.8723
0.1881 0.0680 0.8389
0.3192 0.0709 0.8106
0.4933 0.0747 0.7907
0.7123 0.0785 0.7782
0.9095 0.0748 0.7775
0.9999 0.0907 0.7667
0.0000 0.2119 0.7642
0.0000 0.2102 0.8001
0.0730 0.2084 0.7989
0.1794 0.2056 0.7975
0.3085 0.2044 0.7891
0.4838 0.2033 0.7830
0.7096 0.2028 0.7776
0.9106 0.1961 0.7798
1.0000 0.2136 0.7671
0.0000 0.4321 0.7655
0.0085 0.4336 0.7759
0.0770 0.4328 0.7782
0.1765 0.4309 0.7828
0.3038 0.4278 0.7853
0.4798 0.4249 0.7829
0.7089 0.4222 0.7793
0.9130 0.4107 0.7837
1.0000 0.4332 0.7677
0.0000 0.6332 0.7668
0.0013 0.6356 0.7741
0.0713 0.6354 0.7752
0.1715 0.6348 0.7774
0.2975 0.6334 0.7826
0.4735 0.6308 0.7861
0.7047 0.6285 0.7799
0.9059 0.6248 0.7797
0.9996 0.6321 0.7670
0.0000 0.8021 0.7667
0.0000 0.8051 0.7702
0.0536 0.8061 0.7721
0.1588 0.8055 0.7727
0.2892 0.8042 0.7738
0.4652 0.8020 0.7756
0.6967 0.7993 0.7800
0.9000 0.7980 0.7739
0.9997 0.8002 0.7657
0.0000 0.9305 0.7658
0.0000 0.9323 0.7651
0.0000 0.9368 0.7625
0.1173 0.9362 0.7625
0.2585 0.9353 0.7631
0.4071 0.9368 0.7566
0.6776 0.9322 0.7609
0.8962 0.9303 0.7604
0.9998 0.9305 0.7642
0.0000 0.9997 0.7651
0.0137 0.9999 0.7640
0.0806 0.9999 0.7638
0.1779 0.9999 0.7638
0.3006 1.0000 0.7635
0.4687 1.0000 0.7633
0.6926 0.9997 0.7635
0.8938 0.9998 0.7639
0.9999 0.9998 0.7647
0.0000 0.0000 0.8999
0.0218 0.0000 0.9000
0.0866 0.0000 0.8998
0.1822 0.0000 0.8992
0.3035 0.0000 0.8997
0.4713 0.0000 0.9005
0.6946 0.0000 0.9008
0.8951 0.0000 0.9008
0.9999 0.0000 0.9006
0.0000 0.0212 0.8996
0.0000 0.0000 0.9737
0.0774 0.0000 0.9646
0.1895 0.0000 0.9528
0.3216 0.0000 0.9412
0.5038 0.0000 0.9313
0.7234 0.0000 0.9195
0.9099 0.0038 0.9116
0.9999 0.0223 0.9006
0.0000 0.0896 0.8994
0.0000 0.0751 0.9501
0.0586 0.0574 0.9861
0.1831 0.0620 0.9603
0.3169 0.0666 0.9388
0.4942 0.0703 0.9247
0.7174 0.0727 0.9164
0.9103 0.0724 0.9122
1.0000 0.0913 0.9006
0.0000 0.2120 0.9000
0.0000 0.2069 0.9308
0.0695 0.2051 0.9301
0.1772 0.2026 0.9284
0.3076 0.2015 0.9224
0.4848 0.1998 0.9183
0.7148 0.1969 0.9161
0.9120 0.1928 0.9142
1.0000 0.2143 0.9007
0.0000 0.4324 0.9008
0.0037 0.4327 0.9121
0.0733 0.4315 0.9140
0.1740 0.4290 0.9173
0.3024 0.4248 0.9202
0.4803 0.4206 0.9196
0.7146 0.4142 0.9184
0.9141 0.4066 0.9170
1.0000 0.4335 0.9007
0.0000 0.6334 0.9015
0.0000 0.6358 0.9116
0.0620 0.6355 0.9137
0.1641 0.6345 0.9164
0.2925 0.6323 0.9209
0.4730 0.6314 0.9103
0.7019 0.6287 0.9106
0.9050 0.6247 0.9109
0.9997 0.6323 0.9005
0.0000 0.8020 0.9017
0.0000 0.8045 0.9068
0.0328 0.8071 0.9134
0.1433 0.8062 0.9143
0.2767 0.8047 0.9161
0.4595 0.8017 0.9131
0.6943 0.7994 0.9107
0.9028 0.7963 0.9095
0.9998 0.8003 0.9006
0.0000 0.9305 0.9011
0.0000 0.9321 0.9030
0.0000 0.9361 0.9080
0.1108 0.9359 0.9085
0.2536 0.9349 0.9086
0.4056 0.9356 0.9104
0.6695 0.9324 0.9066
0.8949 0.9300 0.9051
0.9999 0.9306 0.9007
0.0000 0.9997 0.9013
0.0125 0.9999 0.9012
0.0796 1.0000 0.9011
0.1771 1.0000 0.9010
0.3000 1.0000 0.9009
0.4682 1.0000 0.9005
0.6927 0.9997 0.9000
0.8940 0.9999 0.9000
0.9999 0.9999 0.9002
0.0000 0.0000 0.9988
0.0216 0.0000 0.9990
0.0864 0.0000 0.9991
0.1823 0.0000 0.9993
0.3037 0.0000 0.9994
0.4716 0.0000 0.9998
0.6941 0.0000 0.9998
0.8940 0.0000 0.9999
0.9999 0.0000 1.0000
0.0000 0.0211 0.9991
0.0213 0.0207 1.0000
0.0863 0.0208 1.0000
0.1824 0.0208 1.0000
0.3040 0.0209 1.0000
0.4718 0.0212 1.0000
0.6942 0.0219 0.9998
0.8940 0.0227 0.9999
0.9999 0.0229 1.0000
0.0000 0.0896 0.9994
0.0215 0.0894 1.0000
0.0866 0.0895 1.0000
0.1824 0.0896 1.0000
0.3041 0.0897 1.0000
0.4720 0.0900 1.0000
0.6944 0.0907 0.9999
0.8941 0.0915 1.0000
0.9999 0.0918 1.0000
0.0000 0.2121 0.9998
0.0217 0.2121 1.0000
0.0868 0.2121 1.0000
0.1828 0.2123 1.0000
0.3043 0.2125 1.0000
0.4723 0.2128 1.0000
0.6949 0.2134 0.9999
0.8943 0.2144 1.0000
0.9999 0.2147 1.0000
0.0000 0.4326 1.0000
0.0224 0.4326 1.0000
0.0874 0.4327 1.0000
0.1833 0.4329 1.0000
0.3048 0.4332 1.0000
0.4729 0.4336 1.0000
0.6956 0.4342 1.0000
0.8944 0.4349 1.0000
0.9999 0.4334 1.0000
0.0000 0.6334 0.9998
0.0243 0.6335 0.9998
0.0887 0.6336 0.9998
0.1843 0.6337 0.9999
0.3054 0.6338 0.9999
0.4731 0.6337 0.9999
0.6954 0.6332 0.9996
0.8942 0.6331 0.9997
0.9997 0.6322 0.9998
0.0000 0.8016 0.9999
0.0256 0.8017 0.9999
0.0893 0.8017 0.9999
0.1842 0.8017 1.0000
0.3045 0.8017 1.0000
0.4717 0.8016 1.0000
0.6944 0.8011 0.9997
0.8942 0.8008 0.9998
0.9998 0.8005 0.9999
0.0000 0.9304 0.9999
0.0237 0.9304 1.0000
0.0880 0.9303 1.0000
0.1831 0.9303 1.0000
0.3044 0.9303 1.0000
0.4714 0.9305 1.0000
0.6937 0.9305 0.9998
0.8942 0.9306 0.9999
0.9999 0.9307 0.9999
0.0077 0.9995 1.0000
0.0361 0.9995 1.0000
0.0982 0.9995 1.0000
0.1916 0.9996 1.0000
0.3108 0.9996 1.0000
0.4784 0.9997 1.0000
0.6991 0.9996 0.9998
0.8960 0.9998 0.9999
1.0000 1.0000 0.9999
