EA 50 Cinematic Luts Pack/EA_Cinematic Lut (34).cube
TITLE "A heated grading that will bring out the natural lighting and stabilize shadows and midtones of the shot."
LUT_3D_SIZE 5
0.0000 0.0000 0.0000
0.1781 0.0000 0.0020
0.4342 0.0000 0.0079
0.7258 0.0000 0.0193
1.0000 0.0164 0.0416
0.0773 0.1508 0.0530
0.1929 0.1568 0.0425
0.4783 0.1433 0.0000
0.7719 0.1356 0.0000
1.0000 0.1764 0.0985
0.2152 0.3582 0.1632
0.2866 0.3642 0.1634
0.4847 0.3760 0.1417
0.8156 0.3617 0.0533
1.0000 0.3967 0.2025
0.3844 0.6134 0.2759
0.4361 0.6164 0.2781
0.5666 0.6277 0.2719
0.8005 0.6381 0.2416
0.9846 0.6574 0.3888
0.7087 0.9021 0.5609
0.7365 0.9037 0.5721
0.8026 0.9136 0.5970
0.9005 0.9329 0.6471
0.9853 0.9643 0.8260
0.0133 0.0164 0.0816
0.1588 0.0259 0.1185
0.4382 0.0000 0.1256
0.7292 0.0000 0.1311
1.0000 0.0268 0.1490
0.0636 0.1563 0.1363
0.1755 0.1631 0.1420
0.4615 0.1547 0.1275
0.7763 0.1356 0.1146
1.0000 0.1799 0.1687
0.2138 0.3609 0.2086
0.2573 0.3731 0.1938
0.4807 0.3798 0.1918
0.8086 0.3668 0.1533
1.0000 0.3989 0.2392
0.3807 0.6157 0.3043
0.4129 0.6235 0.2940
0.5625 0.6307 0.2988
0.7979 0.6408 0.2740
0.9871 0.6586 0.4082
0.7108 0.9033 0.5775
0.7299 0.9076 0.5813
0.8016 0.9158 0.6093
0.9002 0.9349 0.6584
0.9860 0.9661 0.8347
0.0483 0.0566 0.2095
0.1469 0.0714 0.2321
0.3963 0.0768 0.2772
0.7332 0.0143 0.2963
1.0000 0.0523 0.3018
0.0503 0.1640 0.2896
0.1798 0.1710 0.2794
0.4215 0.1792 0.2943
0.7593 0.1565 0.2991
1.0000 0.1880 0.3099
0.1786 0.3727 0.3205
0.2419 0.3809 0.3237
0.4490 0.3923 0.3365
0.7787 0.3857 0.3033
1.0000 0.4045 0.3497
0.3749 0.6215 0.4108
0.4052 0.6295 0.4062
0.4923 0.6585 0.3630
0.7885 0.6503 0.3713
0.9954 0.6620 0.4700
0.7230 0.9058 0.6323
0.7407 0.9102 0.6359
0.7925 0.9247 0.6449
0.8988 0.9415 0.6950
0.9885 0.9721 0.8633
0.0893 0.0998 0.3437
0.1698 0.1078 0.3789
0.3663 0.1381 0.4148
0.6706 0.1353 0.5058
0.9921 0.0950 0.5486
0.1023 0.1809 0.4526
0.2011 0.1896 0.4476
0.4036 0.2089 0.4716
0.6934 0.2161 0.5266
0.9942 0.2051 0.5534
0.1588 0.3814 0.5622
0.2328 0.3884 0.5652
0.4534 0.3998 0.5556
0.7327 0.4082 0.5648
0.9996 0.4113 0.5709
0.3233 0.6374 0.5955
0.3672 0.6435 0.5973
0.4971 0.6596 0.6033
0.7433 0.6691 0.6157
0.9995 0.6703 0.6117
0.7291 0.9152 0.7216
0.7487 0.9190 0.7266
0.8056 0.9312 0.7420
0.8908 0.9555 0.7659
0.9930 0.9831 0.9183
0.1416 0.1474 0.5384
0.2058 0.1506 0.5826
0.3813 0.1800 0.6137
0.6285 0.2144 0.6777
0.9453 0.2017 0.8108
0.1590 0.2126 0.6372
0.2030 0.2001 0.7690
0.4251 0.2141 0.7874
0.6903 0.2424 0.7932
0.9708 0.2486 0.8663
0.1586 0.3969 0.8507
0.2020 0.3976 0.9532
0.4562 0.4032 0.9439
0.7337 0.4157 0.9137
0.9761 0.4370 0.8910
0.3650 0.6403 0.9046
0.4093 0.6447 0.9145
0.5294 0.6581 0.9459
0.7513 0.6726 0.9666
0.9856 0.6890 0.9359
0.7380 0.9293 0.8921
0.7566 0.9331 0.8978
0.8118 0.9452 0.9162
0.8999 0.9673 0.9502
0.9999 0.9999 0.9999
