EA 50 Cinematic Luts Pack/EA_Cinematic Lut (44).cube
TITLE "A superb, clear and strong colorization that will give your shots a truly modern and cinematic character."
LUT_3D_SIZE 5
0.0000 0.0000 0.0000
0.1675 0.0012 0.0066
0.4867 0.0058 0.0277
0.8122 0.0174 0.0591
0.9992 0.0342 0.0921
0.0240 0.1651 0.0561
0.1674 0.1708 0.0595
0.4572 0.1860 0.1037
0.8050 0.1879 0.0894
0.9999 0.1749 0.0620
0.1005 0.4691 0.1423
0.2065 0.4762 0.1214
0.4883 0.4832 0.1492
0.7746 0.5039 0.2236
0.9883 0.5234 0.2378
0.2119 0.7911 0.2341
0.2992 0.7947 0.2208
0.5101 0.8070 0.1169
0.8147 0.8076 0.2444
0.9855 0.8246 0.3750
0.5438 0.9910 0.4794
0.5862 0.9924 0.4735
0.7092 0.9953 0.4762
0.8409 1.0000 0.2375
0.9969 0.9987 0.7982
0.0031 0.0168 0.0709
0.1307 0.0267 0.1695
0.4181 0.0625 0.1992
0.7862 0.0600 0.2173
0.9992 0.0365 0.2191
0.0060 0.1694 0.2072
0.1654 0.1716 0.2162
0.4839 0.1762 0.2106
0.8117 0.1826 0.2195
0.9999 0.1763 0.2189
0.1070 0.4698 0.2383
0.2111 0.4750 0.2513
0.4966 0.4848 0.2085
0.8020 0.4948 0.2535
0.9969 0.5063 0.2620
0.2176 0.7914 0.3048
0.2979 0.7948 0.3096
0.5106 0.8066 0.2486
0.8184 0.8086 0.2817
0.9871 0.8242 0.4157
0.5555 0.9903 0.5194
0.5947 0.9918 0.5179
0.7144 0.9950 0.5155
0.8434 1.0000 0.3284
0.9972 0.9989 0.8098
0.0261 0.0673 0.1717
0.0894 0.0772 0.3083
0.3969 0.0941 0.3691
0.6882 0.1688 0.4001
0.9606 0.2045 0.4423
0.0583 0.1895 0.2942
0.1106 0.2083 0.3360
0.4622 0.1929 0.4208
0.7639 0.2310 0.4277
0.9961 0.2197 0.4455
0.0408 0.4795 0.4520
0.1617 0.4851 0.4562
0.4840 0.4853 0.4723
0.8082 0.4931 0.4618
0.9999 0.4881 0.4513
0.2303 0.7922 0.4748
0.3127 0.7943 0.4900
0.5338 0.8000 0.5038
0.8209 0.8097 0.4628
0.9919 0.8227 0.5254
0.5842 0.9899 0.6230
0.6236 0.9912 0.6251
0.7295 0.9948 0.6278
0.8628 0.9996 0.5584
0.9981 0.9995 0.8457
0.0652 0.1384 0.2790
0.1028 0.1556 0.3598
0.3648 0.1383 0.5909
0.6972 0.1911 0.5995
0.9224 0.2947 0.6270
0.1025 0.2398 0.3794
0.1358 0.2598 0.4158
0.3697 0.2477 0.6452
0.7429 0.2656 0.6414
0.9654 0.3218 0.6630
0.1476 0.4930 0.5708
0.1869 0.5051 0.5913
0.3730 0.5320 0.6246
0.7638 0.5237 0.6823
0.9901 0.5306 0.6989
0.0949 0.8034 0.7291
0.2011 0.8063 0.7317
0.4466 0.8149 0.7373
0.8111 0.8094 0.7524
0.9997 0.8093 0.7170
0.6227 0.9901 0.7829
0.6623 0.9912 0.7841
0.7662 0.9944 0.7868
0.8977 0.9987 0.7956
0.9993 0.9999 0.9096
0.1161 0.2277 0.3954
0.1473 0.2440 0.4535
0.2808 0.2567 0.6924
0.7077 0.2043 0.8761
0.9357 0.3109 0.8441
0.1517 0.3138 0.4796
0.1770 0.3299 0.5207
0.3061 0.3350 0.7590
0.7548 0.2531 0.9595
0.9691 0.3390 0.8981
0.2165 0.5344 0.6583
0.2395 0.5459 0.6869
0.3339 0.5702 0.8046
0.7538 0.5342 0.9551
0.9874 0.5487 0.9380
0.2503 0.8105 0.8665
0.2661 0.8178 0.8835
0.3170 0.8394 0.9402
0.7440 0.8376 0.9444
0.9952 0.8290 0.9628
0.5528 0.9958 0.9819
0.6025 0.9963 0.9828
0.7345 0.9978 0.9858
0.8994 0.9997 0.9914
1.0000 1.0000 0.9999
