EA 50 Cinematic Luts Pack/EA_Cinematic Lut (10).cube
TITLE "Generated by Resolve"
LUT_3D_SIZE 33
0.0273442 0.0602731 0.0247196
0.053254 0.0545052 0.0338445
0.0833295 0.051957 0.0126955
0.113161 0.0505989 0
0.143908 0.0496223 0
0.176287 0.0491035 0
0.210513 0.0489662 0
0.24654 0.0491951 0
0.282673 0.0497749 0
0.318776 0.0508278 0
0.354452 0.0519112 0
0.389883 0.0531319 0
0.42504 0.0544137 0
0.459861 0.0556954 0
0.494362 0.0569162 0
0.528466 0.0580301 0
0.561975 0.0587625 0
0.5953 0.059556 0
0.628458 0.0603799 0
0.661463 0.061265 0
0.694575 0.0624247 0
0.727367 0.063447 0
0.760037 0.0645151 0
0.792599 0.0656291 0
0.825086 0.066804 0
0.857572 0.0681773 0
0.890043 0.069688 0
0.922332 0.0711223 0
0.954528 0.0726024 0
0.986709 0.0741741 0
1 0.0758831 0
1 0.0778363 0
1 0.0798047 0
0.0485237 0.0631571 0.0433051
0.0586099 0.0621347 0.057496
0.084947 0.0611582 0.034638
0.115038 0.0594949 0.0140536
0.146105 0.0585184 0
0.17879 0.0581216 0
0.213382 0.0581979 0
0.249973 0.0588998 0
0.286442 0.0597391 0
0.322698 0.0608988 0
0.35874 0.0622873 0
0.394537 0.0638285 0
0.43006 0.0654459 0
0.465431 0.0672313 0
0.50016 0.0686809 0
0.534386 0.0698863 0
0.568032 0.0707561 0
0.601419 0.0715801 0
0.634699 0.0725261 0
0.667964 0.0736553 0
0.700938 0.0746624 0
0.733822 0.075761 0
0.766644 0.0769665 0
0.79939 0.0782483 0
0.832105 0.0796521 0
0.864805 0.081178 0
0.897353 0.0826886 0
0.9299 0.0843519 0
0.962432 0.0860761 0
0.994888 0.0878767 0
1 0.0898756 0
1 0.0920272 0
1 0.0942702 0
0.0645762 0.0703136 0.0607309
0.0706798 0.0703288 0.0751812
0.0856184 0.0717174 0.0594644
0.114717 0.0707866 0.0359045
0.146258 0.0699321 0.0154726
0.179385 0.0696422 0
0.214588 0.0700999 0
0.251438 0.0708629 0
0.28838 0.0720226 0
0.325109 0.073518 0
0.361624 0.0752575 0
0.397864 0.0771649 0
0.434028 0.0793469 0
0.469627 0.0813001 0
0.504799 0.0831159 0
0.539437 0.0846723 0
0.573404 0.0858167 0
0.606912 0.086717 0
0.640467 0.0879072 0
0.673747 0.0890059 0
0.70692 0.0901808 0
0.739956 0.0914015 0
0.772915 0.0927291 0
0.806073 0.0943923 0
0.838987 0.0959793 0
0.871855 0.0976425 0
0.904616 0.0993668 0
0.937392 0.101213 0
0.970275 0.103304 0
1 0.105684 0
1 0.107958 0
1 0.110323 0
1 0.112856 0
0.0780804 0.0800488 0.076585
0.0825818 0.0804608 0.0905928
0.0907454 0.0831006 0.0822919
0.114733 0.0837262 0.0607462
0.145449 0.0836194 0.0380102
0.179141 0.0838636 0.0180209
0.214633 0.0843671 0
0.251957 0.0853895 0
0.289387 0.0868544 0
0.326619 0.0886854 0
0.363821 0.0909895 0
0.400656 0.0933547 0
0.43714 0.0957656 0
0.473243 0.0981155 0
0.508888 0.100343 0
0.544015 0.102312 0
0.578698 0.104082 0
0.612467 0.105196 0
0.646006 0.106294 0
0.679454 0.107515 0
0.712856 0.108888 0
0.746212 0.110384 0
0.77969 0.112169 0
0.812848 0.113817 0
0.846021 0.115618 0
0.87924 0.117617 0
0.912459 0.119753 0
0.945663 0.122011 0
0.979004 0.124529 0
1 0.127077 0
1 0.12987 0
1 0.132845 0
1 0.135897 0
0.0903944 0.092134 0.0914931
0.0942092 0.0928359 0.105211
0.100557 0.0956436 0.101518
0.116915 0.0984665 0.0847639
0.145663 0.0994125 0.0632792
0.178439 0.100221 0.041474
0.214176 0.101198 0.0216983
0.251987 0.102586 0.00360113
0.289967 0.104417 0
0.327871 0.106783 0
0.365484 0.109346 0
0.402823 0.112093 0
0.439902 0.114977 0
0.476616 0.117845 0
0.512825 0.120531 0
0.548669 0.123125 0
0.583673 0.125139 0
0.617899 0.126635 0
0.651789 0.128023 0
0.685512 0.129458 0
0.719158 0.131014 0
0.753048 0.132982 0
0.786725 0.13492 0
0.82034 0.13698 0
0.853864 0.139101 0
0.887404 0.141375 0
0.921324 0.144167 0
0.955108 0.14696 0
0.988876 0.149874 0
1 0.152865 0
1 0.156008 0
1 0.159426 0
1 0.163302 0
0.102266 0.106691 0.105913
0.105776 0.107607 0.119448
0.111284 0.110643 0.118791
0.123445 0.114397 0.106767
0.147448 0.11693 0.0878767
0.178866 0.11873 0.0670634
0.214023 0.120531 0.0462501
0.251987 0.122484 0.0270695
0.290623 0.124987 0.00965896
0.328984 0.127687 0
0.367147 0.130678 0
0.405051 0.133852 0
0.442679 0.137179 0
0.48014 0.140673 0
0.517113 0.144015 0
0.553399 0.146975 0
0.588952 0.149477 0
0.623697 0.151415 0
0.657954 0.153079 0
0.692348 0.155123 0
0.726497 0.157107 0
0.76051 0.159152 0
0.794553 0.161395 0
0.828687 0.163912 0
0.862867 0.166644 0
0.897276 0.169741 0
0.93138 0.172671 0
0.965545 0.175814 0
0.999832 0.179202 0
1 0.182773 0
1 0.186419 0
1 0.190448 0
1 0.194324 0
0.114015 0.123796 0.12015
0.117617 0.125124 0.133791
0.122621 0.128252 0.135119
0.133196 0.132174 0.126574
0.150668 0.136645 0.111101
0.180911 0.139361 0.0923934
0.215274 0.142275 0.0726635
0.252949 0.145266 0.0530861
0.291508 0.148241 0.0345922
0.330266 0.151492 0.0175326
0.369024 0.155047 0.0015259
0.407614 0.158816 0
0.446021 0.162814 0
0.484031 0.166751 0
0.521538 0.17052 0
0.558541 0.174121 0
0.594873 0.177295 0
0.630304 0.179828 0
0.665141 0.182025 0
0.699855 0.184314 0
0.734554 0.186786 0
0.769253 0.189456 0
0.803845 0.192187 0
0.838392 0.195071 0
0.873304 0.198459 0
0.908034 0.201831 0
0.942763 0.205341 0
0.977417 0.208911 0
1 0.212589 0
1 0.216709 0
1 0.220752 0
1 0.224842 0
1 0.228992 0
0.125963 0.143465 0.134508
0.129427 0.144869 0.147997
0.134325 0.148226 0.150896
0.14403 0.152483 0.14522
0.159579 0.157473 0.133227
0.184314 0.162264 0.116854
0.218143 0.166186 0.0990921
0.255146 0.170123 0.0804303
0.293492 0.174121 0.0618601
0.332418 0.178164 0.0442054
0.371557 0.182345 0.0277409
0.410956 0.186999 0.0124971
0.449989 0.191562 0
0.488685 0.196124 0
0.526864 0.200488 0
0.564523 0.204623 0
0.601709 0.208576 0
0.638178 0.21207 0
0.673609 0.214786 0
0.708782 0.217441 0
0.743908 0.220295 0
0.77911 0.223392 0
0.814527 0.226902 0
0.84979 0.230442 0
0.884871 0.233936 0
0.919921 0.237568 0
0.954986 0.241382 0
0.990066 0.245335 0
1 0.249607 0
1 0.253758 0
1 0.257969 0
1 0.262348 0
1 0.26685 0
0.138094 0.163806 0.148974
0.141695 0.165469 0.16257
0.146609 0.16907 0.166674
0.155779 0.173663 0.163287
0.170672 0.179294 0.154406
0.190875 0.18558 0.140978
0.222309 0.190661 0.124895
0.258991 0.19559 0.107973
0.297047 0.200702 0.0905318
0.336004 0.205921 0.0732128
0.375631 0.211276 0.0567178
0.415213 0.216434 0.0409247
0.454826 0.221714 0.0260014
0.494301 0.22707 0.0117189
0.533425 0.232334 0
0.57203 0.237369 0
0.609979 0.242008 0
0.646952 0.245914 0
0.68307 0.249241 0
0.718929 0.252537 0
0.754665 0.255894 0
0.790433 0.259495 0
0.826154 0.263249 0
0.861708 0.267018 0
0.897231 0.270924 0
0.932647 0.274861 0
0.967987 0.278904 0
1 0.283406 0
1 0.287739 0
1 0.29218 0
1 0.296666 0
1 0.301228 0
1 0.306157 0
0.150698 0.18471 0.163851
0.154589 0.186786 0.177691
0.159716 0.190723 0.18291
0.168826 0.195865 0.181598
0.182818 0.201663 0.174884
0.202197 0.208453 0.164309
0.228168 0.215778 0.150607
0.264515 0.221744 0.135531
0.30251 0.227924 0.119783
0.341573 0.234485 0.103838
0.381186 0.240894 0.0877394
0.421271 0.247257 0.0721294
0.461418 0.253468 0.0571298
0.501427 0.259556 0.0427405
0.541466 0.265812 0.029099
0.580789 0.271565 0.0153658
0.61941 0.276844 0.00146487
0.657038 0.281376 0
0.69366 0.28513 0
0.730037 0.288853 0
0.766461 0.292851 0
0.802533 0.296696 0
0.838468 0.300603 0
0.874342 0.304616 0
0.910185 0.308782 0
0.946151 0.313222 0
0.982071 0.317784 0
1 0.32221 0
1 0.326741 0
1 0.331411 0
1 0.336202 0
1 0.341238 0
1 0.346258 0
0.164034 0.206424 0.179385
0.168429 0.209094 0.193713
0.174014 0.213565 0.200046
0.182971 0.218997 0.200275
0.196551 0.225223 0.195666
0.21532 0.23241 0.187411
0.239292 0.240726 0.176394
0.272084 0.249119 0.163592
0.310246 0.256535 0.149813
0.349218 0.264027 0.135332
0.388846 0.271534 0.120409
0.429068 0.279011 0.105394
0.469642 0.286381 0.0906996
0.510491 0.293751 0.0766613
0.550713 0.300465 0.062623
0.590478 0.306767 0.0487678
0.629587 0.312581 0.0348669
0.667826 0.317708 0.0206149
0.705028 0.322011 0.00579843
0.74197 0.326268 0
0.778546 0.330358 0
0.815045 0.334569 0
0.851438 0.338872 0
0.887694 0.343206 0
0.923949 0.347723 0
0.96025 0.352468 0
0.996323 0.357107 0
1 0.361852 0
1 0.366629 0
1 0.371481 0
1 0.376776 0
1 0.381826 0
1 0.386954 0
0.178729 0.229572 0.196231
0.183307 0.232486 0.210712
0.189227 0.237354 0.217899
0.198459 0.243381 0.21973
0.212131 0.25034 0.217258
0.230594 0.258137 0.211246
0.254231 0.26717 0.202823
0.282429 0.277028 0.191928
0.319341 0.285801 0.179843
0.358694 0.294545 0.167269
0.398566 0.303227 0.153964
0.438804 0.311711 0.140078
0.479683 0.320287 0.126192
0.520409 0.328252 0.112047
0.560967 0.335775 0.0979782
0.601068 0.342718 0.0839551
0.640482 0.349035 0.0698558
0.679408 0.35491 0.0558022
0.717037 0.35967 0.0409857
0.754269 0.364218 0.026215
0.791272 0.368704 0.0116274
0.828107 0.37322 0
0.864897 0.377859 0
0.901854 0.382849 0
0.938384 0.387594 0
0.974777 0.392355 0
1 0.397177 0
1 0.402121 0
1 0.407248 0
1 0.412589 0
1 0.4177 0
1 0.422873 0
1 0.428107 0
0.194644 0.254002 0.214237
0.199802 0.257557 0.229282
0.20621 0.262943 0.2374
0.215656 0.269429 0.240497
0.229496 0.277043 0.239887
0.247944 0.285557 0.236011
0.271092 0.294926 0.22948
0.29868 0.305241 0.220798
0.330327 0.316014 0.21033
0.369314 0.325597 0.19913
0.409674 0.335546 0.187701
0.450156 0.345113 0.17528
0.490745 0.354284 0.162127
0.531426 0.363058 0.14847
0.572061 0.371344 0.134615
0.612406 0.379049 0.120607
0.652445 0.386313 0.106691
0.691279 0.39234 0.0921035
0.729213 0.397528 0.0771191
0.766888 0.402579 0.0623636
0.804379 0.407584 0.0478676
0.841657 0.412528 0.0335699
0.879088 0.417777 0.019791
0.91606 0.422736 0.00585946
0.952911 0.427756 0
0.989639 0.432822 0
1 0.437888 0
1 0.443061 0
1 0.448508 0
1 0.453742 0
1 0.459022 0
1 0.464332 0
1 0.469657 0
0.212055 0.279988 0.233707
0.2177 0.284062 0.24921
0.224582 0.290135 0.258335
0.234745 0.297322 0.262837
0.248524 0.305303 0.2636
0.26659 0.314031 0.261173
0.289296 0.32372 0.256321
0.316472 0.334401 0.249561
0.346044 0.345983 0.240986
0.381384 0.357397 0.23125
0.421393 0.36788 0.220874
0.462028 0.378317 0.209857
0.5028 0.388434 0.198016
0.543526 0.398077 0.185382
0.584115 0.407095 0.172015
0.624765 0.415778 0.158526
0.664607 0.423346 0.144289
0.703639 0.429953 0.129549
0.741909 0.435737 0.114473
0.779934 0.441291 0.0996719
0.818082 0.447059 0.0854353
0.855802 0.452476 0.0711681
0.893294 0.457801 0.0570993
0.930556 0.463081 0.0431525
0.967681 0.46833 0.0293889
1 0.47361 0.0157931
1 0.479271 0.00267033
1 0.484581 0
1 0.489891 0
1 0.495216 0
1 0.500587 0
1 0.506004 0
1 0.511727 0
0.231189 0.307744 0.254856
0.237156 0.312169 0.270649
0.244633 0.318853 0.280659
0.254887 0.326268 0.285985
0.268635 0.334539 0.287907
0.286488 0.343557 0.28687
0.308751 0.353445 0.283421
0.335515 0.364477 0.278294
0.364706 0.376486 0.271626
0.395712 0.389181 0.263294
0.434012 0.400549 0.25391
0.47454 0.411612 0.244022
0.51545 0.422522 0.233448
0.556527 0.433204 0.222187
0.597284 0.443153 0.209918
0.637522 0.452171 0.196582
0.677256 0.460288 0.182498
0.716274 0.467399 0.167727
0.75491 0.47393 0.152789
0.793606 0.48043 0.138262
0.831815 0.486442 0.12369
0.869764 0.492241 0.1093
0.907561 0.497948 0.09514
0.945159 0.503563 0.081178
0.982544 0.509117 0.0673533
1 0.514977 0.0540322
1 0.520439 0.0404974
1 0.525902 0.0270848
1 0.53135 0.0137484
1 0.536782 0.000518807
1 0.542214 0
1 0.547982 0
1 0.553384 0
0.251484 0.33669 0.277134
0.25803 0.341741 0.293477
0.265476 0.348379 0.3037
0.275837 0.356023 0.309743
0.289616 0.364584 0.312718
0.307408 0.373953 0.312963
0.329503 0.384222 0.310994
0.355795 0.395438 0.30721
0.384253 0.40737 0.301778
0.414572 0.420218 0.294926
0.447791 0.433387 0.286793
0.487739 0.44509 0.277897
0.528756 0.456748 0.268544
0.569818 0.468025 0.258305
0.610468 0.478508 0.246876
0.650706 0.488212 0.234409
0.690333 0.49691 0.220798
0.729351 0.504646 0.206317
0.768536 0.512245 0.191989
0.807172 0.519127 0.177279
0.84564 0.525673 0.162646
0.883879 0.53196 0.14815
0.921874 0.538033 0.133883
0.959945 0.544228 0.120012
0.997635 0.550149 0.106172
1 0.555886 0.0923781
1 0.561532 0.0787213
1 0.567132 0.0651713
1 0.572656 0.0516976
1 0.578485 0.0386511
1 0.583978 0.0253758
1 0.589426 0.0121157
1 0.594812 0
0.272908 0.366827 0.300496
0.2795 0.371939 0.316869
0.287266 0.378897 0.327611
0.297795 0.386801 0.334356
0.311543 0.395529 0.338155
0.329488 0.405402 0.339742
0.351202 0.415763 0.338842
0.376898 0.426947 0.336095
0.404791 0.438956 0.331823
0.434394 0.45182 0.326253
0.465873 0.465476 0.319463
0.501915 0.478843 0.311696
0.542367 0.490822 0.303029
0.583185 0.502434 0.293568
0.623819 0.513466 0.283085
0.663935 0.523644 0.271366
0.70367 0.533089 0.258701
0.743084 0.541863 0.245197
0.782071 0.549874 0.231006
0.820874 0.557397 0.216541
0.859449 0.564523 0.201999
0.897871 0.571313 0.187472
0.936309 0.578058 0.173281
0.974395 0.584466 0.159091
1 0.590555 0.144991
1 0.59649 0.130999
1 0.602289 0.117128
1 0.608011 0.103395
1 0.613947 0.0900282
1 0.619547 0.0765087
1 0.624994 0.062974
1 0.630381 0.049485
1 0.635737 0.0360723
0.295094 0.397757 0.324605
0.301854 0.403052 0.341115
0.309819 0.410193 0.352224
0.320546 0.418357 0.359625
0.334676 0.427649 0.364538
0.352117 0.437308 0.366659
0.37348 0.44773 0.366674
0.398718 0.458961 0.364935
0.426078 0.471015 0.361715
0.455207 0.483894 0.35729
0.486 0.497658 0.351781
0.518013 0.511711 0.344762
0.556069 0.524437 0.336721
0.596536 0.536385 0.327977
0.637003 0.547799 0.318273
0.677241 0.558618 0.307561
0.717128 0.568795 0.295872
0.756527 0.578134 0.283162
0.795666 0.586892 0.269688
0.834577 0.595102 0.255695
0.873243 0.602808 0.241382
0.912077 0.610437 0.227268
0.950332 0.617365 0.212757
0.988403 0.623987 0.198306
1 0.630381 0.183948
1 0.636545 0.169757
1 0.642695 0.15581
1 0.648661 0.141924
1 0.654337 0.127993
1 0.659922 0.114168
1 0.6654 0.100389
1 0.670756 0.0866255
1 0.676234 0.0731365
0.318105 0.429526 0.349477
0.325093 0.43508 0.366217
0.333181 0.442329 0.3776
0.344274 0.450919 0.385748
0.358053 0.459998 0.390967
0.375387 0.469795 0.393881
0.396445 0.480262 0.394736
0.421195 0.491447 0.393805
0.44828 0.503731 0.39176
0.476646 0.516411 0.388098
0.506416 0.529809 0.383307
0.537636 0.543633 0.377157
0.57055 0.557626 0.369787
0.609873 0.569848 0.361532
0.650339 0.581872 0.352804
0.690517 0.593133 0.342916
0.730434 0.603815 0.332067
0.76994 0.613794 0.320211
0.809155 0.623178 0.307591
0.848188 0.63209 0.294316
0.887144 0.64062 0.280659
0.925643 0.648432 0.266423
0.963928 0.655787 0.251972
1 0.662745 0.2374
1 0.669383 0.222827
1 0.675929 0.208499
1 0.682277 0.194278
1 0.688212 0.179995
1 0.693935 0.165713
1 0.699474 0.151507
1 0.704936 0.137392
1 0.710491 0.123568
1 0.715801 0.109636
0.341726 0.461952 0.37496
0.349248 0.46804 0.392187
0.357565 0.475517 0.403952
0.368353 0.483848 0.412131
0.38201 0.492927 0.417792
0.399115 0.502708 0.421271
0.419852 0.513146 0.422797
0.444495 0.52459 0.42295
0.470603 0.536355 0.421225
0.498192 0.548791 0.418204
0.527245 0.561852 0.414054
0.557473 0.575448 0.408698
0.589014 0.589487 0.402197
0.623987 0.603311 0.394827
0.663508 0.615351 0.386389
0.703502 0.626963 0.377203
0.74342 0.638102 0.367178
0.783078 0.648707 0.356268
0.822431 0.658717 0.344472
0.861677 0.66836 0.332113
0.900328 0.677119 0.318746
0.938766 0.685374 0.304829
0.977005 0.693156 0.290578
1 0.700496 0.276051
1 0.707774 0.261738
1 0.714351 0.246983
1 0.720638 0.232258
1 0.726696 0.217594
1 0.732525 0.203052
1 0.738231 0.188602
1 0.743801 0.174273
1 0.749035 0.159792
1 0.754162 0.145418
0.366262 0.495308 0.401312
0.373648 0.501289 0.418402
0.382025 0.508812 0.430335
0.392844 0.51722 0.438849
0.406455 0.526345 0.444968
0.423316 0.536049 0.448905
0.444038 0.546715 0.451301
0.467826 0.557656 0.451652
0.493324 0.569223 0.450507
0.520195 0.581384 0.448066
0.548455 0.594156 0.444465
0.578317 0.607782 0.440131
0.608881 0.621515 0.434287
0.640528 0.635569 0.427314
0.676905 0.648447 0.419318
0.716411 0.660319 0.410681
0.75613 0.671763 0.401297
0.796048 0.68307 0.391424
0.835401 0.693507 0.380362
0.874342 0.703304 0.368383
0.913008 0.712551 0.355657
0.951339 0.721218 0.342245
0.989456 0.729381 0.328267
1 0.737346 0.314168
1 0.744595 0.299535
1 0.751431 0.284703
1 0.75787 0.269734
1 0.763989 0.254704
1 0.769955 0.239841
1 0.77583 0.225147
1 0.781247 0.2103
1 0.786389 0.195392
1 0.791348 0.180499
0.391028 0.528939 0.427863
0.398428 0.534951 0.444968
0.406836 0.542489 0.457038
0.417502 0.550912 0.465812
0.431373 0.56022 0.472465
0.448127 0.569986 0.476936
0.468147 0.580179 0.479423
0.491447 0.590921 0.480247
0.51632 0.602213 0.479576
0.542489 0.614084 0.477577
0.57026 0.626825 0.474754
0.599023 0.639841 0.470649
0.628733 0.653269 0.465431
0.659556 0.666957 0.459037
0.691203 0.680873 0.451545
0.729183 0.693049 0.443259
0.768826 0.705043 0.434714
0.808225 0.716243 0.425055
0.84741 0.726955 0.414588
0.886336 0.737148 0.403281
0.92488 0.746715 0.391104
0.96318 0.75581 0.378256
1 0.764614 0.365042
1 0.772549 0.350851
1 0.780011 0.336263
1 0.787076 0.321416
1 0.793759 0.306355
1 0.800336 0.291447
1 0.806241 0.276112
1 0.811856 0.260761
1 0.817273 0.245472
1 0.822446 0.230198
1 0.82742 0.21503
0.415915 0.562722 0.454536
0.423377 0.568795 0.471672
0.4318 0.576349 0.483848
0.442496 0.584985 0.49308
0.456245 0.594064 0.499825
0.472618 0.603586 0.504463
0.492271 0.613596 0.507301
0.515099 0.62414 0.508522
0.539422 0.635187 0.508263
0.56524 0.647074 0.507027
0.591897 0.659129 0.50425
0.619745 0.671687 0.500435
0.648722 0.684703 0.495674
0.678569 0.69807 0.48983
0.709697 0.711986 0.483207
0.742535 0.725399 0.475303
0.780758 0.737118 0.466651
0.819745 0.748455 0.457404
0.858732 0.75938 0.44744
0.89749 0.769802 0.436683
0.936248 0.77998 0.425376
0.97435 0.789273 0.412955
1 0.798093 0.399878
1 0.806363 0.38616
1 0.814069 0.371771
1 0.821271 0.356939
1 0.828397 0.342107
1 0.834836 0.326772
1 0.840894 0.311269
1 0.846555 0.295598
1 0.851896 0.279866
1 0.857053 0.264195
1 0.862211 0.248783
0.440925 0.596628 0.481285
0.448463 0.602808 0.498512
0.457069 0.610529 0.510948
0.46746 0.618875 0.520073
0.480903 0.62771 0.526864
0.497017 0.637079 0.531746
0.516274 0.646876 0.534844
0.538781 0.657298 0.536507
0.562676 0.668223 0.536736
0.587503 0.679438 0.535485
0.613428 0.691127 0.533043
0.640421 0.703258 0.529519
0.668482 0.715785 0.525017
0.697673 0.729015 0.51986
0.727794 0.742336 0.513497
0.758541 0.755795 0.506035
0.792615 0.768383 0.497566
0.830655 0.779675 0.488487
0.8692 0.790646 0.478843
0.908019 0.801511 0.468803
0.946365 0.811627 0.45774
0.984329 0.821164 0.445823
1 0.830076 0.433051
1 0.838575 0.419669
1 0.846555 0.405722
1 0.854322 0.391409
1 0.861234 0.376287
1 0.86775 0.360845
1 0.873915 0.345205
1 0.879713 0.329381
1 0.885405 0.313664
1 0.890455 0.297536
1 0.895247 0.281407
0.465888 0.630533 0.507988
0.473548 0.636835 0.525307
0.481819 0.644221 0.537484
0.492042 0.652399 0.546639
0.505226 0.661036 0.553491
0.521065 0.670207 0.558526
0.540108 0.679942 0.562005
0.562158 0.690135 0.563943
0.585275 0.700511 0.564202
0.609384 0.71133 0.563149
0.634562 0.722622 0.560952
0.660792 0.73434 0.557717
0.68835 0.746777 0.553811
0.716503 0.759197 0.548623
0.745403 0.771969 0.542489
0.775311 0.785016 0.535409
0.805859 0.798215 0.527367
0.841413 0.810147 0.518624
0.879286 0.821164 0.509224
0.917342 0.831693 0.499123
0.955352 0.841871 0.48838
0.993164 0.851591 0.476921
1 0.860761 0.464652
1 0.86952 0.451759
1 0.877714 0.438117
1 0.885374 0.42388
1 0.892531 0.409003
1 0.899168 0.393606
1 0.905348 0.377844
1 0.911452 0.362097
1 0.916945 0.345922
1 0.921981 0.329473
1 0.926528 0.312764
0.490761 0.664363 0.534554
0.498009 0.670268 0.551461
0.506157 0.677516 0.563592
0.516243 0.685557 0.572763
0.529213 0.694026 0.57969
0.544961 0.703197 0.585061
0.563424 0.712489 0.588479
0.584833 0.722194 0.590402
0.607401 0.732265 0.59089
0.630838 0.742687 0.590021
0.655329 0.753597 0.588052
0.680949 0.765057 0.585184
0.707347 0.776699 0.58114
0.734676 0.788708 0.576211
0.762814 0.800961 0.570336
0.791577 0.813443 0.563439
0.821439 0.826368 0.555886
0.852201 0.839261 0.547387
0.888472 0.850278 0.538003
0.925826 0.860716 0.528023
0.963333 0.870787 0.517433
1 0.880507 0.506249
1 0.890028 0.494575
1 0.898924 0.482048
1 0.907088 0.468574
1 0.914794 0.454505
1 0.922087 0.439933
1 0.928878 0.424704
1 0.935347 0.409155
1 0.940963 0.392813
1 0.946151 0.37615
1 0.951019 0.359289
1 0.955413 0.342168
0.514961 0.697536 0.560433
0.522026 0.703273 0.577157
0.529931 0.710262 0.589105
0.539803 0.718105 0.598215
0.552819 0.72665 0.605447
0.567956 0.735286 0.610574
0.585962 0.744228 0.614023
0.60679 0.753536 0.615976
0.628794 0.763241 0.616571
0.651728 0.773388 0.615961
0.675669 0.784024 0.614313
0.700236 0.794751 0.611292
0.725719 0.805829 0.607309
0.752163 0.817319 0.602487
0.779492 0.829145 0.596857
0.807721 0.841535 0.5906
0.836439 0.853697 0.583001
0.865812 0.866072 0.574578
0.897231 0.87805 0.565332
0.933532 0.888533 0.555505
0.970565 0.89865 0.545174
1 0.908431 0.534279
1 0.917693 0.522606
1 0.926558 0.510307
1 0.93489 0.49723
1 0.942489 0.483223
1 0.949691 0.468666
1 0.956374 0.453544
1 0.962524 0.437705
1 0.968032 0.42121
1 0.972824 0.404059
1 0.977035 0.386404
1 0.981033 0.368643
0.538491 0.730083 0.585641
0.545419 0.735668 0.602197
0.553429 0.742763 0.614313
0.562982 0.750286 0.62324
0.575296 0.75816 0.629999
0.590112 0.766537 0.635157
0.607752 0.775219 0.638682
0.628092 0.784176 0.640681
0.649775 0.793729 0.641581
