EA 50 Cinematic Luts Pack/EA_Cinematic Lut (41).cube
TITLE "A classic, yet very dynamic grade that instantly adds some action to every video or image."
LUT_3D_SIZE 25
0.0000 0.0000 0.0000
0.0000 0.0000 0.0000
0.0174 0.0035 0.0004
0.0505 0.0137 0.0082
0.0837 0.0278 0.0190
0.1170 0.0436 0.0327
0.1502 0.0594 0.0471
0.1836 0.0753 0.0616
0.2169 0.0910 0.0759
0.2500 0.1067 0.0901
0.2829 0.1222 0.1043
0.3159 0.1378 0.1185
0.3488 0.1534 0.1326
0.3817 0.1690 0.1468
0.4146 0.1846 0.1608
0.4474 0.2002 0.1750
0.4806 0.2161 0.1893
0.5138 0.2320 0.2037
0.5471 0.2480 0.2181
0.5804 0.2641 0.2325
0.6135 0.2803 0.2470
0.6468 0.2965 0.2615
0.6800 0.3129 0.2762
0.7132 0.3294 0.2909
0.7463 0.3460 0.3056
0.0000 0.0259 0.0000
0.0053 0.0294 0.0000
0.0387 0.0327 0.0028
0.0699 0.0395 0.0145
0.1010 0.0490 0.0277
0.1315 0.0607 0.0406
0.1626 0.0736 0.0539
0.1942 0.0872 0.0673
0.2262 0.1012 0.0809
0.2581 0.1155 0.0945
0.2901 0.1300 0.1081
0.3222 0.1447 0.1218
0.3545 0.1596 0.1356
0.3869 0.1746 0.1495
0.4193 0.1897 0.1633
0.4518 0.2049 0.1773
0.4847 0.2205 0.1915
0.5177 0.2361 0.2057
0.5506 0.2518 0.2199
0.5836 0.2677 0.2343
0.6166 0.2836 0.2486
0.6497 0.2997 0.2631
0.6827 0.3159 0.2776
0.7157 0.3323 0.2922
0.7487 0.3487 0.3069
0.0000 0.0614 0.0017
0.0130 0.0646 0.0000
0.0476 0.0663 0.0000
0.0816 0.0691 0.0092
0.1136 0.0742 0.0299
0.1446 0.0819 0.0459
0.1759 0.0911 0.0609
0.2063 0.1023 0.0736
0.2369 0.1144 0.0867
0.2677 0.1271 0.0998
0.2989 0.1403 0.1130
0.3302 0.1539 0.1262
0.3618 0.1679 0.1396
0.3936 0.1822 0.1531
0.4255 0.1966 0.1667
0.4576 0.2114 0.1804
0.4901 0.2264 0.1943
0.5227 0.2416 0.2083
0.5553 0.2570 0.2225
0.5880 0.2725 0.2366
0.6208 0.2882 0.2509
0.6535 0.3040 0.2652
0.6863 0.3200 0.2796
0.7192 0.3362 0.2941
0.7520 0.3525 0.3087
0.0085 0.0967 0.0106
0.0280 0.0993 0.0012
0.0540 0.1015 0.0000
0.0900 0.1032 0.0000
0.1243 0.1058 0.0164
0.1568 0.1100 0.0439
0.1882 0.1163 0.0622
0.2192 0.1241 0.0785
0.2504 0.1330 0.0940
0.2805 0.1437 0.1063
0.3107 0.1552 0.1191
0.3413 0.1675 0.1321
0.3720 0.1802 0.1452
0.4030 0.1934 0.1585
0.4343 0.2070 0.1716
0.4660 0.2210 0.1850
0.4979 0.2354 0.1986
0.5300 0.2500 0.2124
0.5622 0.2648 0.2262
0.5945 0.2799 0.2401
0.6268 0.2951 0.2542
0.6593 0.3106 0.2683
0.6918 0.3262 0.2826
0.7243 0.3421 0.2969
0.7569 0.3581 0.3113
0.0321 0.1321 0.0230
0.0468 0.1341 0.0133
0.0664 0.1363 0.0028
0.0957 0.1384 0.0000
0.1325 0.1400 0.0013
0.1669 0.1423 0.0246
0.1994 0.1460 0.0551
0.2317 0.1509 0.0795
0.2619 0.1581 0.0940
0.2931 0.1659 0.1109
0.3245 0.1746 0.1266
0.3545 0.1852 0.1390
0.3846 0.1965 0.1516
0.4150 0.2084 0.1644
0.4456 0.2209 0.1776
0.4767 0.2340 0.1909
0.5080 0.2475 0.2044
0.5395 0.2613 0.2178
0.5712 0.2755 0.2313
0.6030 0.2899 0.2449
0.6349 0.3046 0.2587
0.6669 0.3196 0.2726
0.6990 0.3348 0.2866
0.7312 0.3502 0.3007
0.7634 0.3658 0.3150
0.0555 0.1673 0.0381
0.0672 0.1688 0.0290
0.0825 0.1708 0.0166
0.1060 0.1730 0.0046
0.1373 0.1750 0.0000
0.1745 0.1764 0.0061
0.2090 0.1787 0.0336
0.2418 0.1820 0.0656
0.2740 0.1865 0.0921
0.3053 0.1924 0.1113
0.3356 0.2000 0.1259
0.3670 0.2078 0.1432
0.3985 0.2166 0.1594
0.4285 0.2271 0.1717
0.4589 0.2384 0.1844
0.4894 0.2503 0.1973
0.5201 0.2628 0.2104
0.5510 0.2757 0.2238
0.5821 0.2890 0.2372
0.6133 0.3027 0.2509
0.6447 0.3167 0.2644
0.6763 0.3311 0.2780
0.7080 0.3457 0.2918
0.7397 0.3606 0.3056
0.7716 0.3758 0.3197
0.0788 0.2024 0.0532
0.0884 0.2036 0.0460
0.1009 0.2053 0.0350
0.1200 0.2075 0.0189
0.1462 0.2097 0.0072
0.1789 0.2117 0.0029
0.2164 0.2130 0.0121
0.2511 0.2152 0.0422
0.2843 0.2183 0.0756
0.3163 0.2225 0.1035
0.3485 0.2275 0.1279
0.3790 0.2344 0.1430
0.4096 0.2422 0.1585
0.4413 0.2504 0.1757
0.4732 0.2593 0.1925
0.5034 0.2699 0.2049
0.5337 0.2812 0.2176
0.5641 0.2931 0.2305
0.5947 0.3054 0.2437
0.6254 0.3183 0.2570
0.6563 0.3315 0.2704
0.6874 0.3452 0.2841
0.7185 0.3592 0.2979
0.7498 0.3735 0.3116
0.7813 0.3882 0.3254
0.1021 0.2377 0.0683
0.1102 0.2387 0.0625
0.1207 0.2402 0.0534
0.1366 0.2422 0.0389
0.1587 0.2445 0.0215
0.1870 0.2467 0.0116
0.2206 0.2486 0.0069
0.2584 0.2499 0.0193
0.2932 0.2521 0.0512
0.3264 0.2551 0.0849
0.3586 0.2591 0.1144
0.3911 0.2639 0.1403
0.4229 0.2698 0.1606
0.4533 0.2774 0.1751
0.4843 0.2855 0.1913
0.5159 0.2938 0.2086
0.5478 0.3028 0.2254
0.5782 0.3134 0.2383
0.6084 0.3248 0.2510
0.6388 0.3367 0.2640
0.6693 0.3490 0.2772
0.6999 0.3619 0.2905
0.7306 0.3752 0.3040
0.7614 0.3888 0.3178
0.7924 0.4029 0.3316
0.1254 0.2733 0.0832
0.1323 0.2743 0.0785
0.1414 0.2755 0.0710
0.1550 0.2774 0.0591
0.1736 0.2796 0.0418
0.1982 0.2819 0.0245
0.2281 0.2840 0.0177
0.2624 0.2860 0.0120
0.3005 0.2874 0.0279
0.3356 0.2896 0.0602
0.3690 0.2927 0.0942
0.4016 0.2965 0.1248
0.4339 0.3011 0.1521
0.4664 0.3064 0.1766
0.4973 0.3133 0.1928
0.5277 0.3213 0.2074
0.5589 0.3294 0.2244
0.5906 0.3380 0.2417
0.6224 0.3472 0.2586
0.6529 0.3578 0.2720
0.6831 0.3693 0.2848
0.7134 0.3812 0.2978
0.7438 0.3937 0.3110
0.7743 0.4067 0.3245
0.8048 0.4200 0.3381
0.1487 0.3096 0.0982
0.1548 0.3104 0.0942
0.1627 0.3115 0.0878
0.1746 0.3132 0.0776
0.1908 0.3154 0.0629
0.2121 0.3178 0.0451
0.2385 0.3202 0.0281
0.2697 0.3223 0.0213
0.3047 0.3243 0.0177
0.3429 0.3257 0.0372
0.3782 0.3279 0.0692
0.4117 0.3309 0.1035
0.4449 0.3344 0.1356
0.4768 0.3391 0.1634
0.5092 0.3441 0.1891
0.5413 0.3501 0.2104
0.5717 0.3577 0.2251
0.6020 0.3660 0.2398
0.6335 0.3743 0.2575
0.6652 0.3831 0.2750
0.6970 0.3925 0.2921
0.7276 0.4032 0.3060
0.7577 0.4148 0.3190
0.7879 0.4270 0.3321
0.8182 0.4396 0.3454
0.1722 0.3467 0.1134
0.1776 0.3474 0.1098
0.1847 0.3484 0.1045
0.1951 0.3500 0.0956
0.2094 0.3520 0.0828
0.2279 0.3544 0.0655
0.2515 0.3568 0.0484
0.2794 0.3591 0.0342
0.3116 0.3613 0.0258
0.3471 0.3632 0.0245
0.3853 0.3646 0.0465
0.4207 0.3669 0.0782
0.4544 0.3698 0.1124
0.4876 0.3733 0.1454
0.5196 0.3778 0.1742
0.5520 0.3826 0.2011
0.5845 0.3881 0.2256
0.6156 0.3951 0.2430
0.6460 0.4031 0.2577
0.6765 0.4117 0.2731
0.7080 0.4202 0.2910
0.7397 0.4293 0.3087
0.7714 0.4389 0.3260
0.8021 0.4498 0.3405
0.8322 0.4616 0.3535
0.1958 0.3844 0.1285
0.2005 0.3851 0.1253
0.2069 0.3860 0.1208
0.2162 0.3874 0.1130
0.2290 0.3893 0.1019
0.2455 0.3916 0.0868
0.2663 0.3941 0.0691
0.2914 0.3965 0.0517
0.3206 0.3989 0.0410
0.3535 0.4011 0.0317
0.3894 0.4030 0.0324
0.4278 0.4044 0.0561
0.4633 0.4066 0.0873
0.4970 0.4096 0.1214
0.5303 0.4131 0.1549
0.5625 0.4174 0.1847
0.5949 0.4221 0.2125
0.6273 0.4275 0.2382
0.6595 0.4335 0.2608
0.6899 0.4413 0.2756
0.7202 0.4498 0.2905
0.7509 0.4586 0.3068
0.7824 0.4674 0.3249
0.8140 0.4768 0.3427
0.8457 0.4867 0.3603
0.2194 0.4230 0.1437
0.2236 0.4236 0.1408
0.2294 0.4244 0.1369
0.2378 0.4258 0.1299
0.2493 0.4275 0.1202
0.2641 0.4296 0.1068
0.2825 0.4321 0.0898
0.3053 0.4346 0.0724
0.3317 0.4372 0.0553
0.3621 0.4395 0.0489
0.3955 0.4417 0.0378
0.4318 0.4436 0.0408
0.4702 0.4450 0.0650
0.5058 0.4473 0.0961
0.5396 0.4503 0.1305
0.5729 0.4537 0.1643
0.6060 0.4577 0.1959
0.6376 0.4626 0.2237
0.6700 0.4679 0.2502
0.7024 0.4736 0.2750
0.7337 0.4807 0.2936
0.7640 0.4890 0.3086
0.7943 0.4979 0.3238
0.8252 0.5069 0.3409
0.8566 0.5161 0.3592
0.2429 0.4624 0.1588
0.2468 0.4630 0.1563
0.2520 0.4638 0.1527
0.2597 0.4650 0.1466
0.2701 0.4666 0.1378
0.2836 0.4687 0.1261
0.3003 0.4711 0.1107
0.3205 0.4737 0.0928
0.3448 0.4763 0.0757
0.3724 0.4788 0.0602
0.4036 0.4811 0.0558
0.4376 0.4834 0.0445
0.4742 0.4853 0.0488
0.5126 0.4867 0.0742
0.5484 0.4890 0.1050
0.5821 0.4920 0.1396
0.6155 0.4955 0.1734
0.6487 0.4994 0.2060
0.6804 0.5043 0.2345
0.7127 0.5095 0.2620
0.7451 0.5151 0.2878
0.7775 0.5213 0.3119
0.8078 0.5295 0.3269
0.8378 0.5381 0.3420
0.8678 0.5473 0.3572
0.2664 0.5029 0.1739
0.2700 0.5034 0.1716
0.2748 0.5041 0.1685
0.2818 0.5052 0.1631
0.2913 0.5068 0.1551
0.3036 0.5087 0.1445
0.3189 0.5110 0.1309
0.3372 0.5137 0.1138
0.3593 0.5163 0.0963
0.3848 0.5190 0.0791
0.4135 0.5216 0.0663
0.4453 0.5239 0.0602
0.4797 0.5262 0.0521
0.5165 0.5281 0.0572
0.5550 0.5295 0.0835
0.5908 0.5319 0.1139
0.6247 0.5349 0.1485
0.6580 0.5384 0.1826
0.6912 0.5423 0.2156
0.7231 0.5472 0.2450
0.7554 0.5523 0.2735
0.7876 0.5579 0.3000
0.8197 0.5639 0.3251
0.8509 0.5710 0.3450
0.8810 0.5796 0.3602
0.2900 0.5444 0.1891
0.2932 0.5449 0.1870
0.2976 0.5456 0.1840
0.3042 0.5466 0.1794
0.3129 0.5481 0.1721
0.3242 0.5500 0.1625
0.3382 0.5522 0.1501
0.3550 0.5547 0.1346
0.3749 0.5575 0.1166
0.3985 0.5603 0.0995
0.4250 0.5630 0.0827
0.4547 0.5656 0.0735
0.4871 0.5681 0.0649
0.5218 0.5704 0.0599
0.5589 0.5723 0.0657
0.5974 0.5738 0.0928
0.6333 0.5762 0.1228
0.6672 0.5793 0.1575
0.7006 0.5829 0.1916
0.7336 0.5867 0.2252
0.7661 0.5911 0.2562
0.7976 0.5965 0.2845
0.8296 0.6020 0.3119
0.8616 0.6080 0.3378
0.8937 0.6145 0.3624
0.3136 0.5874 0.2044
0.3165 0.5879 0.2025
0.3206 0.5886 0.1997
0.3267 0.5896 0.1955
0.3347 0.5910 0.1889
0.3451 0.5928 0.1800
0.3580 0.5950 0.1688
0.3736 0.5975 0.1547
0.3918 0.6003 0.1378
0.4134 0.6031 0.1201
0.4381 0.6060 0.1030
0.4655 0.6089 0.0864
0.4960 0.6115 0.0811
0.5289 0.6140 0.0698
0.5639 0.6164 0.0678
0.6012 0.6183 0.0743
0.6396 0.6197 0.1020
0.6755 0.6220 0.1317
0.7092 0.6251 0.1665
0.7425 0.6286 0.2007
0.7755 0.6325 0.2345
0.8084 0.6368 0.2667
0.8395 0.6422 0.2951
0.8715 0.6478 0.3234
0.9035 0.6538 0.3502
0.3371 0.6321 0.2196
0.3399 0.6326 0.2178
0.3436 0.6332 0.2153
0.3493 0.6341 0.2115
0.3568 0.6355 0.2054
0.3664 0.6372 0.1974
0.3784 0.6393 0.1870
0.3928 0.6418 0.1742
0.4097 0.6445 0.1586
0.4293 0.6475 0.1402
0.4524 0.6504 0.1236
0.4780 0.6533 0.1062
0.5063 0.6562 0.0923
0.5373 0.6586 0.0895
0.5706 0.6612 0.0753
0.6057 0.6635 0.0751
0.6430 0.6653 0.0830
0.6815 0.6668 0.1112
0.7174 0.6691 0.1404
0.7511 0.6722 0.1754
0.7844 0.6758 0.2095
0.8174 0.6797 0.2435
0.8502 0.6840 0.2763
0.8815 0.6894 0.3057
0.9135 0.6949 0.3347
0.3606 0.6779 0.2349
0.3631 0.6784 0.2331
0.3666 0.6790 0.2309
0.3719 0.6798 0.2272
0.3790 0.6811 0.2219
0.3879 0.6827 0.2143
0.3990 0.6847 0.2048
0.4123 0.6870 0.1930
0.4281 0.6897 0.1787
0.4462 0.6926 0.1617
0.4673 0.6955 0.1438
0.4913 0.6985 0.1267
0.5178 0.7015 0.1094
0.5469 0.7042 0.0986
0.5785 0.7068 0.0945
0.6120 0.7094 0.0812
0.6474 0.7116 0.0822
0.6849 0.7135 0.0913
0.7232 0.7150 0.1202
0.7593 0.7173 0.1493
0.7929 0.7205 0.1844
0.8262 0.7241 0.2185
0.8592 0.7280 0.2527
0.8920 0.7323 0.2860
0.9241 0.7373 0.3169
0.3839 0.7244 0.2501
0.3862 0.7249 0.2485
0.3895 0.7254 0.2463
0.3944 0.7263 0.2429
0.4010 0.7274 0.2381
0.4094 0.7290 0.2311
0.4197 0.7309 0.2222
0.4322 0.7331 0.2112
0.4469 0.7357 0.1980
0.4639 0.7385 0.1824
0.4832 0.7416 0.1641
0.5057 0.7445 0.1471
0.5306 0.7476 0.1297
0.5578 0.7506 0.1130
0.5876 0.7533 0.1052
0.6197 0.7559 0.0989
0.6535 0.7585 0.0879
0.6892 0.7607 0.0895
0.7266 0.7626 0.1002
0.7650 0.7641 0.1292
0.8010 0.7664 0.1581
0.8347 0.7697 0.1931
0.8680 0.7733 0.2273
0.9009 0.7772 0.2619
0.9338 0.7815 0.2955
0.4071 0.7717 0.2652
0.4093 0.7721 0.2638
0.4124 0.7726 0.2618
0.4169 0.7734 0.2586
0.4233 0.7745 0.2542
0.4311 0.7760 0.2477
0.4408 0.7778 0.2394
0.4525 0.7800 0.2293
0.4662 0.7825 0.2170
0.4821 0.7852 0.2024
0.5002 0.7882 0.1854
0.5209 0.7913 0.1672
0.5444 0.7943 0.1502
0.5701 0.7973 0.1330
0.5980 0.8003 0.1179
0.6285 0.8030 0.1127
0.6609 0.8057 0.1033
0.6950 0.8082 0.0944
0.7309 0.8105 0.0971
0.7683 0.8123 0.1088
0.8066 0.8138 0.1385
0.8428 0.8162 0.1667
0.8766 0.8196 0.2020
0.9100 0.8233 0.2363
0.9431 0.8274 0.2710
0.4304 0.8195 0.2805
0.4325 0.8199 0.2792
0.4353 0.8204 0.2773
0.4396 0.8212 0.2743
0.4455 0.8222 0.2702
0.4529 0.8236 0.2642
0.4620 0.8253 0.2564
0.4730 0.8274 0.2470
0.4859 0.8298 0.2354
0.5009 0.8324 0.2218
0.5179 0.8353 0.2061
0.5371 0.8384 0.1880
0.5591 0.8414 0.1706
0.5834 0.8445 0.1535
0.6098 0.8476 0.1362
0.6385 0.8505 0.1240
0.6694 0.8531 0.1209
0.7022 0.8559 0.1079
0.7365 0.8585 0.1017
0.7727 0.8608 0.1044
0.8103 0.8628 0.1173
0.8486 0.8644 0.1475
0.8850 0.8669 0.1757
0.9188 0.8702 0.2110
0.9523 0.8739 0.2455
0.4537 0.8676 0.2960
0.4556 0.8680 0.2946
0.4583 0.8685 0.2928
0.4623 0.8692 0.2900
0.4679 0.8702 0.2862
0.4749 0.8715 0.2807
0.4835 0.8731 0.2733
0.4938 0.8751 0.2644
0.5060 0.8773 0.2537
0.5201 0.8798 0.2410
0.5361 0.8826 0.2262
0.5542 0.8856 0.2092
0.5745 0.8888 0.1908
0.5976 0.8919 0.1739
0.6227 0.8951 0.1565
0.6498 0.8982 0.1398
0.6793 0.9012 0.1302
0.7107 0.9039 0.1291
0.7439 0.9067 0.1131
0.7784 0.9093 0.1089
0.8147 0.9116 0.1122
0.8524 0.9136 0.1261
0.8907 0.9152 0.1567
0.9272 0.9176 0.1852
0.9610 0.9209 0.2200
0.4770 0.9160 0.3115
0.4788 0.9163 0.3102
0.4813 0.9167 0.3084
0.4852 0.9174 0.3058
0.4904 0.9184 0.3021
0.4972 0.9196 0.2972
0.5053 0.9212 0.2903
0.5151 0.9231 0.2819
0.5266 0.9253 0.2718
0.5399 0.9277 0.2598
0.5551 0.9304 0.2459
0.5722 0.9334 0.2300
0.5912 0.9365 0.2119
0.6129 0.9397 0.1945
0.6368 0.9428 0.1771
0.6626 0.9460 0.1598
0.6903 0.9491 0.1439
0.7204 0.9519 0.1374
0.7522 0.9546 0.1330
0.7856 0.9574 0.1190
0.8203 0.9599 0.1166
0.8568 0.9622 0.1200
0.8945 0.9641 0.1352
0.9328 0.9657 0.1659
0.9694 0.9680 0.1942
0.5509 0.9530 0.4069
0.5522 0.9533 0.4058
0.5539 0.9538 0.4042
0.5565 0.9546 0.4020
0.5601 0.9557 0.3986
0.5647 0.9571 0.3942
0.5699 0.9590 0.3874
0.5761 0.9613 0.3789
0.5835 0.9640 0.3683
0.5923 0.9671 0.3558
0.6025 0.9705 0.3409
0.6144 0.9742 0.3232
0.6281 0.9782 0.3028
0.6441 0.9823 0.2803
0.6645 0.9858 0.2649
0.6875 0.9892 0.2518
0.7133 0.9922 0.2450
0.7424 0.9945 0.2532
0.7753 0.9955 0.2850
0.8084 0.9968 0.3131
0.8413 0.9986 0.3357
0.8761 0.9990 0.3844
0.9107 0.9991 0.4400
0.9443 0.9983 0.5185
0.9740 0.9968 0.6272
0.0000 0.0000 0.0000
0.0000 0.0000 0.0127
0.0250 0.0032 0.0175
0.0608 0.0115 0.0227
0.0961 0.0233 0.0296
0.1302 0.0381 0.0385
0.1601 0.0557 0.0514
0.1917 0.0723 0.0650
0.2237 0.0885 0.0788
0.2559 0.1046 0.0927
0.2881 0.1204 0.1065
0.3205 0.1362 0.1204
0.3529 0.1519 0.1343
0.3854 0.1677 0.1483
0.4179 0.1834 0.1622
0.4505 0.1992 0.1763
0.4834 0.2151 0.1905
0.5165 0.2311 0.2048
0.5495 0.2471 0.2191
0.5826 0.2633 0.2335
0.6157 0.2795 0.2479
0.6488 0.2958 0.2624
0.6818 0.3123 0.2770
0.7149 0.3288 0.2916
0.7480 0.3454 0.3063
0.0000 0.0254 0.0277
0.0083 0.0288 0.0293
0.0408 0.0328 0.0319
0.0714 0.0401 0.0366
0.1015 0.0501 0.0443
0.1320 0.0617 0.0538
0.1631 0.0744 0.0647
0.1947 0.0879 0.0764
0.2266 0.1019 0.0886
0.2584 0.1161 0.1012
0.2904 0.1305 0.1140
0.3225 0.1452 0.1271
0.3548 0.1600 0.1404
0.3871 0.1750 0.1538
0.4195 0.1901 0.1673
0.4520 0.2053 0.1809
0.4849 0.2208 0.1948
0.5178 0.2364 0.2087
0.5508 0.2521 0.2228
0.5838 0.2679 0.2369
0.6168 0.2839 0.2512
0.6498 0.2999 0.2655
0.6828 0.3161 0.2799
0.7158 0.3325 0.2943
0.7504 0.3481 0.3074
0.0000 0.0614 0.0318
0.0200 0.0633 0.0334
0.0505 0.0654 0.0358
0.0845 0.0679 0.0480
0.1159 0.0737 0.0548
0.1459 0.0819 0.0633
0.1761 0.0918 0.0729
0.2066 0.1029 0.0835
0.2372 0.1149 0.0949
0.2681 0.1276 0.1067
0.2992 0.1407 0.1189
0.3305 0.1544 0.1315
0.3621 0.1683 0.1444
0.3938 0.1825 0.1574
0.4257 0.1970 0.1706
0.4578 0.2117 0.1840
0.4903 0.2267 0.1977
0.5229 0.2419 0.2114
0.5555 0.2573 0.2253
0.5882 0.2728 0.2393
0.6209 0.2884 0.2534
0.6537 0.3043 0.2675
0.6865 0.3202 0.2818
0.7193 0.3364 0.2962
0.7537 0.3518 0.3092
0.0022 0.0981 0.0327
0.0357 0.0980 0.0410
0.0578 0.1008 0.0336
0.0924 0.1023 0.0422
0.1266 0.1047 0.0570
0.1587 0.1093 0.0697
0.1895 0.1160 0.0800
0.2206 0.1238 0.0925
0.2505 0.1334 0.1031
0.2805 0.1441 0.1143
0.3108 0.1556 0.1260
0.3414 0.1678 0.1379
0.3722 0.1806 0.1502
0.4033 0.1937 0.1627
0.4345 0.2073 0.1755
0.4662 0.2213 0.1886
0.4981 0.2356 0.2020
0.5302 0.2502 0.2154
0.5624 0.2651 0.2291
0.5946 0.2801 0.2428
0.6270 0.2954 0.2567
0.6594 0.3108 0.2707
0.6919 0.3264 0.2848
0.7244 0.3423 0.2990
0.7586 0.3575 0.3119
0.0201 0.1340 0.0364
0.0537 0.1330 0.0505
0.0711 0.1355 0.0417
0.0984 0.1379 0.0362
0.1342 0.1394 0.0429
0.1691 0.1414 0.0635
0.2009 0.1453 0.0806
0.2325 0.1507 0.0951
0.2629 0.1579 0.1070
0.2944 0.1655 0.1220
0.3245 0.1750 0.1337
0.3545 0.1855 0.1453
0.3847 0.1968 0.1573
0.4150 0.2087 0.1696
0.4457 0.2212 0.1821
0.4768 0.2343 0.1948
0.5082 0.2477 0.2077
0.5397 0.2616 0.2208
0.5713 0.2757 0.2341
0.6031 0.2901 0.2476
0.6350 0.3048 0.2612
0.6670 0.3198 0.2749
0.6991 0.3350 0.2888
0.7313 0.3504 0.3029
0.7651 0.3652 0.3155
0.0461 0.1688 0.0488
0.0730 0.1680 0.0610
0.0874 0.1700 0.0529
0.1091 0.1725 0.0423
0.1393 0.1745 0.0401
0.1758 0.1760 0.0466
0.2107 0.1779 0.0691
0.2427 0.1816 0.0889
0.2753 0.1859 0.1096
0.3060 0.1923 0.1230
0.3364 0.1997 0.1362
0.3680 0.2076 0.1520
0.3985 0.2168 0.1650
0.4286 0.2274 0.1768
0.4589 0.2387 0.1891
0.4895 0.2506 0.2016
0.5202 0.2630 0.2144
0.5511 0.2759 0.2275
0.5822 0.2892 0.2405
0.6135 0.3029 0.2536
0.6449 0.3169 0.2669
0.6764 0.3312 0.2804
0.7081 0.3459 0.2940
0.7398 0.3608 0.3078
0.7732 0.3753 0.3202
0.0712 0.2037 0.0618
0.0933 0.2030 0.0725
0.1054 0.2046 0.0653
0.1235 0.2069 0.0543
0.1485 0.2093 0.0440
0.1805 0.2112 0.0436
0.2175 0.2126 0.0510
0.2524 0.2146 0.0750
0.2855 0.2178 0.0979
0.3172 0.2221 0.1199
0.3492 0.2273 0.1392
0.3795 0.2343 0.1522
0.4103 0.2420 0.1667
0.4420 0.2502 0.1829
0.4732 0.2595 0.1972
0.5034 0.2702 0.2092
0.5337 0.2814 0.2216
0.5642 0.2933 0.2342
0.5947 0.3057 0.2471
0.6255 0.3185 0.2602
0.6564 0.3317 0.2734
0.6874 0.3454 0.2869
0.7186 0.3594 0.3003
0.7499 0.3737 0.3138
0.7829 0.3876 0.3259
0.0957 0.2388 0.0754
0.1143 0.2382 0.0847
0.1247 0.2396 0.0784
0.1401 0.2416 0.0684
0.1611 0.2441 0.0549
0.1887 0.2463 0.0469
0.2219 0.2482 0.0466
0.2592 0.2496 0.0561
0.2942 0.2516 0.0808
0.3276 0.2545 0.1061
0.3594 0.2587 0.1297
0.3920 0.2635 0.1525
0.4233 0.2697 0.1690
0.4538 0.2773 0.1826
0.4849 0.2853 0.1981
0.5166 0.2937 0.2146
0.5480 0.3029 0.2298
0.5782 0.3136 0.2420
0.6085 0.3250 0.2545
0.6388 0.3368 0.2672
0.6693 0.3492 0.2802
0.6999 0.3621 0.2934
0.7306 0.3753 0.3067
0.7615 0.3890 0.3203
0.7939 0.4024 0.3322
0.1199 0.2743 0.0893
0.1358 0.2738 0.0974
0.1449 0.2750 0.0919
0.1583 0.2768 0.0830
0.1763 0.2792 0.0697
0.2000 0.2816 0.0565
0.2295 0.2837 0.0511
0.2635 0.2857 0.0499
0.3012 0.2871 0.0617
0.3363 0.2894 0.0819
0.3700 0.2922 0.1140
0.4021 0.2963 0.1392
0.4347 0.3008 0.1637
0.4672 0.3060 0.1860
0.4977 0.3132 0.1997
0.5281 0.3212 0.2136
0.5594 0.3293 0.2300
0.5911 0.3379 0.2468
0.6228 0.3471 0.2629
0.6530 0.3580 0.2752
0.6832 0.3694 0.2878
0.7134 0.3814 0.3007
0.7438 0.3939 0.3138
0.7743 0.4068 0.3270
0.8063 0.4195 0.3387
0.1440 0.3104 0.1035
0.1578 0.3100 0.1107
0.1658 0.3111 0.1058
0.1777 0.3128 0.0980
0.1935 0.3150 0.0859
0.2140 0.3175 0.0711
0.2400 0.3199 0.0589
0.2709 0.3220 0.0567
0.3057 0.3240 0.0538
0.3436 0.3254 0.0678
0.3788 0.3277 0.0890
0.4125 0.3305 0.1219
0.4456 0.3341 0.1495
0.4774 0.3388 0.1744
0.5099 0.3438 0.1982
0.5416 0.3500 0.2169
0.5720 0.3576 0.2309
0.6024 0.3659 0.2452
0.6340 0.3742 0.2625
0.6656 0.3830 0.2795
0.6975 0.3923 0.2963
0.7276 0.4034 0.3089
0.7578 0.4150 0.3216
0.7879 0.4271 0.3346
0.8196 0.4391 0.3459
0.1680 0.3474 0.1179
0.1803 0.3470 0.1245
0.1874 0.3480 0.1200
0.1980 0.3495 0.1132
0.2120 0.3516 0.1022
0.2301 0.3540 0.0879
0.2530 0.3565 0.0733
0.2806 0.3589 0.0626
0.3125 0.3610 0.0601
0.3479 0.3630 0.0584
0.3859 0.3644 0.0743
0.4213 0.3667 0.0965
0.4551 0.3695 0.1299
0.4884 0.3730 0.1588
0.5201 0.3775 0.1847
0.5526 0.3824 0.2098
0.5851 0.3878 0.2331
0.6159 0.3950 0.2484
0.6463 0.4030 0.2627
0.6768 0.4116 0.2778
0.7084 0.4201 0.2954
0.7401 0.4292 0.3127
0.7718 0.4388 0.3297
0.8021 0.4499 0.3431
0.8336 0.4612 0.3540
