EA 50 Cinematic Luts Pack/EA_Cinematic Lut (24).cube
TITLE "Generated by Resolve"
LUT_3D_SIZE 33
0.011429 0.00358587 0
0.0186313 0.00822461 0
0.026978 0.0130465 0
0.0408942 0.0166323 0
0.0603647 0.0184024 0
0.0851759 0.0186465 0
0.114321 0.0176089 0
0.146944 0.0155642 0
0.182132 0.0127871 0
0.219272 0.00965896 0
0.256336 0.0062562 0
0.286336 0.00471504 0
0.316442 0.0031281 0
0.347341 0.00129702 0
0.378836 0 0
0.410971 0 0
0.44332 0 0
0.475853 0 0
0.508354 0 0
0.540673 0 0
0.572961 0 0
0.604547 0 0
0.63537 0 0
0.665446 0 0
0.694759 0 0
0.723583 0 0
0.751995 0 0
0.779965 0 0
0.807843 0 0
0.835691 0 0
0.863584 0 0
0.891814 0 0
0.919905 0 0
0.0302434 0.0208133 0
0.0375219 0.0257725 0
0.0420844 0.0320439 0
0.0512398 0.0368048 0
0.0663157 0.0399176 0
0.0872511 0.0413977 0
0.113283 0.0413977 0
0.143801 0.0403449 0
0.177493 0.0380713 0
0.213779 0.0350042 0
0.250919 0.0316167 0
0.284596 0.0290837 0
0.314687 0.0274357 0
0.345785 0.0257725 0
0.377249 0.0237736 0
0.409232 0.0216678 0
0.441611 0.0195315 0
0.474205 0.0174258 0
0.506844 0.0153811 0
0.539422 0.01355 0
0.571603 0.0116121 0
0.603281 0.00988785 0
0.634256 0.00840772 0
0.664515 0.007187 0
0.694072 0.00627146 0
0.723064 0.00561532 0
0.751507 0.00503548 0
0.779721 0.00463874 0
0.807858 0.0043183 0
0.83595 0.0040589 0
0.864134 0.0039826 0
0.892576 0.00396735 0
0.920928 0.00401312 0
0.0442664 0.0403296 0
0.0554665 0.0438544 0
0.0593423 0.0498207 0
0.0653544 0.0554971 0
0.0765087 0.0598611 0
0.0934768 0.062623 0
0.116152 0.0639811 0
0.143572 0.0637522 0
0.175143 0.0622721 0
0.210025 0.0597696 0
0.246647 0.0566873 0
0.28307 0.0535134 0
0.313344 0.0520638 0
0.344244 0.0502174 0
0.375723 0.048249 0
0.407736 0.0462043 0
0.440131 0.0440986 0
0.47277 0.0420539 0
0.505638 0.0402533 0
0.53817 0.0383917 0
0.570459 0.0366217 0
0.602258 0.0350042 0
0.633326 0.0336461 0
0.66392 0.0327916 0
0.693614 0.0320287 0
0.722698 0.0314794 0
0.751324 0.0310826 0
0.779675 0.030869 0
0.808103 0.0308537 0
0.836683 0.0310979 0
0.86508 0.0312505 0
0.893645 0.0313878 0
0.92221 0.0316777 0
0.0522011 0.061677 0
0.0679942 0.0635996 0
0.0746319 0.0684825 0
0.0802777 0.0740826 0
0.0890822 0.0791028 0
0.103029 0.0830854 0
0.122164 0.0853895 0
0.146532 0.0862135 0
0.175586 0.0856336 0
0.208606 0.0838483 0
0.244266 0.0814374 0
0.280598 0.0785687 0
0.31249 0.0765698 0
0.343389 0.0747539 0
0.374884 0.0728466 0
0.406958 0.0708782 0
0.439658 0.0691081 0
0.472374 0.067155 0
0.505135 0.0652934 0
0.537774 0.0635386 0
0.57023 0.0619516 0
0.602243 0.0605783 0
0.633722 0.0596628 0
0.664271 0.0587778 0
0.694133 0.0581979 0
0.723476 0.0579232 0
0.752422 0.0578775 0
0.781109 0.0580148 0
0.809888 0.058381 0
0.83856 0.058732 0
0.867323 0.059266 0
0.896361 0.0598764 0
0.925292 0.0605631 0
0.0543069 0.0849775 0
0.0745861 0.085481 0
0.0851606 0.0890516 0
0.0929122 0.0939956 0
0.101534 0.0990616 0
0.113481 0.103365 0
0.130053 0.106493 0
0.151705 0.108263 0
0.178256 0.108629 0
0.209369 0.107805 0
0.243412 0.105928 0
0.278828 0.103471 0
0.311971 0.101366 0
0.342992 0.0997024 0
0.374563 0.0979019 0
0.406897 0.0962234 0
0.439506 0.094377 0
0.472374 0.092607 0
0.505348 0.0909743 0
0.53814 0.0894179 0
0.570764 0.0879988 0
0.603189 0.087068 0
0.634745 0.0862593 0
0.665614 0.0857099 0
0.695735 0.0854047 0
0.725277 0.0853742 0
0.754772 0.0858778 0
0.783841 0.0864118 0
0.812863 0.0870375 0
0.841825 0.0877241 0
0.870802 0.0884871 0
0.900053 0.0893568 0
0.929519 0.0905776 0
0.0513161 0.110231 0
0.0756237 0.109529 0
0.0903792 0.11191 0
0.101274 0.115801 0
0.111315 0.120256 0
0.12311 0.124559 0
0.138323 0.128115 0
0.157961 0.130556 0
0.182559 0.131914 0
0.211566 0.131762 0
0.243977 0.130556 0
0.278264 0.128649 0
0.311772 0.126696 0
0.343038 0.125322 0
0.374884 0.123827 0
0.407202 0.122164 0
0.439918 0.12047 0
0.472923 0.118853 0
0.506096 0.117449 0
0.539406 0.116426 0
0.572351 0.115373 0
0.604776 0.114473 0
0.636576 0.113893 0
0.667765 0.11371 0
0.698329 0.113863 0
0.728527 0.114504 0
0.758038 0.115068 0
0.787289 0.115801 0
0.816556 0.116686 0
0.845808 0.117678 0
0.875029 0.1187 0
0.904692 0.119982 0
0.934035 0.121111 0
0.0443427 0.137163 0
0.0722057 0.135744 0
0.0906386 0.136965 0
0.104891 0.139696 0
0.117403 0.143343 0
0.130343 0.14728 0
0.145571 0.150988 0
0.164355 0.153948 0
0.187213 0.155657 0
0.214572 0.156146 0
0.245502 0.155642 0
0.278691 0.154421 0
0.312032 0.152987 0
0.343374 0.151751 0
0.375296 0.150362 0
0.407858 0.148989 0
0.440879 0.147631 0
0.474128 0.146304 0
0.507668 0.145281 0
0.5411 0.144411 0
0.574395 0.143725 0
0.607263 0.143282 0
0.639384 0.143084 0
0.670817 0.143145 0
0.701823 0.143771 0
0.732021 0.144442 0
0.761822 0.145296 0
0.791272 0.146258 0
0.820661 0.147295 0
0.850294 0.148699 0
0.879728 0.149966 0
0.909316 0.151202 0
0.938796 0.152483 0
0.0344854 0.165698 0
0.0647746 0.163516 0
0.0864118 0.163958 0
0.10399 0.16585 0
0.119371 0.168673 0
0.13431 0.172076 0
0.1505 0.175616 0
0.169162 0.178561 0
0.191379 0.180682 0
0.217639 0.181674 0
0.247349 0.18172 0
0.279744 0.181308 0
0.312306 0.180331 0
0.343862 0.179355 0
0.375998 0.178241 0
0.408759 0.177111 0
0.442161 0.176181 0
0.475959 0.175418 0
0.509712 0.17467 0
0.543359 0.17406 0
0.576837 0.173587 0
0.609903 0.173373 0
0.642481 0.173632 0
0.67425 0.174075 0
0.705165 0.17464 0
0.7355 0.175448 0
0.765423 0.176486 0
0.795102 0.177661 0
0.824872 0.179126 0
0.854429 0.180468 0
0.88394 0.181827 0
0.913664 0.183215 0
0.943313 0.18471 0
0.0225071 0.195377 0
0.0545968 0.192905 0
0.0786908 0.192813 0
0.0991379 0.194049 0
0.117571 0.196475 0
0.134813 0.199283 0
0.152392 0.202274 0
0.171756 0.205081 0
0.194049 0.20737 0
0.220005 0.208865 0
0.249226 0.209628 0
0.280598 0.209491 0
0.312291 0.208957 0
0.344167 0.208377 0
0.37673 0.207752 0
0.409949 0.207126 0
0.443641 0.206531 0
0.47747 0.205844 0
0.511437 0.205356 0
0.545357 0.205035 0
0.579049 0.204807 0
0.612406 0.204929 0
0.645045 0.205295 0
0.67689 0.205814 0
0.708003 0.206607 0
0.738476 0.207599 0
0.768505 0.208743 0
0.79855 0.210346 0
0.82826 0.211765 0
0.857939 0.213245 0
0.887556 0.21474 0
0.917372 0.216236 0
0.947326 0.218051 0
0.00936904 0.226139 0
0.0425574 0.223774 0
0.0684977 0.223484 0
0.091371 0.224521 0
0.112032 0.22623 0
0.13164 0.228626 0
0.151186 0.231357 0
0.171832 0.234012 0
0.194736 0.236301 0
0.220966 0.238163 0
0.249866 0.2392 0
0.280903 0.239658 0
0.312108 0.239536 0
0.344167 0.239216 0
0.377157 0.239094 0
0.410529 0.238682 0
0.444312 0.238239 0
0.478325 0.237797 0
0.512398 0.237446 0
0.546517 0.237369 0
0.580575 0.237568 0
0.613977 0.237736 0
0.646616 0.238132 0
0.678538 0.238773 0
0.709758 0.239719 0
0.740536 0.241016 0
0.770871 0.242512 0
0.800732 0.243946 0
0.830533 0.245457 0
0.860304 0.247074 0
0.890059 0.248737 0
0.92018 0.250553 0
0.950103 0.252369 0
0 0.257572 0
0.0305486 0.255741 0
0.0576028 0.255711 0
0.0819562 0.256519 0
0.104555 0.258 0
0.126177 0.26006 0
0.147631 0.262547 0
0.170184 0.265415 0
0.194217 0.26775 0
0.220752 0.269505 0
0.249699 0.27068 0
0.280079 0.271199 0
0.311528 0.271412 0
0.344076 0.271672 0
0.376959 0.271519 0
0.410437 0.271275 0
0.444373 0.271031 0
0.478553 0.270832 0
0.51284 0.270741 0
0.547204 0.270954 0
0.581155 0.271077 0
0.614664 0.271412 0
0.647471 0.272007 0
0.67953 0.272816 0
0.710948 0.273976 0
0.741848 0.275441 0
0.772137 0.276921 0
0.802136 0.278523 0
0.832029 0.280156 0
0.86186 0.281849 0
0.891981 0.283894 0
0.921996 0.285649 0
0.951919 0.287465 0
0 0.287602 0
0.022446 0.287221 0
0.0474556 0.288487 0
0.0726329 0.289677 0
0.0968032 0.291341 0
0.120119 0.293385 0
0.143404 0.295933 0
0.167086 0.298344 0
0.192187 0.300587 0
0.219516 0.302312 0
0.248798 0.303243 0
0.27921 0.303883 0
0.311025 0.304555 0
0.343465 0.304784 0
0.376532 0.304875 0
0.410132 0.304845 0
0.444144 0.304753 0
0.478706 0.304982 0
0.5131 0.305043 0
0.547387 0.305241 0
0.581445 0.305501 0
0.61503 0.305959 0
0.647929 0.306691 0
0.680385 0.307927 0
0.711803 0.309133 0
0.742611 0.310536 0
0.772946 0.312093 0
0.803021 0.313787 0
0.833082 0.315633 0
0.863218 0.317647 0
0.893095 0.319478 0
0.92314 0.321294 0
0.953094 0.323186 0
0 0.318578 0
0.0187991 0.318593 0
0.0441749 0.320195 0
0.0681315 0.322271 0
0.0918441 0.324773 0
0.115511 0.327337 0
0.139406 0.329778 0
0.164126 0.332021 0
0.190173 0.333959 0
0.218097 0.33547 0
0.247807 0.336858 0
0.278431 0.337774 0
0.310094 0.338354 0
0.342611 0.33875 0
0.375784 0.339025 0
0.409537 0.339223 0
0.443992 0.33962 0
0.47837 0.339727 0
0.512825 0.339925 0
0.547204 0.340261 0
0.581384 0.340703 0
0.615076 0.341299 0
0.648295 0.342397 0
0.680522 0.343465 0
0.712032 0.344778 0
0.742931 0.346303 0
0.773342 0.347951 0
0.803494 0.349783 0
0.833753 0.351843 0
0.863722 0.353735 0
0.893645 0.355657 0
0.923735 0.357519 0
0.953704 0.359442 0
0 0.350881 0
0.0153811 0.35111 0
0.0410925 0.352987 0
0.065507 0.355459 0
0.0894026 0.358068 0
0.113191 0.360662 0
0.137316 0.363272 0
0.162295 0.365713 0
0.188586 0.367819 0
0.216861 0.36968 0
0.246525 0.371038 0
0.277256 0.372107 0
0.309087 0.3729 0
0.341726 0.37348 0
0.374975 0.373907 0
0.409094 0.374548 0
0.443381 0.374853 0
0.477897 0.375143 0
0.512444 0.375494 0
0.546868 0.375937 0
0.581369 0.376745 0
0.615152 0.377493 0
0.648173 0.378439 0
0.680446 0.379599 0
0.711971 0.380972 0
0.742901 0.382559 0
0.773663 0.384604 0
0.803815 0.38645 0
0.83386 0.388342 0
0.863828 0.390249 0
0.893767 0.392203 0
0.923888 0.394141 0
0.954131 0.396384 0
0 0.384253 0
0.0123598 0.384619 0
0.0385138 0.386892 0
0.0630198 0.389395 0
0.087068 0.392081 0
0.111055 0.394812 0
0.135363 0.397498 0
0.160662 0.400198 0
0.187304 0.40264 0
0.215595 0.404456 0
0.24535 0.40589 0
0.276173 0.407065 0
0.30811 0.408011 0
0.34107 0.408972 0
0.374548 0.409689 0
0.408469 0.410178 0
0.442802 0.410605 0
0.477378 0.411048 0
0.512032 0.411551 0
0.546777 0.41236 0
0.581094 0.413046 0
0.614862 0.41384 0
0.647929 0.414862 0
0.680247 0.416098 0
0.711818 0.417563 0
0.743038 0.419516 0
0.773495 0.421286 0
0.803662 0.423178 0
0.833707 0.425101 0
0.863691 0.427039 0
0.893599 0.429007 0
0.92398 0.431235 0
0.953918 0.433188 0
0 0.418463 0
0.0099031 0.419226 0
0.035935 0.421332 0
0.0605783 0.423926 0
0.0848249 0.426734 0
0.109056 0.429618 0
0.133684 0.432578 0
0.159197 0.435416 0
0.18584 0.437781 0
0.214298 0.439734 0
0.244221 0.441337 0
0.275212 0.442664 0
0.307393 0.443885 0
0.340383 0.444877 0
0.373831 0.44564 0
0.407874 0.446296 0
0.442283 0.44686 0
0.476905 0.44741 0
0.511879 0.448295 0
0.546395 0.448951 0
0.580713 0.449683 0
0.614511 0.450538 0
0.647562 0.451621 0
0.68011 0.453132 0
0.711742 0.454719 0
0.742687 0.456397 0
0.773144 0.458213 0
0.803265 0.460121 0
0.833265 0.462043 0
0.863493 0.464256 0
0.8934 0.466239 0
0.92343 0.468162 0
0.953323 0.4701 0
0 0.453483 0
0.00747692 0.45417 0
0.0337072 0.456443 0
0.0585184 0.459144 0
0.082887 0.462028 0
0.107546 0.465278 0
0.13228 0.468254 0
0.157809 0.471046 0
0.184619 0.473518 0
0.213184 0.475547 0
0.243336 0.477317 0
0.274662 0.478965 0
0.306798 0.480156 0
0.339742 0.481132 0
0.373266 0.481987 0
0.407355 0.482734 0
0.441962 0.483558 0
0.476799 0.484382 0
0.511482 0.485023 0
0.545998 0.48574 0
0.580285 0.486519 0
0.614099 0.487434 0
0.647349 0.488762 0
0.679759 0.490166 0
0.711284 0.491691 0
0.742168 0.493385 0
0.772595 0.495201 0
0.80267 0.497093 0
0.832898 0.49926 0
0.862821 0.501244 0
0.892638 0.503166 0
0.922591 0.505028 0
0.952407 0.50692 0
0 0.488914 0
0.00552377 0.489677 0
0.0318761 0.492042 0
0.0568704 0.494865 0
0.0816968 0.498146 0
0.106203 0.501183 0
0.131029 0.504204 0
0.156725 0.507073 0
0.183688 0.509651 0
0.212467 0.511833 0
0.242863 0.513817 0
0.274067 0.515312 0
0.306294 0.516579 0
0.33933 0.517662 0
0.372915 0.518608 0
0.407156 0.519554 0
0.441825 0.52047 0
0.476509 0.521172 0
0.511193 0.521889 0
0.545708 0.522637 0
0.579965 0.52343 0
0.614023 0.524666 0
0.647044 0.525811 0
0.679301 0.527123 0
0.710781 0.528664 0
0.741634 0.530343 0
0.772152 0.532296 0
0.802274 0.534279 0
0.832166 0.536171 0
0.861982 0.538048 0
0.891707 0.539925 0
0.921553 0.541741 0
0.951476 0.543755 0
0 0.524742 0
0.00415045 0.525643 0
0.0306249 0.528084 0
0.0560159 0.531258 0
0.0806897 0.53434 0
0.105348 0.537469 0
0.130312 0.540536 0
0.156085 0.54345 0
0.183444 0.546349 0
0.212284 0.548531 0
0.242557 0.550347 0
0.273854 0.551904 0
0.306142 0.553216 0
0.339254 0.554376 0
0.373144 0.555627 0
0.407294 0.556497 0
0.441794 0.557275 0
0.476432 0.557992 0
0.511086 0.558709 0
0.545632 0.559548 0
0.580072 0.560586 0
0.613794 0.561517 0
0.646738 0.562646 0
0.67892 0.563943 0
0.710323 0.565423 0
0.741222 0.567208 0
0.771649 0.569131 0
0.801572 0.570947 0
0.831357 0.572763 0
0.861036 0.574548 0
0.890654 0.576364 0
0.920592 0.578286 0
0.950286 0.580133 0
0 0.560815 0
0.00363165 0.562066 0
0.0302739 0.56466 0
0.0554818 0.56762 0
0.0802625 0.570733 0
0.105013 0.573922 0
0.130114 0.57705 0
0.156298 0.580301 0
0.183444 0.58294 0
0.212345 0.585122 0
0.242695 0.586969 0
0.274052 0.588556 0
0.306401 0.589899 0
0.339803 0.591318 0
0.373419 0.592309 0
0.407553 0.593179 0
0.442023 0.593942 0
0.476646 0.594659 0
0.511315 0.595438 0
0.545937 0.596429 0
0.580087 0.597192 0
0.613718 0.598093 0
0.646586 0.599191 0
0.678691 0.600473 0
0.710292 0.602213 0
0.740932 0.603769 0
0.771084 0.605447 0
0.8009 0.607202 0
0.830579 0.608957 0
0.860243 0.610773 0
0.889876 0.612634 0
0.919463 0.614252 0
0.948928 0.6159 0
0 0.59733 0
0.00347906 0.598444 0
0.0301823 0.601068 0
0.0554971 0.604089 0
0.0803693 0.607263 0
0.105211 0.610468 0
0.130663 0.613916 0
0.156634 0.616876 0
0.183871 0.619532 0
0.212833 0.621729 0
0.243214 0.62356 0
0.274891 0.625422 0
0.307256 0.626749 0
0.340368 0.627863 0
0.373999 0.62884 0
0.408103 0.629679 0
0.442512 0.630426 0
0.477363 0.631388 0
0.511894 0.632059 0
0.546242 0.632776 0
0.580285 0.633524 0
0.613825 0.634363 0
0.646601 0.635401 0
0.678843 0.636866 0
0.710033 0.638254 0
0.740566 0.639765 0
0.770596 0.641337 0
0.800229 0.642969 0
0.829847 0.644694 0
0.859464 0.646525 0
0.888808 0.648112 0
0.918227 0.649607 0
0.947478 0.651072 0
0 0.633692 0
0.00407416 0.634806 0
0.0308385 0.637446 0
0.0562142 0.640482 0
0.0813458 0.643885 0
0.106355 0.647211 0
0.131579 0.650355 0
0.15758 0.653315 0
0.184848 0.65594 0
0.213855 0.658122 0
0.244526 0.660182 0
0.275959 0.661768 0
0.308324 0.663035 0
0.341421 0.664103 0
0.37499 0.665019 0
0.409049 0.665812 0
0.443717 0.666804 0
0.478202 0.66743 0
0.512627 0.668025 0
0.546853 0.668635 0
0.580804 0.669306 0
0.614237 0.670115 0
0.64715 0.671336 0
0.678981 0.672419 0
0.710018 0.673671 0
0.740398 0.675105 0
0.770291 0.6766 0
0.800076 0.678416 0
0.829435 0.679896 0
0.858656 0.681376 0
0.887831 0.682857 0
0.917113 0.68423 0
0.946258 0.685618 0
0 0.66981 0
0.00555428 0.670954 0
0.0323644 0.673609 0
0.0579538 0.676844 0
0.0830549 0.680156 0
0.107988 0.68336 0
0.133242 0.686488 0
0.159274 0.689418 0
0.186572 0.692012 0
0.215869 0.694438 0
0.246265 0.696178 0
0.277653 0.697658 0
0.309987 0.698878 0
0.343053 0.699886 0
0.376837 0.700954 0
0.41088 0.701717 0
0.445136 0.702312 0
0.479545 0.702861 0
0.513893 0.70338 0
0.547997 0.703914 0
0.582071 0.704738 0
0.615366 0.705409 0
0.647868 0.706279 0
0.679576 0.707271 0
0.710445 0.708415 0
0.740642 0.709682 0
0.770611 0.711315 0
0.799969 0.712734 0
0.82916 0.714137 0
0.858198 0.71545 0
0.88716 0.716731 0
0.916259 0.717983 0
0.945418 0.719432 0
0 0.705715 0
0.00793469 0.706935 0
0.0349737 0.709789 0
0.0604105 0.712825 0
0.0853895 0.715984 0
0.110353 0.719158 0
0.135592 0.72224 0
0.161761 0.725246 0
0.189181 0.727932 0
0.218189 0.729992 0
0.248569 0.73167 0
0.279911 0.733059 0
0.3122 0.734157 0
0.345403 0.735271 0
0.378988 0.736126 0
0.412894 0.736736 0
0.447059 0.737224 0
0.481315 0.737621 0
0.515541 0.738033 0
0.549783 0.73872 0
0.583505 0.739208 0
0.616602 0.739742 0
0.64892 0.740429 0
0.680461 0.741299 0
0.711192 0.742351 0
0.741512 0.74377 0
0.770993 0.744945 0
0.800122 0.746181 0
0.829114 0.747433 0
0.858 0.748653 0
0.887037 0.750057 0
0.915877 0.751064 0
0.944564 0.752071 0
0 0.741344 0
0.0111849 0.742687 0
0.0380102 0.745296 0
0.0634165 0.748272 0
0.0883803 0.751385 0
0.113329 0.754498 0
0.138674 0.757641 0
0.164858 0.760601 0
0.192096 0.763043 0
0.221027 0.764996 0
0.251377 0.766567 0
0.282689 0.76788 0
0.31519 0.769162 0
0.348089 0.76994 0
0.38146 0.770565 0
0.41529 0.771054 0
0.449378 0.771435 0
0.48368 0.771878 0
0.517861 0.772244 0
0.551675 0.772519 0
0.585229 0.772854 0
0.618204 0.773266 0
0.650339 0.773816 0
0.681865 0.774701 0
0.712459 0.775631 0
0.742336 0.776654 0
0.771664 0.777722 0
0.800595 0.77879 0
0.829343 0.779828 0
0.858244 0.781094 0
0.886854 0.782132 0
0.915557 0.783032 0
0.94406 0.783886 0
0 0.776776 0
0.0147402 0.777829 0
0.0415503 0.780392 0
0.0669413 0.783307 0
0.0919051 0.786374 0
0.117021 0.789639 0
0.142214 0.792554 0
0.16817 0.79527 0
0.195361 0.79762 0
0.224247 0.799451 0
0.254582 0.800961 0
0.286 0.802319 0
0.318151 0.80322 0
0.350988 0.803876 0
0.384237 0.804349 0
0.417899 0.804654 0
0.451987 0.80502 0
0.486183 0.805325 0
0.520119 0.805447 0
0.553765 0.805554 0
0.587106 0.805676 0
0.619898 0.805936 0
0.652064 0.806546 0
0.683314 0.807172 0
0.713619 0.807858 0
0.743236 0.808652 0
0.772381 0.809552 0
0.801144 0.810513 0
0.830014 0.811688 0
0.858457 0.812543 0
0.886824 0.813382 0
0.915343 0.81416 0
0.94374 0.814923 0
0 0.811597 0
0.0186313 0.812573 0
0.0453498 0.81503 0
0.0707103 0.817868 0
0.0958724 0.821103 0
0.120684 0.824018 0
0.145769 0.82681 0
0.171633 0.829358 0
0.198764 0.831586 0
0.227634 0.833371 0
0.25803 0.834897 0
0.289128 0.835889 0
0.321141 0.836591 0
0.353872 0.83711 0
0.38703 0.837461 0
0.420874 0.837903 0
0.454658 0.837919 0
0.488502 0.837873 0
0.522286 0.837842 0
0.555825 0.837827 0
0.589105 0.837903 0
0.621836 0.838102 0
0.653605 0.838315 0
0.684581 0.838712 0
0.714748 0.839277 0
0.744213 0.839948 0
0.773266 0.840818 0
0.801938 0.841718 0
0.830396 0.842512 0
0.858732 0.84329 0
0.886961 0.844007 0
0.915312 0.844648 0
0.943709 0.845487 0
0 0.845991 0
0.0226291 0.846891 0
0.049546 0.849531 0
0.0747845 0.852232 0
0.0995651 0.855024 0
0.124315 0.857832 0
0.14934 0.860517 0
0.175113 0.862943 0
0.20238 0.865263 0
