EA 50 Cinematic Luts Pack/EA_Cinematic Lut (20).CUBE
#Created by: Adobe Photoshop Export Color Lookup Plugin
#Copyright: (C) Copyright 2018 Navpreet Singh
TITLE "Orange and Teal 3"
#LUT size
LUT_3D_SIZE 5
#data domain
#LUT data points
DOMAIN_MIN 0.000000 0.000000 0.000000
DOMAIN_MAX 0.903226 0.903226 0.903226
0.000000 0.000000 0.000000
0.142975 0.000000 0.000000
0.422363 0.000000 0.000000
0.753998 0.000000 0.000000
0.955414 0.000000 0.000000
0.000000 0.130615 0.130615
0.142975 0.142975 0.142975
0.577332 0.065125 0.065125
0.934753 0.012238 0.012238
1.000000 0.065002 0.065002
0.000000 0.381714 0.381714
0.000000 0.737610 0.737610
0.422363 0.422363 0.422363
0.856842 0.286163 0.286163
1.000000 0.285919 0.285919
0.000000 0.703339 0.703339
0.000000 0.938477 0.938477
0.056122 1.000000 1.000000
0.753998 0.753998 0.753998
0.999939 0.626160 0.626160
0.000000 0.919586 0.919586
0.039795 1.000000 1.000000
0.252289 1.000000 1.000000
0.606079 1.000000 1.000000
0.955414 0.955414 0.955414
0.000000 0.000000 0.000000
0.142975 0.000000 0.000000
0.422363 0.000000 0.000000
0.753998 0.000000 0.000000
0.955414 0.000000 0.000000
0.000000 0.130615 0.130615
0.142975 0.142975 0.142975
0.577332 0.065125 0.065125
0.934753 0.012238 0.012238
1.000000 0.065002 0.065002
0.000000 0.381714 0.381714
0.000000 0.737610 0.737610
0.422363 0.422363 0.422363
0.856842 0.286163 0.286163
1.000000 0.285919 0.285919
0.000000 0.703339 0.703339
0.000000 0.938477 0.938477
0.056122 1.000000 1.000000
0.753998 0.753998 0.753998
0.999939 0.626160 0.626160
0.000000 0.919586 0.919586
0.039795 1.000000 1.000000
0.252289 1.000000 1.000000
0.606079 1.000000 1.000000
0.955414 0.955414 0.955414
0.000000 0.000000 0.000000
0.142975 0.000000 0.000000
0.422363 0.000000 0.000000
0.753998 0.000000 0.000000
0.955414 0.000000 0.000000
0.000000 0.130615 0.130615
0.142975 0.142975 0.142975
0.577332 0.065125 0.065125
0.934753 0.012238 0.012238
1.000000 0.065002 0.065002
0.000000 0.381714 0.381714
0.000000 0.737610 0.737610
0.422363 0.422363 0.422363
0.856842 0.286163 0.286163
1.000000 0.285919 0.285919
0.000000 0.703339 0.703339
0.000000 0.938477 0.938477
0.056122 1.000000 1.000000
0.753998 0.753998 0.753998
0.999939 0.626160 0.626160
0.000000 0.919586 0.919586
0.039795 1.000000 1.000000
0.252289 1.000000 1.000000
0.606079 1.000000 1.000000
0.955414 0.955414 0.955414
0.000000 0.000000 0.000000
0.142975 0.000000 0.000000
0.422363 0.000000 0.000000
0.753998 0.000000 0.000000
0.955414 0.000000 0.000000
0.000000 0.130615 0.130615
0.142975 0.142975 0.142975
0.577332 0.065125 0.065125
0.934753 0.012238 0.012238
1.000000 0.065002 0.065002
0.000000 0.381714 0.381714
0.000000 0.737610 0.737610
0.422363 0.422363 0.422363
0.856842 0.286163 0.286163
1.000000 0.285919 0.285919
0.000000 0.703339 0.703339
0.000000 0.938477 0.938477
0.056122 1.000000 1.000000
0.753998 0.753998 0.753998
0.999939 0.626160 0.626160
0.000000 0.919586 0.919586
0.039795 1.000000 1.000000
0.252289 1.000000 1.000000
0.606079 1.000000 1.000000
0.955414 0.955414 0.955414
0.000000 0.000000 0.000000
0.142975 0.000000 0.000000
0.422363 0.000000 0.000000
0.753998 0.000000 0.000000
0.955414 0.000000 0.000000
0.000000 0.130615 0.130615
0.142975 0.142975 0.142975
0.577332 0.065125 0.065125
0.934753 0.012238 0.012238
1.000000 0.065002 0.065002
0.000000 0.381714 0.381714
0.000000 0.737610 0.737610
0.422363 0.422363 0.422363
0.856842 0.286163 0.286163
1.000000 0.285919 0.285919
0.000000 0.703339 0.703339
0.000000 0.938477 0.938477
0.056122 1.000000 1.000000
0.753998 0.753998 0.753998
0.999939 0.626160 0.626160
0.000000 0.919586 0.919586
0.039795 1.000000 1.000000
0.252289 1.000000 1.000000
0.606079 1.000000 1.000000
0.955414 0.955414 0.955414
