EA 50 Cinematic Luts Pack/EA_Cinematic Lut (7).cube
TITLE "Generated by Resolve"
LUT_3D_SIZE 9
0.238895 0.063798 0.15201
0.267445 0.0758526 0.162676
0.295811 0.0885023 0.173877
0.330434 0.099443 0.18378
0.37763 0.106111 0.190326
0.430671 0.110979 0.195453
0.487953 0.115648 0.200473
0.547341 0.121309 0.206332
0.606958 0.130159 0.214832
0.24622 0.133181 0.171893
0.274617 0.144656 0.18294
0.30515 0.1561 0.193622
0.34815 0.165164 0.202136
0.400687 0.17377 0.209964
0.458946 0.18439 0.219135
0.521599 0.198535 0.231098
0.585412 0.216068 0.245319
0.647211 0.235523 0.260685
0.252216 0.203357 0.188479
0.280949 0.22005 0.199725
0.318761 0.238193 0.211414
0.37052 0.257176 0.223377
0.428489 0.277287 0.235798
0.490379 0.297536 0.248341
0.553689 0.318883 0.262043
0.615808 0.341421 0.276448
0.674998 0.365957 0.293126
0.251087 0.308888 0.195193
0.286091 0.335668 0.212146
0.334829 0.360296 0.227405
0.391196 0.383703 0.24155
0.452354 0.407202 0.256229
0.51577 0.43061 0.271565
0.579248 0.454948 0.287938
0.64004 0.480522 0.305898
0.696345 0.507057 0.326116
0.255146 0.442161 0.211688
0.298543 0.470863 0.230488
0.353353 0.496849 0.247623
0.413306 0.522423 0.264683
0.476402 0.547036 0.282628
0.540459 0.571878 0.30135
0.602502 0.597009 0.320653
0.660899 0.622721 0.341619
0.712398 0.649989 0.364096
0.265156 0.585092 0.237675
0.317189 0.612741 0.258778
0.375692 0.639094 0.279072
0.438087 0.663737 0.299397
0.502235 0.687861 0.3196
0.565347 0.711284 0.339513
0.625391 0.735073 0.360265
0.679973 0.759319 0.381811
0.725368 0.78468 0.404669
0.285313 0.727047 0.279088
0.342199 0.752911 0.301808
0.403372 0.776471 0.323461
0.46717 0.79881 0.344213
0.530907 0.819699 0.364263
0.592004 0.840467 0.384558
0.648676 0.860822 0.405081
0.697383 0.882094 0.426856
0.738308 0.903456 0.449058
0.314702 0.860105 0.333639
0.374685 0.881437 0.356542
0.437995 0.900938 0.378271
0.502144 0.918441 0.399054
0.56466 0.935027 0.419669
0.622721 0.950057 0.439063
0.674083 0.964385 0.458335
0.715892 0.978927 0.477974
0.75288 0.993088 0.497749
0.354864 0.975128 0.403052
0.416342 0.991196 0.424186
0.478782 1 0.442771
0.539986 1 0.459968
0.597604 1 0.475898
0.650355 1 0.492149
0.694362 1 0.509346
0.731823 1 0.527977
0.76733 1 0.546227
0.240314 0.0673991 0.194354
0.268879 0.0793469 0.204898
0.297566 0.0925002 0.216312
0.332876 0.102815 0.225238
0.380575 0.109102 0.230838
0.434287 0.114229 0.23595
0.491951 0.119219 0.241382
0.551934 0.125902 0.248524
0.612039 0.135897 0.258991
0.247868 0.13666 0.213535
0.276204 0.148257 0.223957
0.307378 0.159808 0.234394
0.351507 0.169192 0.243214
0.40499 0.178866 0.25243
0.464286 0.19089 0.263722
0.527413 0.206394 0.278019
0.591073 0.224201 0.29427
0.652735 0.244282 0.312398
0.253697 0.208423 0.229358
0.282795 0.226047 0.241581
0.322423 0.245869 0.255787
0.375235 0.265827 0.26981
0.433539 0.285985 0.284367
0.495613 0.306645 0.300145
0.558633 0.327855 0.316991
0.620798 0.350683 0.335698
0.679438 0.37496 0.356146
0.25359 0.317922 0.242191
0.28954 0.345098 0.261784
0.339025 0.369635 0.279744
0.395956 0.393133 0.297963
0.457313 0.416556 0.316701
0.520699 0.439826 0.335775
0.583856 0.464179 0.355612
0.644266 0.489296 0.376516
0.700313 0.516136 0.399207
0.258091 0.452049 0.269703
0.302373 0.480156 0.29189
0.357656 0.50631 0.312917
0.417945 0.531548 0.333822
0.481132 0.556023 0.354177
0.545007 0.580758 0.374578
0.606897 0.605478 0.395575
0.664927 0.631205 0.417853
0.715206 0.658091 0.440986
0.268528 0.594171 0.307805
0.321248 0.621881 0.331029
0.380041 0.647547 0.353323
0.442725 0.67219 0.375006
0.506905 0.696025 0.396048
0.56965 0.719173 0.416953
0.629236 0.742626 0.438727
0.682902 0.766278 0.460807
0.72755 0.791562 0.484215
0.289387 0.735531 0.35552
0.346487 0.760571 0.378973
0.408042 0.784009 0.401541
0.471717 0.805737 0.422934
0.535027 0.826459 0.443687
0.595773 0.846601 0.464729
0.651896 0.866545 0.485847
0.699626 0.887297 0.507927
0.739635 0.907286 0.530144
0.318929 0.866636 0.413321
0.379232 0.887694 0.436973
0.44242 0.906325 0.459052
0.506523 0.923568 0.480552
0.568338 0.939254 0.501076
0.625757 0.953429 0.520592
0.676051 0.966964 0.539681
0.717006 0.980865 0.559411
0.75378 0.99472 0.579095
0.359014 0.979904 0.484749
0.420249 0.994781 0.505714
0.482414 1 0.524285
0.542885 1 0.541039
0.600168 1 0.557153
0.652247 1 0.57319
0.695323 1 0.590875
0.732403 1 0.60911
0.767987 1 0.627329
0.24184 0.0711223 0.235065
0.270542 0.0834211 0.245899
0.299382 0.0962692 0.257649
0.335256 0.105943 0.266651
0.383688 0.112062 0.273747
0.437842 0.11696 0.280919
0.495933 0.122499 0.289128
0.556237 0.130037 0.300801
0.616846 0.141482 0.316228
0.24947 0.139925 0.255848
0.277729 0.151705 0.267994
0.309407 0.163226 0.280339
0.354971 0.1729 0.292241
0.409003 0.183108 0.30544
0.4692 0.196811 0.321904
0.532494 0.213062 0.340719
0.596231 0.231327 0.361059
0.657404 0.251743 0.382483
0.254994 0.213382 0.279118
0.284733 0.232059 0.295674
0.325704 0.252735 0.314153
0.379034 0.272923 0.332403
0.437812 0.293462 0.351034
0.499779 0.314061 0.369741
0.563165 0.33576 0.38938
0.625086 0.358709 0.410056
0.683574 0.383307 0.432074
0.255634 0.326009 0.306477
0.292165 0.35317 0.329458
0.342596 0.377417 0.350225
0.400031 0.401205 0.370718
0.461479 0.42443 0.391073
0.525048 0.448218 0.411536
0.58819 0.472251 0.432486
0.648508 0.497765 0.454765
0.703609 0.524788 0.478294
0.260395 0.4607 0.343389
0.305806 0.48867 0.366903
0.361654 0.514809 0.389258
0.422156 0.539712 0.411093
0.485603 0.564446 0.432425
0.549249 0.588693 0.453712
0.610956 0.613626 0.475837
0.668284 0.639017 0.498527
0.717891 0.666041 0.522499
0.271702 0.60293 0.385794
0.325124 0.630243 0.409979
0.384466 0.655695 0.433265
0.447257 0.68011 0.455589
0.510979 0.70338 0.476951
0.573678 0.726513 0.498772
0.632639 0.749355 0.520729
0.685588 0.773129 0.543221
0.729534 0.797742 0.566781
0.293126 0.743221 0.436377
0.350729 0.768109 0.46096
0.41236 0.791089 0.483803
0.475776 0.812238 0.505226
0.53901 0.832609 0.526528
0.599268 0.852171 0.547601
0.654902 0.871885 0.568902
0.701564 0.89189 0.590509
0.741085 0.911025 0.612543
0.323186 0.87306 0.496895
0.383474 0.893278 0.520378
0.44683 0.911513 0.542763
0.510536 0.928176 0.563958
0.571984 0.942946 0.584146
0.628717 0.956329 0.603082
0.677791 0.969162 0.621393
0.71812 0.982803 0.64094
0.754498 0.996094 0.659861
0.362936 0.984009 0.568322
0.423987 0.997925 0.588647
0.485695 1 0.606378
0.545953 1 0.62266
0.602625 1 0.63827
0.653956 1 0.653788
0.696239 1 0.670954
0.733028 1 0.688563
0.76878 1 0.706294
0.243183 0.0744182 0.280644
0.272007 0.0870069 0.29427
0.300526 0.0989395 0.308614
0.337331 0.107973 0.321141
0.386404 0.11371 0.33225
0.440757 0.118685 0.343404
0.499245 0.124544 0.355856
0.559869 0.132753 0.37084
0.621134 0.146059 0.389883
0.250553 0.142092 0.312001
0.278569 0.153658 0.327886
0.311101 0.165423 0.344533
0.357763 0.17557 0.360037
0.412711 0.187045 0.376562
0.473487 0.201907 0.395697
0.537133 0.21886 0.416419
0.600855 0.237659 0.438132
0.661433 0.258396 0.460121
0.255436 0.216876 0.346853
0.286152 0.237507 0.366995
0.328542 0.258671 0.387518
0.382574 0.279515 0.407477
0.441627 0.300359 0.427253
0.503944 0.321172 0.447349
0.56759 0.343114 0.468162
0.629221 0.366201 0.489769
0.687358 0.391348 0.513008
0.257176 0.333349 0.382116
0.294652 0.360311 0.405982
0.346075 0.384955 0.428107
0.403815 0.408637 0.449485
0.46569 0.432258 0.470817
0.529397 0.45594 0.492226
0.592325 0.480354 0.514229
0.652247 0.505974 0.537194
0.706645 0.532723 0.561028
0.262425 0.468681 0.422568
0.309224 0.496803 0.447257
0.365499 0.522545 0.470207
0.426307 0.547814 0.492744
0.489708 0.572152 0.514595
0.553429 0.596658 0.536736
0.614786 0.621393 0.559304
0.671519 0.646662 0.581918
0.720485 0.673594 0.606195
0.275059 0.611246 0.468269
0.329 0.638086 0.492836
0.388617 0.663569 0.516594
0.451225 0.687495 0.538689
0.515175 0.71075 0.560723
0.577386 0.733257 0.582406
0.63592 0.756161 0.60415
0.688304 0.779583 0.626612
0.731609 0.803891 0.650004
0.296925 0.750805 0.520653
0.354833 0.775341 0.545113
0.416312 0.797665 0.567437
0.479973 0.818631 0.589105
0.542748 0.838254 0.609979
0.602899 0.857633 0.630716
0.657664 0.876753 0.651057
0.703426 0.896162 0.672465
0.742351 0.914549 0.693309
0.327352 0.879194 0.581445
0.387808 0.898833 0.604547
0.451194 0.916609 0.626307
0.514641 0.93228 0.646815
0.575433 0.946288 0.665858
0.631189 0.958755 0.683421
0.6795 0.971389 0.701289
0.719249 0.984741 0.719707
0.755428 0.997848 0.737697
0.366949 0.988128 0.651286
0.427832 1 0.67013
0.489036 1 0.686717
0.548821 1 0.701885
0.604929 1 0.71635
0.655619 1 0.731197
0.697276 1 0.747234
0.733959 1 0.764035
0.769726 1 0.780438
0.24387 0.0761578 0.34374
0.272801 0.088716 0.361059
0.301137 0.100053 0.377035
0.338888 0.108583 0.391455
0.388373 0.114122 0.403983
0.443412 0.119661 0.417014
0.502403 0.126192 0.43151
0.56379 0.136065 0.448753
0.625376 0.150576 0.469642
0.251011 0.143038 0.383108
0.279042 0.154788 0.40058
0.312474 0.166888 0.418769
0.360327 0.177752 0.435737
0.416419 0.191165 0.454688
0.477729 0.206821 0.475517
0.541756 0.224552 0.497398
0.605127 0.24358 0.519432
0.665568 0.265049 0.542489
0.255741 0.220523 0.422278
0.28748 0.242451 0.444663
0.331426 0.264622 0.466575
0.385931 0.285863 0.487495
0.445487 0.306645 0.508232
0.508247 0.328069 0.529274
0.571511 0.350057 0.550576
0.633082 0.3738 0.572915
0.690852 0.398856 0.596704
0.258473 0.340017 0.462364
0.297261 0.367407 0.487251
0.349523 0.392157 0.510063
0.407614 0.416052 0.532097
0.469841 0.439902 0.55407
0.533501 0.463584 0.575769
0.596262 0.488319 0.597986
0.655787 0.51368 0.621073
0.709804 0.540871 0.645228
0.26479 0.476646 0.505669
0.312566 0.504372 0.530419
0.369162 0.530556 0.553948
0.430396 0.555764 0.576699
0.493919 0.580026 0.598642
0.557534 0.604486 0.620722
0.618296 0.628946 0.642725
0.674952 0.654276 0.6654
0.722942 0.680781 0.68896
0.278096 0.619089 0.552392
0.33283 0.646006 0.577356
0.392462 0.671168 0.60032
0.455467 0.694987 0.622538
0.519341 0.718013 0.644144
0.581292 0.740291 0.665141
0.639521 0.762875 0.686397
0.690852 0.785794 0.707881
0.733639 0.810056 0.73077
0.300755 0.758251 0.605051
0.358679 0.782132 0.628382
0.420615 0.804334 0.650431
0.484276 0.824857 0.671244
0.546899 0.84419 0.691463
0.606317 0.863279 0.71104
0.660517 0.881773 0.730495
0.705257 0.900298 0.750622
0.743404 0.917769 0.769543
0.33138 0.884932 0.663935
0.392325 0.904341 0.686259
0.455558 0.921324 0.706859
0.518776 0.936645 0.726406
0.578714 0.949615 0.743557
0.633906 0.961578 0.759823
0.681285 0.973816 0.776501
0.720455 0.986801 0.793378
0.756619 0.999924 0.810056
0.370932 0.991913 0.730266
0.431403 1 0.747387
0.49247 1 0.762707
0.551751 1 0.776242
0.607431 1 0.78941
0.65745 1 0.803098
0.698711 1 0.817945
0.735164 1 0.833295
0.77113 1 0.848478
0.244373 0.0774701 0.417578
0.272862 0.0893721 0.43534
0.301427 0.100572 0.452216
0.340215 0.108614 0.467369
0.390417 0.114382 0.481254
0.44593 0.120211 0.495476
0.505669 0.127901 0.511788
0.567956 0.139666 0.531029
0.62974 0.155169 0.553353
0.251179 0.14345 0.459785
0.279484 0.155795 0.478599
0.313924 0.168246 0.497734
0.362966 0.180301 0.516136
0.420157 0.194873 0.53666
0.482185 0.211887 0.558846
0.546258 0.230045 0.58117
0.609339 0.249805 0.603586
0.669596 0.271778 0.62707
0.256474 0.224765 0.502876
0.288975 0.2477 0.526329
0.334279 0.270481 0.548836
0.389273 0.291722 0.570108
0.449302 0.313176 0.591684
0.512169 0.334661 0.612863
0.575509 0.357397 0.63447
0.637079 0.381369 0.65716
0.694514 0.40676 0.680842
0.26009 0.346944 0.545632
0.300038 0.374411 0.570718
0.352682 0.399176 0.593301
0.41146 0.423499 0.615915
0.473808 0.447242 0.637644
0.53756 0.471504 0.659266
0.600183 0.49604 0.681254
0.659632 0.521767 0.704097
0.7131 0.549065 0.727779
0.267109 0.484627 0.589761
0.315816 0.512367 0.614054
0.373053 0.538537 0.637598
0.434409 0.563424 0.659709
0.498207 0.587991 0.681437
0.56141 0.6121 0.702449
0.622293 0.636728 0.724132
0.67834 0.66186 0.745892
0.725399 0.688563 0.768475
0.281437 0.627283 0.63592
0.336614 0.654078 0.659998
0.396628 0.678889 0.682414
0.459998 0.702525 0.703838
0.523537 0.725002 0.724224
0.58526 0.747417 0.744488
0.642908 0.769482 0.764401
0.693599 0.792569 0.785046
0.735561 0.816327 0.806149
0.30454 0.765621 0.686275
0.362951 0.789395 0.708766
0.425132 0.811154 0.729732
0.488457 0.831067 0.749249
0.550866 0.85034 0.768124
0.609842 0.868757 0.786343
0.663493 0.886976 0.804623
0.707103 0.90457 0.822705
0.744961 0.921523 0.840055
0.335851 0.891218 0.742367
0.396887 0.909926 0.763348
0.460075 0.926436 0.782605
0.522789 0.940902 0.800061
0.582177 0.95317 0.815473
0.63682 0.964691 0.830121
0.683299 0.976501 0.844953
0.722057 0.989532 0.860105
0.758053 1 0.874571
0.374807 0.995636 0.803433
0.435172 1 0.818936
0.49601 1 0.832242
0.55491 1 0.843976
0.610422 1 0.855344
0.65977 1 0.866819
0.70045 1 0.879454
0.736767 1 0.892363
0.773129 1 0.905608
0.244617 0.0781109 0.496223
0.272786 0.0897383 0.514015
0.301579 0.100572 0.531548
0.341695 0.108522 0.547143
0.392508 0.114672 0.561837
0.448844 0.121111 0.577081
0.509194 0.130068 0.59443
0.571939 0.143145 0.614954
0.634165 0.160098 0.638346
0.251286 0.143801 0.539986
0.279805 0.156542 0.559716
0.315724 0.170077 0.579446
0.366262 0.183597 0.599329
0.424063 0.199359 0.620676
0.486488 0.217151 0.64303
0.550515 0.23566 0.66508
0.61355 0.256199 0.687419
0.673472 0.278386 0.71075
0.257221 0.229084 0.585534
0.29073 0.253483 0.609369
0.337133 0.276295 0.631846
0.392767 0.2981 0.653422
0.453223 0.319905 0.6748
0.516182 0.341817 0.695537
0.579721 0.364874 0.717021
0.641108 0.388876 0.739269
0.698299 0.414969 0.762188
0.261753 0.35407 0.628916
0.302556 0.38146 0.653269
0.356222 0.406653 0.676051
0.415366 0.431052 0.698009
0.477928 0.455207 0.719066
0.541894 0.4795 0.740154
0.604547 0.504204 0.761639
0.66363 0.530159 0.783429
0.71603 0.557336 0.805692
0.269429 0.492576 0.671778
0.319432 0.520562 0.695705
0.376928 0.546441 0.718105
0.438941 0.571649 0.73959
0.50251 0.595956 0.759838
0.565881 0.620295 0.780499
0.626337 0.644892 0.800855
0.681712 0.669764 0.821164
0.728161 0.696529 0.842771
0.284947 0.635782 0.715785
0.340703 0.662058 0.738613
0.401251 0.686976 0.760113
0.464347 0.710185 0.77998
0.527901 0.732769 0.79942
0.589303 0.754665 0.818051
0.646601 0.776684 0.836683
0.696345 0.799649 0.855711
0.737926 0.823056 0.875135
0.308751 0.773465 0.762631
0.367514 0.796948 0.783902
0.429603 0.818082 0.803143
0.492927 0.837995 0.821332
0.555032 0.85655 0.8383
0.613718 0.874784 0.854917
0.666438 0.892134 0.870665
0.709377 0.9093 0.886091
0.746899 0.925826 0.900893
0.340581 0.897795 0.814801
0.401709 0.915923 0.83389
0.464836 0.932052 0.851179
0.526955 0.945312 0.865446
0.585992 0.957107 0.878279
0.64004 0.968093 0.890105
0.68571 0.980163 0.902327
0.724178 0.993179 0.91516
0.760159 1 0.927581
0.379126 1 0.868482
0.439353 1 0.881117
0.499962 1 0.891051
0.558755 1 0.900389
0.613626 1 0.909346
0.662531 1 0.919051
0.702647 1 0.929885
0.73901 1 0.941649
0.775509 1 0.954025
0.244755 0.0784772 0.576883
0.272618 0.0898909 0.594614
0.301869 0.100435 0.612085
0.343389 0.108354 0.627878
0.394797 0.114839 0.642802
0.451804 0.122606 0.658946
0.513054 0.133059 0.677104
0.57641 0.147631 0.698253
0.638743 0.165393 0.72163
0.251514 0.144305 0.621134
0.280354 0.157717 0.640925
0.317723 0.172137 0.661097
0.369528 0.187228 0.681727
0.428153 0.204501 0.703502
0.490852 0.222553 0.72517
0.555001 0.241962 0.746685
0.617853 0.262806 0.768215
0.677638 0.285786 0.790707
0.258152 0.234165 0.667002
0.292576 0.259434 0.690898
0.340246 0.282582 0.712978
0.39649 0.304875 0.734234
0.457099 0.326848 0.754452
0.520638 0.349386 0.774868
0.584161 0.372442 0.795331
0.645304 0.397223 0.816709
0.702098 0.423301 0.838605
0.263325 0.361257 0.708949
0.305623 0.38909 0.733028
0.360037 0.414557 0.755123
0.419547 0.439048 0.775937
0.482628 0.463554 0.796063
0.546502 0.487816 0.815991
0.608988 0.512963 0.836469
0.66746 0.538796 0.85658
0.719509 0.5664 0.878035
0.272129 0.501289 0.749554
0.323323 0.528923 0.772442
0.38143 0.555123 0.793759
0.443427 0.580423 0.813748
0.507225 0.604654 0.832975
0.570474 0.628992 0.85214
0.630426 0.653239 0.870634
0.685328 0.678447 0.889265
0.73109 0.704784 0.908583
0.288884 0.644312 0.789975
0.345144 0.670787 0.811551
0.405859 0.69543 0.83125
0.469078 0.718593 0.849546
0.532677 0.740993 0.866987
0.593774 0.762676 0.883268
0.65066 0.784665 0.899214
0.699626 0.807157 0.915663
0.740826 0.830488 0.932448
0.313222 0.781811 0.832166
0.372168 0.804654 0.850828
0.434424 0.825895 0.86772
0.497932 0.845487 0.883452
0.559869 0.863813 0.89778
0.618204 0.881636 0.91162
0.66981 0.898024 0.924743
0.711986 0.914687 0.938003
0.749096 0.930526 0.95079
0.345571 0.904692 0.876631
0.406989 0.922667 0.893156
0.470054 0.937926 0.907317
0.531868 0.950637 0.919249
0.590249 0.961761 0.929717
0.643549 0.972549 0.939803
0.688502 0.984436 0.950713
0.726497 0.997177 0.962249
0.76257 1 0.973953
0.383871 1 0.921599
0.443885 1 0.931701
0.504326 1 0.940291
0.562692 1 0.948013
0.617227 1 0.956085
0.6654 1 0.964843
0.705135 1 0.975296
0.741527 1 0.986816
0.777874 1 0.99852
0.244846 0.0786755 0.657053
0.272465 0.0898299 0.674479
0.302464 0.100572 0.691569
0.345113 0.108522 0.70692
0.397223 0.11577 0.72163
0.455055 0.124483 0.737957
0.517372 0.136965 0.756802
0.581201 0.152895 0.777935
0.643595 0.170993 0.800732
0.251804 0.145144 0.70045
0.2813 0.159731 0.720088
0.320134 0.175113 0.740185
0.373144 0.191821 0.760784
0.432364 0.209842 0.782025
0.495613 0.228748 0.803021
0.559823 0.248768 0.823346
0.622507 0.270191 0.844007
0.682033 0.293873 0.865339
0.259525 0.240238 0.745312
0.294728 0.265873 0.768444
0.343679 0.289464 0.789624
0.400198 0.31194 0.809537
0.461707 0.334539 0.82919
0.525292 0.357244 0.848356
0.588922 0.381003 0.868223
0.649882 0.406195 0.887999
0.706371 0.432593 0.908522
0.265538 0.369345 0.784573
0.309178 0.397284 0.80734
0.364111 0.422675 0.828031
0.424125 0.447822 0.847639
0.487297 0.472221 0.866392
0.551415 0.497002 0.885145
0.613504 0.522271 0.902907
0.671992 0.548394 0.921218
0.723369 0.576242 0.940246
0.275532 0.510491 0.821256
0.32755 0.538064 0.842542
0.385977 0.564538 0.861814
0.448295 0.589517 0.879606
0.512352 0.614084 0.89691
0.57525 0.638163 0.912947
0.635081 0.662776 0.929137
0.689586 0.687861 0.94551
0.734783 0.714199 0.962905
0.293309 0.65391 0.855726
0.349966 0.680354 0.874662
0.410895 0.704662 0.891585
0.474418 0.72781 0.907698
0.53782 0.749706 0.922393
0.598733 0.771542 0.93669
0.655039 0.793042 0.950881
0.703334 0.815625 0.966079
0.743755 0.838315 0.981018
0.318181 0.79089 0.889738
0.377401 0.813657 0.906126
0.439902 0.834424 0.921279
0.503334 0.853315 0.934798
0.565042 0.871489 0.947814
0.622583 0.888395 0.960021
0.673426 0.904341 0.97203
0.714733 0.920211 0.98407
0.751507 0.93576 0.996048
0.351324 0.912596 0.928664
0.412665 0.929885 0.94342
0.475303 0.944076 0.955779
0.536675 0.9561 0.966323
0.59443 0.96669 0.975631
0.647303 0.977188 0.985168
0.69131 0.988769 0.995529
0.72903 1 1
0.764981 1 1
0.388479 1 0.968338
0.448539 1 0.977462
0.508751 1 0.985321
0.566766 1 0.992615
0.620859 1 1
0.668376 1 1
0.707774 1 1
0.744198 1 1
0.780407 1 1
