EA 50 Cinematic Luts Pack/EA_Cinematic Lut (46).cube
TITLE "This look turns saturated hues into bleak, cold tones that make the whole picture a little more obscure."
LUT_3D_SIZE 9
0.0000 0.0000 0.0000
0.0299 0.0096 0.0094
0.0780 0.0452 0.0468
0.1518 0.0909 0.0911
0.2346 0.1452 0.1388
0.3218 0.2050 0.1885
0.4123 0.2656 0.2395
0.5018 0.3255 0.2906
0.5962 0.3839 0.3435
0.0312 0.0601 0.0308
0.0641 0.0672 0.0324
0.1244 0.0852 0.0693
0.1874 0.1232 0.1085
0.2610 0.1727 0.1523
0.3427 0.2267 0.1992
0.4290 0.2831 0.2480
0.5154 0.3397 0.2976
0.6091 0.3957 0.3494
0.0766 0.1665 0.0899
0.1006 0.1723 0.0877
0.1697 0.1816 0.0912
0.2498 0.1982 0.1343
0.3241 0.2299 0.1768
0.3935 0.2749 0.2207
0.4695 0.3233 0.2661
0.5487 0.3738 0.3131
0.6405 0.4245 0.3629
0.1397 0.2900 0.1540
0.1579 0.2942 0.1503
0.2083 0.3020 0.1489
0.2929 0.3110 0.1536
0.3812 0.3248 0.2004
0.4638 0.3484 0.2447
0.5357 0.3831 0.2884
0.6101 0.4257 0.3337
0.7004 0.4692 0.3816
0.2075 0.4148 0.2198
0.2195 0.4182 0.2143
0.2602 0.4236 0.2122
0.3293 0.4312 0.2126
0.4207 0.4398 0.2153
0.5102 0.4508 0.2622
0.6010 0.4685 0.3063
0.6959 0.4933 0.3508
0.7879 0.5272 0.3984
0.2717 0.5369 0.2819
0.2785 0.5400 0.2741
0.3139 0.5439 0.2721
0.3707 0.5505 0.2678
0.4509 0.5577 0.2676
0.5451 0.5649 0.2680
0.6468 0.5746 0.3147
0.7577 0.5882 0.3603
0.8723 0.6066 0.4074
0.3287 0.6625 0.3398
0.3311 0.6656 0.3288
0.3627 0.6685 0.3264
0.4130 0.6736 0.3206
0.4811 0.6801 0.3139
0.5706 0.6857 0.3137
0.6817 0.6921 0.3133
0.8002 0.7000 0.3618
0.9004 0.7146 0.4832
0.3797 0.7895 0.3973
0.3794 0.7927 0.3836
0.4067 0.7953 0.3793
0.4533 0.7995 0.3740
0.5147 0.8051 0.3654
0.5967 0.8118 0.3590
0.7053 0.8180 0.3595
0.8340 0.8246 0.3632
0.9200 0.8336 0.6459
0.5761 0.9040 0.6465
0.5816 0.9055 0.6462
0.6000 0.9079 0.6514
0.6347 0.9111 0.6643
0.6838 0.9165 0.6832
0.7483 0.9233 0.7144
0.8253 0.9314 0.7634
0.9017 0.9440 0.8271
0.9659 0.9638 0.9053
0.0060 0.0026 0.0096
0.0346 0.0141 0.0362
0.0826 0.0484 0.0639
0.1588 0.0921 0.1028
0.2431 0.1446 0.1463
0.3285 0.2045 0.1945
0.4177 0.2651 0.2444
0.5063 0.3249 0.2949
0.6006 0.3834 0.3475
0.0289 0.0636 0.0697
0.0644 0.0694 0.0750
0.1280 0.0868 0.0950
0.1940 0.1234 0.1252
0.2675 0.1722 0.1648
0.3484 0.2262 0.2093
0.4337 0.2825 0.2563
0.5193 0.3392 0.3049
0.6150 0.3944 0.3535
0.0770 0.1681 0.1173
0.1016 0.1736 0.1174
0.1694 0.1831 0.1214
0.2473 0.2010 0.1537
0.3195 0.2338 0.1907
0.3924 0.2770 0.2315
0.4703 0.3243 0.2749
0.5514 0.3737 0.3209
0.6463 0.4233 0.3669
0.1404 0.2910 0.1750
0.1602 0.2946 0.1740
0.2068 0.3034 0.1698
0.2927 0.3119 0.1769
0.3799 0.3263 0.2167
0.4610 0.3506 0.2572
0.5326 0.3856 0.2987
0.6092 0.4271 0.3427
0.7042 0.4689 0.3856
0.2082 0.4154 0.2366
0.2237 0.4179 0.2354
0.2578 0.4249 0.2277
0.3283 0.4321 0.2296
0.4205 0.4404 0.2340
0.5094 0.4518 0.2762
0.5999 0.4696 0.3184
0.6932 0.4949 0.3618
0.7902 0.5273 0.4023
0.2724 0.5372 0.2965
0.2852 0.5391 0.2950
0.3113 0.5449 0.2849
0.3679 0.5516 0.2805
0.4510 0.5581 0.2835
0.5449 0.5654 0.2842
0.6460 0.5752 0.3282
0.7566 0.5890 0.3728
0.8772 0.6058 0.4102
0.3293 0.6627 0.3539
0.3404 0.6641 0.3521
0.3603 0.6692 0.3386
0.4111 0.6743 0.3332
0.4791 0.6809 0.3264
0.5708 0.6859 0.3292
0.6815 0.6924 0.3289
0.7994 0.7005 0.3755
0.9014 0.7147 0.4922
0.3804 0.7896 0.4119
0.3904 0.7908 0.4098
0.4048 0.7960 0.3916
0.4512 0.8002 0.3862
0.5124 0.8060 0.3771
0.5959 0.8123 0.3727
0.7054 0.8182 0.3749
0.8337 0.8249 0.3785
0.9207 0.8340 0.6513
0.5779 0.9039 0.6550
0.5837 0.9053 0.6550
0.5995 0.9085 0.6571
0.6346 0.9117 0.6697
0.6839 0.9170 0.6883
0.7484 0.9238 0.7186
0.8253 0.9321 0.7664
0.9021 0.9445 0.8294
0.9664 0.9643 0.9070
0.0208 0.0141 0.0485
0.0427 0.0280 0.0761
0.0901 0.0569 0.1065
0.1614 0.1004 0.1344
0.2457 0.1513 0.1730
0.3351 0.2075 0.2156
0.4269 0.2657 0.2603
0.5179 0.3233 0.3065
0.6119 0.3817 0.3580
0.0482 0.0678 0.1166
0.0709 0.0755 0.1287
0.1297 0.0937 0.1441
0.1955 0.1304 0.1593
0.2738 0.1761 0.1909
0.3572 0.2278 0.2286
0.4451 0.2818 0.2705
0.5310 0.3374 0.3163
0.6265 0.3926 0.3642
0.0697 0.1743 0.1732
0.1002 0.1778 0.1767
0.1701 0.1863 0.1826
0.2541 0.2022 0.2010
0.3316 0.2326 0.2270
0.4063 0.2745 0.2588
0.4815 0.3222 0.2976
0.5617 0.3719 0.3412
0.6624 0.4194 0.3781
0.1383 0.2940 0.2206
0.1576 0.2978 0.2201
0.2118 0.3042 0.2233
0.2929 0.3139 0.2281
0.3782 0.3295 0.2543
0.4564 0.3553 0.2870
0.5314 0.3887 0.3240
0.6119 0.4282 0.3654
0.7144 0.4677 0.3966
0.2081 0.4171 0.2749
0.2241 0.4195 0.2744
0.2616 0.4255 0.2723
0.3280 0.4337 0.2707
0.4194 0.4420 0.2770
0.5069 0.4544 0.3100
0.5951 0.4729 0.3481
0.6863 0.4991 0.3889
0.7960 0.5277 0.4130
0.2726 0.5383 0.3312
0.2858 0.5401 0.3302
0.3174 0.5446 0.3273
0.3653 0.5533 0.3154
0.4497 0.5595 0.3203
0.5443 0.5664 0.3241
0.6438 0.5770 0.3617
0.7535 0.5910 0.4045
0.8843 0.6051 0.4274
0.3296 0.6634 0.3883
0.3410 0.6648 0.3869
0.3688 0.6682 0.3829
0.4084 0.6757 0.3666
0.4753 0.6827 0.3588
0.5703 0.6867 0.3664
0.6808 0.6932 0.3678
0.7973 0.7019 0.4102
0.9039 0.7149 0.5153
0.3808 0.7902 0.4483
0.3911 0.7913 0.4465
0.4160 0.7942 0.4419
0.4484 0.8014 0.4198
0.5081 0.8078 0.4089
0.5936 0.8135 0.4071
0.7058 0.8187 0.4139
0.8331 0.8256 0.4179
0.9226 0.8348 0.6648
0.5809 0.9042 0.6740
0.5873 0.9055 0.6745
0.6027 0.9088 0.6755
0.6340 0.9133 0.6829
0.6842 0.9183 0.7010
0.7485 0.9253 0.7291
0.8252 0.9338 0.7739
0.9031 0.9459 0.8354
0.9676 0.9657 0.9111
0.0406 0.0381 0.0965
0.0570 0.0491 0.1188
0.0997 0.0733 0.1571
0.1729 0.1107 0.1881
0.2491 0.1631 0.2145
0.3364 0.2177 0.2510
0.4291 0.2732 0.2927
0.5208 0.3286 0.3376
0.6192 0.3841 0.3858
0.0659 0.0819 0.1585
0.0837 0.0899 0.1720
0.1349 0.1067 0.1987
0.2030 0.1396 0.2161
0.2748 0.1871 0.2341
0.3585 0.2368 0.2659
0.4472 0.2886 0.3044
0.5353 0.3418 0.3469
0.6377 0.3931 0.3911
0.1006 0.1763 0.2342
0.1233 0.1811 0.2396
0.1778 0.1914 0.2523
0.2600 0.2068 0.2671
0.3286 0.2420 0.2743
0.4069 0.2817 0.2984
0.4872 0.3261 0.3308
0.5719 0.3731 0.3694
0.6854 0.4147 0.4009
0.1239 0.3012 0.2868
0.1510 0.3034 0.2892
0.2108 0.3083 0.2945
0.2932 0.3175 0.3001
0.3865 0.3303 0.3183
0.4708 0.3529 0.3435
0.5484 0.3850 0.3720
0.6316 0.4237 0.4075
0.7458 0.4596 0.4204
0.2014 0.4213 0.3345
0.2173 0.4237 0.3342
0.2549 0.4297 0.3330
0.3329 0.4347 0.3406
0.4199 0.4441 0.3450
0.5099 0.4559 0.3688
0.5955 0.4756 0.3998
0.6904 0.5005 0.4382
0.8155 0.5245 0.4354
0.2702 0.5408 0.3894
0.2825 0.5428 0.3882
0.3132 0.5474 0.3854
0.3732 0.5531 0.3862
0.4505 0.5610 0.3846
0.5436 0.5681 0.3907
0.6393 0.5803 0.4198
0.7457 0.5955 0.4610
0.8881 0.6060 0.4742
0.3285 0.6650 0.4494
0.3403 0.6663 0.4484
0.3690 0.6696 0.4455
0.4139 0.6756 0.4383
0.4790 0.6829 0.4273
0.5700 0.6879 0.4322
0.6783 0.6949 0.4357
0.7935 0.7042 0.4721
0.9087 0.7153 0.5565
0.3803 0.7909 0.5099
0.3908 0.7921 0.5085
0.4163 0.7948 0.5050
0.4581 0.7998 0.4983
0.5070 0.8091 0.4739
0.5910 0.8152 0.4713
0.7054 0.8197 0.4821
0.8317 0.8268 0.4882
0.9261 0.8362 0.6877
0.5856 0.9050 0.7048
0.5921 0.9062 0.7055
0.6084 0.9092 0.7074
0.6361 0.9149 0.7097
0.6840 0.9208 0.7230
0.7483 0.9281 0.7473
0.8248 0.9369 0.7871
0.9048 0.9485 0.8459
0.9698 0.9680 0.9184
0.0635 0.0663 0.1516
0.0776 0.0755 0.1693
0.1196 0.0953 0.2071
0.1821 0.1296 0.2449
0.2629 0.1744 0.2750
0.3421 0.2302 0.3004
0.4303 0.2852 0.3370
0.5209 0.3390 0.3805
0.6211 0.3917 0.4310
0.0875 0.1033 0.2046
0.1032 0.1108 0.2169
0.1460 0.1274 0.2446
0.2089 0.1566 0.2750
0.2859 0.1972 0.2967
0.3622 0.2488 0.3170
0.4473 0.3003 0.3504
0.5356 0.3513 0.3918
0.6395 0.4002 0.4396
0.1299 0.1868 0.2851
0.1471 0.1917 0.2923
0.1894 0.2030 0.3088
0.2607 0.2190 0.3334
0.3350 0.2500 0.3435
0.4066 0.2925 0.3546
0.4859 0.3364 0.3819
0.5720 0.3814 0.4198
0.6874 0.4206 0.4583
0.1647 0.3018 0.3610
0.1840 0.3045 0.3650
0.2289 0.3111 0.3735
0.3007 0.3212 0.3866
0.3946 0.3329 0.4043
0.4685 0.3611 0.4107
0.5443 0.3940 0.4322
0.6318 0.4302 0.4656
0.7704 0.4550 0.4753
0.1823 0.4286 0.4188
0.2044 0.4300 0.4208
0.2550 0.4333 0.4256
0.3322 0.4384 0.4333
0.4202 0.4475 0.4389
0.5162 0.4570 0.4611
0.6087 0.4740 0.4879
0.7102 0.4960 0.5221
0.8566 0.5134 0.4856
0.2571 0.5459 0.4753
0.2709 0.5476 0.4749
0.3039 0.5519 0.4738
0.3663 0.5572 0.4762
0.4549 0.5618 0.4858
0.5427 0.5704 0.4891
0.6481 0.5794 0.5132
0.7553 0.5945 0.5434
0.8853 0.6106 0.5332
0.3220 0.6676 0.5355
0.3332 0.6690 0.5345
0.3605 0.6725 0.5315
0.4054 0.6787 0.5253
0.4850 0.6822 0.5317
0.5709 0.6888 0.5294
0.6789 0.6956 0.5356
0.7894 0.7067 0.5593
0.9163 0.7159 0.6159
0.3771 0.7929 0.5939
0.3867 0.7942 0.5924
0.4110 0.7972 0.5889
0.4535 0.8021 0.5837
0.5205 0.8060 0.5855
0.6078 0.8106 0.5945
0.7132 0.8164 0.6160
0.8272 0.8250 0.6496
0.9316 0.8382 0.7213
0.5913 0.9066 0.7462
0.5981 0.9077 0.7472
0.6149 0.9105 0.7494
0.6440 0.9157 0.7531
0.6853 0.9240 0.7572
0.7489 0.9317 0.7758
0.8255 0.9410 0.8085
0.9072 0.9523 0.8612
0.9732 0.9716 0.9290
0.0915 0.0983 0.2109
0.1050 0.1062 0.2253
0.1416 0.1241 0.2573
0.2002 0.1529 0.3007
0.2713 0.1946 0.3387
0.3575 0.2413 0.3715
0.4378 0.2974 0.3994
0.5231 0.3516 0.4404
0.6207 0.4031 0.4907
0.1151 0.1305 0.2554
0.1291 0.1374 0.2663
0.1643 0.1533 0.2926
0.2240 0.1776 0.3317
0.2924 0.2154 0.3637
0.3759 0.2589 0.3912
0.4534 0.3121 0.4157
0.5369 0.3636 0.4543
0.6378 0.4117 0.5018
0.1577 0.2042 0.3359
0.1714 0.2090 0.3440
0.2061 0.2202 0.3628
0.2660 0.2372 0.3935
0.3382 0.2642 0.4221
0.4166 0.3009 0.4387
0.4889 0.3472 0.4550
0.5709 0.3928 0.4875
0.6819 0.4322 0.5276
0.1990 0.3084 0.4330
0.2136 0.3114 0.4382
0.2495 0.3187 0.4511
0.3103 0.3295 0.4736
0.3934 0.3427 0.5014
0.4734 0.3671 0.5106
0.5425 0.4035 0.5152
0.6265 0.4408 0.5395
0.7622 0.4651 0.5640
0.2258 0.4279 0.5225
0.2424 0.4296 0.5257
0.2822 0.4336 0.5333
0.3443 0.4408 0.5437
0.4270 0.4496 0.5581
0.5232 0.4585 0.5763
0.6118 0.4780 0.5871
0.7019 0.5054 0.6028
0.8546 0.5178 0.5962
0.2326 0.5529 0.5850
0.2518 0.5539 0.5865
0.2966 0.5562 0.5902
0.3663 0.5600 0.5964
0.4540 0.5648 0.6045
0.5428 0.5732 0.6074
0.6529 0.5806 0.6283
0.7854 0.5880 0.6436
0.8894 0.6128 0.6309
0.3014 0.6734 0.6376
0.3140 0.6747 0.6373
0.3446 0.6778 0.6362
0.3964 0.6828 0.6347
0.4784 0.6862 0.6404
0.5758 0.6893 0.6492
0.6768 0.6981 0.6499
0.7997 0.7058 0.6687
0.9247 0.7171 0.6852
0.3660 0.7969 0.6853
0.3765 0.7980 0.6846
0.4022 0.8009 0.6826
0.4439 0.8062 0.6787
0.5067 0.8118 0.6758
0.6181 0.8099 0.6964
0.7208 0.8164 0.7110
0.8295 0.8264 0.7359
0.9395 0.8405 0.7662
0.5965 0.9097 0.7954
0.6035 0.9107 0.7964
0.6210 0.9133 0.7989
0.6514 0.9180 0.8031
0.6951 0.9254 0.8089
0.7497 0.9365 0.8149
0.8258 0.9465 0.8379
0.9098 0.9577 0.8814
0.9778 0.9766 0.9426
0.1259 0.1340 0.2729
0.1379 0.1409 0.2848
0.1686 0.1572 0.3134
0.2224 0.1816 0.3588
0.2880 0.2170 0.4082
0.3655 0.2611 0.4528
0.4535 0.3078 0.4918
0.5321 0.3627 0.5227
0.6242 0.4154 0.5654
0.1465 0.1626 0.3119
0.1584 0.1689 0.3217
0.1881 0.1832 0.3472
0.2406 0.2047 0.3891
0.3072 0.2360 0.4378
0.3824 0.2773 0.4772
0.4677 0.3217 0.5108
0.5451 0.3743 0.5380
0.6399 0.4239 0.5789
0.1860 0.2267 0.3928
0.1975 0.2312 0.4017
0.2269 0.2420 0.4232
0.2783 0.2588 0.4601
0.3495 0.2806 0.5056
0.4201 0.3161 0.5331
0.5003 0.3553 0.5554
0.5772 0.4029 0.5751
0.6805 0.4446 0.6105
0.2300 0.3203 0.5079
0.2419 0.3233 0.5145
0.2719 0.3305 0.5306
0.3231 0.3421 0.5563
0.3961 0.3565 0.5897
0.4746 0.3782 0.6150
0.5515 0.4099 0.6220
0.6296 0.4501 0.6305
0.7530 0.4778 0.6567
0.2634 0.4319 0.6168
0.2764 0.4338 0.6202
0.3082 0.4386 0.6286
0.3612 0.4463 0.6420
0.4349 0.4556 0.6626
0.5234 0.4655 0.6843
0.6173 0.4825 0.6931
0.6991 0.5140 0.6912
0.8395 0.5295 0.6999
0.2770 0.5522 0.6924
0.2921 0.5534 0.6943
0.3285 0.5561 0.6989
0.3871 0.5607 0.7068
0.4611 0.5677 0.7144
0.5499 0.5751 0.7230
0.6617 0.5817 0.7368
0.7841 0.5922 0.7478
0.8812 0.6200 0.7321
0.2711 0.6808 0.7390
0.2889 0.6814 0.7399
0.3308 0.6830 0.7421
0.3964 0.6856 0.7458
0.4786 0.6889 0.7507
0.5736 0.6927 0.7559
0.6774 0.7008 0.7564
0.8135 0.7047 0.7698
0.9246 0.7217 0.7648
0.3377 0.8038 0.7785
0.3497 0.8049 0.7781
0.3787 0.8076 0.7772
0.4258 0.8123 0.7754
0.5015 0.8156 0.7779
0.6115 0.8150 0.7857
0.7180 0.8214 0.7904
0.8328 0.8305 0.8040
0.9509 0.8427 0.8231
0.5966 0.9155 0.8488
0.6040 0.9164 0.8498
0.6227 0.9187 0.8521
0.6552 0.9228 0.8563
0.7017 0.9293 0.8624
0.7604 0.9389 0.8703
0.8265 0.9529 0.8779
0.9106 0.9653 0.9058
0.9837 0.9829 0.9591
0.1622 0.1730 0.3396
0.1726 0.1789 0.3507
0.1989 0.1929 0.3779
0.2452 0.2143 0.4244
0.3101 0.2427 0.4874
0.3810 0.2819 0.5430
0.4606 0.3268 0.5878
0.5489 0.3723 0.6253
0.6369 0.4255 0.6542
0.1798 0.1974 0.3768
0.1900 0.2028 0.3861
0.2157 0.2152 0.4122
0.2615 0.2349 0.4579
0.3273 0.2598 0.5181
0.3964 0.2968 0.5688
0.4738 0.3397 0.6078
0.5614 0.3835 0.6407
0.6519 0.4338 0.6679
0.2159 0.2532 0.4626
0.2258 0.2573 0.4722
0.2512 0.2673 0.4944
0.2958 0.2830 0.5326
0.3611 0.3030 0.5836
0.4315 0.3328 0.6263
0.5049 0.3710 0.6528
0.5919 0.4109 0.6752
0.6898 0.4539 0.7000
0.2597 0.3371 0.5843
0.2698 0.3400 0.5912
0.2954 0.3470 0.6080
0.3401 0.3585 0.6337
0.4042 0.3734 0.6667
0.4832 0.3906 0.7024
0.5541 0.4221 0.7162
0.6420 0.4566 0.7269
0.7560 0.4866 0.7512
0.2972 0.4401 0.6954
0.3079 0.4421 0.6990
0.3346 0.4470 0.7079
0.3805 0.4548 0.7235
0.4448 0.4649 0.7454
0.5251 0.4757 0.7702
0.6176 0.4910 0.7896
0.7086 0.5185 0.7886
0.8321 0.5388 0.8036
0.3162 0.5546 0.7807
0.3283 0.5559 0.7828
0.3580 0.5592 0.7878
0.4074 0.5645 0.7963
0.4733 0.5719 0.8067
0.5547 0.5762 0.8481
0.6692 0.5825 0.8539
0.7808 0.5982 0.8488
0.8682 0.6299 0.8301
0.3153 0.6796 0.8400
0.3298 0.6803 0.8411
0.3646 0.6822 0.8440
0.4206 0.6853 0.8488
0.4925 0.6894 0.8554
0.5759 0.6955 0.8618
0.6877 0.7004 0.8706
0.8179 0.7065 0.8746
0.9110 0.7302 0.8596
0.3025 0.8119 0.8745
0.3195 0.8124 0.8751
0.3596 0.8136 0.8764
0.4224 0.8157 0.8788
0.5149 0.8157 0.8794
0.6212 0.8167 0.8796
0.7203 0.8246 0.8854
0.8363 0.8343 0.8882
0.9582 0.8465 0.8922
0.5868 0.9252 0.9048
0.5946 0.9261 0.9055
0.6143 0.9281 0.9073
0.6487 0.9318 0.9106
0.6984 0.9375 0.9155
0.7620 0.9457 0.9225
0.8357 0.9572 0.9315
0.9111 0.9739 0.9405
0.9911 0.9906 0.9782
0.1994 0.2126 0.4170
0.2085 0.2176 0.4285
0.2315 0.2296 0.4570
0.2723 0.2486 0.5047
0.3325 0.2726 0.5692
0.4010 0.3055 0.6316
0.4751 0.3461 0.6788
0.5565 0.3903 0.7142
0.6563 0.4343 0.7466
0.2145 0.2335 0.4563
0.2227 0.2372 0.4735
0.2457 0.2480 0.5006
0.2866 0.2652 0.5459
0.3471 0.2872 0.6062
0.4161 0.3174 0.6620
0.4888 0.3562 0.7024
0.5705 0.3990 0.7334
0.6709 0.4419 0.7614
0.2471 0.2822 0.5422
0.2544 0.2850 0.5608
0.2745 0.2909 0.6075
0.3169 0.3045 0.6436
0.3791 0.3218 0.6882
0.4514 0.3455 0.7322
0.5225 0.3802 0.7609
0.6055 0.4200 0.7801
0.7076 0.4605 0.7971
0.2894 0.3575 0.6584
0.2957 0.3596 0.6726
0.3130 0.3638 0.7101
0.3491 0.3666 0.7826
0.4193 0.3770 0.8133
0.5043 0.3884 0.8473
0.5792 0.4176 0.8579
0.6664 0.4538 0.8566
0.7714 0.4903 0.8548
0.3283 0.4522 0.7664
0.3334 0.4539 0.7779
0.3472 0.4575 0.8086
0.3758 0.4605 0.8687
0.4430 0.4607 0.9267
0.5410 0.4681 0.9305
0.6317 0.4875 0.9270
0.7213 0.5181 0.9116
0.8222 0.5517 0.8946
0.3514 0.5601 0.8590
0.3551 0.5617 0.8675
0.3652 0.5654 0.8899
0.3891 0.5702 0.9289
0.4679 0.5748 0.9379
0.5604 0.5792 0.9490
0.6717 0.5865 0.9521
0.7611 0.6113 0.9372
0.8590 0.6400 0.9187
0.3553 0.6806 0.9248
0.3576 0.6822 0.9303
0.3782 0.6852 0.9379
0.4295 0.6886 0.9425
0.4983 0.6927 0.9491
0.5840 0.6975 0.9578
0.6933 0.7021 0.9692
0.8063 0.7141 0.9641
0.9010 0.7390 0.9443
0.4161 0.8024 0.9488
0.4262 0.8032 0.9496
0.4509 0.8052 0.9515
0.4914 0.8088 0.9548
0.5484 0.8139 0.9594
0.6248 0.8207 0.9657
0.7227 0.8283 0.9735
0.8440 0.8350 0.9838
0.9456 0.8567 0.9692
0.5931 0.9327 0.9601
0.6007 0.9336 0.9606
0.6197 0.9358 0.9619
0.6529 0.9398 0.9642
0.7010 0.9459 0.9677
0.7630 0.9546 0.9728
0.8360 0.9662 0.9795
0.9160 0.9812 0.9885
0.9999 0.9999 0.9999
