EA 50 Cinematic Luts Pack/EA_Cinematic Lut (50).cube
TITLE "If you need a gloomy and shadowy brisk cinematic look this grade is what you are looking for. "
LUT_3D_SIZE 9
0.0000 0.0000 0.0000
0.0447 0.0237 0.0140
0.1022 0.0695 0.0600
0.1617 0.1166 0.1152
0.2246 0.1641 0.1767
0.2932 0.2129 0.2427
0.3707 0.2640 0.3103
0.4623 0.3172 0.3783
0.5558 0.3726 0.4465
0.0081 0.0936 0.0309
0.0570 0.0985 0.0897
0.1336 0.1141 0.0874
0.1891 0.1452 0.1368
0.2497 0.1841 0.1937
0.3153 0.2286 0.2568
0.3913 0.2770 0.3220
0.4808 0.3283 0.3881
0.5708 0.3825 0.4551
0.0488 0.1867 0.1025
0.0715 0.1935 0.0817
0.1299 0.1962 0.2145
0.2280 0.2074 0.1807
0.2868 0.2346 0.2339
0.3554 0.2692 0.2909
0.4358 0.3104 0.3501
0.5232 0.3561 0.4110
0.6057 0.4071 0.4747
0.1018 0.2829 0.1902
0.1141 0.2879 0.1739
0.1511 0.2965 0.1774
0.2120 0.2993 0.3485
0.3418 0.3087 0.2777
0.4103 0.3352 0.3386
0.4913 0.3685 0.3938
0.5737 0.4076 0.4509
0.6502 0.4531 0.5088
0.1591 0.3883 0.2869
0.1674 0.3922 0.2768
0.1889 0.4016 0.2525
0.2439 0.4094 0.3041
0.3061 0.4134 0.4856
0.4904 0.4218 0.3445
0.5575 0.4476 0.4456
0.6285 0.4813 0.4978
0.7020 0.5198 0.5522
0.2169 0.5061 0.3821
0.2233 0.5093 0.3757
0.2396 0.5175 0.3547
0.2736 0.5292 0.3461
0.3489 0.5352 0.4365
0.4156 0.5407 0.6232
0.6377 0.5477 0.3990
0.6918 0.5722 0.5497
0.7611 0.6064 0.5989
0.2717 0.6381 0.4747
0.2769 0.6410 0.4697
0.2907 0.6484 0.4523
0.3159 0.6607 0.4255
0.3675 0.6730 0.4429
0.4714 0.6754 0.5674
0.5346 0.6826 0.7548
0.7779 0.6872 0.4334
0.8129 0.7127 0.6735
0.3173 0.7805 0.5602
0.3220 0.7830 0.5557
0.3341 0.7894 0.5408
0.3561 0.8007 0.5143
0.3957 0.8150 0.4952
0.4741 0.8253 0.5420
0.6390 0.8107 0.7238
0.7112 0.8178 0.8640
0.9081 0.8338 0.5707
0.4944 0.9071 0.6933
0.5086 0.9071 0.6950
0.5421 0.9074 0.6991
0.5931 0.9086 0.7070
0.6544 0.9108 0.7260
0.7260 0.9126 0.7711
0.8037 0.9150 0.8375
0.8775 0.9229 0.9082
0.9246 0.9450 0.9614
0.0004 0.0104 0.0253
0.0457 0.0243 0.0924
0.1079 0.0724 0.0799
0.1659 0.1182 0.1287
0.2282 0.1651 0.1873
0.2963 0.2137 0.2507
0.3734 0.2646 0.3164
0.4648 0.3178 0.3832
0.5579 0.3732 0.4507
0.0000 0.0962 0.0919
0.0595 0.1003 0.1244
0.1349 0.1166 0.1106
0.1875 0.1484 0.1530
0.2461 0.1875 0.2066
0.3122 0.2314 0.2662
0.3888 0.2793 0.3292
0.4789 0.3302 0.3938
0.5725 0.3831 0.4593
0.0158 0.1896 0.1494
0.0825 0.1900 0.1691
0.1476 0.1956 0.2045
0.2294 0.2087 0.1951
0.2892 0.2354 0.2445
0.3566 0.2704 0.2985
0.4371 0.3114 0.3559
0.5227 0.3575 0.4164
0.6072 0.4076 0.4788
0.0912 0.2847 0.2193
0.1253 0.2848 0.2384
0.1624 0.2935 0.2359
0.2210 0.2994 0.3452
0.3419 0.3096 0.2927
0.4120 0.3359 0.3464
0.4931 0.3691 0.3998
0.5745 0.4084 0.4557
0.6543 0.4527 0.5115
0.1530 0.3897 0.3056
0.1763 0.3899 0.3201
0.2001 0.3984 0.3074
0.2513 0.4073 0.3400
0.3109 0.4137 0.4874
0.4893 0.4223 0.3645
0.5582 0.4484 0.4511
0.6296 0.4818 0.5027
0.7060 0.5193 0.5548
0.2123 0.5072 0.3956
0.2306 0.5075 0.4070
0.2483 0.5150 0.3950
0.2827 0.5270 0.3804
0.3539 0.5341 0.4571
0.4168 0.5412 0.6287
0.6369 0.5481 0.4173
0.6923 0.5729 0.5542
0.7639 0.6063 0.6009
0.2677 0.6391 0.4849
0.2835 0.6391 0.4942
0.2979 0.6461 0.4835
0.3250 0.6581 0.4611
0.3756 0.6710 0.4696
0.4750 0.6747 0.5819
0.5340 0.6831 0.7605
0.7772 0.6875 0.4514
0.8132 0.7131 0.6790
0.3135 0.7815 0.5686
0.3283 0.7816 0.5772
0.3408 0.7876 0.5668
0.3644 0.7983 0.5440
0.4046 0.8128 0.5208
0.4815 0.8235 0.5652
0.6414 0.8103 0.7320
0.7131 0.8178 0.8667
0.9077 0.8340 0.5836
0.4905 0.9082 0.6976
0.5051 0.9083 0.6985
0.5390 0.9084 0.7032
0.5913 0.9095 0.7102
0.6535 0.9116 0.7280
0.7255 0.9136 0.7712
0.8037 0.9158 0.8373
0.8781 0.9236 0.9085
0.9253 0.9455 0.9618
0.0029 0.0365 0.0818
0.0185 0.0505 0.1566
0.1031 0.0746 0.2059
0.1733 0.1235 0.1603
0.2345 0.1689 0.2112
0.3022 0.2165 0.2681
0.3796 0.2669 0.3306
0.4709 0.3195 0.3954
0.5630 0.3746 0.4612
0.0125 0.1015 0.1614
0.0516 0.1086 0.1860
0.1268 0.1219 0.2055
0.1971 0.1510 0.1880
0.2543 0.1897 0.2329
0.3197 0.2332 0.2862
0.3959 0.2809 0.3447
0.4850 0.3317 0.4063
0.5773 0.3844 0.4698
0.0000 0.1931 0.2206
0.0367 0.1974 0.2391
0.1364 0.1993 0.2759
0.2322 0.2119 0.2311
0.2895 0.2393 0.2714
0.3544 0.2747 0.3196
0.4319 0.3162 0.3734
0.5171 0.3623 0.4311
0.6109 0.4091 0.4895
0.0132 0.2907 0.2942
0.0807 0.2917 0.2973
0.1549 0.2938 0.3244
0.2521 0.2983 0.3264
0.3433 0.3120 0.3210
0.4160 0.3378 0.3659
0.4965 0.3710 0.4147
0.5769 0.4104 0.4677
0.6652 0.4514 0.5189
0.1297 0.3935 0.3559
0.1536 0.3943 0.3646
0.2078 0.3956 0.3887
0.2570 0.4059 0.3999
0.3359 0.4132 0.4741
0.4886 0.4239 0.3984
0.5607 0.4501 0.4657
0.6323 0.4831 0.5150
0.7168 0.5178 0.5616
0.1978 0.5102 0.4328
0.2157 0.5108 0.4413
0.2590 0.5117 0.4653
0.2976 0.5228 0.4530
0.3601 0.5321 0.5044
0.4400 0.5411 0.6157
0.6349 0.5490 0.4605
0.6937 0.5745 0.5656
0.7715 0.6059 0.6063
0.2559 0.6414 0.5140
0.2714 0.6417 0.5215
0.3100 0.6422 0.5419
0.3402 0.6532 0.5272
0.3920 0.6662 0.5300
0.4804 0.6734 0.6178
0.5511 0.6830 0.7528
0.7752 0.6880 0.4934
0.8154 0.7141 0.6879
0.3027 0.7837 0.5937
0.3173 0.7839 0.6005
0.3539 0.7843 0.6186
0.3802 0.7943 0.6032
0.4243 0.8078 0.5879
0.5024 0.8183 0.6207
0.6456 0.8097 0.7512
0.7213 0.8181 0.8653
0.9065 0.8346 0.6144
0.4776 0.9113 0.7113
0.4937 0.9112 0.7111
0.5310 0.9112 0.7116
0.5861 0.9119 0.7188
0.6510 0.9138 0.7336
0.7241 0.9160 0.7717
0.8036 0.9180 0.8366
0.8796 0.9251 0.9090
0.9270 0.9468 0.9627
0.0116 0.0688 0.1432
0.0266 0.0805 0.1884
0.0758 0.0943 0.3049
0.1622 0.1273 0.3181
0.2438 0.1761 0.2494
0.3114 0.2220 0.2984
0.3884 0.2714 0.3546
0.4791 0.3234 0.4139
0.5699 0.3779 0.4769
0.0326 0.1162 0.2132
0.0564 0.1238 0.2334
0.0964 0.1353 0.3157
0.1785 0.1585 0.3260
0.2630 0.1959 0.2708
0.3287 0.2382 0.3157
0.4053 0.2850 0.3687
0.4940 0.3350 0.4261
0.5843 0.3874 0.4863
0.0524 0.1956 0.2908
0.0790 0.1989 0.3064
0.1308 0.2064 0.3387
0.2202 0.2186 0.3276
0.3029 0.2418 0.3140
0.3672 0.2771 0.3534
0.4440 0.3185 0.4007
0.5271 0.3645 0.4534
0.6187 0.4110 0.5085
0.0007 0.2951 0.3583
0.0546 0.2972 0.3675
0.1272 0.3014 0.3915
0.2241 0.3044 0.4305
0.3466 0.3163 0.3616
0.4183 0.3423 0.3987
0.4958 0.3761 0.4425
0.5735 0.4162 0.4910
0.6732 0.4527 0.5385
0.0372 0.4021 0.4363
0.0807 0.4035 0.4413
0.1598 0.4058 0.4454
0.2352 0.4100 0.4838
0.3750 0.4128 0.4528
0.4880 0.4271 0.4467
0.5646 0.4529 0.4925
0.6360 0.4858 0.5364
0.7364 0.5148 0.5747
0.1545 0.5165 0.4993
0.1769 0.5173 0.5016
0.2257 0.5191 0.5103
0.2924 0.5216 0.5457
0.3542 0.5338 0.5629
0.4835 0.5392 0.5970
0.6337 0.5512 0.5062
0.6965 0.5771 0.5867
0.7861 0.6046 0.6176
0.2275 0.6463 0.5671
0.2430 0.6470 0.5725
0.2809 0.6484 0.5871
0.3477 0.6500 0.6128
0.4022 0.6629 0.6123
0.4800 0.6742 0.6635
0.5815 0.6821 0.7408
0.7716 0.6890 0.5594
0.8211 0.7157 0.6986
0.2791 0.7879 0.6380
0.2935 0.7883 0.6432
0.3293 0.7892 0.6570
0.3928 0.7902 0.6840
0.4434 0.8030 0.6677
0.5237 0.8131 0.6871
0.6474 0.8104 0.7801
0.7386 0.8184 0.8571
0.9045 0.8358 0.6633
0.4474 0.9172 0.7362
0.4663 0.9171 0.7356
0.5098 0.9167 0.7344
0.5739 0.9167 0.7344
0.6450 0.9179 0.7454
0.7210 0.9204 0.7730
0.8030 0.9221 0.8352
0.8822 0.9280 0.9097
0.9300 0.9490 0.9645
0.0318 0.1011 0.2070
0.0444 0.1102 0.2382
0.0764 0.1274 0.3131
0.1403 0.1447 0.4188
0.2254 0.1814 0.4259
0.3240 0.2303 0.3398
0.4006 0.2784 0.3883
0.4905 0.3292 0.4432
0.5789 0.3830 0.5009
0.0527 0.1371 0.2633
0.0686 0.1440 0.2796
0.0967 0.1574 0.3406
0.1520 0.1707 0.4466
0.2383 0.2032 0.4390
0.3401 0.2462 0.3563
0.4176 0.2916 0.4022
0.5051 0.3406 0.4551
0.5929 0.3923 0.5104
0.0859 0.2038 0.3485
0.1002 0.2081 0.3595
0.1341 0.2180 0.3854
0.1816 0.2298 0.4635
0.2741 0.2525 0.4463
0.3793 0.2834 0.3940
0.4578 0.3237 0.4347
0.5389 0.3689 0.4829
0.6270 0.4156 0.5327
0.0978 0.2953 0.4233
0.1129 0.2979 0.4344
0.1535 0.3033 0.4598
0.2206 0.3112 0.4922
0.3327 0.3237 0.4576
0.4345 0.3456 0.4444
0.5113 0.3788 0.4807
0.5859 0.4188 0.5234
0.6832 0.4555 0.5685
0.0631 0.4058 0.4955
0.0910 0.4075 0.5018
0.1433 0.4115 0.5180
0.2175 0.4169 0.5485
0.3250 0.4209 0.5883
0.4903 0.4322 0.4946
0.5687 0.4578 0.5281
0.6365 0.4917 0.5694
0.7574 0.5122 0.6044
0.0651 0.5261 0.5758
0.0962 0.5274 0.5794
0.1522 0.5306 0.5886
0.2337 0.5351 0.6013
0.3264 0.5397 0.6465
0.5225 0.5403 0.5775
0.6317 0.5548 0.5683
0.6999 0.5810 0.6203
0.8015 0.6036 0.6476
0.1523 0.6561 0.6466
0.1745 0.6568 0.6480
0.2239 0.6586 0.6516
0.2996 0.6612 0.6601
0.3793 0.6655 0.7024
0.4546 0.6801 0.7245
0.6261 0.6802 0.7169
0.7702 0.6921 0.6172
0.8304 0.7178 0.7152
0.2273 0.7952 0.7032
0.2446 0.7958 0.7047
0.2849 0.7972 0.7101
0.3481 0.7993 0.7259
0.4384 0.8014 0.7599
0.5169 0.8132 0.7655
0.6356 0.8154 0.8189
0.7669 0.8174 0.8495
0.9017 0.8377 0.7249
0.3762 0.9285 0.7751
0.4003 0.9280 0.7740
0.4578 0.9269 0.7715
0.5410 0.9251 0.7680
0.6300 0.9249 0.7670
0.7155 0.9264 0.7838
0.8013 0.9283 0.8345
0.8855 0.9326 0.9104
0.9344 0.9524 0.9671
0.0562 0.1334 0.2702
0.0657 0.1406 0.2926
0.0896 0.1561 0.3469
0.1329 0.1756 0.4388
0.2075 0.1988 0.5182
0.2952 0.2375 0.5323
0.4181 0.2874 0.4316
0.5038 0.3376 0.4797
0.5907 0.3900 0.5320
0.0740 0.1618 0.3147
0.0856 0.1679 0.3282
0.1074 0.1809 0.3753
0.1477 0.1983 0.4568
0.2172 0.2177 0.5421
0.3063 0.2540 0.5485
0.4339 0.3004 0.4453
0.5180 0.3486 0.4911
0.6043 0.3991 0.5424
0.1069 0.2195 0.3939
0.1174 0.2237 0.4038
0.1434 0.2338 0.4274
0.1798 0.2479 0.4935
0.2406 0.2626 0.5867
0.3379 0.2948 0.5587
0.4708 0.3321 0.4766
0.5513 0.3761 0.5183
0.6376 0.4219 0.5675
0.1403 0.3012 0.4796
0.1517 0.3038 0.4887
0.1788 0.3103 0.5102
0.2228 0.3221 0.5392
0.2792 0.3349 0.6148
0.3959 0.3571 0.5745
0.5277 0.3839 0.5245
0.6008 0.4234 0.5619
0.6929 0.4609 0.6069
0.1445 0.4054 0.5593
0.1558 0.4075 0.5669
0.1831 0.4126 0.5867
0.2401 0.4195 0.6148
0.3227 0.4281 0.6492
0.4746 0.4401 0.5913
0.5816 0.4622 0.5762
0.6512 0.4948 0.6113
0.7690 0.5146 0.6492
0.1034 0.5296 0.6341
0.1226 0.5311 0.6388
0.1642 0.5347 0.6509
0.2268 0.5405 0.6727
0.3127 0.5471 0.7068
0.4441 0.5515 0.7439
0.6287 0.5610 0.6345
0.7177 0.5822 0.6567
0.8179 0.6035 0.6903
0.0562 0.6664 0.7139
0.0888 0.6676 0.7166
0.1449 0.6706 0.7232
0.2164 0.6756 0.7352
0.3123 0.6814 0.7515
0.4285 0.6854 0.8009
0.6582 0.6824 0.7045
0.7684 0.6955 0.6944
0.8453 0.7193 0.7420
0.0840 0.8078 0.7876
0.1177 0.8084 0.7883
0.1806 0.8100 0.7902
0.2658 0.8123 0.7936
0.3700 0.8154 0.8033
0.4638 0.8243 0.8264
0.6197 0.8250 0.8434
0.7890 0.8200 0.8450
0.8984 0.8405 0.7928
0.1747 0.9523 0.8355
0.2173 0.9511 0.8332
0.3094 0.9478 0.8279
0.4419 0.9428 0.8203
0.5837 0.9375 0.8121
0.6995 0.9355 0.8091
0.7965 0.9372 0.8359
0.8887 0.9393 0.9099
0.9403 0.9570 0.9707
0.0814 0.1659 0.3315
0.0889 0.1717 0.3485
0.1080 0.1854 0.3906
0.1419 0.2051 0.4616
0.1952 0.2262 0.5622
0.2799 0.2553 0.6209
0.3748 0.2963 0.6405
0.5236 0.3469 0.5235
0.6033 0.3999 0.5717
0.0967 0.1891 0.3678
0.1058 0.1944 0.3790
0.1236 0.2064 0.4169
0.1558 0.2242 0.4818
0.2073 0.2443 0.5757
0.2893 0.2705 0.6397
0.3853 0.3095 0.6558
0.5363 0.3579 0.5346
0.6164 0.4088 0.5827
0.1278 0.2394 0.4394
0.1362 0.2434 0.4483
0.1571 0.2534 0.4698
0.1869 0.2683 0.5248
0.2348 0.2862 0.6058
0.3106 0.3063 0.6848
0.4161 0.3437 0.6696
0.5667 0.3854 0.5618
0.6488 0.4309 0.6090
0.1676 0.3131 0.5296
0.1755 0.3162 0.5363
0.1955 0.3238 0.5533
0.2308 0.3365 0.5818
0.2761 0.3515 0.6498
0.3448 0.3676 0.7316
0.4703 0.3996 0.6873
0.6115 0.4329 0.6046
0.7032 0.4685 0.6505
0.1942 0.4101 0.6144
0.2033 0.4123 0.6209
0.2264 0.4174 0.6373
0.2669 0.4258 0.6664
0.3226 0.4395 0.6967
0.3935 0.4531 0.7660
0.5429 0.4752 0.7053
0.6666 0.5003 0.6565
0.7784 0.5200 0.7010
0.1841 0.5291 0.6965
0.1934 0.5309 0.7019
0.2165 0.5353 0.7157
0.2570 0.5425 0.7405
0.3335 0.5504 0.7678
0.4398 0.5593 0.8012
0.6159 0.5700 0.7216
0.7311 0.5855 0.7120
0.8247 0.6086 0.7437
0.1171 0.6695 0.7683
0.1341 0.6709 0.7718
0.1717 0.6741 0.7808
0.2291 0.6795 0.7970
0.3077 0.6862 0.8219
0.4149 0.6929 0.8573
0.5999 0.6918 0.8624
0.7775 0.6984 0.7563
0.8685 0.7184 0.7854
0.0000 0.8153 0.8425
0.0000 0.8177 0.8454
0.0941 0.8207 0.8509
0.1813 0.8252 0.8601
0.2727 0.8313 0.8755
0.3590 0.8434 0.8851
0.5840 0.8387 0.8870
0.8080 0.8252 0.8462
0.9012 0.8445 0.8460
0.0000 0.9611 0.9153
0.0000 0.9634 0.9154
0.0000 0.9693 0.9155
0.0587 0.9716 0.9097
0.3619 0.9712 0.8879
0.6263 0.9553 0.8677
0.7814 0.9484 0.8601
0.8891 0.9493 0.9071
0.9476 0.9630 0.9753
0.1075 0.1986 0.3917
0.1137 0.2037 0.4054
0.1296 0.2156 0.4393
0.1577 0.2341 0.4964
0.2010 0.2570 0.5785
0.2645 0.2801 0.6843
0.3601 0.3144 0.7236
0.4693 0.3574 0.7461
0.6233 0.4100 0.6172
0.1209 0.2183 0.4222
0.1282 0.2230 0.4317
0.1434 0.2338 0.4632
0.1705 0.2511 0.5165
0.2125 0.2728 0.5943
0.2748 0.2949 0.6950
0.3692 0.3269 0.7386
0.4790 0.3687 0.7586
0.6360 0.4186 0.6285
0.1499 0.2628 0.4864
0.1568 0.2666 0.4942
0.1743 0.2761 0.5134
0.1997 0.2910 0.5609
0.2395 0.3102 0.6303
0.2992 0.3306 0.7199
0.3910 0.3576 0.7746
0.5053 0.3979 0.7755
0.6671 0.4401 0.6559
0.1897 0.3306 0.5737
0.1962 0.3337 0.5801
0.2129 0.3414 0.5959
0.2428 0.3543 0.6224
0.2806 0.3706 0.6819
0.3372 0.3891 0.7573
0.4250 0.4087 0.8357
0.5502 0.4486 0.7929
0.7191 0.4764 0.7001
0.2281 0.4202 0.6669
0.2354 0.4224 0.6731
0.2533 0.4282 0.6876
0.2830 0.4388 0.7088
0.3293 0.4538 0.7381
0.3865 0.4694 0.8039
0.4737 0.4868 0.8720
0.6105 0.5173 0.8137
0.7909 0.5264 0.7566
0.2417 0.5330 0.7484
0.2496 0.5347 0.7530
0.2695 0.5391 0.7650
0.3051 0.5466 0.7867
0.3618 0.5563 0.8183
0.4318 0.5698 0.8618
0.5524 0.5826 0.8816
0.6783 0.6062 0.8278
0.8290 0.6175 0.7954
0.2072 0.6686 0.8282
0.2156 0.6702 0.8323
0.2364 0.6740 0.8428
0.2726 0.6805 0.8620
0.3310 0.6888 0.8891
0.4596 0.6943 0.9033
0.6219 0.6964 0.8995
0.7536 0.7107 0.8465
0.8744 0.7250 0.8387
0.0773 0.8198 0.8980
0.0997 0.8210 0.9008
0.1440 0.8238 0.9083
0.2052 0.8285 0.9216
0.3028 0.8326 0.9386
0.5002 0.8295 0.9339
0.6433 0.8330 0.9324
0.7933 0.8336 0.9245
0.9221 0.8455 0.8844
0.0000 0.9667 0.9687
0.0000 0.9689 0.9696
0.0000 0.9716 0.9719
0.1461 0.9716 0.9720
0.3169 0.9716 0.9671
0.4968 0.9716 0.9589
0.6630 0.9714 0.9445
0.8777 0.9632 0.9196
0.9566 0.9703 0.9810
0.1345 0.2321 0.4517
0.1399 0.2365 0.4632
0.1536 0.2471 0.4909
0.1778 0.2644 0.5386
0.2146 0.2870 0.6080
0.2673 0.3122 0.6972
0.3438 0.3390 0.7870
0.4546 0.3759 0.8260
0.5651 0.4213 0.8505
0.1465 0.2492 0.4779
0.1517 0.2532 0.4885
0.1650 0.2631 0.5150
0.1887 0.2793 0.5613
0.2249 0.3007 0.6284
0.2774 0.3245 0.7149
0.3538 0.3493 0.8058
0.4670 0.3851 0.8420
0.5766 0.4295 0.8639
0.1734 0.2890 0.5349
0.1782 0.2925 0.5446
0.1909 0.3010 0.5696
0.2136 0.3152 0.6127
0.2489 0.3339 0.6749
0.3010 0.3547 0.7564
0.3783 0.3748 0.8523
0.4967 0.4077 0.8814
0.5999 0.4551 0.8792
0.2119 0.3518 0.6182
0.2163 0.3548 0.6264
0.2277 0.3620 0.6477
0.2495 0.3736 0.6865
0.2844 0.3889 0.7432
0.3368 0.4059 0.8199
0.4246 0.4234 0.8979
0.5416 0.4579 0.8954
0.6344 0.5022 0.8878
0.2544 0.4358 0.7124
0.2582 0.4384 0.7190
0.2683 0.4447 0.7362
0.2877 0.4550 0.7683
0.3222 0.4672 0.8214
0.3777 0.4791 0.8977
0.4977 0.4984 0.9073
0.5991 0.5277 0.9073
0.6821 0.5679 0.9011
0.2822 0.5418 0.7988
0.2862 0.5439 0.8048
0.2967 0.5491 0.8205
0.3174 0.5571 0.8508
0.3473 0.5686 0.8963
0.4580 0.5773 0.9160
0.5762 0.5912 0.9216
0.6652 0.6159 0.9246
0.7421 0.6517 0.9191
0.2715 0.6717 0.8815
0.2745 0.6737 0.8858
0.2825 0.6789 0.8970
0.3014 0.6871 0.9172
0.3879 0.6923 0.9300
0.5308 0.6945 0.9337
0.6462 0.7024 0.9403
0.7398 0.7194 0.9459
0.8130 0.7504 0.9406
0.1977 0.8187 0.9602
0.2133 0.8196 0.9610
0.2588 0.8211 0.9615
0.3312 0.8236 0.9623
0.4350 0.8271 0.9633
0.5620 0.8307 0.9633
0.6886 0.8340 0.9626
0.8134 0.8383 0.9661
0.8957 0.8611 0.9642
0.4537 0.9392 0.9878
0.4670 0.9398 0.9878
0.4990 0.9413 0.9878
0.5508 0.9437 0.9876
0.6165 0.9477 0.9876
0.6935 0.9532 0.9876
0.7808 0.9602 0.9877
0.8795 0.9688 0.9878
0.9675 0.9716 0.9878
