EA 50 Cinematic Luts Pack/EA_Cinematic Lut (12).cube
TITLE "Generated by Resolve"
LUT_3D_SIZE 33
0 0.0101472 0
0.0199435 0.00138857 0
0.0654917 0 0
0.108339 0 0
0.149691 0 0
0.190234 0 0
0.230243 0 0
0.269886 0 0
0.30927 0 0
0.348608 0 0
0.387518 0 0
0.426184 0 0
0.464546 0 0
0.502602 0 0
0.540307 0 0
0.577615 0 0
0.614328 0 0
0.650858 0 0
0.687205 0 0
0.723415 0 0
0.759716 0 0
0.795697 0 0
0.831571 0 0
0.867308 0 0
0.902968 0 0
0.938643 0 0
0.974304 0 0
1 0 0
1 0 0
1 0 0
1 0 0
1 0 0
1 0 0
0 0.0345769 0
0.0142824 0.0295872 0
0.0580911 0.0254673 0
0.101198 0.0212558 0
0.142824 0.017731 0
0.183688 0.014786 0
0.224063 0.0123293 0
0.264271 0.0104982 0
0.30399 0.00881971 0
0.343481 0.00743114 0
0.382757 0.00630198 0
0.42179 0.0053254 0
0.460517 0.00442512 0
0.499107 0.00369268 0
0.537057 0.00262455 0
0.574487 0.00131228 0
0.611337 0 0
0.647929 0 0
0.684413 0 0
0.720882 0 0
0.757046 0 0
0.793118 0 0
0.829129 0 0
0.865049 0 0
0.900954 0 0
0.936828 0 0
0.972564 0 0
1 0 0
1 0 0
1 0 0
1 0 0
1 0 0
1 0 0
0 0.0606699 0
0.012192 0.0566415 0
0.049836 0.0536355 0
0.0919051 0.0501259 0
0.133989 0.0467536 0
0.17528 0.0439307 0
0.216236 0.0418555 0
0.256672 0.0400854 0
0.296864 0.0387274 0
0.336828 0.0376898 0
0.376562 0.0369116 0
0.416037 0.0363012 0
0.455421 0.0359503 0
0.494255 0.0354009 0
0.532631 0.034699 0
0.570489 0.0337377 0
0.607645 0.0323796 0
0.644358 0.0307622 0
0.681117 0.0294347 0
0.717586 0.0280308 0
0.753948 0.026688 0
0.790173 0.0254215 0
0.826322 0.0242313 0
0.862669 0.0233921 0
0.898772 0.0224765 0
0.934813 0.0216526 0
0.970764 0.0208743 0
1 0.0202182 0
1 0.0198062 0
1 0.0196841 0
1 0.0194705 0
1 0.0193179 0
1 0.0193637 0
0 0.0868696 0
0.0101015 0.0832074 0
0.0432746 0.0810101 0
0.0830243 0.0782788 0
0.124224 0.0756237 0
0.166033 0.0733501 0
0.207294 0.0713359 0
0.248203 0.0698405 0
0.288869 0.0687724 0
0.32932 0.068101 0
0.369726 0.0678874 0
0.409781 0.0677348 0
0.44947 0.0676127 0
0.488792 0.0674601 0
0.527657 0.0671702 0
0.565988 0.0666209 0
0.603876 0.0658885 0
0.640833 0.0644846 0
0.677577 0.0630808 0
0.714229 0.061799 0
0.750835 0.0606546 0
0.787366 0.0596475 0
0.824033 0.0589303 0
0.86038 0.0580606 0
0.896742 0.0573739 0
0.933135 0.0568551 0
0.969528 0.0565042 0
1 0.0562448 0
1 0.05626 0
1 0.0563211 0
1 0.056611 0
1 0.0570993 0
1 0.0576486 0
0 0.113024 0
0.00776684 0.109606 0
0.0383154 0.107912 0
0.0758526 0.105974 0
0.115572 0.104234 0
0.15642 0.102495 0
0.197864 0.100969 0
0.239261 0.0998398 0
0.280461 0.0991531 0
0.321584 0.0990005 0
0.362417 0.0990616 0
0.40296 0.0992905 0
0.443244 0.0996719 0
0.483162 0.100023 0
0.52256 0.100191 0
0.561593 0.100282 0
0.599786 0.099794 0
0.637217 0.0987869 0
0.674281 0.0976577 0
0.711208 0.0965896 0
0.748058 0.0956283 0
0.785122 0.0950942 0
0.821988 0.0945296 0
0.858793 0.0940871 0
0.895521 0.0937057 0
0.932235 0.0934768 0
0.969329 0.0937667 0
1 0.0940566 0
1 0.0944686 0
1 0.0949569 0
1 0.095613 0
1 0.0965133 0
1 0.0979019 0
0 0.139223 0
0.00534066 0.136004 0
0.0345617 0.134691 0
0.0692454 0.133516 0
0.108202 0.132265 0
0.147982 0.131426 0
0.188815 0.130678 0
0.230304 0.130144 0
0.272129 0.130144 0
0.31371 0.130327 0
0.355077 0.130816 0
0.396185 0.131487 0
0.437034 0.132296 0
0.477684 0.133288 0
0.517845 0.134112 0
0.557336 0.134569 0
0.596078 0.134569 0
0.634012 0.133989 0
0.671427 0.133165 0
0.70901 0.132692 0
0.746349 0.132174 0
0.783536 0.131716 0
0.820752 0.131456 0
0.858061 0.131472 0
0.895445 0.131701 0
0.933028 0.132296 0
0.970306 0.132723 0
1 0.133364 0
1 0.134249 0
1 0.135332 0
1 0.136477 0
1 0.138003 0
1 0.139391 0
0 0.165606 0
0.00315862 0.162783 0
0.0315709 0.161639 0
0.0640421 0.160922 0
0.101457 0.160296 0
0.140948 0.160159 0
0.181186 0.160449 0
0.222385 0.160922 0
0.264088 0.161395 0
0.30602 0.162142 0
0.347967 0.163195 0
0.389761 0.164477 0
0.431388 0.165957 0
0.472587 0.167391 0
0.513283 0.168658 0
0.553491 0.169741 0
0.593011 0.170428 0
0.631617 0.170459 0
0.669627 0.170138 0
0.70753 0.169924 0
0.745403 0.169909 0
0.783276 0.170062 0
0.821042 0.170306 0
0.858763 0.170672 0
0.896834 0.171572 0
0.934737 0.172442 0
0.972625 0.173465 0
1 0.174533 0
1 0.175708 0
1 0.177325 0
1 0.178866 0
1 0.180468 0
1 0.182116 0
0 0.192386 0
0.000946059 0.189624 0
0.0290379 0.188769 0
0.0601816 0.188586 0
0.0956283 0.188647 0
0.134813 0.18912 0
0.17499 0.190311 0
0.215702 0.191669 0
0.257206 0.193133 0
0.299245 0.194659 0
0.341558 0.196353 0
0.384131 0.198505 0
0.426352 0.20058 0
0.468238 0.20264 0
0.509621 0.204501 0
0.550469 0.206134 0
0.590845 0.207584 0
0.630488 0.208576 0
0.669108 0.208789 0
0.707454 0.208957 0
0.745754 0.209293 0
0.784131 0.209903 0
0.822721 0.21091 0
0.861158 0.211948 0
0.899397 0.21294 0
0.937606 0.214084 0
0.975845 0.215396 0
1 0.216861 0
1 0.218631 0
1 0.220279 0
1 0.222004 0
1 0.223896 0
1 0.225895 0
0 0.219486 0
0 0.216968 0
0.0271 0.216403 0
0.0574044 0.216663 0
0.0916915 0.217624 0
0.129595 0.218784 0
0.169787 0.220447 0
0.210498 0.222705 0
0.251881 0.225223 0
0.293996 0.227924 0
0.336736 0.230762 0
0.379461 0.233448 0
0.422232 0.236225 0
0.464881 0.239094 0
0.507195 0.241856 0
0.549004 0.244404 0
0.590112 0.246525 0
0.630274 0.247944 0
0.669581 0.248768 0
0.708614 0.249561 0
0.747524 0.250431 0
0.786465 0.251545 0
0.82536 0.252781 0
0.864088 0.254063 0
0.90277 0.255467 0
0.941344 0.256901 0
0.979843 0.258457 0
1 0.260471 0
1 0.262303 0
1 0.264256 0
1 0.266239 0
1 0.268315 0
1 0.270756 0
0 0.24715 0
0 0.24506 0
0.0260166 0.244831 0
0.0560159 0.245716 0
0.0890211 0.247028 0
0.125689 0.248936 0
0.165637 0.251408 0
0.206744 0.254505 0
0.24831 0.25803 0
0.290669 0.262013 0
0.333455 0.265888 0
0.376638 0.269749 0
0.419913 0.273472 0
0.463066 0.277073 0
0.506264 0.280842 0
0.54876 0.284108 0
0.590555 0.286885 0
0.631373 0.28893 0
0.671183 0.290181 0
0.710719 0.291402 0
0.750317 0.292912 0
0.789578 0.29427 0
0.828687 0.295674 0
0.86772 0.297185 0
0.906737 0.298863 0
0.945861 0.300816 0
0.984939 0.302861 0
1 0.304799 0
1 0.306844 0
1 0.309026 0
1 0.311315 0
1 0.313863 0
1 0.316396 0
0 0.275639 0
0 0.274128 0
0.0261387 0.274449 0
0.0557717 0.2757 0
0.0881056 0.277546 0
0.123735 0.280064 0
0.162707 0.283345 0
0.204593 0.287633 0
0.246815 0.292287 0
0.289296 0.297139 0
0.332219 0.302068 0
0.375586 0.307012 0
0.419287 0.311879 0
0.463233 0.316762 0
0.506584 0.320974 0
0.549493 0.324804 0
0.591775 0.32813 0
0.633173 0.33077 0
0.673548 0.332586 0
0.71368 0.33434 0
0.753414 0.335943 0
0.793088 0.337667 0
0.832654 0.339467 0
0.872068 0.341299 0
0.911498 0.343328 0
0.950973 0.345571 0
0.990204 0.347723 0
1 0.349981 0
1 0.35227 0
1 0.35462 0
1 0.357427 0
1 0.359991 0
1 0.362615 0
0 0.305547 0
0 0.304295 0
0.0271763 0.305013 0
0.0569314 0.306905 0
0.0891127 0.30956 0
0.124132 0.31284 0
0.162478 0.317037 0
0.20354 0.321782 0
0.246342 0.32726 0
0.28954 0.333272 0
0.332906 0.33933 0
0.376425 0.345251 0
0.420462 0.351293 0
0.464302 0.356756 0
0.507958 0.361791 0
0.551171 0.366247 0
0.593744 0.370062 0
0.635798 0.37348 0
0.676585 0.375753 0
0.716991 0.377798 0
0.757153 0.379797 0
0.797177 0.381826 0
0.83711 0.383963 0
0.877241 0.386465 0
0.916945 0.388708 0
0.956497 0.390982 0
0.995956 0.393332 0
1 0.395773 0
1 0.398398 0
1 0.401251 0
1 0.403876 0
1 0.406561 0
1 0.409308 0
0 0.336751 0
0.000869764 0.336126 0
0.0299992 0.337392 0
0.0598154 0.339757 0
0.0919814 0.34316 0
0.126726 0.347265 0
0.164218 0.35198 0
0.204425 0.357351 0
0.24712 0.363363 0
0.2907 0.370016 0
0.334829 0.377295 0
0.378744 0.384237 0
0.422629 0.390845 0
0.466468 0.39707 0
0.510216 0.402853 0
0.553643 0.408057 0
0.59678 0.412833 0
0.638758 0.416388 0
0.67982 0.419104 0
0.720653 0.421668 0
0.761288 0.42417 0
0.80174 0.426642 0
0.842329 0.429404 0
0.88246 0.431861 0
0.922469 0.434409 0
0.962371 0.436973 0
1 0.439567 0
1 0.442237 0
1 0.445197 0
1 0.447944 0
1 0.450736 0
1 0.453544 0
1 0.456397 0
0 0.369497 0
0.004654 0.369406 0
0.0343481 0.371328 0
0.064622 0.374472 0
0.0965744 0.378271 0
0.130709 0.382666 0
0.167498 0.387839 0
0.206989 0.393759 0
0.248875 0.400305 0
0.292866 0.40763 0
0.337118 0.41529 0
0.38143 0.423056 0
0.425635 0.430564 0
0.469657 0.437644 0
0.513405 0.444129 0
0.557168 0.450294 0
0.600092 0.455375 0
0.642222 0.459495 0
0.683589 0.462791 0
0.724758 0.465873 0
0.766049 0.469154 0
0.806912 0.472099 0
0.847562 0.474937 0
0.887984 0.477714 0
0.928252 0.480491 0
0.968414 0.483284 0
1 0.486458 0
1 0.489281 0
1 0.492103 0
1 0.494942 0
1 0.49781 0
1 0.50074 0
1 0.50399 0
0 0.404028 0
0.00999466 0.404288 0
0.0402228 0.406821 0
0.0704967 0.410208 0
0.102266 0.414343 0
0.136034 0.41912 0
0.172137 0.424582 0
0.210956 0.430976 0
0.252216 0.438132 0
0.295552 0.445731 0
0.339986 0.453727 0
0.384573 0.462013 0
0.429114 0.470283 0
0.47361 0.478355 0
0.517647 0.485725 0
0.561059 0.49221 0
0.603906 0.49781 0
0.646021 0.502419 0
0.687724 0.506477 0
0.729534 0.510491 0
0.770855 0.514031 0
0.811948 0.517342 0
0.852857 0.520577 0
0.893614 0.523705 0
0.934157 0.526787 0
0.974868 0.530159 0
1 0.533135 0
1 0.53611 0
1 0.539071 0
1 0.542031 0.00155642
1 0.544961 0.00370794
1 0.548241 0.00627146
1 0.551156 0.00856031
0 0.439765 0
0.0167391 0.440635 0
0.046891 0.443137 0
0.0771954 0.446769 0
0.108873 0.451225 0
0.142412 0.456397 0
0.178164 0.462333 0
0.216281 0.469032 0
0.25655 0.476249 0
0.29897 0.484138 0
0.343282 0.492531 0
0.388113 0.501228 0
0.433066 0.51017 0
0.477729 0.518791 0
0.521782 0.52668 0
0.565301 0.533806 0
0.608103 0.539956 0
0.650248 0.54519 0
0.692515 0.550286 0
0.734249 0.554681 0
0.775784 0.558755 0
0.817121 0.562554 0
0.858274 0.566155 0
0.899458 0.569879 0.0010071
0.940291 0.573312 0.00247196
0.98085 0.576577 0.00399786
1 0.579736 0.00564584
1 0.582849 0.00741588
1 0.585901 0.00926223
1 0.589242 0.0115358
1 0.592248 0.0135805
1 0.595209 0.0156558
1 0.598123 0.0177768
0 0.476661 0
0.0240482 0.477592 0
0.0545052 0.48043 0
0.0849012 0.484337 0
0.116442 0.488991 0
0.149996 0.494713 0
0.185214 0.500801 0
0.222538 0.507576 0
0.261997 0.514977 0
0.303532 0.523018 0
0.347066 0.531685 0
0.392157 0.540856 0
0.437095 0.54995 0
0.481773 0.558846 0
0.525963 0.567239 0
0.569482 0.574823 0
0.612482 0.581704 0.00247196
0.655085 0.58793 0.00479133
0.6972 0.593423 0.00633249
0.739086 0.598459 0.00753796
0.780758 0.603082 0.00854505
0.822248 0.607385 0.00953689
0.863783 0.611658 0.0107729
0.904982 0.615595 0.0119783
0.945876 0.619196 0.0131685
0.986526 0.62266 0.0145266
1 0.625986 0.0159609
1 0.629236 0.0175326
1 0.632685 0.0194858
1 0.635798 0.0212558
1 0.638773 0.0230411
1 0.641672 0.0248722
1 0.644556 0.0267796
0.000274662 0.514382 0
0.0322728 0.515496 0
0.0628672 0.518517 0
0.0934005 0.522698 0
0.125216 0.527932 0
0.158175 0.533486 0
0.192889 0.539681 0
0.229587 0.546578 0
0.268315 0.554116 0
0.309087 0.562325 0
0.351827 0.571221 0
0.395956 0.580224 0
0.440864 0.58938 0
0.485588 0.59852 0
0.529839 0.607217 0.00198367
0.573617 0.615412 0.00694286
0.616892 0.622995 0.0109712
0.659586 0.62977 0.0139925
0.7019 0.635981 0.0163577
0.743938 0.641672 0.0180972
0.785702 0.646876 0.0194553
0.827619 0.652018 0.0209506
0.868955 0.656458 0.0219577
0.910109 0.660609 0.0229648
0.951064 0.664515 0.0240177
0.991806 0.668208 0.0251316
1 0.671885 0.0265049
1 0.67538 0.0279698
1 0.678584 0.0293584
1 0.681697 0.0308232
1 0.684688 0.0323491
1 0.687556 0.0338903
1 0.690562 0.0357214
0.0091249 0.552926 0
0.0413519 0.554299 0
0.0720378 0.557443 0
0.102876 0.562051 0
0.134279 0.567102 0
0.16701 0.572824 0
0.201297 0.57911 0
0.237339 0.586007 0
0.275624 0.593881 0
0.31545 0.601999 0
0.357046 0.610605 0
0.400107 0.619547 0
0.444465 0.628641 0
0.489082 0.637766 0.00131228
0.533684 0.646998 0.0080415
0.5776 0.655573 0.0137026
0.621027 0.66363 0.0185245
0.66392 0.671016 0.0224002
0.706416 0.677836 0.0254978
0.748653 0.684215 0.0280461
0.790753 0.690211 0.0301366
0.832349 0.695506 0.0315862
0.873701 0.700374 0.0327459
0.914824 0.704845 0.0337377
0.955718 0.70901 0.0346532
0.996612 0.713085 0.0357519
1 0.71696 0.0368963
1 0.720409 0.0379034
1 0.723659 0.038941
1 0.726741 0.0400702
1 0.729717 0.0412604
1 0.732799 0.0427405
1 0.735622 0.0441138
0.0185702 0.592142 0
0.0513313 0.594049 0
0.0822309 0.597421 0
0.112703 0.601785 0
0.143923 0.606851 0
0.176333 0.612558 0
0.210178 0.618875 0
0.245991 0.626093 0
0.283131 0.633524 0
0.322011 0.641459 0
0.362585 0.649897 0
0.404623 0.658656 0
0.448081 0.66775 0
0.492775 0.67718 0.00634775
0.537102 0.686244 0.0132143
0.581109 0.695094 0.019501
0.62472 0.703563 0.0250553
0.667903 0.711543 0.0298009
0.710628 0.718959 0.0337377
0.753155 0.72604 0.0371099
0.79501 0.732265 0.0395514
0.836591 0.737972 0.0413825
0.877928 0.743252 0.0428168
0.919005 0.748104 0.0439307
0.96022 0.752911 0.0451362
1 0.757 0.0459449
1 0.7608 0.0466468
1 0.764385 0.0473945
1 0.767758 0.0481575
1 0.770977 0.0490272
1 0.77409 0.0500496
1 0.776837 0.0508736
1 0.779492 0.0518044
0.0289158 0.632288 0
0.0615549 0.634089 0
0.0924849 0.637507 0
0.122957 0.641947 0
0.154055 0.647074 0
0.186145 0.65275 0
0.219852 0.659312 0
0.254688 0.666072 0
0.291096 0.67335 0
0.329107 0.681117 0
0.368719 0.689326 0
0.410132 0.698268 0
0.452522 0.707149 0.00340276
0.496101 0.716197 0.0107424
0.540307 0.725231 0.0178531
0.584329 0.734203 0.024567
0.628 0.742901 0.0306554
0.671595 0.751553 0.0363622
0.714427 0.759365 0.0409705
0.756756 0.766583 0.0447089
0.798703 0.773266 0.0477302
0.840238 0.779385 0.0500954
0.881498 0.785016 0.0518654
0.922774 0.790463 0.0534829
0.963531 0.795224 0.05449
1 0.799573 0.0552377
1 0.803525 0.0558022
1 0.807172 0.0562448
1 0.810666 0.0567941
1 0.814084 0.057496
1 0.817014 0.0579232
1 0.819684 0.05832
1 0.822171 0.058793
0.0395056 0.672694 0
0.0721599 0.674525 0
0.10309 0.677974 0
0.133501 0.682414 0
0.16466 0.687755 0
0.196567 0.693507 0
0.229496 0.699626 0
0.263737 0.706233 0
0.299397 0.713298 0
0.336538 0.720821 0
0.375509 0.729091 0
0.415671 0.737514 0
0.457099 0.746166 0.00747692
0.499626 0.754986 0.0147707
0.543191 0.763882 0.021912
0.58706 0.772778 0.0288243
0.631052 0.781918 0.0356451
0.674327 0.790402 0.0414893
0.717174 0.798459 0.0466011
0.759579 0.806027 0.0509499
0.801495 0.813016 0.05449
0.843076 0.819547 0.0573739
0.884596 0.825803 0.0598917
0.925399 0.831205 0.0615091
0.965942 0.836164 0.062623
1 0.840726 0.0634318
1 0.844907 0.0639811
1 0.849027 0.0646067
1 0.852445 0.0647746
1 0.855589 0.0648661
1 0.858534 0.0649882
1 0.861234 0.0650645
1 0.863737 0.065156
0.0502022 0.713268 0
0.0829175 0.71516 0
0.113863 0.718624 0
0.144381 0.723247 0
0.175235 0.72842 0
0.206683 0.733928 0
0.23917 0.73991 0
0.272847 0.746334 0
0.307836 0.753201 0
0.344518 0.760815 0
0.382223 0.76846 0
0.421317 0.776486 0.00335698
0.461753 0.784863 0.0109865
0.503273 0.793423 0.0182803
0.546166 0.802426 0.0256809
0.589624 0.811185 0.032639
0.633051 0.819821 0.0392309
0.676249 0.828351 0.0453803
0.719081 0.836576 0.0509346
0.761456 0.844343 0.0557565
0.803708 0.851911 0.0601053
0.845167 0.85861 0.063386
0.88632 0.864866 0.066041
0.927077 0.870573 0.06804
0.967468 0.875761 0.0694743
1 0.880446 0.0703441
1 0.885069 0.0711833
1 0.889021 0.0714885
1 0.892592 0.0715343
1 0.895781 0.0713817
1 0.898634 0.071107
1 0.90132 0.0708476
1 0.904021 0.0708171
0.0610208 0.753979 0
0.0938125 0.755962 0
0.124926 0.759594 0
0.155108 0.763943 0
0.185595 0.768872 0
0.216724 0.774243 0
0.248737 0.780026 0
0.282002 0.786374 0
0.316457 0.793149 0
0.352026 0.800137 0
0.388876 0.807492 0
0.426978 0.815152 0.00634775
0.466346 0.823117 0.0138552
0.507149 0.831617 0.0213931
0.548821 0.840146 0.0285039
0.591348 0.848661 0.0353399
0.634394 0.857053 0.0419013
0.677287 0.86537 0.0480964
0.719966 0.873549 0.0538796
0.7626 0.881712 0.0593423
0.804547 0.889204 0.0638743
0.845991 0.896117 0.0676127
0.886915 0.902449 0.0705272
0.927565 0.90837 0.0728923
0.967865 0.913817 0.0746471
1 0.919036 0.0761425
1 0.923445 0.0767376
1 0.927443 0.0769665
1 0.931105 0.0769665
1 0.934432 0.0767224
1 0.937652 0.0765393
1 0.940215 0.0758984
1 0.942535 0.0751965
0.0717784 0.794675 0
0.104692 0.79678 0
0.135454 0.800076 0
0.165438 0.804273 0
0.195636 0.809003 0
0.226413 0.814206 0
0.258152 0.819928 0
0.290883 0.826078 0
0.324468 0.832334 0
0.359213 0.838956 0
0.395193 0.84596 0.000747692
0.43241 0.853315 0.00862135
0.471122 0.861234 0.0163729
0.510613 0.869062 0.0235142
0.55111 0.877073 0.0303807
0.592615 0.885267 0.0370642
0.634974 0.893492 0.0435798
0.67776 0.901762 0.049958
0.720256 0.90985 0.0558785
0.762356 0.917617 0.0612039
0.804135 0.925093 0.06598
0.845548 0.932174 0.0701152
0.886473 0.93875 0.0734874
0.927108 0.944915 0.0762798
0.967269 0.950545 0.0783703
1 0.955657 0.0798199
1 0.960281 0.080766
1 0.964401 0.0811017
1 0.968078 0.0810101
1 0.971679 0.0809186
1 0.974685 0.0803388
1 0.977234 0.079408
1 0.979324 0.078233
0.0824292 0.835294 0
0.114946 0.837003 0
0.145571 0.840162 0
0.175372 0.844221 0
0.205325 0.848814 0
0.235981 0.854017 0
0.267063 0.859312 0
0.299077 0.864988 0
0.332036 0.870985 0
0.366003 0.877256 0
0.40119 0.883925 0.00225834
0.437675 0.891051 0.0102693
0.475105 0.898268 0.0176394
0.513634 0.90573 0.0246738
0.55314 0.913344 0.0314183
0.593484 0.92105 0.0378119
0.634974 0.929091 0.0442817
0.677165 0.937102 0.0505379
0.71928 0.944839 0.0563516
0.761074 0.952407 0.0617075
0.802579 0.959731 0.0665599
0.843793 0.966781 0.0708934
0.88484 0.973663 0.074815
0.925368 0.97995 0.0779278
0.965225 0.985519 0.0801404
1 0.990662 0.0817884
1 0.995407 0.082887
1 0.999649 0.0835126
1 1 0.0836805
1 1 0.0830243
1 1 0.0820172
1 1 0.0807813
1 1 0.0792096
0.0924239 0.875273 0
0.124758 0.876799 0
0.155123 0.879713 0
0.18468 0.883574 0
0.214633 0.888243 0
0.244633 0.892927 0
0.275212 0.897902 0
0.306569 0.903181 0
0.338872 0.908827 0
0.372244 0.914855 0
0.40679 0.921309 0.00299077
0.442115 0.927749 0.0106966
0.478508 0.934462 0.0178683
0.51603 0.941482 0.0247501
0.554604 0.94873 0.0313725
0.594354 0.956405 0.037995
0.634516 0.963775 0.043946
0.675517 0.971252 0.0497902
0.717144 0.978698 0.0554665
0.758724 0.986084 0.060853
0.800092 0.993362 0.0658885
0.841184 1 0.0704509
0.881773 1 0.0742962
0.922057 1 0.0775769
0.961868 1 0.0801556
1 1 0.0818341
1 1 0.0829938
1 1 0.0835279
1 1 0.0834821
1 1 0.0827649
1 1 0.0812848
1 1 0.0793011
1 1 0.0771649
0.101732 0.914595 0
0.133928 0.915984 0
0.164401 0.919005 0
0.193606 0.922545 0
0.222812 0.926558 0
0.252445 0.930983 0
0.282597 0.935714 0
0.313405 0.940673 0
0.345327 0.946197 0
