EA 50 Cinematic Luts Pack/EA_Cinematic Lut (4).cube
TITLE "Generated by Resolve"
LUT_3D_SIZE 9
0.115496 0.0875105 0.280446
0.151904 0.0978256 0.285222
0.188952 0.108553 0.290043
0.234684 0.116777 0.294041
0.29749 0.119265 0.296071
0.369039 0.119051 0.296925
0.44744 0.117922 0.2972
0.529854 0.117311 0.297383
0.613809 0.119692 0.298329
0.128466 0.156619 0.286397
0.16527 0.166201 0.291585
0.205554 0.175326 0.296376
0.262608 0.180743 0.299611
0.333349 0.184497 0.301869
0.413245 0.189395 0.304112
0.50071 0.197086 0.307088
0.591241 0.207736 0.310689
0.680125 0.220295 0.314641
0.140887 0.225956 0.2925
0.178943 0.240482 0.297734
0.229648 0.255451 0.302815
0.29987 0.269703 0.307301
0.379889 0.284108 0.311376
0.466575 0.297887 0.314916
0.556542 0.312322 0.318624
0.646006 0.327794 0.322454
0.732433 0.345418 0.327489
0.147463 0.329702 0.294194
0.195056 0.353597 0.302541
0.261433 0.373846 0.309361
0.339178 0.39176 0.314885
0.424842 0.408927 0.320073
0.51487 0.425467 0.325139
0.606226 0.442649 0.330434
0.694911 0.461112 0.336553
0.778164 0.480919 0.344106
0.164508 0.459876 0.30309
0.223957 0.484749 0.312551
0.299474 0.505531 0.320302
0.383291 0.525017 0.327367
0.472694 0.542916 0.334371
0.56466 0.560647 0.341421
0.654856 0.578622 0.348653
0.740826 0.597406 0.356924
0.817838 0.618402 0.366506
0.191775 0.598657 0.319326
0.263401 0.621546 0.329931
0.344961 0.642145 0.339391
0.433005 0.660304 0.348241
0.524697 0.677455 0.356558
0.6159 0.693736 0.364446
0.703731 0.710521 0.372824
0.784588 0.728206 0.381964
0.85301 0.747951 0.392554
0.233936 0.735592 0.345769
0.312871 0.756039 0.357153
0.398749 0.773434 0.367239
0.489357 0.788968 0.376257
0.580835 0.802823 0.384482
0.66952 0.816587 0.392782
0.752667 0.830289 0.401373
0.825147 0.845685 0.411261
0.886915 0.861997 0.422019
0.28893 0.863005 0.380835
0.372625 0.878462 0.39205
0.461906 0.891432 0.401938
0.553277 0.902052 0.410788
0.643244 0.911696 0.419348
0.727489 0.920119 0.427222
0.802731 0.928466 0.435401
0.864775 0.938048 0.444511
0.920104 0.947784 0.454108
0.357961 0.971984 0.425025
0.444083 0.981872 0.434852
0.532235 0.987945 0.442573
0.619303 0.991928 0.449149
0.70193 0.994919 0.454932
0.778302 0.998413 0.461143
0.842802 1 0.468605
0.898436 1 0.477546
0.951476 1 0.486412
0.11899 0.092546 0.302403
0.155459 0.102724 0.30724
0.192996 0.113893 0.312245
0.239628 0.121386 0.315831
0.30309 0.1234 0.317357
0.375647 0.123369 0.318105
0.454704 0.122515 0.318517
0.538125 0.122866 0.319219
0.622995 0.126375 0.321126
0.132265 0.16144 0.308476
0.169024 0.171084 0.31342
0.210163 0.180255 0.318135
0.268818 0.185855 0.321523
0.34107 0.190585 0.324453
0.422644 0.196796 0.327764
0.51107 0.205798 0.331975
0.601617 0.21677 0.336797
0.690547 0.229999 0.342428
0.144579 0.232258 0.314488
0.183261 0.247684 0.320333
0.236622 0.264195 0.326802
0.308553 0.279332 0.332464
0.389227 0.293767 0.337758
0.476432 0.308003 0.343175
0.566186 0.322393 0.348775
0.65597 0.338247 0.355184
0.741787 0.355764 0.362615
0.153048 0.339971 0.319829
0.202075 0.364233 0.329824
0.269657 0.384344 0.338262
0.348455 0.402396 0.346181
0.434638 0.419547 0.353796
0.524834 0.436027 0.361135
0.615946 0.45333 0.368643
0.704204 0.471458 0.37673
0.787243 0.491615 0.386053
0.171206 0.471229 0.335454
0.231983 0.495506 0.347051
0.3084 0.516487 0.357198
0.392889 0.535683 0.366644
0.482582 0.55346 0.375235
0.574395 0.57113 0.38352
0.664454 0.588724 0.39202
0.749966 0.607584 0.401404
0.825238 0.628321 0.411826
0.199435 0.609506 0.35935
0.272145 0.632395 0.371466
0.354192 0.652308 0.382315
0.442786 0.670436 0.392203
0.534569 0.687282 0.401251
0.62533 0.703334 0.410025
0.712551 0.719814 0.419348
0.792065 0.737026 0.429175
0.859419 0.756771 0.440558
0.242695 0.745876 0.390478
0.321965 0.765484 0.402579
0.408469 0.782681 0.413458
0.498939 0.797635 0.423087
0.589868 0.811337 0.432029
0.67805 0.824537 0.441062
0.760388 0.837873 0.45034
0.831464 0.852872 0.460807
0.891722 0.867948 0.471977
0.29781 0.871366 0.428626
0.381994 0.886503 0.440574
0.471122 0.898619 0.450919
0.562463 0.908965 0.460456
0.651377 0.917784 0.46923
0.734646 0.925414 0.477455
0.808255 0.933104 0.485832
0.868986 0.942153 0.495354
0.923964 0.951598 0.505196
0.366552 0.978592 0.475395
0.452308 0.987305 0.485328
0.540002 0.992691 0.493233
0.625971 0.995804 0.499718
0.708095 0.998444 0.505806
0.783459 1 0.512093
0.846647 1 0.520195
0.901717 1 0.529183
0.954833 1 0.538293
0.122484 0.0976272 0.324056
0.159243 0.10811 0.329122
0.197009 0.118944 0.334447
0.244404 0.125734 0.33817
0.308965 0.127535 0.340459
0.382269 0.127275 0.342306
0.462104 0.127001 0.344137
0.546273 0.128313 0.34725
0.632197 0.133318 0.351827
0.135973 0.166018 0.331472
0.172763 0.175906 0.337453
0.214649 0.185046 0.343313
0.275395 0.19089 0.348394
0.348653 0.196185 0.353536
0.431876 0.204089 0.359701
0.520851 0.213931 0.366552
0.611734 0.225422 0.373861
0.700191 0.239109 0.381643
0.148302 0.238743 0.341955
0.188083 0.255268 0.350362
0.243503 0.272618 0.35938
0.31635 0.288014 0.367544
0.397971 0.302861 0.375311
0.485206 0.317098 0.382589
0.575692 0.331975 0.389975
0.665248 0.348013 0.397818
0.750988 0.36585 0.406485
0.158511 0.349889 0.355993
0.208469 0.374136 0.368231
0.27747 0.393927 0.3785
0.357137 0.412207 0.387961
0.44358 0.429191 0.39675
0.534203 0.446143 0.405142
0.625345 0.463127 0.413565
0.713603 0.481636 0.422812
0.795361 0.502083 0.433082
0.177417 0.48188 0.37792
0.23978 0.505898 0.390585
0.317082 0.526787 0.401801
0.401953 0.545617 0.412055
0.492134 0.563607 0.421485
0.583688 0.580804 0.430579
0.673579 0.598627 0.440085
0.758114 0.617212 0.450111
0.832471 0.638132 0.461509
0.206958 0.620203 0.405386
0.280659 0.642618 0.418372
0.363561 0.662226 0.430091
0.452384 0.68011 0.440635
0.543557 0.696406 0.450172
0.634318 0.712428 0.459785
0.720623 0.728374 0.469566
0.799161 0.745754 0.480064
0.865415 0.764904 0.491966
0.250935 0.755459 0.439353
0.330999 0.774838 0.452415
0.417639 0.791547 0.463752
0.507759 0.80592 0.473671
0.598596 0.819272 0.483207
0.686076 0.831922 0.492561
0.767712 0.845075 0.502281
0.83714 0.859419 0.512856
0.89659 0.873701 0.524269
0.306691 0.879622 0.480385
0.390845 0.893904 0.492485
0.480232 0.905562 0.503258
0.571008 0.915358 0.512871
0.659327 0.923293 0.521675
0.741527 0.930205 0.529778
0.813291 0.937301 0.537987
0.873075 0.946151 0.547738
0.927367 0.955062 0.557382
0.374716 0.984527 0.528466
0.460136 0.992279 0.538201
0.547112 0.99675 0.545724
0.632731 0.999374 0.552071
0.713985 1 0.558038
0.78822 1 0.564218
0.850278 1 0.572274
0.90486 1 0.581125
0.958221 1 0.590158
0.125902 0.102388 0.348974
0.162951 0.113222 0.355688
0.200427 0.123247 0.362676
0.249134 0.129412 0.368475
0.314733 0.130907 0.373053
0.38851 0.1308 0.377127
0.469123 0.130938 0.381323
0.553933 0.132952 0.386343
0.641077 0.139818 0.393011
0.139391 0.169986 0.36289
0.176028 0.179767 0.371176
0.219196 0.189212 0.379629
0.28159 0.195514 0.386847
0.356344 0.202045 0.393927
0.44062 0.211063 0.40174
0.530251 0.221561 0.409903
0.621286 0.233585 0.41828
0.708995 0.247623 0.426734
0.151415 0.244404 0.380575
0.192706 0.262837 0.391287
0.250126 0.280552 0.401724
0.324117 0.296529 0.411093
0.406241 0.311635 0.419745
0.494102 0.32604 0.428077
0.585061 0.341131 0.436423
0.674311 0.357305 0.445136
0.759686 0.375708 0.454932
0.163561 0.359365 0.400015
0.214801 0.383322 0.413153
0.285267 0.403388 0.424491
0.365454 0.42153 0.43473
0.452613 0.438819 0.444373
0.543526 0.455634 0.453605
0.634501 0.472984 0.462989
0.722271 0.49163 0.473014
0.803006 0.511864 0.483925
0.183276 0.491951 0.425132
0.247578 0.515984 0.438834
0.325505 0.5364 0.450675
0.410941 0.55552 0.461662
0.501106 0.573098 0.471687
0.592859 0.590509 0.48159
0.682292 0.608148 0.491707
0.766003 0.626627 0.502083
0.839429 0.647532 0.514122
0.214664 0.630457 0.45568
0.289128 0.652323 0.4692
0.372503 0.671901 0.481529
0.461082 0.689265 0.49221
0.552651 0.705486 0.502434
0.64271 0.720913 0.512276
0.72842 0.736919 0.522271
0.806119 0.753994 0.53312
0.871443 0.7729 0.545342
0.259236 0.764904 0.49192
0.339742 0.783856 0.505226
0.426169 0.799878 0.516487
0.51667 0.814008 0.526802
0.606836 0.826642 0.536339
0.694148 0.839078 0.545739
0.774472 0.851713 0.555169
0.842542 0.865553 0.565988
0.900999 0.879133 0.576974
0.315328 0.887526 0.534325
0.39971 0.901167 0.546426
0.489128 0.912322 0.557046
0.579461 0.921126 0.56643
0.666773 0.928344 0.574716
0.747463 0.934417 0.582177
0.818112 0.94139 0.590387
0.876982 0.949966 0.599664
0.930953 0.958663 0.608957
0.382849 0.990341 0.582635
0.467918 0.997009 0.591546
0.554116 1 0.598489
0.639033 1 0.604242
0.719417 1 0.609613
0.792767 1 0.615564
0.85388 1 0.623133
0.908309 1 0.631678
0.961654 1 0.64004
0.128954 0.106188 0.384649
0.166293 0.117067 0.393683
0.203571 0.126558 0.401862
0.253559 0.132174 0.408927
0.319783 0.133471 0.414405
0.394629 0.133898 0.419593
0.476081 0.134676 0.425025
0.562188 0.138293 0.431373
0.649958 0.146334 0.439292
0.142382 0.17322 0.403998
0.179095 0.1832 0.413458
0.223499 0.19292 0.423026
0.287587 0.199832 0.431235
0.364157 0.208209 0.439826
0.449332 0.21796 0.448844
0.539696 0.229145 0.457923
0.63032 0.241398 0.466819
0.717952 0.256153 0.476265
0.154482 0.250355 0.42501
0.197253 0.270008 0.437369
0.25687 0.288579 0.448905
0.33164 0.304875 0.459098
0.414527 0.319844 0.468589
0.503166 0.334783 0.477714
0.593683 0.34992 0.486671
0.682979 0.366705 0.496178
0.767865 0.385046 0.506706
0.168261 0.368246 0.448325
0.221317 0.392477 0.462455
0.292973 0.412543 0.47451
0.373785 0.430823 0.485435
0.461524 0.448264 0.49572
0.552453 0.465049 0.50544
0.64329 0.482689 0.515282
0.730495 0.501091 0.52575
0.810758 0.521752 0.537285
0.189563 0.501976 0.476295
0.255161 0.52549 0.490364
0.333684 0.546258 0.502907
0.419776 0.565209 0.514275
0.51017 0.582666 0.524651
0.601831 0.599985 0.534798
0.69041 0.61738 0.544915
0.774029 0.635904 0.555673
0.846021 0.656443 0.567681
0.221851 0.640223 0.508614
0.297475 0.662043 0.522698
0.380896 0.681224 0.534813
0.470085 0.69839 0.54583
0.561563 0.714351 0.556039
0.65124 0.729534 0.565713
0.736522 0.74522 0.575692
0.812634 0.761868 0.586282
0.87718 0.780728 0.598566
0.26743 0.774105 0.546166
0.347951 0.792325 0.559014
0.435065 0.808133 0.570321
0.525551 0.821759 0.580316
0.615503 0.834089 0.589639
0.701747 0.846265 0.598581
0.781201 0.858305 0.607675
0.847669 0.871366 0.617975
0.904845 0.884062 0.627985
0.323552 0.894881 0.588434
0.408637 0.908171 0.600229
0.497795 0.918517 0.610269
0.587808 0.926955 0.619211
0.673777 0.933181 0.626444
0.753582 0.938781 0.633249
0.822843 0.945434 0.640894
0.880796 0.953674 0.649393
0.934691 0.962341 0.658015
0.390677 0.995605 0.635508
0.47509 1 0.643397
0.561074 1 0.649592
0.645212 1 0.654353
0.724971 1 0.658991
0.797345 1 0.664347
0.857893 1 0.671305
0.911971 1 0.679072
0.965576 1 0.686748
0.132052 0.109834 0.427787
0.168795 0.120089 0.437415
0.206378 0.129412 0.446387
0.25771 0.134478 0.454063
0.324971 0.135927 0.460441
0.400549 0.136629 0.466407
0.483192 0.138506 0.472953
0.570794 0.143923 0.480552
0.658991 0.152911 0.489586
0.145037 0.176013 0.449805
0.182147 0.186572 0.460319
0.227924 0.196536 0.47071
0.293736 0.204532 0.479912
0.371984 0.213931 0.489616
0.458366 0.224948 0.499657
0.548898 0.236515 0.5093
0.639246 0.249485 0.518746
0.726726 0.264729 0.528801
0.15816 0.256901 0.474052
0.202045 0.27747 0.487419
0.263539 0.296483 0.499596
0.33904 0.312688 0.510277
0.422751 0.328252 0.520531
0.511604 0.343191 0.530022
0.602365 0.359014 0.539452
0.691737 0.375998 0.549477
0.776181 0.394644 0.560342
0.173358 0.377325 0.500084
0.227985 0.40148 0.514717
0.300221 0.421469 0.526925
0.382071 0.440055 0.538476
0.470039 0.457313 0.548867
0.561227 0.474617 0.558816
0.651881 0.492027 0.568811
0.73904 0.510735 0.579477
0.818555 0.531518 0.591104
0.195682 0.511925 0.529686
0.262577 0.535286 0.543801
0.342031 0.555932 0.556619
0.428321 0.574502 0.567849
0.519173 0.592172 0.578332
0.610254 0.60914 0.588083
0.699062 0.626627 0.59826
0.781781 0.644953 0.608743
0.852445 0.665736 0.620523
0.229343 0.650156 0.562722
0.305577 0.671733 0.576532
0.389548 0.690471 0.58851
0.479286 0.707362 0.599222
0.57026 0.722759 0.608865
0.659663 0.738033 0.618326
0.744045 0.753231 0.627665
0.819287 0.770047 0.638041
0.882536 0.788449 0.64947
0.275364 0.783017 0.599786
0.356603 0.801022 0.612299
0.444022 0.816297 0.623102
0.534035 0.829313 0.63241
0.623682 0.84152 0.641062
0.709239 0.853056 0.649271
0.787869 0.86482 0.657832
0.852567 0.877043 0.667018
0.909224 0.889235 0.676173
0.332235 0.90251 0.641154
0.417411 0.915038 0.652232
0.506477 0.924865 0.661509
0.595712 0.932433 0.6692
0.680812 0.937987 0.675395
0.759777 0.94316 0.681239
0.827665 0.949447 0.687846
0.884993 0.957732 0.695354
0.938567 0.966079 0.702602
0.398123 1 0.685573
0.482353 1 0.692439
0.567941 1 0.697322
0.65153 1 0.700954
0.731029 1 0.704433
0.802426 1 0.7084
0.862119 1 0.714015
0.915984 1 0.720226
0.970184 1 0.726665
0.134813 0.112856 0.475288
0.17116 0.12285 0.485237
0.208988 0.131792 0.494896
0.262089 0.136645 0.503014
0.33022 0.138415 0.509972
0.407019 0.139651 0.516625
0.490654 0.142718 0.523888
0.579049 0.149371 0.532418
0.668055 0.159716 0.542321
0.147601 0.178729 0.499214
0.185016 0.18967 0.510597
0.232776 0.200565 0.521553
0.300771 0.209873 0.531838
0.380026 0.220371 0.542245
0.467079 0.232044 0.552636
0.557626 0.243915 0.562371
0.64802 0.257588 0.572045
0.735103 0.27303 0.582376
0.161807 0.263462 0.525902
0.207126 0.285344 0.539879
0.270115 0.304234 0.552331
0.346609 0.320912 0.563455
0.430991 0.336706 0.573816
0.520073 0.351995 0.583261
0.611185 0.368048 0.592874
0.700328 0.385031 0.60293
0.784543 0.404334 0.613642
0.178408 0.386465 0.553414
0.23415 0.410407 0.567926
0.307881 0.430671 0.580514
0.390295 0.44921 0.591897
0.47866 0.466804 0.602106
0.570184 0.484031 0.611933
0.660929 0.501564 0.621866
0.747616 0.52047 0.632151
0.825589 0.541176 0.643214
0.201633 0.52166 0.583276
0.270298 0.545083 0.597406
0.350149 0.565347 0.60972
0.43743 0.584085 0.620752
0.527993 0.601434 0.630488
0.619364 0.618555 0.640223
0.707576 0.635996 0.649775
0.789319 0.654078 0.659602
0.859098 0.674937 0.671061
0.236835 0.660182 0.615854
0.313878 0.681086 0.629053
0.398642 0.699809 0.640604
0.488014 0.716228 0.650477
0.579065 0.731655 0.659693
0.667979 0.746395 0.668238
0.751873 0.761517 0.676936
0.825696 0.778271 0.686488
0.88835 0.796323 0.697032
0.283696 0.792142 0.651438
0.365423 0.809735 0.663294
0.452735 0.824338 0.673091
0.542763 0.837278 0.681651
0.631922 0.848753 0.689128
0.717052 0.860059 0.696406
0.794232 0.871046 0.70341
0.857847 0.882841 0.710979
0.913924 0.894591 0.718532
0.341039 0.910155 0.690944
0.426337 0.922026 0.700832
0.515312 0.931411 0.708873
0.603555 0.937774 0.714427
0.688106 0.942855 0.718929
0.766125 0.947494 0.722927
0.832853 0.95404 0.727886
0.889723 0.962264 0.733913
0.943221 0.97055 0.739834
0.405997 1 0.730938
0.489967 1 0.735836
0.575158 1 0.738384
0.658579 1 0.740383
0.737148 1 0.742229
0.807935 1 0.745083
0.866835 1 0.749569
0.92079 1 0.755062
0.975174 1 0.760952
0.137377 0.115572 0.525521
0.173297 0.125353 0.535729
0.211688 0.133959 0.545617
0.266606 0.138628 0.554025
0.335592 0.140688 0.561212
0.413443 0.143145 0.568475
0.498482 0.14757 0.576288
0.5879 0.155612 0.585351
0.677165 0.166705 0.595514
0.150225 0.181521 0.550713
0.188067 0.193088 0.562387
0.237797 0.204715 0.573846
0.307637 0.215412 0.584741
0.388205 0.227283 0.595621
0.4757 0.239109 0.605783
0.566552 0.251774 0.615396
0.656764 0.265721 0.624826
0.743725 0.281865 0.634897
0.165576 0.270619 0.578515
0.212161 0.293248 0.592859
0.27689 0.312276 0.605295
0.354314 0.329305 0.616419
0.438972 0.345174 0.626245
0.528984 0.360967 0.63566
0.620127 0.376959 0.644831
0.709026 0.394644 0.654597
0.79266 0.413916 0.664927
0.183124 0.395483 0.606104
0.240909 0.419669 0.620706
0.315709 0.440055 0.633082
0.398703 0.458579 0.6439
0.487877 0.476371 0.653666
0.579324 0.493507 0.662928
0.669917 0.511406 0.672435
0.755734 0.53019 0.681849
0.833265 0.551293 0.692683
0.207919 0.531914 0.635401
0.278202 0.554803 0.649042
0.358953 0.575219 0.660807
0.446296 0.593973 0.671031
0.537224 0.611154 0.680232
0.628458 0.628199 0.689158
0.715938 0.645289 0.697658
0.79704 0.663676 0.706554
0.865751 0.684123 0.716731
0.244694 0.669932 0.666346
0.322499 0.690898 0.678889
0.407538 0.709255 0.689387
0.497108 0.725521 0.698314
0.588235 0.740703 0.706279
0.676707 0.755184 0.713359
0.759991 0.77023 0.720363
0.832639 0.786526 0.728328
0.894667 0.804456 0.73724
0.292165 0.801465 0.699489
0.374136 0.818326 0.709667
0.461723 0.832898 0.717922
0.551995 0.845426 0.724865
0.640909 0.856596 0.730602
0.725475 0.867475 0.736049
0.800931 0.877562 0.74136
0.863386 0.888914 0.747539
0.918746 0.899977 0.75378
0.349935 0.917769 0.734218
0.43566 0.929381 0.742382
0.524483 0.937804 0.748257
0.612253 0.943618 0.752209
0.695796 0.948013 0.755108
0.772747 0.952499 0.757961
0.838422 0.958907 0.762112
0.89456 0.966888 0.76733
0.948196 0.975265 0.772824
0.414191 1 0.768551
0.49781 1 0.771649
0.582788 1 0.773251
0.665583 1 0.774121
0.743725 1 0.775387
0.813489 1 0.777661
0.87187 1 0.781964
0.925887 1 0.787381
0.980026 1 0.792859
0.139727 0.117998 0.576928
0.175296 0.127535 0.587213
0.214633 0.136233 0.597055
0.271031 0.14081 0.605295
0.341024 0.143511 0.612406
0.420096 0.146807 0.619852
0.506798 0.153094 0.628107
0.597055 0.162387 0.637308
0.686458 0.173724 0.647349
0.152773 0.184466 0.602396
0.191516 0.197116 0.614221
0.243229 0.209522 0.625818
0.314839 0.221668 0.63682
0.396323 0.234134 0.647501
0.484733 0.246693 0.657389
0.575753 0.259876 0.666423
0.665843 0.274327 0.675502
0.752514 0.291112 0.685069
0.169787 0.278523 0.630365
0.217426 0.301366 0.644526
0.283925 0.320668 0.656565
0.361807 0.337743 0.666987
0.447822 0.354086 0.676555
0.537942 0.36994 0.685313
0.629374 0.386542 0.694286
0.718074 0.404578 0.703182
0.801328 0.424125 0.71284
0.188525 0.405112 0.657084
0.248127 0.429191 0.671031
0.323705 0.449378 0.682628
0.407507 0.468406 0.69279
0.49688 0.486 0.701778
0.588754 0.503548 0.710399
0.678813 0.521508 0.718227
0.764691 0.54049 0.726589
0.84126 0.561822 0.736004
0.214939 0.542306 0.684504
0.286366 0.564981 0.69723
0.367666 0.585534 0.707759
0.455436 0.603845 0.716579
0.546822 0.621241 0.724559
0.637568 0.637964 0.731456
0.724895 0.655314 0.738491
0.805417 0.673564 0.745998
0.873304 0.694011 0.755016
0.25301 0.680385 0.712032
0.331426 0.701183 0.72285
0.41677 0.719081 0.731502
0.506798 0.735225 0.738994
0.597635 0.749813 0.745098
0.685893 0.764385 0.750896
0.768307 0.778958 0.756786
0.840009 0.795392 0.76405
0.900832 0.812741 0.771817
0.301045 0.811109 0.739986
0.383459 0.827756 0.748638
0.471397 0.841779 0.755688
0.561532 0.853544 0.761105
0.650156 0.864546 0.765972
0.733516 0.874571 0.770336
0.807858 0.884276 0.774975
0.868955 0.894926 0.780407
0.923796 0.90573 0.786175
0.359701 0.926009 0.771191
0.445335 0.936858 0.778119
0.533516 0.944244 0.782712
0.62063 0.949386 0.785702
0.703258 0.953292 0.787808
0.779583 0.957534 0.790326
0.8439 0.963729 0.794202
0.899672 0.971756 0.799435
0.953094 0.979858 0.804822
0.422049 1 0.802075
0.50573 1 0.80444
0.590433 1 0.805508
0.67274 1 0.806073
0.750271 1 0.807187
0.81915 1 0.809598
0.877104 1 0.814298
0.931182 1 0.819928
0.985107 1 0.825376
