EA 50 Cinematic Luts Pack/EA_Cinematic Lut (52).cube
TITLE "A very warm, uniform and sharp grade that gives your footage an extra contrast between the shadows and highlights."
LUT_3D_SIZE 25
0.0000 0.0000 0.0000
0.0132 0.0077 0.0073
0.0313 0.0182 0.0172
0.0556 0.0342 0.0323
0.0804 0.0548 0.0516
0.1053 0.0757 0.0713
0.1307 0.0967 0.0911
0.1567 0.1178 0.1111
0.1829 0.1388 0.1312
0.2092 0.1596 0.1515
0.2355 0.1804 0.1721
0.2620 0.2012 0.1933
0.2887 0.2219 0.2150
0.3155 0.2427 0.2371
0.3424 0.2634 0.2594
0.3694 0.2841 0.2820
0.3967 0.3050 0.3050
0.4242 0.3260 0.3281
0.4518 0.3470 0.3513
0.4789 0.3679 0.3742
0.5057 0.3887 0.3969
0.5326 0.4095 0.4194
0.5600 0.4305 0.4416
0.5874 0.4515 0.4634
0.6150 0.4720 0.4841
0.0177 0.0352 0.0192
0.0373 0.0413 0.0221
0.0574 0.0490 0.0349
0.0775 0.0612 0.0498
0.0987 0.0761 0.0660
0.1209 0.0930 0.0831
0.1444 0.1109 0.1010
0.1686 0.1297 0.1195
0.1935 0.1489 0.1385
0.2187 0.1683 0.1578
0.2442 0.1879 0.1778
0.2700 0.2078 0.1984
0.2961 0.2278 0.2195
0.3222 0.2479 0.2412
0.3486 0.2682 0.2633
0.3751 0.2885 0.2856
0.4020 0.3091 0.3084
0.4291 0.3298 0.3313
0.4563 0.3505 0.3542
0.4830 0.3712 0.3769
0.5096 0.3918 0.3994
0.5362 0.4124 0.4217
0.5635 0.4332 0.4437
0.5907 0.4540 0.4653
0.6182 0.4744 0.4859
0.0415 0.0746 0.0449
0.0531 0.0798 0.0459
0.0752 0.0835 0.0509
0.0958 0.0904 0.0662
0.1158 0.1010 0.0811
0.1371 0.1140 0.0964
0.1592 0.1288 0.1128
0.1819 0.1451 0.1301
0.2053 0.1623 0.1479
0.2293 0.1801 0.1663
0.2538 0.1985 0.1856
0.2788 0.2172 0.2056
0.3041 0.2363 0.2262
0.3298 0.2556 0.2473
0.3558 0.2751 0.2688
0.3820 0.2948 0.2907
0.4087 0.3149 0.3130
0.4356 0.3350 0.3355
0.4625 0.3553 0.3580
0.4887 0.3756 0.3805
0.5149 0.3959 0.4027
0.5412 0.4164 0.4248
0.5683 0.4369 0.4466
0.5952 0.4575 0.4679
0.6225 0.4776 0.4882
0.0693 0.1141 0.0744
0.0760 0.1184 0.0733
0.0901 0.1220 0.0774
0.1138 0.1258 0.0822
0.1352 0.1322 0.0980
0.1557 0.1418 0.1129
0.1769 0.1535 0.1281
0.1988 0.1667 0.1438
0.2211 0.1813 0.1605
0.2438 0.1971 0.1783
0.2672 0.2137 0.1968
0.2911 0.2310 0.2160
0.3156 0.2488 0.2359
0.3404 0.2670 0.2563
0.3656 0.2856 0.2772
0.3913 0.3046 0.2987
0.4174 0.3240 0.3204
0.4437 0.3435 0.3424
0.4700 0.3631 0.3644
0.4959 0.3828 0.3862
0.5219 0.4026 0.4080
0.5483 0.4225 0.4296
0.5751 0.4427 0.4510
0.6020 0.4628 0.4717
0.6291 0.4825 0.4918
0.0974 0.1538 0.1042
0.1018 0.1572 0.1025
0.1105 0.1608 0.1031
0.1285 0.1643 0.1085
0.1534 0.1682 0.1139
0.1756 0.1741 0.1300
0.1960 0.1828 0.1452
0.2168 0.1935 0.1604
0.2388 0.2055 0.1762
0.2610 0.2189 0.1928
0.2836 0.2335 0.2106
0.3066 0.2491 0.2292
0.3300 0.2654 0.2484
0.3540 0.2823 0.2681
0.3784 0.2997 0.2884
0.4034 0.3178 0.3092
0.4288 0.3362 0.3303
0.4544 0.3548 0.3516
0.4798 0.3737 0.3729
0.5051 0.3927 0.3942
0.5306 0.4119 0.4154
0.5567 0.4314 0.4365
0.5831 0.4510 0.4574
0.6095 0.4704 0.4775
0.6366 0.4897 0.4972
0.1259 0.1933 0.1342
0.1284 0.1962 0.1319
0.1353 0.1991 0.1325
0.1473 0.2028 0.1353
0.1678 0.2063 0.1395
0.1934 0.2100 0.1457
0.2160 0.2157 0.1623
0.2368 0.2238 0.1781
0.2578 0.2337 0.1940
0.2792 0.2451 0.2103
0.3015 0.2575 0.2271
0.3242 0.2711 0.2446
0.3470 0.2857 0.2630
0.3701 0.3011 0.2822
0.3939 0.3174 0.3020
0.4181 0.3342 0.3220
0.4426 0.3515 0.3424
0.4674 0.3692 0.3629
0.4919 0.3871 0.3835
0.5166 0.4053 0.4041
0.5416 0.4238 0.4246
0.5673 0.4426 0.4452
0.5931 0.4616 0.4654
0.6192 0.4802 0.4848
0.6459 0.4990 0.5040
0.1547 0.2324 0.1646
0.1561 0.2350 0.1622
0.1617 0.2375 0.1622
0.1703 0.2410 0.1626
0.1853 0.2445 0.1682
0.2078 0.2481 0.1716
0.2338 0.2519 0.1785
0.2568 0.2573 0.1959
0.2781 0.2650 0.2124
0.2991 0.2744 0.2289
0.3202 0.2852 0.2456
0.3425 0.2969 0.2625
0.3651 0.3098 0.2801
0.3883 0.3236 0.2982
0.4115 0.3383 0.3172
0.4349 0.3538 0.3366
0.4587 0.3699 0.3563
0.4822 0.3864 0.3762
0.5060 0.4033 0.3960
0.5301 0.4206 0.4158
0.5547 0.4383 0.4357
0.5798 0.4563 0.4555
0.6050 0.4742 0.4747
0.6308 0.4922 0.4935
0.6573 0.5103 0.5122
0.1838 0.2716 0.1963
0.1851 0.2738 0.1941
0.1888 0.2761 0.1932
0.1962 0.2791 0.1938
0.2070 0.2829 0.1950
0.2245 0.2863 0.2020
0.2484 0.2897 0.2062
0.2746 0.2937 0.2126
0.2980 0.2990 0.2308
0.3196 0.3063 0.2477
0.3406 0.3154 0.2648
0.3624 0.3256 0.2818
0.3842 0.3371 0.2991
0.4070 0.3493 0.3166
0.4297 0.3625 0.3346
0.4532 0.3764 0.3527
0.4762 0.3910 0.3715
0.4990 0.4063 0.3907
0.5220 0.4221 0.4099
0.5456 0.4384 0.4291
0.5698 0.4552 0.4483
0.5941 0.4721 0.4671
0.6189 0.4891 0.4854
0.6444 0.5063 0.5036
0.6705 0.5238 0.5217
0.2133 0.3107 0.2289
0.2143 0.3126 0.2271
0.2164 0.3149 0.2252
0.2231 0.3174 0.2257
0.2316 0.3209 0.2263
0.2451 0.3246 0.2302
0.2643 0.3280 0.2369
0.2894 0.3315 0.2417
0.3159 0.3357 0.2479
0.3398 0.3409 0.2667
0.3618 0.3482 0.2842
0.3832 0.3569 0.3015
0.4050 0.3666 0.3187
0.4264 0.3777 0.3361
0.4490 0.3894 0.3535
0.4717 0.4018 0.3710
0.4938 0.4151 0.3888
0.5168 0.4289 0.4065
0.5396 0.4435 0.4248
0.5629 0.4588 0.4434
0.5863 0.4743 0.4618
0.6101 0.4900 0.4796
0.6346 0.5061 0.4974
0.6597 0.5226 0.5150
0.6854 0.5394 0.5325
0.2430 0.3501 0.2625
0.2440 0.3517 0.2609
0.2452 0.3539 0.2586
0.2507 0.3562 0.2587
0.2584 0.3593 0.2594
0.2682 0.3633 0.2593
0.2841 0.3668 0.2670
0.3055 0.3703 0.2721
0.3311 0.3738 0.2781
0.3579 0.3780 0.2842
0.3820 0.3832 0.3034
0.4043 0.3901 0.3211
0.4260 0.3985 0.3385
0.4474 0.4080 0.3558
0.4691 0.4184 0.3729
0.4903 0.4297 0.3901
0.5126 0.4415 0.4071
0.5350 0.4541 0.4241
0.5576 0.4675 0.4415
0.5811 0.4811 0.4586
0.6042 0.4953 0.4758
0.6278 0.5101 0.4929
0.6520 0.5253 0.5101
0.6768 0.5410 0.5272
0.7021 0.5574 0.5446
0.2733 0.3897 0.2969
0.2741 0.3911 0.2955
0.2752 0.3930 0.2935
0.2790 0.3954 0.2925
0.2860 0.3981 0.2930
0.2946 0.4017 0.2938
0.3070 0.4055 0.2959
0.3244 0.4090 0.3037
0.3471 0.4125 0.3077
0.3731 0.4160 0.3148
0.4000 0.4203 0.3208
0.4244 0.4254 0.3403
0.4469 0.4321 0.3580
0.4686 0.4402 0.3753
0.4894 0.4493 0.3924
0.5109 0.4591 0.4092
0.5317 0.4698 0.4259
0.5539 0.4811 0.4425
0.5766 0.4930 0.4589
0.5993 0.5055 0.4751
0.6224 0.5187 0.4911
0.6466 0.5323 0.5072
0.6708 0.5467 0.5236
0.6954 0.5618 0.5404
0.7203 0.5774 0.5574
0.3037 0.4293 0.3315
0.3044 0.4306 0.3303
0.3054 0.4323 0.3285
0.3077 0.4347 0.3265
0.3141 0.4371 0.3270
0.3220 0.4402 0.3277
0.3317 0.4441 0.3278
0.3463 0.4477 0.3332
0.3652 0.4512 0.3406
0.3888 0.4549 0.3436
0.4153 0.4583 0.3517
0.4423 0.4626 0.3576
0.4667 0.4674 0.3770
0.4888 0.4737 0.3944
0.5101 0.4812 0.4114
0.5309 0.4897 0.4281
0.5524 0.4992 0.4445
0.5741 0.5095 0.4608
0.5954 0.5205 0.4765
0.6184 0.5319 0.4919
0.6419 0.5441 0.5074
0.6657 0.5571 0.5230
0.6899 0.5707 0.5386
0.7149 0.5847 0.5546
0.7397 0.5994 0.5709
0.3343 0.4688 0.3661
0.3349 0.4698 0.3649
0.3358 0.4714 0.3634
0.3372 0.4736 0.3609
0.3426 0.4759 0.3610
0.3499 0.4786 0.3615
0.3585 0.4820 0.3623
0.3697 0.4859 0.3627
0.3859 0.4893 0.3706
0.4062 0.4927 0.3773
0.4306 0.4963 0.3790
0.4574 0.4996 0.3881
0.4839 0.5037 0.3937
0.5078 0.5083 0.4128
0.5300 0.5144 0.4300
0.5517 0.5218 0.4466
0.5732 0.5302 0.4629
0.5943 0.5395 0.4785
0.6167 0.5494 0.4938
0.6387 0.5604 0.5091
0.6618 0.5719 0.5242
0.6857 0.5838 0.5393
0.7101 0.5964 0.5547
0.7343 0.6097 0.5702
0.7588 0.6234 0.5856
0.3648 0.5073 0.4001
0.3654 0.5083 0.3991
0.3662 0.5097 0.3977
0.3675 0.5118 0.3955
0.3712 0.5141 0.3944
0.3780 0.5165 0.3950
0.3860 0.5196 0.3956
0.3955 0.5234 0.3960
0.4089 0.5270 0.3991
0.4260 0.5304 0.4073
0.4476 0.5338 0.4128
0.4723 0.5374 0.4144
0.4986 0.5406 0.4237
0.5250 0.5447 0.4291
0.5493 0.5495 0.4480
0.5722 0.5558 0.4647
0.5941 0.5632 0.4805
0.6160 0.5714 0.4959
0.6378 0.5806 0.5112
0.6607 0.5903 0.5261
0.6834 0.6010 0.5411
0.7061 0.6124 0.5564
0.7304 0.6240 0.5713
0.7545 0.6361 0.5860
0.7787 0.6487 0.6007
0.3955 0.5461 0.4336
0.3961 0.5471 0.4327
0.3968 0.5483 0.4315
0.3980 0.5503 0.4296
0.4002 0.5528 0.4275
0.4065 0.5550 0.4280
0.4140 0.5579 0.4286
0.4227 0.5614 0.4293
0.4331 0.5655 0.4289
0.4486 0.5689 0.4353
0.4670 0.5724 0.4427
0.4889 0.5758 0.4471
0.5136 0.5792 0.4503
0.5400 0.5826 0.4587
0.5669 0.5869 0.4638
0.5915 0.5916 0.4817
0.6147 0.5977 0.4977
0.6374 0.6049 0.5131
0.6601 0.6129 0.5282
0.6825 0.6219 0.5433
0.7054 0.6316 0.5583
0.7287 0.6418 0.5730
0.7513 0.6527 0.5877
0.7745 0.6641 0.6021
0.7983 0.6757 0.6162
0.4264 0.5857 0.4662
0.4269 0.5866 0.4655
0.4276 0.5877 0.4644
0.4287 0.5895 0.4627
0.4301 0.5920 0.4603
0.4354 0.5942 0.4603
0.4424 0.5968 0.4609
0.4506 0.6000 0.4615
0.4599 0.6038 0.4620
0.4720 0.6077 0.4632
0.4879 0.6109 0.4703
0.5070 0.6142 0.4766
0.5297 0.6176 0.4798
0.5551 0.6210 0.4844
0.5821 0.6246 0.4918
0.6092 0.6290 0.4966
0.6345 0.6336 0.5142
0.6585 0.6396 0.5298
0.6819 0.6467 0.5451
0.7050 0.6545 0.5602
0.7276 0.6632 0.5750
0.7500 0.6726 0.5896
0.7736 0.6823 0.6037
0.7959 0.6929 0.6178
0.8181 0.7041 0.6318
0.4572 0.6251 0.4971
0.4577 0.6259 0.4965
0.4583 0.6269 0.4955
0.4593 0.6286 0.4940
0.4606 0.6308 0.4919
0.4643 0.6332 0.4909
0.4707 0.6356 0.4914
0.4782 0.6384 0.4918
0.4866 0.6419 0.4925
0.4966 0.6458 0.4923
0.5104 0.6493 0.4962
0.5267 0.6526 0.5037
0.5473 0.6560 0.5091
0.5713 0.6596 0.5114
0.5972 0.6630 0.5174
0.6247 0.6666 0.5241
0.6525 0.6709 0.5286
0.6785 0.6755 0.5460
0.7030 0.6814 0.5616
0.7266 0.6882 0.5766
0.7496 0.6959 0.5912
0.7725 0.7042 0.6056
0.7947 0.7133 0.6197
0.8174 0.7227 0.6335
0.8382 0.7330 0.6488
0.4874 0.6642 0.5273
0.4878 0.6650 0.5267
0.4884 0.6659 0.5258
0.4893 0.6675 0.5244
0.4905 0.6695 0.5225
0.4926 0.6721 0.5206
0.4987 0.6742 0.5211
0.5057 0.6769 0.5215
0.5137 0.6800 0.5221
0.5225 0.6837 0.5227
0.5336 0.6878 0.5223
0.5493 0.6910 0.5286
0.5670 0.6944 0.5357
0.5881 0.6978 0.5411
0.6130 0.7013 0.5421
0.6400 0.7045 0.5493
0.6682 0.7082 0.5557
0.6965 0.7125 0.5601
0.7229 0.7170 0.5773
0.7476 0.7226 0.5925
0.7713 0.7292 0.6071
0.7941 0.7365 0.6213
0.8167 0.7443 0.6352
0.8371 0.7532 0.6510
0.8497 0.7640 0.6755
0.5174 0.7034 0.5571
0.5178 0.7040 0.5565
0.5183 0.7049 0.5557
0.5191 0.7063 0.5544
0.5202 0.7082 0.5527
0.5216 0.7106 0.5503
0.5267 0.7127 0.5503
0.5333 0.7151 0.5507
0.5409 0.7179 0.5511
0.5494 0.7213 0.5518
0.5593 0.7251 0.5518
0.5724 0.7287 0.5540
0.5886 0.7320 0.5608
0.6078 0.7353 0.5672
0.6303 0.7386 0.5717
0.6560 0.7421 0.5727
0.6839 0.7451 0.5806
0.7125 0.7486 0.5867
0.7410 0.7529 0.5910
0.7674 0.7572 0.6077
0.7919 0.7626 0.6225
0.8154 0.7688 0.6367
0.8366 0.7759 0.6533
0.8507 0.7846 0.6798
0.8633 0.7944 0.7028
0.5474 0.7414 0.5862
0.5478 0.7419 0.5857
0.5483 0.7427 0.5849
0.5491 0.7440 0.5838
0.5501 0.7457 0.5822
0.5515 0.7479 0.5801
0.5551 0.7502 0.5791
0.5615 0.7523 0.5795
0.5688 0.7549 0.5800
0.5769 0.7579 0.5805
0.5859 0.7614 0.5812
0.5966 0.7653 0.5804
0.6117 0.7684 0.5853
0.6288 0.7717 0.5924
0.6497 0.7748 0.5979
0.6736 0.7781 0.6015
0.6998 0.7815 0.6024
0.7282 0.7844 0.6110
0.7570 0.7879 0.6168
0.7853 0.7920 0.6209
0.8114 0.7962 0.6372
0.8348 0.8013 0.6542
0.8513 0.8077 0.6844
0.8655 0.8155 0.7092
0.8784 0.8245 0.7304
0.5779 0.7783 0.6146
0.5782 0.7789 0.6141
0.5787 0.7796 0.6134
0.5795 0.7807 0.6124
0.5804 0.7823 0.6110
0.5817 0.7843 0.6090
0.5839 0.7867 0.6072
0.5899 0.7886 0.6076
0.5969 0.7910 0.6080
0.6048 0.7937 0.6085
0.6134 0.7969 0.6091
0.6234 0.8005 0.6092
0.6358 0.8041 0.6099
0.6523 0.8071 0.6159
0.6704 0.8103 0.6230
0.6926 0.8134 0.6277
0.7175 0.8166 0.6303
0.7441 0.8200 0.6316
0.7726 0.8228 0.6403
0.8012 0.8262 0.6460
0.8289 0.8302 0.6498
0.8506 0.8335 0.6875
0.8678 0.8390 0.7161
0.8823 0.8461 0.7391
0.8950 0.8544 0.7584
0.6086 0.8144 0.6421
0.6089 0.8149 0.6416
0.6094 0.8156 0.6411
0.6100 0.8166 0.6401
0.6110 0.8181 0.6388
0.6122 0.8199 0.6371
0.6137 0.8222 0.6349
0.6189 0.8242 0.6349
0.6257 0.8263 0.6353
0.6334 0.8289 0.6357
0.6418 0.8318 0.6362
0.6511 0.8351 0.6368
0.6621 0.8387 0.6363
0.6771 0.8418 0.6400
0.6983 0.8437 0.6519
0.7208 0.8457 0.6634
0.7446 0.8481 0.6729
0.7696 0.8510 0.6783
0.7951 0.8542 0.6855
0.8212 0.8570 0.6992
0.8458 0.8607 0.7102
0.8685 0.8654 0.7203
0.8863 0.8700 0.7481
0.9008 0.8764 0.7688
0.9130 0.8841 0.7857
0.6559 0.8460 0.6800
0.6567 0.8464 0.6800
0.6579 0.8468 0.6801
0.6595 0.8475 0.6801
0.6619 0.8485 0.6802
0.6648 0.8498 0.6804
0.6685 0.8513 0.6806
0.6741 0.8529 0.6818
0.6817 0.8546 0.6839
0.6903 0.8565 0.6863
0.6997 0.8587 0.6891
0.7101 0.8613 0.6925
0.7214 0.8642 0.6960
0.7337 0.8675 0.6989
0.7511 0.8697 0.7079
0.7691 0.8723 0.7180
0.7883 0.8751 0.7269
0.8080 0.8783 0.7353
0.8285 0.8821 0.7409
0.8492 0.8860 0.7493
0.8697 0.8900 0.7601
0.8890 0.8948 0.7698
0.9067 0.9004 0.7789
0.9201 0.9062 0.7976
0.9307 0.9134 0.8124
0.7269 0.8716 0.7303
0.7276 0.8719 0.7304
0.7286 0.8723 0.7306
0.7302 0.8730 0.7309
0.7323 0.8739 0.7313
0.7350 0.8751 0.7319
0.7384 0.8765 0.7326
0.7427 0.8782 0.7338
0.7491 0.8798 0.7359
0.7564 0.8817 0.7384
0.7645 0.8840 0.7412
0.7733 0.8865 0.7445
0.7829 0.8893 0.7482
0.7932 0.8925 0.7517
0.8054 0.8956 0.7567
0.8200 0.8985 0.7644
0.8349 0.9017 0.7726
0.8508 0.9052 0.7797
0.8668 0.9091 0.7865
0.8830 0.9136 0.7924
0.8993 0.9182 0.8003
0.9145 0.9233 0.8090
0.9278 0.9290 0.8173
0.9391 0.9355 0.8256
0.9482 0.9424 0.8386
0.7946 0.8976 0.7738
0.7952 0.8979 0.7740
0.7961 0.8983 0.7743
0.7975 0.8989 0.7747
0.7994 0.8997 0.7752
0.8018 0.9008 0.7760
0.8048 0.9022 0.7769
0.8084 0.9038 0.7781
0.8136 0.9055 0.7800
0.8196 0.9073 0.7822
0.8264 0.9095 0.7848
0.8338 0.9120 0.7878
0.8418 0.9147 0.7911
0.8504 0.9178 0.7948
0.8596 0.9213 0.7983
0.8708 0.9245 0.8038
0.8827 0.9279 0.8101
0.8950 0.9317 0.8166
0.9075 0.9359 0.8228
0.9194 0.9405 0.8288
0.9303 0.9457 0.8347
0.9406 0.9510 0.8421
0.9500 0.9570 0.8496
0.9586 0.9636 0.8573
0.9664 0.9710 0.8652
0.0026 0.0030 0.0048
0.0161 0.0101 0.0165
0.0341 0.0207 0.0257
0.0585 0.0365 0.0405
0.0829 0.0566 0.0581
0.1074 0.0770 0.0763
0.1325 0.0978 0.0952
0.1582 0.1186 0.1146
0.1842 0.1395 0.1342
0.2103 0.1603 0.1541
0.2365 0.1809 0.1745
0.2629 0.2016 0.1955
0.2895 0.2223 0.2169
0.3162 0.2431 0.2389
0.3430 0.2637 0.2611
0.3700 0.2844 0.2836
0.3973 0.3054 0.3065
0.4248 0.3263 0.3295
0.4522 0.3472 0.3525
0.4793 0.3681 0.3754
0.5061 0.3889 0.3980
0.5330 0.4098 0.4204
0.5603 0.4307 0.4425
0.5878 0.4517 0.4642
0.6153 0.4722 0.4849
0.0166 0.0382 0.0358
0.0382 0.0432 0.0413
0.0583 0.0511 0.0483
0.0783 0.0631 0.0595
0.0993 0.0779 0.0734
0.1213 0.0945 0.0891
0.1445 0.1123 0.1060
0.1686 0.1309 0.1238
0.1933 0.1501 0.1423
0.2183 0.1695 0.1612
0.2436 0.1891 0.1809
0.2693 0.2089 0.2014
0.2953 0.2288 0.2223
0.3215 0.2489 0.2438
0.3479 0.2691 0.2657
0.3744 0.2893 0.2878
0.4015 0.3099 0.3104
0.4286 0.3305 0.3331
0.4558 0.3512 0.3559
0.4826 0.3717 0.3785
0.5092 0.3923 0.4009
0.5358 0.4129 0.4230
0.5631 0.4337 0.4450
0.5903 0.4545 0.4664
0.6185 0.4746 0.4867
0.0420 0.0762 0.0575
0.0557 0.0804 0.0627
0.0746 0.0850 0.0668
0.0965 0.0917 0.0760
0.1171 0.1020 0.0883
0.1381 0.1149 0.1023
0.1600 0.1298 0.1177
0.1827 0.1460 0.1341
0.2061 0.1631 0.1513
0.2300 0.1808 0.1694
0.2544 0.1991 0.1883
0.2793 0.2177 0.2081
0.3046 0.2368 0.2285
0.3303 0.2560 0.2494
0.3561 0.2755 0.2708
0.3821 0.2953 0.2926
0.4086 0.3154 0.3149
0.4352 0.3357 0.3373
0.4620 0.3559 0.3598
0.4882 0.3762 0.3821
0.5145 0.3965 0.4042
0.5408 0.4169 0.4261
0.5679 0.4374 0.4479
0.5949 0.4579 0.4690
0.6228 0.4778 0.4890
0.0703 0.1152 0.0834
0.0780 0.1187 0.0873
0.0884 0.1234 0.0886
0.1126 0.1270 0.0943
0.1354 0.1333 0.1048
0.1568 0.1425 0.1181
0.1780 0.1540 0.1326
0.1995 0.1673 0.1479
0.2216 0.1820 0.1642
0.2443 0.1977 0.1815
0.2677 0.2143 0.1996
0.2916 0.2315 0.2185
0.3160 0.2493 0.2382
0.3408 0.2675 0.2584
0.3660 0.2860 0.2792
0.3917 0.3050 0.3004
0.4178 0.3243 0.3221
0.4440 0.3438 0.3439
0.4703 0.3634 0.3658
0.4962 0.3831 0.3875
0.5222 0.4028 0.4092
0.5485 0.4228 0.4307
0.5751 0.4430 0.4521
0.6017 0.4632 0.4728
0.6294 0.4827 0.4926
0.0983 0.1545 0.1112
0.1024 0.1577 0.1127
0.1089 0.1620 0.1116
0.1269 0.1653 0.1193
0.1522 0.1693 0.1219
0.1754 0.1750 0.1355
0.1967 0.1834 0.1495
0.2180 0.1938 0.1640
0.2398 0.2059 0.1794
0.2617 0.2194 0.1961
0.2840 0.2340 0.2136
0.3070 0.2495 0.2319
0.3304 0.2658 0.2508
0.3543 0.2826 0.2702
0.3788 0.3001 0.2903
0.4038 0.3181 0.3109
0.4291 0.3365 0.3319
0.4547 0.3551 0.3531
0.4801 0.3740 0.3743
0.5054 0.3930 0.3955
0.5309 0.4122 0.4166
0.5570 0.4316 0.4376
0.5833 0.4512 0.4584
0.6098 0.4706 0.4784
0.6375 0.4896 0.4977
0.1266 0.1938 0.1399
0.1298 0.1963 0.1409
0.1324 0.2005 0.1368
0.1461 0.2036 0.1424
0.1666 0.2069 0.1492
0.1923 0.2109 0.1520
0.2156 0.2164 0.1670
0.2369 0.2245 0.1820
0.2583 0.2342 0.1973
0.2802 0.2454 0.2131
0.3024 0.2578 0.2295
0.3247 0.2714 0.2471
0.3473 0.2860 0.2654
0.3705 0.3015 0.2844
0.3942 0.3177 0.3040
0.4184 0.3345 0.3238
0.4429 0.3518 0.3440
0.4677 0.3695 0.3644
0.4921 0.3873 0.3849
0.5168 0.4055 0.4054
0.5418 0.4240 0.4258
0.5675 0.4428 0.4463
0.5933 0.4618 0.4664
0.6194 0.4804 0.4857
0.6468 0.4989 0.5045
0.1553 0.2329 0.1693
0.1579 0.2350 0.1701
0.1599 0.2384 0.1668
0.1687 0.2419 0.1675
0.1842 0.2452 0.1748
0.2068 0.2486 0.1797
0.2329 0.2526 0.1837
0.2565 0.2579 0.2000
0.2781 0.2655 0.2159
0.2996 0.2747 0.2318
0.3209 0.2854 0.2481
0.3432 0.2971 0.2648
0.3659 0.3100 0.2821
0.3888 0.3238 0.3003
0.4118 0.3386 0.3192
0.4352 0.3541 0.3385
0.4589 0.3702 0.3581
0.4825 0.3866 0.3777
0.5063 0.4035 0.3974
0.5303 0.4208 0.4171
0.5550 0.4385 0.4369
0.5800 0.4565 0.4566
0.6052 0.4744 0.4756
0.6310 0.4924 0.4944
0.6581 0.5103 0.5127
0.1844 0.2720 0.2003
0.1865 0.2737 0.2009
0.1883 0.2766 0.1981
0.1943 0.2800 0.1970
0.2060 0.2835 0.2005
0.2229 0.2869 0.2091
0.2473 0.2904 0.2116
0.2737 0.2943 0.2170
0.2977 0.2995 0.2344
0.3197 0.3067 0.2508
0.3409 0.3157 0.2674
0.3627 0.3260 0.2842
0.3848 0.3373 0.3012
0.4076 0.3495 0.3185
0.4305 0.3627 0.3362
0.4536 0.3766 0.3545
0.4764 0.3913 0.3733
0.4992 0.4065 0.3922
0.5222 0.4223 0.4113
0.5458 0.4386 0.4304
0.5700 0.4554 0.4495
0.5943 0.4723 0.4682
0.6191 0.4893 0.4864
0.6446 0.5065 0.5045
0.6713 0.5238 0.5222
0.2137 0.3111 0.2325
0.2156 0.3126 0.2330
0.2171 0.3151 0.2305
0.2212 0.3183 0.2286
0.2301 0.3217 0.2292
0.2444 0.3251 0.2350
0.2634 0.3285 0.2430
0.2883 0.3322 0.2449
0.3152 0.3362 0.2517
0.3393 0.3415 0.2699
0.3616 0.3486 0.2870
0.3833 0.3572 0.3040
0.4053 0.3669 0.3209
0.4267 0.3780 0.3380
0.4495 0.3896 0.3551
0.4722 0.4020 0.3725
0.4945 0.4152 0.3901
0.5172 0.4291 0.4079
0.5398 0.4437 0.4263
0.5631 0.4590 0.4447
0.5865 0.4745 0.4630
0.6103 0.4902 0.4807
0.6348 0.5063 0.4983
0.6599 0.5227 0.5159
0.6862 0.5393 0.5330
0.2435 0.3503 0.2657
0.2451 0.3517 0.2661
0.2464 0.3538 0.2640
0.2490 0.3570 0.2612
0.2570 0.3600 0.2619
0.2674 0.3638 0.2635
0.2835 0.3672 0.2713
0.3048 0.3706 0.2776
0.3303 0.3743 0.2810
0.3572 0.3785 0.2875
0.3816 0.3836 0.3063
0.4041 0.3905 0.3236
0.4260 0.3988 0.3407
0.4477 0.4082 0.3577
0.4694 0.4186 0.3747
0.4908 0.4298 0.3916
0.5131 0.4416 0.4084
0.5355 0.4542 0.4254
0.5582 0.4676 0.4426
0.5815 0.4812 0.4598
0.6044 0.4955 0.4769
0.6280 0.5103 0.4940
0.6522 0.5255 0.5111
0.6769 0.5411 0.5282
0.7029 0.5574 0.5451
0.2736 0.3899 0.2997
0.2751 0.3911 0.3001
0.2763 0.3930 0.2982
0.2780 0.3959 0.2952
0.2847 0.3987 0.2953
0.2935 0.4022 0.2959
0.3064 0.4059 0.2997
0.3233 0.4094 0.3086
0.3465 0.4128 0.3128
0.3724 0.4165 0.3175
0.3995 0.4207 0.3238
0.4240 0.4258 0.3428
0.4467 0.4325 0.3603
0.4686 0.4404 0.3773
0.4894 0.4495 0.3942
0.5111 0.4593 0.4107
0.5319 0.4700 0.4273
0.5543 0.4812 0.4437
0.5770 0.4931 0.4601
0.5997 0.5056 0.4761
0.6229 0.5188 0.4920
0.6470 0.5324 0.5081
0.6710 0.5469 0.5247
0.6955 0.5620 0.5413
0.7211 0.5774 0.5579
