EA 50 Cinematic Luts Pack/EA_Cinematic Lut (17).cube
TITLE "Generated by Resolve"
LUT_3D_SIZE 33
0 0 0
0 0 0.00943008
0 0 0.0206912
0 0 0.0306554
0.0237736 0 0.0399786
0.0576181 0 0.0479591
0.0999161 0 0.0535439
0.146838 0 0.0577401
0.196384 0 0.0610971
0.246998 0 0.0640726
0.297169 0 0.0670481
0.340047 0 0.071931
0.382742 0 0.0768292
0.426123 0 0.081529
0.470161 0 0.0861067
0.514855 0 0.0906233
0.560204 0 0.0951095
0.606134 0 0.0995346
0.652537 0 0.103853
0.699367 0 0.108034
0.746624 0 0.112108
0.794278 0 0.116091
0.842313 0 0.119951
0.8907 0 0.12372
0.939452 0 0.127398
0.988525 0 0.130983
1 0 0.134478
1 0 0.137881
1 0 0.141222
1 0 0.144472
1 0 0.147646
1 0 0.150744
1 0 0.153765
0 0 0.00679026
0 0 0.0191806
0 0 0.0230106
0 0 0.0298619
0.0191348 0 0.0366522
0.0495918 0 0.0422065
0.0890516 0 0.0454719
0.133822 0 0.0475471
0.18201 0 0.0489967
0.232044 0 0.0502632
0.282322 0 0.0518502
0.328862 0 0.0551614
0.371511 0 0.0600595
0.414832 0 0.0647746
0.458824 0 0.0693523
0.503456 0 0.0738689
0.54876 0 0.0783856
0.594705 0 0.0829175
0.641154 0 0.0873579
0.688029 0 0.0916609
0.735332 0 0.0958572
0.783017 0 0.0999466
0.831083 0 0.103944
0.87953 0 0.107851
0.928298 0 0.111635
0.977417 0 0.115358
1 0 0.118959
1 0 0.122515
1 0 0.125948
1 0 0.12932
1 0 0.132631
1 0 0.135851
1 0 0.13901
0 0 0.0105592
0 0.00793469 0.0317693
0 0.0151522 0.0339971
0 0.0197299 0.0329747
0.0133669 0.0222477 0.0347295
0.0412299 0.0229953 0.0369879
0.0781415 0.0210574 0.037583
0.120714 0.0173495 0.0372473
0.167224 0.0123445 0.0365148
0.216144 0.00645457 0.035874
0.266117 7.62951e-05 0.0357366
0.315541 0 0.0366369
0.358267 0 0.0413825
0.401617 0 0.0459602
0.445594 0 0.0504005
0.490196 0 0.0547799
0.535454 0 0.0591592
0.581384 0 0.0635843
0.627878 0 0.0680095
0.674784 0 0.0722972
0.722118 0 0.0764782
0.769833 0 0.0805676
0.817914 0 0.0845197
0.866377 0 0.0884108
0.915175 0 0.0922103
0.964309 0 0.0958877
1 0 0.0995041
1 0 0.103014
1 0 0.106477
1 0 0.109834
1 0 0.11313
1 0 0.11632
1 0 0.119478
0 0.0275883 0.0100862
0 0.0356298 0.0361028
0 0.0433661 0.0444038
0 0.0499886 0.0432593
0.0115206 0.055314 0.0397803
0.0348821 0.0579385 0.036759
0.0690318 0.0571603 0.0335088
0.109483 0.0543069 0.0302892
0.154284 0.049958 0.0271305
0.201953 0.0445411 0.0244297
0.25124 0.038407 0.0224613
0.300832 0.0319677 0.0216831
0.345571 0.0265049 0.0249485
0.389075 0.0212711 0.0293126
0.433158 0.0159304 0.0335699
0.477836 0.0105287 0.0377813
0.52314 0.00514229 0.0419776
0.569085 0 0.0462654
0.615656 0 0.0506142
0.662654 0 0.0548714
0.710063 0 0.0590219
0.757839 0 0.0630655
0.805982 0 0.0670024
0.854475 0 0.0708476
0.903319 0 0.0746166
0.952499 0 0.078294
1 0 0.0818952
1 0 0.0853742
1 0 0.0888075
1 0 0.0921798
1 0 0.0954452
1 0 0.0986496
1 0 0.101762
0 0.0583352 0.00468452
0 0.0651408 0.0332189
0 0.0725109 0.0473793
0.00621042 0.079408 0.049897
0.0163729 0.0862135 0.0469062
0.0331731 0.0911269 0.0408789
0.0621958 0.0923323 0.033341
0.099321 0.0908217 0.0263066
0.141924 0.0873732 0.0201877
0.188144 0.0825513 0.0150759
0.236515 0.0767987 0.0110475
0.28571 0.0705119 0.00859083
0.332021 0.064622 0.0100099
0.37586 0.0591745 0.014023
0.420203 0.0536202 0.0179751
0.465064 0.0480049 0.021912
0.510491 0.0424201 0.0258793
0.556542 0.0368963 0.0299535
0.60322 0.0315251 0.0341497
0.650355 0.0261082 0.0383154
0.697887 0.0205844 0.0423896
0.745769 0.0149844 0.0463722
0.794018 0.00929274 0.0502632
0.842603 0.00350958 0.054078
0.891524 0 0.0578012
0.940749 0 0.0614328
0.990295 0 0.0649882
1 0 0.068452
1 0 0.0718547
1 0 0.0751812
1 0 0.0784314
1 0 0.0816052
1 0 0.0847181
0.000198367 0.0909438 0
0.0034638 0.0965744 0.0246891
0.00749218 0.103166 0.0431067
0.014725 0.109941 0.0500954
0.023682 0.116823 0.0498665
0.0364996 0.122881 0.0447547
0.0601053 0.125917 0.0356603
0.092256 0.126238 0.0256046
0.131258 0.124178 0.0161898
0.175067 0.120317 0.00820935
0.221988 0.11516 0.00189212
0.27042 0.109209 0
0.31751 0.103151 0
0.361746 0.0975052 0.000259403
0.406409 0.0917372 0.00373846
0.45156 0.0859236 0.00726329
0.49723 0.0801099 0.0108797
0.54345 0.0743877 0.0146334
0.590295 0.0688182 0.0185855
0.637629 0.0632792 0.0225986
0.685328 0.0576638 0.0265507
0.733364 0.0519722 0.0304112
0.78175 0.0461891 0.0342107
0.830457 0.0403449 0.0379339
0.879484 0.0344244 0.0415808
0.928801 0.0284276 0.0451514
0.978439 0.0223545 0.0486458
1 0.0162051 0.052079
1 0.0099794 0.0554513
1 0.00370794 0.058732
1 0 0.0619516
1 0 0.065095
1 0 0.0681621
0.00222782 0.124956 0
0.00836194 0.129625 0.0120394
0.0140841 0.135378 0.0332799
0.0215 0.141649 0.044358
0.0296178 0.14844 0.0474861
0.0414435 0.154589 0.0448157
0.0617533 0.158541 0.0368505
0.0894179 0.160311 0.0261234
0.123949 0.159838 0.0147402
0.164187 0.157321 0.00422675
0.208606 0.15314 0
0.255512 0.147799 0
0.302251 0.141955 0
0.346792 0.136202 0
0.391852 0.130266 0
0.437324 0.124254 0
0.483284 0.118227 0
0.529702 0.112291 0.000534066
0.576776 0.106508 0.00410468
0.624353 0.100816 0.00784314
0.672267 0.095079 0.0115663
0.7205 0.0892653 0.0152438
0.769055 0.0833906 0.0188754
0.817914 0.0774548 0.0224765
0.867079 0.0714427 0.0260166
0.916533 0.0653697 0.0294804
0.966293 0.0592203 0.0328985
1 0.0530098 0.0362402
1 0.0467384 0.0395361
1 0.0404059 0.0427558
1 0.0339971 0.0459144
1 0.0275273 0.049012
1 0.0210117 0.0520333
0.00215152 0.159915 0
0.0104067 0.163912 0
0.0179294 0.168887 0.0196536
0.0260929 0.174578 0.0338903
0.0339208 0.181094 0.0404974
0.0453803 0.18706 0.0405737
0.0645762 0.19115 0.0348669
0.0894484 0.193698 0.0254063
0.120226 0.19443 0.0139773
0.156588 0.19324 0.00224308
0.19762 0.190295 0
0.242084 0.18587 0
0.287312 0.180575 0
0.33167 0.17496 0
0.376776 0.169024 0
0.422461 0.162921 0
0.468681 0.156741 0
0.515404 0.150607 0
0.562676 0.14461 0
0.610513 0.13875 0
0.658595 0.13286 0
0.707073 0.126925 0.0010071
0.75584 0.120928 0.0043946
0.804883 0.11487 0.00776684
0.854231 0.108751 0.0111391
0.903853 0.102586 0.0144503
0.953735 0.0963607 0.017731
1 0.0900587 0.0209964
1 0.0837262 0.024155
1 0.0773175 0.0272984
1 0.0708476 0.0303807
1 0.064332 0.033402
1 0.0577554 0.0363622
0.00115969 0.195346 0
0.0109102 0.198886 0
0.0197757 0.203326 0.00378424
0.0287785 0.208469 0.0202487
0.03682 0.214588 0.0299229
0.0476692 0.220462 0.0328679
0.0668193 0.224338 0.0296178
0.0905013 0.22707 0.0222782
0.118837 0.228458 0.012192
0.152026 0.22826 0.000717174
0.189715 0.226429 0
0.231174 0.223072 0
0.273854 0.218601 0
0.317342 0.213413 0
0.36199 0.207706 0
0.407507 0.201678 0
0.453727 0.195468 0
0.500603 0.189227 0
0.548058 0.183078 0
0.596109 0.17705 0
0.644465 0.171023 0
0.693172 0.16492 0
0.742123 0.158785 0
0.791348 0.152605 0
0.840909 0.14638 0
0.8907 0.140108 0.000183108
0.94078 0.133776 0.00328069
0.991089 0.127382 0.00636301
1 0.120958 0.0093843
1 0.114473 0.0123903
1 0.107942 0.0153506
1 0.101335 0.0182956
1 0.0946975 0.021149
0.000411994 0.230777 0
0.0108644 0.234165 0
0.0206302 0.238239 0
0.0302434 0.243 0.005066
0.0385595 0.248753 0.0170901
0.0491798 0.254398 0.0227817
0.0677348 0.258198 0.0219577
0.0913252 0.260777 0.016907
0.118456 0.262379 0.00872816
0.149462 0.26276 0
0.184436 0.261769 0
0.222934 0.259373 0
0.262898 0.255695 0
0.304799 0.251179 0
0.348394 0.245945 0
0.39324 0.240208 0
0.439094 0.23418 0
0.485801 0.22797 0
0.533227 0.221775 0
0.581353 0.215656 0
0.629892 0.209476 0
0.678798 0.20325 0
0.727932 0.196994 0
0.777432 0.190661 0
0.827176 0.184298 0
0.877089 0.17792 0
0.927337 0.171481 0
0.977844 0.164996 0
1 0.158465 0
1 0.151888 0
1 0.145266 0.0009308
1 0.138582 0.0037232
1 0.131868 0.00648508
0.00102235 0.265736 0
0.0115053 0.269184 0
0.0214694 0.273198 0
0.0313115 0.277745 0
0.0396887 0.283268 0.00337224
0.0501869 0.288701 0.011368
0.0681468 0.292439 0.0129397
0.0913863 0.294911 0.0100557
0.118181 0.296437 0.00408942
0.147982 0.297063 0
0.181018 0.29659 0
0.216693 0.294728 0
0.254643 0.291829 0
0.294743 0.288045 0
0.336767 0.283467 0
0.380407 0.278248 0
0.425452 0.272557 0
0.471595 0.266575 0
0.5187 0.260487 0
0.566659 0.254353 0
0.615167 0.248142 0
0.664103 0.241825 0
0.71342 0.235447 0
0.763058 0.229007 0
0.813001 0.222522 0
0.863127 0.216022 0
0.913558 0.209461 0
0.964248 0.202853 0
1 0.196231 0
1 0.189548 0
1 0.182834 0
1 0.176089 0
1 0.169284 0
0.00914015 0.297765 0
0.0162966 0.302556 0
0.0235752 0.307652 0
0.0329595 0.312306 0
0.0410925 0.317723 0
0.0512856 0.323033 4.57771e-05
0.0687266 0.326711 0.00373846
0.0910811 0.329259 0.00291447
0.117693 0.330663 0
0.146975 0.331273 0
0.178759 0.330739 0
0.212711 0.329381 0
0.248859 0.327153 0
0.28716 0.324071 0
0.327474 0.320165 0
0.369604 0.315572 0
0.413352 0.310414 0
0.458579 0.304814 0
0.505028 0.298955 0
0.552499 0.292973 0
0.600748 0.286809 0
0.6495 0.280507 0
0.698787 0.274083 0
0.748455 0.267582 0
0.798474 0.261006 0
0.848798 0.254368 0
0.899397 0.2477 0
0.950179 0.241001 0
1 0.234257 0
1 0.227466 0
1 0.220645 0
1 0.213809 0
1 0.206928 0
0.0181735 0.329473 0
0.0253147 0.334234 0
0.0322881 0.339345 0
0.0395056 0.344732 0
0.0456855 0.350759 0
0.0544289 0.356435 0
0.0708629 0.360265 0
0.0923018 0.362844 0
0.118029 0.364248 0
0.14699 0.36466 0
0.177798 0.364431 0
0.210498 0.3635 0
0.245151 0.361807 0
0.281819 0.35935 0
0.32047 0.3561 0
0.361013 0.352148 0
0.403342 0.347555 0
0.447211 0.342504 0
0.492668 0.337041 0
0.539345 0.331319 0
0.586984 0.325322 0
0.63537 0.319097 0
0.684413 0.312718 0
0.733944 0.306218 0
0.783917 0.299611 0
0.834272 0.292912 0
0.884932 0.286168 0
0.935882 0.279362 0
0.987106 0.272511 0
1 0.265629 0
1 0.258732 0
1 0.251774 0
1 0.24477 0
0.0272831 0.361151 0
0.0343938 0.365896 0
0.0411536 0.371008 0
0.0478523 0.37644 0
0.0531777 0.382574 0
0.0607614 0.388418 0
0.0758831 0.392493 0
0.0958419 0.395377 0
0.119905 0.397177 0
0.147677 0.39791 0
0.177798 0.397894 0
0.209537 0.397269 0
0.24303 0.396002 0
0.27834 0.394034 0
0.315511 0.391379 0
0.354528 0.388022 0
0.395346 0.384024 0
0.437903 0.379492 0
0.482048 0.374563 0
0.527581 0.369207 0
0.57435 0.363485 0
0.622095 0.357473 0
0.670604 0.351232 0
0.719829 0.344793 0
0.769574 0.338216 0
0.819821 0.331518 0
0.870436 0.324742 0
0.921401 0.317891 0
0.972671 0.310964 0
1 0.304006 0
1 0.296986 0
1 0.289937 0
1 0.282887 0
0.036408 0.392767 0
0.0435492 0.397528 0
0.049958 0.402701 0
0.0564279 0.408118 0
0.0610361 0.414343 0
0.0676432 0.420325 0
0.08159 0.424598 0
0.100267 0.427726 0
0.122911 0.429862 0.00115969
0.149096 0.431006 0.000137331
0.178439 0.431205 0
0.209506 0.430808 0
0.242115 0.429862 0
0.276326 0.42829 0
0.312245 0.426108 0
0.349889 0.42327 0
0.389303 0.419852 0
0.430442 0.415869 0
0.473259 0.411429 0
0.517555 0.406516 0
0.563149 0.401205 0
0.609979 0.395483 0
0.657786 0.389456 0
0.706447 0.383185 0
0.755795 0.376715 0
0.805661 0.370108 0
0.856153 0.363333 0
0.907012 0.356466 0
0.958251 0.349523 0
1 0.342504 0
1 0.335439 0
1 0.328328 0
1 0.321157 0
0.0455482 0.424308 0
0.0527047 0.429084 0
0.0590219 0.434272 0
0.0651408 0.43975 0
0.0691691 0.446052 0
0.0749523 0.452155 0
0.0878767 0.456596 0
0.105409 0.459953 0
0.126787 0.462364 0.00183108
0.151614 0.463844 0.00175479
0.179599 0.464424 0
0.210132 0.464195 0
0.242069 0.463478 0
0.275441 0.462226 0
0.310323 0.460426 0
0.346822 0.458045 0
0.38497 0.455116 0
0.424796 0.451652 0
0.46627 0.447684 0
0.509255 0.443229 0
0.553689 0.4383 0
0.599374 0.432975 0
0.646189 0.427298 0
0.694072 0.421271 0
0.742794 0.414984 0
0.792279 0.408499 0
0.842344 0.401831 0
0.892927 0.395026 0
0.944015 0.388098 0
0.995483 0.381079 0
1 0.373983 0
1 0.366827 0
1 0.359609 0
0.0546273 0.455726 0
0.0618448 0.460548 0
0.0681163 0.465782 0
0.0739605 0.471305 0
0.0775006 0.477699 0
0.0825666 0.483909 0
0.0946059 0.488487 0
0.111147 0.492042 0
0.131411 0.494682 0.00195315
0.155001 0.496468 0.00291447
0.181659 0.497414 0.00184634
0.2112 0.497475 0
0.242649 0.496925 0
0.275364 0.495918 0
0.309453 0.494423 0
0.345006 0.492424 0
0.382071 0.489921 0
0.420722 0.4869 0
0.460929 0.483375 0
0.502632 0.479362 0
0.5458 0.474861 0
0.590326 0.469932 0
0.636088 0.464607 0
0.682963 0.458946 0
0.730907 0.452918 0
0.77969 0.446632 0
0.829267 0.440116 0
0.879454 0.433433 0
0.93022 0.426581 0
0.98146 0.419608 0
1 0.412528 0
1 0.405371 0
1 0.398123 0
0.0637064 0.487068 0
0.0709392 0.491905 0
0.0771801 0.497169 0
0.082826 0.50277 0
0.0859693 0.509239 0
0.0904555 0.515557 0
0.101701 0.520272 0
0.117327 0.523995 0
0.136629 0.526864 0.00155642
0.159136 0.528908 0.00358587
0.184619 0.530144 0.00340276
0.212879 0.530587 0.00154116
0.243671 0.530251 0
0.275914 0.529427 0
0.309377 0.528176 0
0.344167 0.526482 0
0.380331 0.52433 0
0.417929 0.521691 0
0.456992 0.518563 0
0.497536 0.514961 0
0.539498 0.510887 0
0.582849 0.506355 0
0.627497 0.501411 0
0.673365 0.496071 0
0.720256 0.490425 0
0.768231 0.484413 0
0.817105 0.478126 0
0.866728 0.471611 0
0.917021 0.464897 0
0.96791 0.458015 0
1 0.451011 0
1 0.44387 0
1 0.436667 0
0.0728161 0.518395 0
0.0800641 0.523232 0
0.086244 0.528481 0
0.0917067 0.534112 0
0.0945144 0.540658 0
0.098497 0.547082 0
0.109071 0.551919 0
0.123888 0.55581 0
0.142306 0.558877 0.000640879
0.163851 0.561151 0.0037232
0.188281 0.562676 0.00450141
0.215381 0.563439 0.00341802
0.24509 0.563439 0.000900282
0.276905 0.562783 0
0.309895 0.56173 0
0.34406 0.560281 0
0.379477 0.558404 0
0.416205 0.556085 0
0.454292 0.553323 0
0.493767 0.550088 0
0.534615 0.54641 0
0.576837 0.542275 0
0.620371 0.537728 0
0.665156 0.532753 0
0.711101 0.527413 0
0.758114 0.521752 0
0.806058 0.51577 0
0.854994 0.509483 0
0.904677 0.502968 0
0.955062 0.496239 0
1 0.489326 0
1 0.482292 0
1 0.475135 0
0.0819562 0.549722 0
0.0892195 0.554528 0
0.0953536 0.559792 0
0.100649 0.565438 0
0.103151 0.572015 0
0.106676 0.578515 0
0.11667 0.583459 0
0.13077 0.587488 0
0.148363 0.590723 0
0.169055 0.593225 0.00337224
0.192538 0.59498 0.00511177
0.218647 0.596048 0.00488289
0.247227 0.596399 0.0030518
0.278218 0.596033 1.5259e-05
0.310826 0.595132 0
0.344518 0.593866 0
0.379324 0.592218 0
0.415335 0.590173 0
0.452598 0.587716 0
0.491127 0.584817 0
0.530983 0.581491 0
0.572168 0.577722 0
0.614618 0.573541 0
0.65832 0.568948 0
0.703227 0.563973 0
0.749279 0.558618 0
0.796338 0.552926 0
0.844373 0.54699 0
0.893324 0.540703 0
0.943084 0.534173 0
0.99353 0.527443 0
1 0.520531 0
1 0.513466 0
0.0911421 0.581018 0
0.0984207 0.585824 0
0.104524 0.591073 0
0.109651 0.59675 0
0.111925 0.603357 0
0.115053 0.609918 0
0.124514 0.614954 0
0.137957 0.619104 0
0.154803 0.622492 0
0.174701 0.625162 0.00256352
0.19733 0.627146 0.00527962
0.222507 0.628473 0.00590524
0.250111 0.629114 0.00483711
0.280034 0.629084 0.00239567
0.312093 0.628382 0
0.345403 0.627283 0
0.379736 0.625834 0
0.415152 0.624018 0
0.451698 0.621805 0
0.489464 0.619196 0
0.52842 0.61619 0
0.568658 0.612772 0
0.610117 0.608927 0
0.652811 0.604685 0
0.696696 0.600061 0
0.741772 0.595056 0
0.787915 0.589685 0
0.835096 0.583993 0
0.883192 0.578042 0
0.932097 0.571786 0
0.981918 0.565255 0
1 0.558526 0
1 0.551598 0
0.100359 0.612299 0
0.107637 0.617105 0
0.113725 0.622354 0
0.118471 0.628107 0
0.120775 0.634684 0
0.123568 0.641291 0
0.132555 0.646418 0
0.145403 0.65066 0
0.161578 0.654169 0
0.180743 0.657008 0.00134279
0.202594 0.65919 0.00500496
0.226917 0.660731 0.0065156
0.25362 0.661631 0.00622568
0.282536 0.661906 0.00445563
0.313664 0.661524 0.00149538
0.346609 0.660563 0
0.38056 0.659266 0
0.415503 0.657633 0
0.451484 0.65565 0
0.488563 0.6533 0
0.526772 0.650568 0
0.566155 0.64744 0
0.606729 0.643931 0
0.648478 0.640024 0
0.691417 0.635721 0
0.735485 0.631052 0
0.780697 0.626017 0
0.826932 0.620645 0
0.874205 0.614954 0
0.922347 0.608988 0
0.971313 0.602747 0
1 0.596231 0
1 0.589487 0
0.109606 0.64358 0
0.116899 0.648371 0
0.122957 0.65362 0
0.127626 0.659373 0
0.129717 0.66598 0
0.132204 0.672648 0
0.14078 0.677821 0
0.153094 0.682155 0
0.168643 0.685786 0
0.187121 0.688777 0
0.208255 0.691127 0.00433356
0.231815 0.692866 0.00672923
0.257664 0.693996 0.00723278
0.285725 0.69453 0.00614939
0.315877 0.694438 0.00378424
0.348074 0.693736 0.000396735
0.38172 0.692576 0
0.416266 0.691096 0
0.451789 0.689296 0
0.488304 0.68716 0
0.525872 0.684672 0
0.564523 0.681804 0
0.604288 0.678584 0
0.645182 0.674983 0
0.687221 0.671 0
0.730388 0.666651 0
0.774655 0.661936 0
0.820005 0.656886 0
0.866346 0.651499 0
0.91368 0.645792 0
0.961898 0.639796 0
1 0.633585 0
1 0.627085 0
0.118883 0.674846 0
0.126192 0.679622 0
0.132235 0.684871 0
0.136828 0.690639 0
0.138735 0.697261 0
0.140932 0.70396 0
0.149142 0.709209 0
0.160998 0.713619 0
0.175982 0.717357 0
0.19382 0.720455 0
0.214267 0.722972 0.00328069
0.237125 0.72488 0.00653086
0.262211 0.726223 0.00784314
0.289448 0.72697 0.00747692
0.3187 0.727169 0.00573739
0.349996 0.726757 0.0028687
0.383139 0.725765 0
0.41738 0.724422 0
0.452506 0.722774 0
0.488548 0.720821 0
0.525582 0.718532 0
0.563592 0.715908 0
0.60267 0.712932 0
0.642802 0.709606 0
0.684031 0.705928 0
0.726345 0.701869 0
0.769741 0.697475 0
0.814191 0.692714 0
0.859678 0.687633 0
0.906142 0.682231 0
0.953567 0.676524 0
1 0.670527 0
1 0.664302 0
0.128176 0.706096 0
0.1355 0.710872 0
0.141527 0.716106 0
0.146059 0.721874 0
0.147814 0.728527 0
0.149783 0.735271 0
0.157641 0.740566 0
0.169085 0.745052 0
0.183551 0.748867 0
0.200793 0.752087 0
0.220615 0.754726 0.00187686
0.242802 0.756802 0.00596628
0.267185 0.758312 0.00807202
0.293645 0.759289 0.0084535
0.322133 0.759701 0.00737011
0.352529 0.759564 0.005066
0.384833 0.758862 0.00175479
0.418753 0.757641 0
0.453574 0.75613 0
0.489235 0.75433 0
0.52578 0.752224 0
0.563287 0.749798 0
0.60174 0.747051 0
0.641199 0.743969 0
0.681697 0.740536 0
0.723247 0.736751 0
0.76582 0.732647 0
0.809445 0.728191 0
0.854093 0.7234 0
0.899702 0.718288 0
0.946303 0.712856 0
0.993805 0.707149 0
1 0.701137 0
0.137499 0.737331 0
0.144823 0.742123 0
0.150851 0.747341 0
0.155322 0.753109 0
0.156939 0.759777 0
0.158694 0.766552 0
0.166262 0.771893 0
0.17731 0.77644 0
0.191318 0.780346 0
0.208026 0.783658 0
0.227253 0.786419 0.000167849
0.248814 0.788632 0.00505074
0.272541 0.790326 0.00796521
0.298299 0.79147 0.00907912
0.32604 0.792096 0.00866712
0.355657 0.792187 0.00694286
0.387091 0.79176 0.0041352
0.42034 0.790768 0.000457771
0.454902 0.789364 0
0.490242 0.787701 0
0.526421 0.785733 0
0.563455 0.78349 0
0.601389 0.780941 0
0.640269 0.778073 0
0.680125 0.774884 0
0.720958 0.771359 0
0.762798 0.767498 0
0.805646 0.763317 0
0.849485 0.758816 0
0.894286 0.753994 0
0.940063 0.748852 0
0.986786 0.743404 0
1 0.737667 0
0.146838 0.768582 0
0.154192 0.773342 0
0.160204 0.778576 0
0.16463 0.784344 0
0.166125 0.791028 0
0.167681 0.797818 0
0.17499 0.803204 0
0.185687 0.807813 0
0.199268 0.81178 0
0.215488 0.815183 0
0.234134 0.818051 0
0.255116 0.820401 0.00381476
0.278233 0.822232 0.00747692
0.303349 0.823545 0.00933852
0.330373 0.824369 0.00961318
0.359258 0.824674 0.00851453
0.389914 0.824475 0.00624094
0.422354 0.823743 0.00300603
0.456428 0.822522 0
0.491524 0.820951 0
0.527382 0.81912 0
0.56405 0.817029 0
0.601541 0.814649 0
0.639902 0.811963 0
0.679179 0.808988 0
0.719402 0.805692 0
0.760555 0.80209 0
0.802686 0.798169 0
0.845777 0.793912 0
0.88983 0.789364 0
0.934829 0.784482 0
0.980758 0.779309 0
1 0.773846 0
0.156207 0.799802 0
0.163561 0.804562 0
0.169574 0.809796 0
0.173968 0.815549 0
0.175204 0.822293 0
0.176745 0.829068 0
0.183795 0.834485 0
0.194186 0.839139 0
0.207385 0.843183 0
