EA 50 Cinematic Luts Pack/EA_Cinematic Lut (47).cube
TITLE "Another marvellous grade that turns plain videos and images into a blockbuster cinema production."
LUT_3D_SIZE 25
0.0000 0.0000 0.0000
0.0073 0.0000 0.0000
0.0362 0.0000 0.0000
0.0680 0.0000 0.0000
0.1027 0.0000 0.0000
0.1396 0.0000 0.0000
0.1782 0.0000 0.0000
0.2183 0.0000 0.0000
0.2587 0.0000 0.0000
0.2989 0.0005 0.0000
0.3393 0.0063 0.0000
0.3803 0.0128 0.0000
0.4225 0.0197 0.0000
0.4656 0.0268 0.0000
0.5082 0.0342 0.0000
0.5518 0.0419 0.0000
0.5965 0.0499 0.0000
0.6409 0.0582 0.0000
0.6843 0.0668 0.0000
0.7233 0.0756 0.0000
0.7593 0.0846 0.0000
0.7946 0.0939 0.0000
0.8317 0.1034 0.0000
0.8725 0.1131 0.0000
0.9242 0.1230 0.0000
0.0000 0.0069 0.0035
0.0105 0.0077 0.0007
0.0402 0.0077 0.0000
0.0764 0.0055 0.0000
0.1142 0.0035 0.0000
0.1506 0.0045 0.0000
0.1890 0.0061 0.0000
0.2278 0.0094 0.0000
0.2670 0.0135 0.0000
0.3062 0.0180 0.0000
0.3458 0.0231 0.0000
0.3863 0.0286 0.0000
0.4279 0.0345 0.0000
0.4705 0.0407 0.0000
0.5129 0.0475 0.0000
0.5562 0.0545 0.0000
0.6007 0.0619 0.0000
0.6448 0.0698 0.0000
0.6875 0.0779 0.0000
0.7260 0.0862 0.0000
0.7617 0.0949 0.0000
0.7970 0.1038 0.0000
0.8340 0.1129 0.0000
0.8750 0.1222 0.0000
0.9277 0.1317 0.0000
0.0000 0.0422 0.0083
0.0108 0.0441 0.0000
0.0413 0.0437 0.0016
0.0728 0.0444 0.0000
0.1127 0.0421 0.0000
0.1540 0.0393 0.0000
0.1964 0.0362 0.0000
0.2357 0.0371 0.0000
0.2751 0.0385 0.0000
0.3144 0.0405 0.0000
0.3538 0.0438 0.0000
0.3938 0.0483 0.0000
0.4350 0.0533 0.0000
0.4769 0.0588 0.0000
0.5189 0.0646 0.0000
0.5620 0.0710 0.0000
0.6060 0.0778 0.0000
0.6497 0.0850 0.0000
0.6918 0.0924 0.0000
0.7297 0.1002 0.0000
0.7650 0.1083 0.0000
0.8001 0.1167 0.0000
0.8372 0.1254 0.0000
0.8784 0.1344 0.0000
0.9325 0.1436 0.0000
0.0000 0.0843 0.0155
0.0169 0.0856 0.0103
0.0416 0.0871 0.0000
0.0756 0.0865 0.0030
0.1095 0.0875 0.0000
0.1503 0.0861 0.0000
0.1935 0.0836 0.0000
0.2381 0.0796 0.0000
0.2825 0.0749 0.0000
0.3216 0.0757 0.0000
0.3614 0.0769 0.0000
0.4021 0.0787 0.0000
0.4440 0.0810 0.0000
0.4859 0.0842 0.0000
0.5275 0.0891 0.0000
0.5704 0.0946 0.0000
0.6138 0.1006 0.0000
0.6569 0.1069 0.0000
0.6979 0.1137 0.0000
0.7349 0.1207 0.0000
0.7698 0.1282 0.0000
0.8047 0.1359 0.0000
0.8420 0.1440 0.0000
0.8836 0.1523 0.0000
0.9398 0.1607 0.0000
0.0032 0.1318 0.0256
0.0243 0.1328 0.0214
0.0454 0.1347 0.0091
0.0760 0.1356 0.0000
0.1128 0.1348 0.0050
0.1487 0.1358 0.0000
0.1891 0.1353 0.0000
0.2349 0.1317 0.0000
0.2776 0.1297 0.0000
0.3234 0.1244 0.0000
0.3692 0.1184 0.0000
0.4100 0.1191 0.0000
0.4519 0.1202 0.0000
0.4937 0.1220 0.0000
0.5361 0.1241 0.0000
0.5800 0.1268 0.0000
0.6238 0.1300 0.0000
0.6662 0.1354 0.0000
0.7058 0.1411 0.0000
0.7418 0.1474 0.0000
0.7761 0.1540 0.0000
0.8110 0.1610 0.0000
0.8485 0.1682 0.0000
0.8907 0.1758 0.0000
0.9497 0.1836 0.0000
0.0140 0.1833 0.0389
0.0328 0.1840 0.0351
0.0527 0.1853 0.0265
0.0768 0.1880 0.0017
0.1132 0.1875 0.0021
0.1519 0.1867 0.0074
0.1893 0.1877 0.0001
0.2290 0.1882 0.0000
0.2743 0.1854 0.0000
0.3193 0.1819 0.0000
0.3630 0.1794 0.0000
0.4111 0.1731 0.0000
0.4601 0.1659 0.0000
0.5020 0.1665 0.0000
0.5446 0.1677 0.0000
0.5883 0.1694 0.0000
0.6318 0.1717 0.0000
0.6747 0.1741 0.0000
0.7140 0.1770 0.0000
0.7500 0.1801 0.0000
0.7839 0.1856 0.0000
0.8188 0.1916 0.0000
0.8567 0.1979 0.0000
0.9003 0.2047 0.0000
0.9620 0.2117 0.0000
0.0255 0.2372 0.0535
0.0422 0.2378 0.0504
0.0608 0.2388 0.0443
0.0841 0.2407 0.0271
0.1128 0.2430 0.0000
0.1528 0.2419 0.0068
0.1926 0.2413 0.0105
0.2310 0.2424 0.0008
0.2700 0.2434 0.0000
0.3141 0.2415 0.0000
0.3613 0.2372 0.0000
0.4060 0.2348 0.0000
0.4531 0.2315 0.0000
0.5027 0.2249 0.0000
0.5535 0.2166 0.0000
0.5971 0.2174 0.0000
0.6404 0.2186 0.0000
0.6826 0.2202 0.0000
0.7209 0.2221 0.0000
0.7563 0.2245 0.0000
0.7908 0.2271 0.0000
0.8267 0.2302 0.0000
0.8662 0.2335 0.0000
0.9132 0.2385 0.0000
0.9757 0.2453 0.0032
0.0376 0.2927 0.0693
0.0525 0.2932 0.0665
0.0698 0.2939 0.0619
0.0922 0.2954 0.0508
0.1180 0.2979 0.0206
0.1519 0.2993 0.0000
0.1940 0.2978 0.0123
0.2344 0.2975 0.0140
0.2731 0.2985 0.0022
0.3119 0.2997 0.0000
0.3550 0.2989 0.0000
0.4024 0.2958 0.0000
0.4512 0.2920 0.0000
0.4973 0.2898 0.0000
0.5457 0.2856 0.0000
0.5971 0.2788 0.0000
0.6483 0.2705 0.0000
0.6907 0.2702 0.0000
0.7281 0.2713 0.0000
0.7630 0.2728 0.0000
0.7975 0.2746 0.0000
0.8337 0.2767 0.0000
0.8738 0.2793 0.0000
0.9249 0.2820 0.0000
0.9757 0.3005 0.0700
0.0501 0.3485 0.0859
0.0636 0.3490 0.0833
0.0797 0.3496 0.0798
0.1010 0.3507 0.0717
0.1262 0.3526 0.0534
0.1539 0.3556 0.0070
0.1928 0.3557 0.0000
0.2361 0.3542 0.0181
0.2766 0.3541 0.0184
0.3156 0.3553 0.0042
0.3548 0.3567 0.0000
0.3974 0.3569 0.0000
0.4454 0.3546 0.0000
0.4957 0.3501 0.0000
0.5430 0.3475 0.0000
0.5907 0.3453 0.0000
0.6407 0.3403 0.0000
0.6900 0.3334 0.0000
0.7341 0.3250 0.0000
0.7699 0.3239 0.0000
0.8045 0.3248 0.0000
0.8412 0.3263 0.0000
0.8822 0.3279 0.0000
0.9369 0.3299 0.0000
0.9757 0.3565 0.1159
0.0631 0.4037 0.1032
0.0755 0.4041 0.1009
0.0905 0.4047 0.0979
0.1108 0.4056 0.0916
0.1351 0.4071 0.0789
0.1623 0.4095 0.0492
0.1930 0.4123 0.0000
0.2351 0.4118 0.0000
0.2785 0.4103 0.0235
0.3193 0.4103 0.0236
0.3588 0.4114 0.0068
0.3989 0.4128 0.0000
0.4411 0.4138 0.0000
0.4890 0.4118 0.0000
0.5387 0.4083 0.0000
0.5900 0.4042 0.0000
0.6371 0.4024 0.0000
0.6834 0.4001 0.0000
0.7276 0.3944 0.0000
0.7688 0.3874 0.0000
0.8098 0.3793 0.0000
0.8490 0.3773 0.0000
0.8911 0.3781 0.0000
0.9498 0.3794 0.0000
0.9757 0.4116 0.1587
0.0768 0.4573 0.1211
0.0881 0.4576 0.1191
0.1021 0.4581 0.1164
0.1213 0.4588 0.1115
0.1448 0.4600 0.1017
0.1714 0.4617 0.0832
0.2000 0.4643 0.0378
0.2353 0.4659 0.0000
0.2777 0.4654 0.0000
0.3211 0.4641 0.0296
0.3626 0.4640 0.0296
0.4031 0.4650 0.0101
0.4442 0.4663 0.0000
0.4865 0.4672 0.0000
0.5330 0.4661 0.0000
0.5833 0.4637 0.0000
0.6350 0.4597 0.0000
0.6826 0.4570 0.0000
0.7240 0.4551 0.0000
0.7628 0.4524 0.0000
0.8033 0.4467 0.0000
0.8470 0.4399 0.0000
0.8974 0.4322 0.0000
0.9630 0.4293 0.0000
0.9757 0.4643 0.1986
0.0908 0.5063 0.1394
0.1012 0.5066 0.1376
0.1143 0.5069 0.1351
0.1325 0.5075 0.1310
0.1550 0.5084 0.1235
0.1808 0.5097 0.1095
0.2090 0.5116 0.0812
0.2387 0.5142 0.0167
0.2777 0.5147 0.0000
0.3207 0.5140 0.0072
0.3641 0.5130 0.0362
0.4067 0.5129 0.0368
0.4485 0.5138 0.0144
0.4898 0.5148 0.0000
0.5319 0.5157 0.0000
0.5783 0.5155 0.0000
0.6277 0.5137 0.0000
0.6778 0.5107 0.0000
0.7233 0.5069 0.0000
0.7614 0.5054 0.0000
0.7991 0.5036 0.0000
0.8402 0.5005 0.0000
0.8888 0.4952 0.0000
0.9584 0.4890 0.0000
0.9757 0.5129 0.2254
0.1053 0.5510 0.1578
0.1149 0.5512 0.1562
0.1272 0.5515 0.1538
0.1444 0.5520 0.1505
0.1659 0.5527 0.1444
0.1908 0.5537 0.1335
0.2183 0.5551 0.1146
0.2475 0.5571 0.0733
0.2785 0.5594 0.0000
0.3204 0.5591 0.0000
0.3645 0.5583 0.0183
0.4082 0.5577 0.0430
0.4522 0.5575 0.0436
0.4941 0.5581 0.0190
0.5356 0.5590 0.0009
0.5788 0.5599 0.0000
0.6229 0.5606 0.0000
0.6719 0.5590 0.0000
0.7170 0.5568 0.0000
0.7590 0.5535 0.0000
0.7983 0.5510 0.0000
0.8379 0.5495 0.0000
0.8826 0.5477 0.0000
0.9466 0.5443 0.0000
0.9755 0.5584 0.2140
0.1201 0.5906 0.1763
0.1290 0.5908 0.1749
0.1405 0.5910 0.1727
0.1568 0.5914 0.1697
0.1773 0.5919 0.1647
0.2014 0.5926 0.1561
0.2282 0.5936 0.1415
0.2567 0.5950 0.1146
0.2862 0.5969 0.0582
0.3206 0.5983 0.0000
0.3637 0.5979 0.0000
0.4093 0.5970 0.0310
0.4537 0.5967 0.0496
0.4978 0.5962 0.0510
0.5401 0.5967 0.0247
0.5828 0.5977 0.0035
0.6256 0.5985 0.0000
0.6688 0.5992 0.0000
0.7126 0.5983 0.0000
0.7534 0.5968 0.0000
0.7939 0.5944 0.0000
0.8375 0.5912 0.0000
0.8817 0.5901 0.0000
0.9418 0.5886 0.0000
0.9755 0.5976 0.2001
0.1352 0.6261 0.1945
0.1435 0.6262 0.1933
0.1543 0.6264 0.1915
0.1697 0.6267 0.1887
0.1894 0.6271 0.1845
0.2125 0.6278 0.1776
0.2385 0.6286 0.1661
0.2662 0.6298 0.1470
0.2952 0.6314 0.1093
0.3252 0.6334 0.0317
0.3639 0.6340 0.0000
0.4081 0.6336 0.0000
0.4555 0.6325 0.0448
0.4991 0.6322 0.0564
0.5439 0.6317 0.0587
0.5874 0.6324 0.0313
0.6298 0.6333 0.0065
0.6718 0.6342 0.0000
0.7112 0.6349 0.0000
0.7498 0.6346 0.0000
0.7888 0.6333 0.0000
0.8304 0.6312 0.0000
0.8779 0.6283 0.0000
0.9400 0.6259 0.0000
0.9756 0.6332 0.2086
0.1506 0.6612 0.2125
0.1584 0.6613 0.2114
0.1686 0.6615 0.2098
0.1832 0.6617 0.2072
0.2019 0.6621 0.2037
0.2241 0.6627 0.1980
0.2491 0.6634 0.1888
0.2761 0.6644 0.1739
0.3045 0.6658 0.1488
0.3341 0.6675 0.0984
0.3654 0.6696 0.0000
0.4083 0.6694 0.0000
0.4539 0.6690 0.0000
0.5016 0.6676 0.0582
0.5451 0.6674 0.0632
0.5911 0.6672 0.0669
0.6343 0.6678 0.0388
0.6759 0.6687 0.0101
0.7141 0.6696 0.0000
0.7495 0.6703 0.0000
0.7849 0.6705 0.0000
0.8253 0.6690 0.0000
0.8703 0.6672 0.0000
0.9304 0.6647 0.0000
0.9756 0.6684 0.2171
0.1664 0.6960 0.2300
0.1736 0.6961 0.2290
0.1832 0.6962 0.2275
0.1970 0.6965 0.2251
0.2148 0.6968 0.2222
0.2361 0.6973 0.2175
0.2602 0.6980 0.2100
0.2863 0.6989 0.1983
0.3142 0.7000 0.1798
0.3434 0.7015 0.1454
0.3738 0.7034 0.0804
0.4085 0.7048 0.0000
0.4540 0.7045 0.0000
0.4997 0.7039 0.0000
0.5482 0.7024 0.0712
0.5922 0.7026 0.0701
0.6378 0.7022 0.0751
0.6800 0.7027 0.0468
0.7175 0.7036 0.0147
0.7521 0.7043 0.0000
0.7860 0.7050 0.0000
0.8217 0.7055 0.0000
0.8652 0.7043 0.0000
0.9203 0.7028 0.0000
0.9756 0.7042 0.1801
0.1823 0.7305 0.2468
0.1891 0.7306 0.2460
0.1981 0.7307 0.2447
0.2112 0.7309 0.2426
0.2282 0.7313 0.2399
0.2485 0.7317 0.2360
0.2716 0.7323 0.2299
0.2970 0.7331 0.2205
0.3242 0.7341 0.2059
0.3530 0.7353 0.1830
0.3831 0.7370 0.1376
0.4145 0.7388 0.0508
0.4540 0.7395 0.0000
0.4995 0.7390 0.0000
0.5461 0.7381 0.0158
0.5951 0.7368 0.0818
0.6383 0.7370 0.0770
0.6830 0.7366 0.0836
0.7209 0.7371 0.0545
0.7553 0.7379 0.0203
0.7887 0.7387 0.0000
0.8237 0.7394 0.0000
0.8626 0.7399 0.0000
0.9138 0.7392 0.0000
0.9756 0.7394 0.1331
0.1984 0.7645 0.2634
0.2048 0.7646 0.2626
0.2132 0.7647 0.2615
0.2257 0.7649 0.2595
0.2418 0.7651 0.2570
0.2611 0.7655 0.2536
0.2833 0.7660 0.2485
0.3078 0.7667 0.2408
0.3344 0.7675 0.2293
0.3627 0.7686 0.2116
0.3924 0.7699 0.1808
0.4235 0.7716 0.1241
0.4560 0.7735 0.0027
0.4993 0.7733 0.0000
0.5451 0.7727 0.0000
0.5934 0.7719 0.0351
0.6412 0.7708 0.0911
0.6833 0.7710 0.0838
0.7236 0.7706 0.0919
0.7585 0.7711 0.0632
0.7920 0.7718 0.0269
0.8268 0.7726 0.0000
0.8651 0.7734 0.0000
0.9119 0.7739 0.0000
0.9756 0.7742 0.0627
0.2144 0.7978 0.2795
0.2205 0.7979 0.2788
0.2285 0.7980 0.2777
0.2402 0.7982 0.2760
0.2555 0.7984 0.2736
0.2739 0.7988 0.2707
0.2952 0.7992 0.2663
0.3190 0.7998 0.2598
0.3449 0.8005 0.2503
0.3726 0.8015 0.2364
0.4020 0.8026 0.2153
0.4329 0.8040 0.1750
0.4650 0.8057 0.1031
0.4997 0.8072 0.0000
0.5450 0.8067 0.0000
0.5919 0.8063 0.0000
0.6402 0.8053 0.0543
0.6860 0.8044 0.1003
0.7238 0.8047 0.0907
0.7610 0.8042 0.1004
0.7953 0.8046 0.0717
0.8303 0.8054 0.0338
0.8687 0.8062 0.0031
0.9158 0.8069 0.0000
0.9756 0.8079 0.0905
0.2306 0.8307 0.2953
0.2363 0.8307 0.2946
0.2438 0.8308 0.2937
0.2549 0.8310 0.2921
0.2693 0.8312 0.2898
0.2870 0.8315 0.2872
0.3074 0.8319 0.2835
0.3304 0.8325 0.2779
0.3557 0.8331 0.2700
0.3830 0.8340 0.2585
0.4120 0.8350 0.2418
0.4426 0.8362 0.2146
0.4742 0.8376 0.1649
0.5062 0.8394 0.0716
0.5448 0.8401 0.0000
0.5918 0.8398 0.0000
0.6383 0.8394 0.0000
0.6857 0.8383 0.0719
0.7262 0.8376 0.1094
0.7611 0.8378 0.0976
0.7978 0.8373 0.1096
0.8338 0.8378 0.0801
0.8729 0.8386 0.0415
0.9216 0.8395 0.0074
0.9757 0.8408 0.1838
0.2468 0.8631 0.3109
0.2522 0.8632 0.3103
0.2592 0.8632 0.3095
0.2697 0.8634 0.3080
0.2835 0.8636 0.3059
0.3003 0.8639 0.3034
0.3200 0.8643 0.3001
0.3423 0.8647 0.2954
0.3670 0.8653 0.2885
0.3937 0.8661 0.2789
0.4223 0.8669 0.2653
0.4526 0.8679 0.2456
0.4836 0.8692 0.2105
0.5153 0.8708 0.1495
0.5481 0.8726 0.0183
0.5916 0.8728 0.0000
0.6382 0.8724 0.0000
0.6837 0.8720 0.0000
0.7265 0.8708 0.0888
0.7636 0.8704 0.1183
0.7980 0.8707 0.1043
0.8369 0.8703 0.1182
0.8774 0.8708 0.0892
0.9282 0.8716 0.0496
0.9749 0.8728 0.2866
0.2631 0.8950 0.3264
0.2680 0.8951 0.3258
0.2747 0.8952 0.3250
0.2846 0.8953 0.3237
0.2977 0.8955 0.3218
0.3139 0.8958 0.3194
0.3329 0.8961 0.3164
0.3545 0.8965 0.3123
0.3786 0.8971 0.3064
0.4048 0.8977 0.2982
0.4330 0.8984 0.2867
0.4629 0.8993 0.2707
0.4934 0.9004 0.2463
0.5248 0.9018 0.2030
0.5575 0.9035 0.1268
0.5930 0.9052 0.0000
0.6383 0.9052 0.0000
0.6837 0.9049 0.0000
0.7249 0.9045 0.0026
0.7646 0.9032 0.1049
0.8007 0.9029 0.1272
0.8371 0.9033 0.1113
0.8808 0.9028 0.1273
0.9349 0.9033 0.0991
0.9724 0.9034 0.4018
0.2794 0.9265 0.3417
0.2840 0.9266 0.3412
0.2904 0.9266 0.3404
0.2998 0.9268 0.3392
0.3123 0.9270 0.3375
0.3278 0.9272 0.3352
0.3462 0.9276 0.3325
0.3672 0.9280 0.3288
0.3907 0.9285 0.3237
0.4165 0.9290 0.3166
0.4443 0.9296 0.3069
0.4735 0.9305 0.2934
0.5037 0.9315 0.2747
0.5348 0.9327 0.2437
0.5674 0.9343 0.1916
0.6005 0.9362 0.0936
0.6385 0.9374 0.0000
0.6839 0.9371 0.0000
0.7247 0.9368 0.0000
0.7631 0.9362 0.0291
0.8023 0.9351 0.1205
0.8401 0.9349 0.1360
0.8808 0.9353 0.1185
0.9399 0.9347 0.1364
0.9691 0.9318 0.5329
0.4310 0.9439 0.4853
0.4339 0.9440 0.4851
0.4377 0.9441 0.4848
0.4435 0.9444 0.4845
0.4514 0.9447 0.4837
0.4613 0.9450 0.4826
0.4734 0.9454 0.4820
0.4874 0.9459 0.4807
0.5031 0.9465 0.4784
0.5201 0.9473 0.4746
0.5381 0.9485 0.4686
0.5573 0.9501 0.4593
0.5766 0.9521 0.4448
0.5955 0.9547 0.4213
0.6110 0.9586 0.3728
0.6244 0.9636 0.2770
0.6433 0.9683 0.0400
0.6841 0.9687 0.0000
0.7249 0.9684 0.0000
0.7625 0.9682 0.0000
0.8009 0.9674 0.0550
0.8426 0.9661 0.1638
0.8846 0.9656 0.2243
0.9397 0.9666 0.1316
0.9686 0.9570 0.7563
0.0000 0.0000 0.0052
0.0000 0.0000 0.0203
0.0410 0.0000 0.0256
0.0748 0.0000 0.0198
0.1112 0.0000 0.0137
0.1492 0.0000 0.0105
0.1894 0.0000 0.0064
0.2308 0.0000 0.0018
0.2703 0.0000 0.0000
0.3090 0.0000 0.0000
0.3482 0.0000 0.0000
0.3884 0.0000 0.0000
0.4298 0.0055 0.0000
0.4722 0.0138 0.0000
0.5144 0.0219 0.0000
0.5576 0.0304 0.0000
0.6018 0.0391 0.0000
0.6458 0.0480 0.0000
0.6884 0.0570 0.0000
0.7268 0.0664 0.0000
0.7624 0.0757 0.0000
0.7976 0.0854 0.0000
0.8346 0.0953 0.0000
0.8757 0.1053 0.0000
0.9287 0.1156 0.0000
0.0000 0.0083 0.0309
0.0128 0.0072 0.0326
0.0503 0.0029 0.0282
0.0864 0.0000 0.0238
0.1245 0.0000 0.0171
0.1647 0.0000 0.0092
0.2063 0.0000 0.0000
0.2424 0.0000 0.0000
0.2794 0.0000 0.0000
0.3170 0.0014 0.0000
0.3554 0.0073 0.0000
0.3950 0.0138 0.0000
0.4360 0.0206 0.0000
0.4777 0.0277 0.0000
0.5196 0.0350 0.0000
0.5624 0.0427 0.0000
0.6064 0.0507 0.0000
0.6500 0.0590 0.0000
0.6920 0.0675 0.0000
0.7298 0.0763 0.0000
0.7651 0.0853 0.0000
0.8002 0.0946 0.0000
0.8373 0.1041 0.0000
0.8785 0.1137 0.0000
0.9323 0.1243 0.0000
0.0000 0.0432 0.0370
0.0128 0.0440 0.0295
0.0430 0.0432 0.0344
0.0880 0.0367 0.0298
0.1310 0.0304 0.0205
0.1732 0.0244 0.0106
0.2150 0.0190 0.0000
0.2512 0.0207 0.0000
0.2878 0.0234 0.0000
0.3249 0.0270 0.0000
0.3629 0.0312 0.0000
0.4022 0.0361 0.0000
0.4427 0.0415 0.0000
0.4839 0.0474 0.0000
0.5254 0.0537 0.0000
0.5681 0.0604 0.0000
0.6116 0.0676 0.0000
0.6548 0.0751 0.0000
0.6961 0.0829 0.0000
0.7333 0.0910 0.0000
0.7683 0.0995 0.0000
0.8033 0.1082 0.0000
0.8405 0.1171 0.0000
0.8820 0.1263 0.0000
0.9371 0.1364 0.0000
0.0000 0.0848 0.0452
0.0119 0.0875 0.0308
0.0433 0.0872 0.0241
0.0777 0.0856 0.0398
0.1183 0.0832 0.0319
0.1633 0.0784 0.0245
0.2099 0.0721 0.0121
0.2585 0.0619 0.0000
0.2963 0.0612 0.0000
0.3345 0.0613 0.0000
0.3728 0.0630 0.0000
0.4118 0.0663 0.0000
0.4521 0.0702 0.0000
0.4926 0.0747 0.0000
0.5336 0.0797 0.0000
0.5763 0.0854 0.0000
0.6192 0.0915 0.0000
0.6618 0.0981 0.0000
0.7021 0.1051 0.0000
0.7385 0.1124 0.0000
0.7731 0.1200 0.0000
0.8080 0.1280 0.0000
0.8453 0.1362 0.0000
0.8872 0.1447 0.0000
0.9444 0.1541 0.0000
0.0023 0.1323 0.0544
0.0192 0.1346 0.0403
0.0423 0.1361 0.0311
0.0760 0.1361 0.0244
0.1139 0.1344 0.0406
0.1537 0.1334 0.0326
0.1984 0.1301 0.0268
0.2452 0.1250 0.0175
0.2924 0.1182 0.0012
0.3391 0.1097 0.0000
0.3797 0.1078 0.0000
0.4200 0.1080 0.0000
0.4614 0.1088 0.0000
0.5026 0.1103 0.0000
0.5443 0.1128 0.0000
0.5866 0.1173 0.0000
0.6290 0.1223 0.0000
0.6709 0.1278 0.0000
0.7097 0.1337 0.0000
0.7452 0.1400 0.0000
0.7793 0.1467 0.0000
0.8141 0.1538 0.0000
0.8517 0.1612 0.0000
0.8943 0.1689 0.0000
0.9542 0.1775 0.0000
0.0128 0.1837 0.0650
0.0280 0.1856 0.0521
0.0494 0.1867 0.0455
0.0753 0.1887 0.0274
0.1124 0.1883 0.0218
0.1528 0.1863 0.0430
0.1931 0.1859 0.0336
0.2362 0.1844 0.0261
0.2827 0.1799 0.0228
0.3294 0.1747 0.0074
0.3752 0.1693 0.0000
0.4237 0.1611 0.0000
0.4686 0.1572 0.0000
0.5100 0.1575 0.0000
0.5524 0.1585 0.0000
0.5957 0.1600 0.0000
0.6387 0.1620 0.0000
0.6809 0.1644 0.0000
0.7187 0.1682 0.0000
0.7533 0.1735 0.0000
0.7870 0.1792 0.0000
0.8219 0.1853 0.0000
0.8599 0.1917 0.0000
0.9044 0.1985 0.0000
0.9663 0.2062 0.0000
0.0239 0.2376 0.0766
0.0377 0.2391 0.0654
0.0575 0.2400 0.0602
0.0818 0.2417 0.0468
0.1120 0.2436 0.0243
0.1519 0.2428 0.0218
0.1935 0.2409 0.0461
0.2341 0.2409 0.0349
0.2744 0.2412 0.0271
0.3205 0.2376 0.0236
0.3686 0.2323 0.0148
0.4158 0.2276 0.0000
0.4633 0.2229 0.0000
0.5131 0.2149 0.0000
0.5606 0.2094 0.0000
0.6039 0.2099 0.0000
0.6467 0.2108 0.0000
0.6883 0.2123 0.0000
0.7258 0.2141 0.0000
0.7607 0.2164 0.0000
0.7950 0.2190 0.0000
0.8311 0.2219 0.0000
0.8698 0.2273 0.0000
0.9176 0.2331 0.0000
0.9757 0.2458 0.0239
0.0356 0.2931 0.0894
0.0483 0.2943 0.0799
0.0666 0.2950 0.0756
0.0898 0.2964 0.0657
0.1163 0.2987 0.0433
0.1510 0.2999 0.0200
0.1933 0.2986 0.0277
0.2353 0.2971 0.0498
0.2754 0.2974 0.0366
0.3150 0.2982 0.0276
0.3602 0.2960 0.0226
0.4088 0.2918 0.0192
0.4592 0.2867 0.0017
0.5056 0.2835 0.0000
0.5545 0.2782 0.0000
0.6059 0.2703 0.0000
0.6549 0.2633 0.0000
0.6958 0.2639 0.0000
0.7326 0.2648 0.0000
0.7671 0.2661 0.0000
0.8015 0.2678 0.0000
0.8379 0.2699 0.0000
0.8784 0.2723 0.0000
0.9312 0.2751 0.0000
0.9757 0.3008 0.0875
0.0477 0.3491 0.1033
0.0598 0.3499 0.0955
0.0766 0.3505 0.0918
0.0986 0.3516 0.0840
0.1243 0.3534 0.0691
0.1525 0.3562 0.0305
0.1917 0.3565 0.0140
0.2353 0.3550 0.0329
0.2774 0.3538 0.0541
0.3161 0.3552 0.0372
0.3575 0.3555 0.0282
0.4022 0.3545 0.0198
0.4507 0.3515 0.0199
0.5021 0.3460 0.0117
0.5502 0.3427 0.0000
0.5979 0.3398 0.0000
0.6480 0.3340 0.0000
0.6967 0.3261 0.0000
0.7394 0.3180 0.0000
0.7738 0.3185 0.0000
0.8083 0.3193 0.0000
0.8452 0.3206 0.0000
0.8866 0.3222 0.0000
0.9431 0.3241 0.0000
0.9757 0.3567 0.1294
0.0602 0.4043 0.1181
0.0719 0.4050 0.1118
0.0875 0.4055 0.1087
0.1083 0.4064 0.1023
0.1332 0.4078 0.0912
0.1609 0.4101 0.0675
0.1916 0.4130 0.0157
0.2339 0.4127 0.0062
0.2778 0.4110 0.0386
0.3200 0.4100 0.0585
0.3593 0.4113 0.0398
0.4012 0.4118 0.0291
0.4446 0.4122 0.0208
0.4935 0.4094 0.0188
0.5441 0.4052 0.0145
0.5960 0.4005 0.0000
0.6432 0.3981 0.0000
0.6891 0.3954 0.0000
0.7329 0.3890 0.0000
0.7738 0.3814 0.0000
0.8151 0.3725 0.0000
0.8529 0.3727 0.0000
0.8956 0.3735 0.0000
0.9558 0.3746 0.0000
0.9757 0.4118 0.1690
0.0734 0.4579 0.1337
0.0848 0.4583 0.1289
0.0993 0.4587 0.1262
0.1190 0.4595 0.1207
0.1428 0.4606 0.1121
0.1698 0.4623 0.0956
0.1989 0.4648 0.0582
0.2338 0.4667 0.0099
0.2770 0.4659 0.0120
0.3205 0.4646 0.0443
0.3632 0.4638 0.0633
0.4035 0.4649 0.0431
0.4462 0.4656 0.0304
0.4891 0.4662 0.0211
0.5371 0.4643 0.0156
0.5878 0.4614 0.0151
0.6405 0.4565 0.0055
0.6874 0.4538 0.0000
0.7285 0.4515 0.0000
0.7671 0.4483 0.0000
0.8079 0.4421 0.0000
0.8521 0.4348 0.0000
0.9042 0.4265 0.0000
0.9686 0.4254 0.0000
0.9757 0.4645 0.2067
