EA 50 Cinematic Luts Pack/EA_Cinematic Lut (35).cube
TITLE "Crisp contrast and cold, subdued hues will extract the essence and stress the mood of every action footage. "
LUT_3D_SIZE 9
0.0000 0.0000 0.0000
0.0687 0.0312 0.0190
0.1548 0.0902 0.0632
0.2409 0.1498 0.1118
0.3261 0.2089 0.1598
0.4113 0.2678 0.2078
0.4966 0.3273 0.2563
0.5816 0.3868 0.3047
0.6678 0.4465 0.3533
0.0473 0.1155 0.0833
0.1210 0.1250 0.0494
0.2012 0.1474 0.0870
0.2750 0.1876 0.1289
0.3515 0.2363 0.1731
0.4311 0.2891 0.2184
0.5122 0.3442 0.2648
0.5949 0.4007 0.3118
0.6791 0.4582 0.3593
0.1182 0.2337 0.1792
0.1394 0.2443 0.1386
0.2426 0.2495 0.1217
0.3249 0.2668 0.1575
0.4007 0.2972 0.1967
0.4740 0.3380 0.2393
0.5480 0.3843 0.2830
0.6259 0.4345 0.3279
0.7053 0.4865 0.3734
0.1888 0.3513 0.2746
0.2050 0.3574 0.2534
0.2635 0.3670 0.2146
0.3644 0.3740 0.1939
0.4489 0.3895 0.2286
0.5245 0.4149 0.2680
0.6000 0.4486 0.3075
0.6731 0.4889 0.3503
0.7477 0.5329 0.3938
0.2600 0.4699 0.3709
0.2720 0.4740 0.3560
0.2940 0.4856 0.3116
0.3862 0.4909 0.2888
0.4861 0.4983 0.2664
0.5703 0.5119 0.2997
0.6486 0.5339 0.3394
0.7251 0.5633 0.3785
0.8005 0.5987 0.4186
0.3311 0.5868 0.4668
0.3405 0.5900 0.4561
0.3606 0.5984 0.4269
0.4044 0.6107 0.3763
0.5074 0.6142 0.3631
0.6070 0.6223 0.3389
0.6937 0.6358 0.3707
0.7738 0.6555 0.4096
0.8494 0.6818 0.4496
0.4021 0.7049 0.5612
0.4096 0.7074 0.5527
0.4266 0.7140 0.5302
0.4494 0.7268 0.4839
0.5269 0.7336 0.4522
0.6284 0.7383 0.4367
0.7285 0.7466 0.4111
0.8155 0.7592 0.4407
0.8961 0.7773 0.4800
0.4722 0.8222 0.6564
0.4783 0.8242 0.6495
0.4923 0.8294 0.6307
0.5138 0.8388 0.5967
0.5406 0.8539 0.5325
0.6484 0.8559 0.5242
0.7494 0.8617 0.5084
0.8498 0.8707 0.4826
0.9223 0.8810 0.6289
0.6604 0.9169 0.7873
0.6699 0.9173 0.7862
0.6917 0.9184 0.7838
0.7248 0.9212 0.7825
0.7636 0.9267 0.7831
0.8107 0.9341 0.7930
0.8652 0.9434 0.8136
0.9195 0.9562 0.8464
0.9683 0.9736 0.8977
0.0057 0.0148 0.0231
0.0725 0.0423 0.0705
0.1776 0.0866 0.0848
0.2551 0.1478 0.1242
0.3356 0.2078 0.1685
0.4183 0.2671 0.2144
0.5019 0.3267 0.2614
0.5862 0.3864 0.3090
0.6717 0.4462 0.3569
0.0173 0.1236 0.1249
0.0763 0.1361 0.1368
0.2045 0.1499 0.1230
0.2765 0.1902 0.1519
0.3523 0.2386 0.1893
0.4318 0.2909 0.2306
0.5127 0.3457 0.2744
0.5954 0.4020 0.3197
0.6837 0.4575 0.3623
0.0842 0.2388 0.2158
0.1483 0.2420 0.2050
0.2436 0.2503 0.1669
0.3283 0.2674 0.1806
0.4018 0.2985 0.2139
0.4746 0.3394 0.2522
0.5485 0.3855 0.2930
0.6263 0.4356 0.3360
0.7099 0.4857 0.3762
0.1708 0.3541 0.2999
0.2133 0.3558 0.2903
0.2556 0.3693 0.2415
0.3625 0.3749 0.2306
0.4524 0.3896 0.2440
0.5264 0.4153 0.2803
0.6005 0.4495 0.3180
0.6735 0.4897 0.3588
0.7516 0.5324 0.3966
0.2487 0.4717 0.3890
0.2776 0.4730 0.3820
0.3043 0.4836 0.3439
0.3831 0.4920 0.3106
0.4848 0.4989 0.2933
0.5727 0.5120 0.3115
0.6502 0.5342 0.3493
0.7265 0.5636 0.3865
0.8040 0.5982 0.4211
0.3230 0.5881 0.4802
0.3444 0.5892 0.4749
0.3663 0.5974 0.4471
0.3982 0.6122 0.3906
0.5057 0.6149 0.3815
0.6060 0.6227 0.3595
0.6955 0.6359 0.3802
0.7750 0.6557 0.4177
0.8528 0.6814 0.4511
0.3959 0.7060 0.5722
0.4126 0.7068 0.5678
0.4306 0.7132 0.5455
0.4559 0.7253 0.5035
0.5239 0.7344 0.4651
0.6273 0.7387 0.4519
0.7277 0.7469 0.4275
0.8169 0.7592 0.4485
0.8986 0.7773 0.4811
0.4674 0.8231 0.6654
0.4807 0.8237 0.6617
0.4955 0.8287 0.6438
0.5177 0.8381 0.6103
0.5406 0.8539 0.5461
0.6465 0.8564 0.5343
0.7485 0.8619 0.5209
0.8491 0.8709 0.4958
0.9231 0.8813 0.6332
0.6572 0.9179 0.7920
0.6670 0.9182 0.7909
0.6898 0.9192 0.7883
0.7238 0.9218 0.7862
0.7639 0.9271 0.7867
0.8105 0.9347 0.7953
0.8654 0.9438 0.8158
0.9199 0.9566 0.8483
0.9688 0.9740 0.8992
0.0204 0.0514 0.0730
0.0618 0.0756 0.1190
0.1613 0.1102 0.1580
0.2684 0.1522 0.1689
0.3620 0.2027 0.1917
0.4380 0.2639 0.2311
0.5167 0.3247 0.2745
0.5981 0.3850 0.3198
0.6813 0.4452 0.3661
0.0324 0.1372 0.1566
0.0933 0.1467 0.1697
0.1919 0.1629 0.1939
0.3051 0.1858 0.1871
0.3770 0.2342 0.2116
0.4507 0.2880 0.2470
0.5270 0.3437 0.2873
0.6071 0.4007 0.3304
0.6935 0.4564 0.3716
0.0583 0.2473 0.2495
0.0963 0.2538 0.2557
0.1670 0.2681 0.2693
0.3342 0.2698 0.2328
0.4047 0.3019 0.2528
0.4768 0.3426 0.2820
0.5501 0.3885 0.3169
0.6273 0.4384 0.3558
0.7219 0.4835 0.3839
0.1302 0.3616 0.3362
0.1539 0.3656 0.3402
0.2518 0.3693 0.3300
0.3666 0.3759 0.2864
0.4578 0.3907 0.2833
0.5298 0.4169 0.3110
0.6015 0.4519 0.3436
0.6743 0.4919 0.3796
0.7620 0.5307 0.4044
0.2052 0.4775 0.4318
0.2434 0.4784 0.4256
0.3110 0.4818 0.4102
0.3713 0.4957 0.3553
0.4855 0.4999 0.3423
0.5787 0.5122 0.3402
0.6540 0.5349 0.3734
0.7295 0.5645 0.4066
0.8135 0.5968 0.4277
0.2961 0.5920 0.5125
0.3216 0.5928 0.5078
0.3764 0.5950 0.4952
0.4111 0.6096 0.4459
0.5004 0.6171 0.4191
0.6036 0.6239 0.4065
0.7001 0.6360 0.4035
0.7778 0.6564 0.4382
0.8620 0.6801 0.4553
0.3769 0.7091 0.5989
0.3957 0.7097 0.5949
0.4385 0.7116 0.5843
0.4679 0.7226 0.5450
0.5143 0.7370 0.4911
0.6237 0.7400 0.4834
0.7258 0.7478 0.4661
0.8205 0.7593 0.4678
0.9054 0.7769 0.4839
0.4531 0.8255 0.6875
0.4677 0.8261 0.6841
0.5016 0.8275 0.6752
0.5262 0.8364 0.6428
0.5545 0.8510 0.5889
0.6412 0.8580 0.5606
0.7460 0.8629 0.5485
0.8474 0.8715 0.5275
0.9249 0.8819 0.6441
0.6474 0.9206 0.8039
0.6580 0.9207 0.8028
0.6832 0.9214 0.7999
0.7206 0.9235 0.7959
0.7640 0.9281 0.7959
0.8096 0.9362 0.8011
0.8659 0.9450 0.8214
0.9209 0.9577 0.8530
0.9700 0.9750 0.9032
0.0461 0.0951 0.1256
0.0743 0.1126 0.1555
0.1448 0.1411 0.2204
0.2496 0.1776 0.2449
0.3520 0.2208 0.2573
0.4627 0.2619 0.2688
0.5446 0.3190 0.2991
0.6213 0.3810 0.3392
0.7006 0.4422 0.3820
0.0672 0.1584 0.1908
0.1057 0.1680 0.2025
0.1716 0.1862 0.2511
0.2720 0.2123 0.2698
0.3704 0.2481 0.2756
0.4816 0.2822 0.2802
0.5543 0.3385 0.3115
0.6297 0.3968 0.3496
0.7125 0.4532 0.3879
0.0764 0.2584 0.2837
0.1007 0.2653 0.2906
0.1942 0.2747 0.2993
0.3056 0.2863 0.3136
0.4266 0.3009 0.3039
0.5055 0.3375 0.3133
0.5750 0.3846 0.3408
0.6486 0.4351 0.3746
0.7405 0.4803 0.4013
0.1045 0.3706 0.3736
0.1298 0.3748 0.3776
0.1826 0.3848 0.3873
0.2579 0.4005 0.4022
0.4606 0.3942 0.3497
0.5342 0.4203 0.3608
0.6051 0.4554 0.3841
0.6772 0.4953 0.4132
0.7842 0.5257 0.4190
0.1760 0.4852 0.4593
0.1931 0.4881 0.4621
0.2327 0.4949 0.4688
0.3477 0.4993 0.4596
0.4946 0.5004 0.3981
0.5862 0.5132 0.3902
0.6588 0.5367 0.4148
0.7307 0.5676 0.4428
0.8321 0.5931 0.4411
0.2494 0.5993 0.5515
0.2622 0.6015 0.5538
0.3066 0.6055 0.5536
0.4063 0.6087 0.5330
0.4855 0.6224 0.4727
0.6110 0.6244 0.4523
0.7076 0.6363 0.4432
0.7825 0.6573 0.4725
0.8804 0.6768 0.4636
0.3299 0.7155 0.6440
0.3536 0.7159 0.6403
0.4062 0.7172 0.6306
0.4734 0.7208 0.6139
0.5204 0.7355 0.5544
0.6162 0.7425 0.5328
0.7260 0.7485 0.5161
0.8269 0.7592 0.4998
0.9105 0.7768 0.5170
0.4201 0.8304 0.7252
0.4374 0.8309 0.7220
0.4772 0.8320 0.7139
0.5369 0.8339 0.6986
0.5725 0.8473 0.6511
0.6438 0.8576 0.6152
0.7482 0.8619 0.6143
0.8450 0.8707 0.6120
0.9282 0.8830 0.6635
0.6245 0.9261 0.8253
0.6370 0.9261 0.8240
0.6664 0.9262 0.8208
0.7111 0.9271 0.8157
0.7616 0.9306 0.8117
0.8089 0.9386 0.8125
0.8666 0.9471 0.8313
0.9226 0.9596 0.8613
0.9721 0.9767 0.9103
0.0757 0.1390 0.1783
0.0953 0.1519 0.2000
0.1450 0.1775 0.2492
0.2316 0.2086 0.3036
0.3374 0.2447 0.3313
0.4390 0.2885 0.3440
0.5520 0.3277 0.3526
0.6523 0.3753 0.3723
0.7299 0.4363 0.4075
0.0950 0.1870 0.2293
0.1208 0.1958 0.2399
0.1682 0.2147 0.2800
0.2509 0.2383 0.3338
0.3541 0.2696 0.3498
0.4534 0.3090 0.3585
0.5684 0.3430 0.3619
0.6613 0.3908 0.3820
0.7423 0.4469 0.4137
0.1011 0.2756 0.3117
0.1353 0.2802 0.3180
0.2000 0.2910 0.3334
0.2855 0.3047 0.3772
0.3869 0.3266 0.3884
0.4840 0.3568 0.3903
0.6063 0.3797 0.3819
0.6811 0.4286 0.4052
0.7713 0.4732 0.4278
0.1204 0.3808 0.4102
0.1384 0.3852 0.4146
0.1792 0.3959 0.4249
0.2894 0.4055 0.4324
0.4209 0.4128 0.4387
0.5438 0.4236 0.4263
0.6359 0.4506 0.4224
0.7049 0.4911 0.4436
0.8154 0.5178 0.4479
0.1511 0.4940 0.4978
0.1692 0.4968 0.5005
0.2105 0.5038 0.5073
0.2711 0.5155 0.5185
0.3488 0.5313 0.5334
0.5634 0.5231 0.4837
0.6647 0.5397 0.4715
0.7355 0.5708 0.4900
0.8674 0.5831 0.4659
0.2210 0.6077 0.5811
0.2339 0.6099 0.5832
0.2652 0.6155 0.5884
0.3158 0.6248 0.5974
0.4407 0.6297 0.5887
0.6235 0.6244 0.5068
0.7173 0.6367 0.4984
0.7887 0.6587 0.5200
0.9088 0.6703 0.4851
0.2958 0.7231 0.6730
0.3060 0.7248 0.6747
0.3309 0.7290 0.6789
0.3772 0.7357 0.6848
0.5108 0.7358 0.6580
0.5977 0.7492 0.5881
0.7322 0.7492 0.5717
0.8348 0.7595 0.5468
0.9173 0.7769 0.5687
0.3677 0.8381 0.7687
0.3759 0.8394 0.7701
0.4053 0.8421 0.7703
0.4788 0.8443 0.7569
0.5630 0.8478 0.7366
0.6659 0.8526 0.6958
0.7572 0.8589 0.7004
0.8534 0.8690 0.6789
0.9334 0.8844 0.6924
0.5721 0.9367 0.8593
0.5886 0.9363 0.8574
0.6268 0.9354 0.8531
0.6841 0.9347 0.8466
0.7505 0.9355 0.8388
0.8108 0.9409 0.8357
0.8670 0.9504 0.8467
0.9250 0.9624 0.8737
0.9752 0.9793 0.9208
0.1050 0.1825 0.2307
0.1198 0.1925 0.2472
0.1573 0.2140 0.2854
0.2226 0.2422 0.3495
0.3180 0.2763 0.3870
0.4258 0.3121 0.4183
0.5251 0.3563 0.4308
0.6317 0.3996 0.4438
0.7467 0.4394 0.4550
0.1214 0.2203 0.2713
0.1406 0.2279 0.2805
0.1765 0.2454 0.3143
0.2403 0.2694 0.3689
0.3332 0.2984 0.4076
0.4390 0.3314 0.4328
0.5363 0.3725 0.4425
0.6453 0.4118 0.4516
0.7627 0.4476 0.4605
0.1394 0.2960 0.3463
0.1618 0.3008 0.3523
0.2121 0.3119 0.3657
0.2744 0.3291 0.4105
0.3643 0.3492 0.4563
0.4671 0.3767 0.4646
0.5616 0.4115 0.4693
0.6794 0.4407 0.4686
0.8024 0.4671 0.4720
0.1438 0.3958 0.4384
0.1566 0.4002 0.4428
0.1994 0.4096 0.4533
0.2952 0.4192 0.4676
0.4016 0.4290 0.5017
0.5009 0.4483 0.5080
0.6024 0.4720 0.5076
0.7335 0.4877 0.4912
0.8581 0.5045 0.4906
0.1647 0.5032 0.5349
0.1783 0.5062 0.5378
0.2109 0.5137 0.5453
0.2625 0.5261 0.5575
0.3823 0.5353 0.5642
0.5338 0.5372 0.5629
0.6580 0.5476 0.5490
0.7673 0.5656 0.5320
0.9011 0.5724 0.5237
0.1977 0.6170 0.6218
0.2114 0.6192 0.6239
0.2444 0.6248 0.6292
0.2954 0.6342 0.6384
0.3612 0.6475 0.6511
0.4402 0.6642 0.6668
0.6702 0.6526 0.6134
0.8090 0.6568 0.5729
0.9163 0.6696 0.5768
0.2663 0.7318 0.7052
0.2767 0.7335 0.7069
0.3018 0.7379 0.7110
0.3436 0.7454 0.7180
0.4018 0.7559 0.7284
0.5373 0.7594 0.7176
0.7498 0.7490 0.6209
0.8512 0.7590 0.5961
0.9286 0.7761 0.6365
0.3413 0.8458 0.7942
0.3497 0.8472 0.7956
0.3704 0.8507 0.7990
0.4055 0.8567 0.8050
0.4555 0.8653 0.8142
0.6284 0.8608 0.7783
0.7540 0.8635 0.7449
0.8574 0.8704 0.7384
0.9411 0.8860 0.7325
0.5354 0.9462 0.8861
0.5467 0.9466 0.8866
0.5744 0.9475 0.8879
0.6202 0.9490 0.8903
0.7102 0.9469 0.8805
0.8005 0.9470 0.8692
0.8653 0.9555 0.8671
0.9278 0.9664 0.8907
0.9795 0.9829 0.9350
0.1343 0.2259 0.2829
0.1458 0.2338 0.2958
0.1754 0.2520 0.3273
0.2278 0.2783 0.3785
0.3049 0.3065 0.4549
0.4052 0.3445 0.4718
0.5130 0.3796 0.5044
0.6123 0.4243 0.5164
0.7192 0.4670 0.5298
0.1480 0.2565 0.3160
0.1631 0.2631 0.3240
0.1916 0.2787 0.3526
0.2430 0.3019 0.3988
0.3185 0.3277 0.4680
0.4173 0.3618 0.4869
0.5232 0.3948 0.5156
0.6215 0.4374 0.5258
0.7335 0.4751 0.5372
0.1691 0.3216 0.3827
0.1855 0.3262 0.3884
0.2245 0.3375 0.4020
0.2743 0.3554 0.4425
0.3478 0.3763 0.4976
0.4441 0.4026 0.5234
0.5467 0.4315 0.5416
0.6431 0.4694 0.5485
0.7694 0.4950 0.5549
0.1734 0.4143 0.4680
0.1944 0.4172 0.4718
0.2417 0.4243 0.4809
0.3075 0.4363 0.4974
0.3862 0.4503 0.5397
0.4796 0.4673 0.5805
0.5810 0.4907 0.5821
0.6751 0.5214 0.5844
0.8336 0.5261 0.5791
0.1884 0.5162 0.5643
0.1989 0.5192 0.5674
0.2243 0.5268 0.5749
0.2704 0.5391 0.5872
0.3979 0.5460 0.5953
0.5154 0.5527 0.6257
0.6144 0.5710 0.6275
0.7240 0.5897 0.6270
0.8923 0.5840 0.6113
0.2096 0.6264 0.6610
0.2206 0.6287 0.6633
0.2469 0.6346 0.6691
0.2901 0.6445 0.6789
0.3492 0.6585 0.6921
0.4766 0.6674 0.6973
0.6472 0.6655 0.6864
0.7985 0.6651 0.6691
0.9187 0.6734 0.6661
0.2442 0.7409 0.7466
0.2551 0.7427 0.7483
0.2818 0.7470 0.7524
0.3252 0.7545 0.7596
0.3820 0.7653 0.7701
0.4512 0.7792 0.7833
0.5289 0.7954 0.7985
0.8485 0.7620 0.7056
0.9395 0.7755 0.7216
0.3113 0.8547 0.8285
0.3199 0.8561 0.8298
0.3410 0.8597 0.8332
0.3760 0.8660 0.8391
0.4251 0.8751 0.8476
0.4734 0.8888 0.8568
0.7005 0.8780 0.8291
0.8678 0.8733 0.7791
0.9527 0.8869 0.7864
0.5244 0.9540 0.9104
0.5352 0.9543 0.9108
0.5626 0.9553 0.9118
0.6080 0.9571 0.9137
0.6697 0.9597 0.9166
0.7452 0.9629 0.9211
0.8598 0.9615 0.9066
0.9301 0.9717 0.9136
0.9850 0.9875 0.9529
0.1634 0.2691 0.3348
0.1729 0.2756 0.3455
0.1969 0.2911 0.3720
0.2401 0.3149 0.4147
0.3039 0.3435 0.4772
0.3921 0.3738 0.5389
0.4918 0.4124 0.5559
0.6010 0.4472 0.5908
0.6999 0.4915 0.6027
0.1751 0.2946 0.3625
0.1874 0.3003 0.3695
0.2109 0.3141 0.3938
0.2533 0.3358 0.4344
0.3163 0.3622 0.4914
0.4024 0.3896 0.5563
0.5014 0.4264 0.5679
0.6097 0.4597 0.6003
0.7125 0.4999 0.6123
0.1963 0.3513 0.4219
0.2092 0.3557 0.4273
0.2408 0.3664 0.4402
0.2817 0.3839 0.4762
0.3433 0.4056 0.5246
0.4254 0.4281 0.5932
0.5238 0.4601 0.5974
0.6300 0.4898 0.6227
0.7438 0.5203 0.6355
0.2116 0.4346 0.5019
0.2268 0.4377 0.5057
0.2626 0.4451 0.5148
0.3197 0.4572 0.5291
0.3803 0.4735 0.5726
0.4609 0.4911 0.6273
0.5570 0.5138 0.6453
0.6608 0.5396 0.6578
0.7969 0.5544 0.6729
0.2109 0.5329 0.5916
0.2191 0.5359 0.5947
0.2471 0.5426 0.6023
0.3157 0.5509 0.6150
0.3999 0.5622 0.6319
0.4987 0.5727 0.6675
0.5943 0.5874 0.7069
0.6960 0.6102 0.7028
0.8575 0.6076 0.7162
0.2328 0.6387 0.6920
0.2416 0.6410 0.6943
0.2632 0.6469 0.7002
0.2992 0.6571 0.7100
0.3497 0.6715 0.7235
0.4936 0.6756 0.7372
0.6340 0.6763 0.7673
0.7447 0.6901 0.7598
0.8895 0.6920 0.7568
0.2548 0.7500 0.7865
0.2639 0.7518 0.7883
0.2859 0.7563 0.7928
0.3222 0.7642 0.8005
0.3725 0.7756 0.8116
0.4214 0.7914 0.8312
0.5791 0.7941 0.8433
0.7916 0.7831 0.8131
0.9305 0.7841 0.8042
0.2902 0.8638 0.8704
0.2993 0.8652 0.8717
0.3213 0.8688 0.8751
0.3585 0.8750 0.8811
0.4085 0.8840 0.8898
0.4501 0.8983 0.9039
0.5598 0.9076 0.9122
0.7419 0.9053 0.9075
0.9675 0.8864 0.8623
0.5197 0.9619 0.9408
0.5305 0.9623 0.9412
0.5573 0.9634 0.9420
0.6018 0.9654 0.9437
0.6621 0.9684 0.9462
0.7353 0.9723 0.9497
0.8192 0.9770 0.9542
0.9267 0.9792 0.9504
0.9918 0.9932 0.9746
0.1925 0.3123 0.3868
0.2005 0.3179 0.3959
0.2208 0.3313 0.4184
0.2572 0.3528 0.4560
0.3112 0.3798 0.5078
0.3839 0.4087 0.5790
0.4791 0.4419 0.6230
0.5785 0.4799 0.6419
0.6895 0.5137 0.6779
0.2028 0.3341 0.4106
0.2106 0.3392 0.4191
0.2308 0.3515 0.4406
0.2669 0.3711 0.4764
0.3210 0.3961 0.5261
0.3939 0.4230 0.5959
0.4892 0.4536 0.6403
0.5894 0.4898 0.6553
0.7006 0.5220 0.6889
0.2229 0.3840 0.4635
0.2305 0.3881 0.4708
0.2504 0.3982 0.4896
0.2866 0.4143 0.5227
0.3419 0.4352 0.5691
0.4161 0.4576 0.6354
0.5128 0.4815 0.6832
0.6158 0.5138 0.6883
0.7279 0.5425 0.7157
0.2429 0.4589 0.5371
0.2503 0.4622 0.5435
0.2700 0.4700 0.5600
0.3074 0.4822 0.5901
0.3662 0.4973 0.6352
0.4458 0.5131 0.6957
0.5471 0.5273 0.7571
0.6582 0.5543 0.7441
0.7736 0.5774 0.7607
0.2454 0.5513 0.6229
0.2530 0.5539 0.6283
0.2730 0.5601 0.6424
0.3109 0.5700 0.6684
0.3749 0.5812 0.7105
0.4684 0.5904 0.7689
0.5815 0.5934 0.8526
0.7120 0.6103 0.8230
0.8321 0.6270 0.8186
0.2561 0.6541 0.7199
0.2588 0.6567 0.7236
0.2657 0.6632 0.7330
0.2795 0.6745 0.7499
0.3399 0.6851 0.7842
0.4486 0.6905 0.8420
0.6182 0.6850 0.8806
0.7512 0.6936 0.8656
0.8636 0.7091 0.8530
0.2770 0.7614 0.8186
0.2787 0.7635 0.8217
0.2833 0.7690 0.8295
0.2924 0.7785 0.8438
0.3087 0.7920 0.8658
0.3401 0.8088 0.8976
0.6109 0.7941 0.9225
0.7948 0.7867 0.9124
0.9025 0.8000 0.8951
0.3000 0.8727 0.9109
0.3009 0.8746 0.9133
0.3033 0.8794 0.9195
0.3079 0.8878 0.9308
0.3156 0.9001 0.9485
0.4089 0.9100 0.9637
0.5815 0.9115 0.9675
0.8172 0.8949 0.9586
0.9483 0.8979 0.9445
0.5688 0.9642 0.9697
0.5781 0.9647 0.9702
0.6010 0.9660 0.9713
0.6393 0.9684 0.9733
0.6919 0.9720 0.9763
0.7566 0.9769 0.9804
0.8309 0.9831 0.9857
0.9126 0.9908 0.9922
0.9999 1.0000 1.0000
