EA 50 Cinematic Luts Pack/EA_Cinematic Lut (33).cube
TITLE "A classic science fiction look that will bring to mind all the finest cinematic productions set in the futuristic environment."
LUT_3D_SIZE 9
0.0000 0.0000 0.0000
0.0000 0.0000 0.0000
0.0000 0.0000 0.0000
0.0000 0.0000 0.0000
0.0000 0.0000 0.0000
0.2441 0.0351 0.0000
0.4071 0.1027 0.0232
0.5624 0.1892 0.0997
0.7198 0.2839 0.1824
0.0000 0.0000 0.0000
0.0000 0.0000 0.0000
0.0000 0.0000 0.0000
0.0000 0.0000 0.0000
0.1182 0.0182 0.0000
0.2822 0.0721 0.0039
0.4327 0.1414 0.0476
0.5831 0.2218 0.1190
0.7369 0.3108 0.1981
0.0000 0.0000 0.0000
0.0000 0.0000 0.0000
0.0000 0.0000 0.0000
0.1214 0.0644 0.0000
0.2337 0.1090 0.0000
0.3555 0.1636 0.0277
0.4904 0.2243 0.0894
0.6309 0.2956 0.1604
0.7764 0.3738 0.2358
0.0519 0.1808 0.0852
0.0644 0.1910 0.0777
0.1224 0.2086 0.0861
0.2169 0.2320 0.0836
0.3451 0.2539 0.0309
0.4613 0.2918 0.0708
0.5836 0.3405 0.1299
0.7072 0.4030 0.2047
0.8432 0.4659 0.2801
0.1538 0.3797 0.2092
0.1651 0.3866 0.2025
0.1992 0.4024 0.1871
0.2918 0.4182 0.2157
0.4140 0.4376 0.2004
0.5620 0.4534 0.1537
0.6893 0.4828 0.1947
0.8133 0.5229 0.2580
0.9358 0.5742 0.3327
0.2703 0.5669 0.3452
0.2803 0.5716 0.3399
0.3006 0.5841 0.3212
0.3764 0.5971 0.3276
0.4825 0.6115 0.3575
0.6178 0.6277 0.3329
0.7807 0.6402 0.2907
0.9152 0.6640 0.3354
0.9574 0.7269 0.5434
0.3980 0.7437 0.4892
0.4064 0.7472 0.4850
0.4240 0.7566 0.4716
0.4627 0.7714 0.4504
0.5656 0.7805 0.4780
0.6816 0.7940 0.5050
0.8265 0.8091 0.4768
0.9486 0.8277 0.5930
0.9716 0.8804 0.7897
0.5706 0.9066 0.6598
0.5881 0.9073 0.6643
0.6261 0.9100 0.6749
0.6815 0.9157 0.6941
0.7594 0.9227 0.7373
0.8443 0.9338 0.7993
0.9233 0.9532 0.8688
0.9860 0.9834 0.9566
1.0000 0.9999 0.9999
0.9999 1.0000 0.9999
0.9999 1.0000 0.9999
0.9999 0.9999 0.9999
0.9999 0.9999 0.9999
0.9999 0.9999 0.9999
0.9999 0.9999 0.9999
0.9999 0.9999 0.9999
0.9999 0.9999 0.9999
0.9999 0.9999 0.9999
0.0000 0.0000 0.0000
0.0000 0.0000 0.0000
0.0000 0.0000 0.0000
0.0000 0.0000 0.0000
0.0000 0.0000 0.0000
0.2608 0.0162 0.0000
0.4247 0.0779 0.0176
0.5773 0.1732 0.0984
0.7325 0.2730 0.1829
0.0000 0.0000 0.0000
0.0000 0.0000 0.0000
0.0000 0.0000 0.0000
0.0000 0.0000 0.0000
0.1258 0.0216 0.0048
0.2820 0.0797 0.0230
0.4318 0.1483 0.0708
0.5822 0.2276 0.1351
0.7486 0.3018 0.1981
0.0000 0.0000 0.0000
0.0000 0.0000 0.0000
0.0000 0.0000 0.0000
0.1163 0.0733 0.0174
0.2246 0.1202 0.0363
0.3502 0.1721 0.0726
0.4868 0.2315 0.1180
0.6294 0.3005 0.1767
0.7873 0.3670 0.2361
0.0458 0.1845 0.0991
0.0716 0.1925 0.0986
0.1201 0.2122 0.0984
0.2084 0.2371 0.1155
0.3354 0.2615 0.0868
0.4526 0.2997 0.1167
0.5740 0.3494 0.1653
0.7030 0.4080 0.2281
0.8515 0.4625 0.2843
0.1486 0.3823 0.2219
0.1706 0.3874 0.2201
0.1982 0.4045 0.2007
0.2901 0.4205 0.2276
0.4056 0.4415 0.2295
0.5554 0.4577 0.1883
0.6801 0.4887 0.2266
0.8063 0.5281 0.2819
0.9402 0.5735 0.3371
0.2661 0.5687 0.3560
0.2840 0.5722 0.3541
0.3082 0.5840 0.3394
0.3740 0.5990 0.3357
0.4766 0.6141 0.3703
0.6101 0.6306 0.3568
0.7756 0.6431 0.3137
0.9082 0.6680 0.3568
0.9578 0.7279 0.5504
0.3945 0.7450 0.4979
0.4090 0.7476 0.4963
0.4296 0.7564 0.4851
0.4605 0.7727 0.4582
0.5642 0.7817 0.4848
0.6766 0.7958 0.5169
0.8198 0.8113 0.4953
0.9449 0.8296 0.6039
0.9720 0.8813 0.7927
0.5684 0.9078 0.6663
0.5926 0.9073 0.6738
0.6321 0.9096 0.6851
0.6875 0.9152 0.7041
0.7619 0.9230 0.7436
0.8461 0.9342 0.8050
0.9237 0.9538 0.8751
0.9861 0.9843 0.9596
1.0000 0.9999 0.9999
0.9999 1.0000 0.9999
0.9999 1.0000 0.9999
0.9999 0.9999 0.9999
0.9999 0.9999 0.9999
0.9999 0.9999 0.9999
0.9999 0.9999 0.9999
0.9999 0.9999 0.9999
0.9999 0.9999 0.9999
0.9999 0.9999 0.9999
0.0000 0.0000 0.0000
0.0000 0.0000 0.0000
0.0000 0.0000 0.0000
0.0000 0.0000 0.0000
0.0205 0.0000 0.0024
0.2817 0.0000 0.0345
0.4579 0.0100 0.0415
0.6167 0.1147 0.0961
0.7660 0.2375 0.1843
0.0000 0.0000 0.0000
0.0000 0.0000 0.0000
0.0000 0.0000 0.0000
0.0000 0.0000 0.0000
0.1686 0.0039 0.0155
0.3278 0.0186 0.0254
0.4751 0.0957 0.0677
0.6194 0.1911 0.1359
0.7819 0.2704 0.1998
0.0000 0.0000 0.0000
0.0000 0.0000 0.0000
0.0094 0.0208 0.0106
0.1195 0.0857 0.0478
0.2243 0.1322 0.0775
0.3492 0.1840 0.1113
0.4850 0.2433 0.1536
0.6273 0.3114 0.2071
0.8176 0.3454 0.2370
0.0236 0.1942 0.1295
0.0513 0.2026 0.1298
0.1107 0.2216 0.1282
0.2095 0.2445 0.1423
0.3191 0.2760 0.1490
0.4362 0.3158 0.1792
0.5619 0.3634 0.2182
0.6968 0.4181 0.2678
0.8738 0.4519 0.2963
0.1329 0.3889 0.2516
0.1583 0.3938 0.2512
0.2081 0.4069 0.2461
0.2881 0.4263 0.2499
0.3922 0.4494 0.2757
0.5376 0.4689 0.2493
0.6609 0.5014 0.2849
0.7889 0.5406 0.3316
0.9516 0.5717 0.3495
0.2549 0.5734 0.3822
0.2745 0.5767 0.3811
0.3185 0.5852 0.3770
0.3635 0.6044 0.3546
0.4746 0.6180 0.3923
0.5941 0.6373 0.4033
0.7631 0.6504 0.3627
0.8910 0.6777 0.4032
0.9590 0.7303 0.5683
0.3862 0.7483 0.5196
0.4015 0.7507 0.5185
0.4375 0.7571 0.5146
0.4703 0.7728 0.4925
0.5590 0.7851 0.5024
0.6676 0.7998 0.5414
0.8054 0.8164 0.5344
0.9360 0.8345 0.6295
0.9731 0.8838 0.8006
0.5646 0.9104 0.6833
0.5895 0.9099 0.6902
0.6429 0.9095 0.7071
0.6992 0.9148 0.7259
0.7691 0.9235 0.7599
0.8506 0.9353 0.8187
0.9249 0.9555 0.8889
0.9868 0.9866 0.9668
1.0000 0.9999 0.9999
0.9999 1.0000 0.9999
0.9999 1.0000 0.9999
0.9999 1.0000 0.9999
0.9999 0.9999 0.9999
0.9999 0.9999 0.9999
0.9999 0.9999 0.9999
0.9999 0.9999 0.9999
0.9999 0.9999 0.9999
0.9999 0.9999 0.9999
0.0000 0.0000 0.0000
0.0000 0.0000 0.0000
0.0000 0.0000 0.0000
0.0000 0.0000 0.0000
0.0926 0.0112 0.0530
0.2925 0.0140 0.1214
0.4578 0.0587 0.1603
0.6317 0.1124 0.1769
0.7918 0.2161 0.2311
0.0000 0.0000 0.0000
0.0000 0.0000 0.0000
0.0000 0.0000 0.0000
0.0000 0.0000 0.0000
0.1672 0.0373 0.0950
0.3313 0.0504 0.1317
0.4902 0.0955 0.1595
0.6527 0.1588 0.1862
0.8184 0.2341 0.2351
0.0000 0.0000 0.0000
0.0000 0.0000 0.0000
0.0328 0.0556 0.0525
0.1135 0.1069 0.1054
0.2805 0.1085 0.1155
0.4130 0.1426 0.1394
0.5508 0.1918 0.1675
0.6871 0.2675 0.2183
0.8804 0.2822 0.2431
0.0084 0.2085 0.1731
0.0472 0.2158 0.1735
0.1093 0.2347 0.1724
0.1685 0.2694 0.1797
0.3228 0.2878 0.1941
0.4353 0.3294 0.2254
0.5594 0.3773 0.2629
0.6937 0.4313 0.3088
0.9288 0.4165 0.3023
0.0937 0.4011 0.2960
0.1253 0.4063 0.2946
0.1804 0.4196 0.2915
0.2624 0.4407 0.2864
0.4015 0.4567 0.2976
0.5277 0.4808 0.3042
0.6496 0.5139 0.3402
0.7761 0.5545 0.3827
0.9555 0.5752 0.4184
0.2301 0.5818 0.4243
0.2482 0.5856 0.4228
0.2917 0.5947 0.4186
0.3676 0.6088 0.4122
0.4685 0.6260 0.4195
0.5911 0.6441 0.4403
0.7392 0.6636 0.4263
0.8651 0.6926 0.4659
0.9610 0.7347 0.5989
0.3690 0.7544 0.5562
0.3857 0.7567 0.5556
0.4250 0.7627 0.5534
0.4807 0.7741 0.5444
0.5460 0.7921 0.5287
0.6681 0.8046 0.5658
0.7867 0.8245 0.5889
0.9220 0.8426 0.6685
0.9748 0.8881 0.8147
0.5560 0.9154 0.7118
0.5830 0.9147 0.7180
0.6402 0.9139 0.7332
0.7159 0.9150 0.7588
0.7792 0.9252 0.7849
0.8586 0.9375 0.8377
0.9298 0.9585 0.9044
0.9891 0.9904 0.9781
1.0000 0.9999 0.9999
0.9999 1.0000 0.9999
0.9999 1.0000 0.9999
0.9999 1.0000 0.9999
0.9999 1.0000 0.9999
0.9999 0.9999 0.9999
0.9999 0.9999 0.9999
0.9999 0.9999 0.9999
0.9999 0.9999 0.9999
0.9999 0.9999 0.9999
0.0000 0.0000 0.0000
0.0000 0.0000 0.0000
0.0000 0.0000 0.0000
0.0000 0.0000 0.0000
0.1249 0.0439 0.1169
0.2732 0.0941 0.2014
0.4483 0.1252 0.2554
0.6202 0.1748 0.2959
0.7888 0.2497 0.3351
0.0000 0.0000 0.0000
0.0000 0.0000 0.0000
0.0000 0.0000 0.0000
0.0176 0.0110 0.0260
0.1588 0.0851 0.1494
0.3007 0.1303 0.2227
0.4831 0.1471 0.2621
0.6451 0.2037 0.3020
0.8192 0.2603 0.3377
0.0073 0.0269 0.0513
0.0197 0.0497 0.0772
0.0611 0.0899 0.1060
0.1250 0.1290 0.1584
0.2211 0.1759 0.2092
0.3793 0.2001 0.2582
0.5594 0.2082 0.2715
0.7048 0.2695 0.3106
0.8954 0.2844 0.3348
0.0572 0.2219 0.2326
0.0850 0.2291 0.2341
0.1321 0.2482 0.2358
0.1962 0.2806 0.2386
0.2957 0.3147 0.2765
0.4978 0.3114 0.2746
0.6427 0.3393 0.2928
0.7684 0.3956 0.3350
0.9685 0.3920 0.3763
0.0779 0.4147 0.3531
0.1192 0.4193 0.3521
0.1891 0.4310 0.3485
0.2618 0.4535 0.3407
0.3311 0.4864 0.3489
0.5301 0.4925 0.3573
0.6477 0.5268 0.3917
0.7720 0.5682 0.4318
0.9613 0.5804 0.4995
0.1851 0.5945 0.4767
0.2113 0.5978 0.4754
0.2662 0.6064 0.4714
0.3335 0.6225 0.4671
0.4312 0.6429 0.4594
0.6006 0.6520 0.4661
0.7411 0.6720 0.4743
0.8633 0.7016 0.5128
0.9607 0.7428 0.6407
0.3375 0.7641 0.6064
0.3530 0.7668 0.6054
0.3893 0.7736 0.6021
0.4461 0.7857 0.5941
0.5371 0.7995 0.5863
0.6503 0.8157 0.5979
0.7965 0.8299 0.6121
0.9087 0.8530 0.7106
0.9772 0.8947 0.8354
0.5401 0.9232 0.7518
0.5667 0.9229 0.7554
0.6256 0.9224 0.7657
0.7087 0.9228 0.7870
0.7948 0.9277 0.8197
0.8675 0.9419 0.8619
0.9384 0.9632 0.9219
0.9951 0.9959 0.9914
1.0000 0.9999 0.9999
0.9999 1.0000 0.9999
0.9999 1.0000 0.9999
0.9999 1.0000 0.9999
0.9999 1.0000 0.9999
0.9999 1.0000 0.9999
0.9999 0.9999 0.9999
0.9999 0.9999 0.9999
0.9999 0.9999 0.9999
0.9999 0.9999 0.9999
0.0000 0.0000 0.0000
0.0000 0.0000 0.0000
0.0000 0.0000 0.0000
0.0110 0.0076 0.0233
0.1394 0.0910 0.1634
0.2742 0.1413 0.2599
0.4282 0.1931 0.3387
0.5989 0.2428 0.3962
0.7884 0.2851 0.4316
0.0000 0.0000 0.0000
0.0000 0.0000 0.0000
0.0000 0.0000 0.0000
0.0747 0.0655 0.1229
0.1678 0.1251 0.1953
0.2960 0.1759 0.2810
0.4490 0.2238 0.3557
0.6259 0.2632 0.4047
0.8151 0.2986 0.4426
0.0356 0.0846 0.1347
0.0515 0.0965 0.1440
0.0861 0.1222 0.1594
0.1416 0.1577 0.2178
0.2282 0.2061 0.2638
0.3436 0.2559 0.3271
0.4959 0.2956 0.3939
0.6932 0.3110 0.4187
0.8767 0.3360 0.4700
0.1015 0.2421 0.2892
0.1207 0.2496 0.2892
0.1610 0.2684 0.2903
0.2212 0.2993 0.2959
0.3034 0.3339 0.3520
0.4140 0.3756 0.3941
0.6002 0.3879 0.4296
0.7998 0.3913 0.4248
0.9573 0.4207 0.5116
0.1481 0.4250 0.4255
0.1727 0.4297 0.4257
0.2232 0.4416 0.4263
0.2804 0.4650 0.4238
0.3662 0.4942 0.4183
0.4799 0.5226 0.4553
0.6904 0.5241 0.4606
0.8573 0.5419 0.4693
0.9663 0.5902 0.5795
0.1812 0.6059 0.5406
0.2118 0.6089 0.5393
0.2739 0.6167 0.5356
0.3537 0.6310 0.5278
0.4300 0.6550 0.5140
0.5034 0.6861 0.5268
0.7329 0.6859 0.5361
0.8771 0.7078 0.5720
0.9671 0.7501 0.7028
0.2952 0.7769 0.6636
0.3159 0.7793 0.6625
0.3626 0.7855 0.6594
0.4307 0.7967 0.6519
0.5019 0.8143 0.6461
0.6043 0.8346 0.6375
0.8084 0.8377 0.6416
0.9128 0.8612 0.7561
0.9806 0.9036 0.8636
0.5133 0.9347 0.8015
0.5451 0.9337 0.8036
0.6130 0.9326 0.8101
0.7006 0.9331 0.8235
0.7888 0.9384 0.8474
0.8746 0.9497 0.8869
0.9471 0.9708 0.9403
0.9999 0.9999 0.9999
1.0000 0.9999 0.9999
0.9999 1.0000 0.9999
0.9999 1.0000 0.9999
0.9999 1.0000 0.9999
0.9999 1.0000 0.9999
0.9999 1.0000 0.9999
0.9999 1.0000 0.9999
0.9999 0.9999 0.9999
0.9999 0.9999 0.9999
0.9999 0.9999 0.9999
0.0000 0.0000 0.0000
0.0000 0.0000 0.0000
0.0002 0.0003 0.0009
0.0788 0.0737 0.1505
0.1627 0.1339 0.2217
0.2751 0.1952 0.3054
0.4236 0.2447 0.4034
0.5822 0.3003 0.4806
0.7458 0.3650 0.5413
0.0000 0.0000 0.0000
0.0107 0.0180 0.0457
0.0487 0.0639 0.1285
0.1072 0.1095 0.1944
0.1880 0.1655 0.2540
0.2969 0.2242 0.3292
0.4403 0.2742 0.4195
0.5989 0.3257 0.4943
0.7729 0.3757 0.5552
0.0705 0.1274 0.1955
0.0837 0.1369 0.2021
0.1149 0.1606 0.2168
0.1643 0.1930 0.2787
0.2430 0.2402 0.3248
0.3464 0.2929 0.3835
0.4789 0.3430 0.4575
0.6380 0.3858 0.5264
0.8369 0.4048 0.5895
0.1413 0.2698 0.3442
0.1568 0.2768 0.3468
0.1923 0.2942 0.3524
0.2445 0.3252 0.3557
0.3171 0.3578 0.4256
0.4157 0.4030 0.4597
0.5372 0.4461 0.5138
0.6987 0.4783 0.5763
0.9378 0.4583 0.6417
0.2058 0.4399 0.4923
0.2232 0.4449 0.4912
0.2615 0.4576 0.4887
0.3171 0.4795 0.4846
0.3929 0.5083 0.4865
0.4912 0.5353 0.5476
0.6076 0.5710 0.5797
0.8027 0.5837 0.6057
0.9509 0.6128 0.6888
0.2538 0.6138 0.6205
0.2738 0.6170 0.6204
0.3183 0.6251 0.6200
0.3821 0.6398 0.6191
0.4473 0.6644 0.6118
0.5399 0.6925 0.5997
0.6676 0.7167 0.6374
0.8776 0.7195 0.6748
0.9662 0.7632 0.7724
0.3001 0.7876 0.7345
0.3230 0.7898 0.7332
0.3742 0.7954 0.7295
0.4487 0.8055 0.7222
0.5278 0.8217 0.7112
0.6051 0.8466 0.6943
0.7234 0.8667 0.7432
0.9211 0.8708 0.8105
0.9849 0.9149 0.9002
0.5047 0.9461 0.8570
0.5427 0.9445 0.8570
0.6208 0.9423 0.8590
0.7168 0.9415 0.8660
0.8074 0.9465 0.8821
0.8816 0.9605 0.9150
0.9578 0.9809 0.9609
0.9999 0.9999 0.9999
1.0000 0.9999 0.9999
0.9999 1.0000 0.9999
0.9999 1.0000 0.9999
0.9999 1.0000 0.9999
0.9999 1.0000 0.9999
0.9999 1.0000 0.9999
0.9999 1.0000 0.9999
0.9999 1.0000 0.9999
0.9999 0.9999 0.9999
0.9999 0.9999 0.9999
0.0195 0.0333 0.0815
0.0330 0.0522 0.1127
0.0659 0.0849 0.1683
0.1166 0.1245 0.2309
0.1924 0.1799 0.2919
0.2904 0.2432 0.3628
0.4175 0.3035 0.4507
0.5740 0.3526 0.5480
0.7377 0.4101 0.6247
0.0542 0.0879 0.1557
0.0659 0.0989 0.1665
0.0916 0.1209 0.2064
0.1401 0.1565 0.2698
0.2144 0.2090 0.3227
0.3109 0.2692 0.3875
0.4352 0.3278 0.4694
0.5875 0.3771 0.5611
0.7593 0.4237 0.6423
0.1086 0.1745 0.2604
0.1204 0.1832 0.2665
0.1485 0.2048 0.2802
0.1930 0.2349 0.3383
0.2646 0.2778 0.3939
0.3580 0.3316 0.4447
0.4756 0.3861 0.5122
0.6196 0.4342 0.5925
0.8123 0.4566 0.6851
0.1805 0.3042 0.4012
0.1933 0.3109 0.4040
0.2236 0.3276 0.4104
0.2717 0.3564 0.4194
0.3349 0.3891 0.4852
0.4261 0.4317 0.5272
0.5356 0.4773 0.5774
0.6688 0.5213 0.6408
0.9009 0.5094 0.7547
0.2555 0.4608 0.5525
0.2692 0.4658 0.5514
0.3013 0.4779 0.5499
0.3525 0.4981 0.5509
0.4188 0.5274 0.5511
0.5034 0.5549 0.6258
0.6094 0.5926 0.6577
0.7365 0.6308 0.7053
0.9254 0.6425 0.7977
0.3208 0.6249 0.6950
0.3354 0.6284 0.6939
0.3695 0.6372 0.6912
0.4218 0.6528 0.6868
0.4839 0.6765 0.6790
0.5752 0.7002 0.7023
0.6945 0.7214 0.7676
0.8123 0.7553 0.7839
0.9485 0.7845 0.8555
0.3744 0.7936 0.8199
0.3902 0.7960 0.8195
0.4272 0.8021 0.8187
0.4837 0.8129 0.8175
0.5482 0.8301 0.8129
0.6140 0.8546 0.8229
0.7741 0.8676 0.8390
0.8937 0.8924 0.8792
0.9838 0.9307 0.9421
0.5705 0.9501 0.9193
0.6051 0.9489 0.9169
0.6753 0.9471 0.9131
0.7624 0.9472 0.9121
0.8467 0.9529 0.9204
0.9137 0.9684 0.9460
0.9797 0.9912 0.9847
0.9999 0.9999 0.9999
1.0000 0.9999 0.9999
0.9999 1.0000 0.9999
0.9999 1.0000 0.9999
0.9999 1.0000 0.9999
0.9999 1.0000 0.9999
0.9999 1.0000 0.9999
0.9999 1.0000 0.9999
0.9999 1.0000 0.9999
0.9999 1.0000 0.9999
0.9999 0.9999 0.9999
0.0783 0.1160 0.1971
0.0878 0.1248 0.2125
0.1119 0.1458 0.2504
0.1559 0.1794 0.3148
0.2256 0.2299 0.3690
0.3156 0.2900 0.4327
0.4261 0.3548 0.5059
0.5628 0.4123 0.5966
0.7277 0.4604 0.6963
0.1007 0.1492 0.2381
0.1098 0.1573 0.2523
0.1337 0.1767 0.2894
0.1768 0.2078 0.3509
0.2464 0.2547 0.4048
0.3361 0.3119 0.4626
0.4460 0.3737 0.5303
0.5824 0.4284 0.6181
0.7469 0.4734 0.7148
0.1504 0.2262 0.3302
0.1590 0.2331 0.3424
0.1817 0.2499 0.3741
0.2242 0.2757 0.4332
0.2931 0.3135 0.4907
0.3842 0.3647 0.5343
0.4930 0.4196 0.5914
0.6297 0.4673 0.6706
0.7940 0.5049 0.7603
0.2211 0.3441 0.4617
0.2291 0.3495 0.4721
0.2503 0.3629 0.4990
0.2911 0.3838 0.5486
0.3584 0.4079 0.6311
0.4562 0.4490 0.6561
0.5668 0.4924 0.6926
0.7060 0.5296 0.7571
0.8727 0.5577 0.8364
0.3010 0.4872 0.6112
0.3083 0.4913 0.6205
0.3276 0.5011 0.6443
0.3648 0.5167 0.6882
0.4293 0.5349 0.7587
0.5330 0.5537 0.8317
0.6594 0.5879 0.8351
0.7993 0.6193 0.8671
0.9045 0.6759 0.8753
0.3786 0.6411 0.7617
0.3849 0.6444 0.7696
0.4017 0.6523 0.7902
0.4338 0.6652 0.8281
0.4886 0.6812 0.8891
0.6141 0.6976 0.9019
0.7318 0.7252 0.8980
0.8429 0.7609 0.9018
0.9353 0.8096 0.9174
0.4470 0.8022 0.8976
0.4520 0.8049 0.9038
0.4736 0.8109 0.9168
0.5448 0.8174 0.9212
0.6388 0.8274 0.9282
0.7373 0.8431 0.9375
0.8345 0.8668 0.9479
0.9181 0.9025 0.9548
0.9812 0.9511 0.9765
0.7553 0.9379 0.9553
0.7652 0.9394 0.9566
0.7893 0.9433 0.9600
0.8292 0.9505 0.9661
0.8826 0.9619 0.9751
0.9458 0.9787 0.9872
0.9999 0.9999 1.0000
0.9999 0.9999 1.0000
1.0000 0.9999 1.0000
0.9999 1.0000 0.9999
0.9999 1.0000 0.9999
0.9999 1.0000 0.9999
0.9999 1.0000 0.9999
0.9999 1.0000 0.9999
0.9999 1.0000 0.9999
0.9999 1.0000 0.9999
0.9999 1.0000 0.9999
0.9999 0.9999 0.9999
