EA 50 Cinematic Luts Pack/EA_Cinematic Lut (31).cube
TITLE "A very gloomy grade that will freeze your footage into a bluish, horror-like composition of hues."
LUT_3D_SIZE 5
0.0000 0.0000 0.0000
0.1252 0.0931 0.0761
0.2697 0.2222 0.1842
0.4381 0.3494 0.2923
0.6506 0.4721 0.4001
0.0969 0.2730 0.1578
0.1806 0.2892 0.1577
0.3119 0.3384 0.2571
0.4799 0.4229 0.3397
0.6902 0.5190 0.4328
0.2140 0.5327 0.3325
0.2526 0.5434 0.3038
0.3860 0.5589 0.3328
0.5548 0.5930 0.4444
0.7840 0.6459 0.5231
0.3417 0.7593 0.5045
0.3523 0.7693 0.4731
0.4742 0.7778 0.4648
0.6598 0.7908 0.5039
0.8544 0.8160 0.6700
0.6487 0.9021 0.7603
0.6713 0.9051 0.7622
0.7528 0.9137 0.7773
0.8852 0.9314 0.8229
0.9809 0.9732 0.9237
0.0000 0.0642 0.0863
0.1460 0.0935 0.2066
0.2907 0.2173 0.2312
0.4637 0.3410 0.3150
0.6789 0.4640 0.4138
0.0399 0.2882 0.2672
0.1796 0.2969 0.2436
0.3223 0.3424 0.2767
0.4877 0.4263 0.3529
0.7331 0.5079 0.4336
0.2034 0.5368 0.3902
0.2601 0.5432 0.3730
0.3919 0.5607 0.3654
0.5645 0.5940 0.4558
0.8195 0.6399 0.5239
0.3363 0.7610 0.5396
0.3746 0.7649 0.5278
0.4754 0.7785 0.4982
0.6641 0.7915 0.5234
0.8605 0.8166 0.6795
0.6486 0.9033 0.7725
0.6718 0.9063 0.7737
0.7504 0.9158 0.7843
0.8864 0.9333 0.8278
0.9823 0.9753 0.9280
0.0000 0.1702 0.2033
0.0615 0.2178 0.2735
0.3111 0.2222 0.4201
0.4767 0.3553 0.4183
0.7178 0.4621 0.4757
0.0000 0.3242 0.3576
0.1281 0.3423 0.3581
0.3021 0.3753 0.4020
0.5197 0.4262 0.4448
0.8068 0.4917 0.4880
0.1058 0.5566 0.5266
0.2001 0.5612 0.5166
0.3838 0.5710 0.4865
0.5756 0.6020 0.5036
0.9039 0.6234 0.5487
0.3048 0.7696 0.6350
0.3487 0.7724 0.6282
0.4767 0.7812 0.5990
0.6807 0.7937 0.5814
0.8848 0.8174 0.7129
0.6431 0.9085 0.8072
0.6685 0.9111 0.8089
0.7508 0.9208 0.8135
0.8890 0.9399 0.8445
0.9871 0.9819 0.9447
0.0000 0.2750 0.3196
0.0403 0.3072 0.3668
0.1848 0.3689 0.4853
0.5161 0.3497 0.6274
0.7137 0.4898 0.6011
0.0000 0.3833 0.4319
0.0968 0.4022 0.4443
0.2182 0.4475 0.5223
0.5000 0.4606 0.6096
0.7947 0.5166 0.6327
0.0000 0.5829 0.6321
0.0675 0.5940 0.6438
0.3202 0.6061 0.6101
0.5316 0.6315 0.6270
0.9123 0.6322 0.6896
0.1739 0.7895 0.7793
0.2451 0.7914 0.7734
0.4005 0.7974 0.7566
0.6568 0.8032 0.7247
0.9494 0.8141 0.7654
0.6107 0.9224 0.8673
0.6395 0.9247 0.8683
0.7351 0.9328 0.8726
0.8887 0.9534 0.8835
0.9958 0.9942 0.9823
0.0000 0.3774 0.4343
0.0244 0.4008 0.4687
0.1405 0.4568 0.5521
0.3285 0.5080 0.7060
0.7907 0.4728 0.8257
0.0000 0.4568 0.5171
0.0000 0.4752 0.5445
0.1399 0.5162 0.6222
0.3498 0.5520 0.7583
0.8606 0.4976 0.8662
0.0000 0.6208 0.6993
0.0000 0.6319 0.7183
0.0000 0.6642 0.7800
0.3774 0.6744 0.8808
0.9188 0.6360 0.9044
0.0000 0.8079 0.8869
0.0000 0.8130 0.8995
0.0000 0.8280 0.9525
0.3619 0.8388 1.0000
0.9564 0.8181 0.9352
0.6192 0.9365 0.9676
0.6443 0.9399 0.9694
0.7295 0.9512 0.9755
0.8847 0.9736 0.9870
0.9999 0.9999 0.9999
