EA 50 Cinematic Luts Pack/EA_Cinematic Lut (45).cube
TITLE "This cold, low-key grading will add a bit of nobleness and drama to regular, plain shots."
LUT_3D_SIZE 9
0.0000 0.0000 0.0000
0.0942 0.0038 0.0201
0.2519 0.0000 0.0594
0.4348 0.0000 0.0981
0.5691 0.0000 0.1280
0.6883 0.0000 0.1569
0.8006 0.0000 0.1859
0.9001 0.0000 0.2153
0.9935 0.0000 0.2454
0.0233 0.1288 0.0954
0.1002 0.1347 0.0783
0.2836 0.1236 0.0281
0.4838 0.0893 0.0000
0.6211 0.0000 0.0162
0.7265 0.0000 0.1154
0.8279 0.0000 0.1579
0.9205 0.0000 0.1937
1.0000 0.1058 0.2409
0.0680 0.2384 0.1612
0.0893 0.2487 0.1321
0.2543 0.2474 0.1299
0.4740 0.2342 0.0415
0.6197 0.2135 0.0000
0.7487 0.1871 0.0000
0.8660 0.1384 0.0000
0.9695 0.0000 0.0292
1.0000 0.2357 0.2491
0.1111 0.3600 0.2233
0.1301 0.3664 0.2063
0.2227 0.3754 0.1756
0.4384 0.3715 0.1707
0.6134 0.3566 0.0012
0.7454 0.3408 0.0000
0.8632 0.3179 0.0000
0.9667 0.2897 0.0000
1.0000 0.3653 0.2677
0.1434 0.4837 0.2841
0.1625 0.4879 0.2727
0.1945 0.5000 0.2277
0.3994 0.5011 0.2189
0.5752 0.4954 0.2033
0.7378 0.4810 0.0000
0.8594 0.4658 0.0000
0.9653 0.4472 0.0000
1.0000 0.4911 0.2985
0.1543 0.6078 0.3409
0.1763 0.6108 0.3328
0.2071 0.6202 0.3006
0.2903 0.6339 0.2316
0.5411 0.6263 0.2557
0.6978 0.6198 0.2269
0.8487 0.6046 0.0000
0.9607 0.5881 0.0000
0.9999 0.6139 0.3364
0.1298 0.7344 0.3961
0.1554 0.7366 0.3892
0.1908 0.7439 0.3632
0.2398 0.7573 0.3018
0.4601 0.7624 0.2574
0.6600 0.7525 0.2820
0.8108 0.7445 0.2377
0.9465 0.7284 0.0000
1.0000 0.7367 0.3917
0.0243 0.8606 0.4501
0.0659 0.8624 0.4436
0.1213 0.8681 0.4214
0.1813 0.8792 0.3708
0.2580 0.8959 0.2604
0.5830 0.8892 0.2729
0.7716 0.8784 0.2966
0.9109 0.8693 0.2313
1.0000 0.8606 0.4494
0.0000 0.9841 0.5150
0.0000 0.9866 0.5070
0.0000 0.9929 0.4838
0.1713 0.9997 0.4487
0.5246 0.9932 0.4609
0.6923 0.9857 0.4973
0.8188 0.9788 0.5500
0.9126 0.9769 0.6025
0.9932 0.9831 0.5823
0.0096 0.0000 0.1173
0.1007 0.0000 0.1351
0.2544 0.0000 0.1393
0.4361 0.0000 0.1527
0.5697 0.0000 0.1704
0.6888 0.0000 0.1910
0.8009 0.0000 0.2144
0.9004 0.0000 0.2399
0.9938 0.0000 0.2659
0.0112 0.1324 0.1493
0.1018 0.1364 0.1354
0.2511 0.1363 0.1528
0.4614 0.1137 0.1566
0.6198 0.0000 0.1528
0.7259 0.0000 0.1753
0.8276 0.0000 0.2005
0.9204 0.0000 0.2277
1.0000 0.1072 0.2616
0.0530 0.2410 0.1899
0.1215 0.2446 0.1761
0.2510 0.2490 0.1674
0.4619 0.2389 0.1561
0.6488 0.1887 0.0657
0.7837 0.1270 0.0000
0.8892 0.0000 0.0570
0.9691 0.0000 0.1526
1.0000 0.2364 0.2678
0.0989 0.3616 0.2444
0.1550 0.3643 0.2322
0.2243 0.3758 0.2008
0.4362 0.3726 0.1988
0.6062 0.3595 0.1546
0.7635 0.3285 0.0000
0.8798 0.2986 0.0000
0.9838 0.2596 0.0000
1.0000 0.3658 0.2838
0.1314 0.4848 0.2997
0.1831 0.4866 0.2900
0.2321 0.4964 0.2619
0.4020 0.5011 0.2411
0.5738 0.4962 0.2281
0.7372 0.4815 0.1274
0.8680 0.4608 0.0000
0.9759 0.4376 0.0000
1.0000 0.4915 0.3111
0.1411 0.6087 0.3535
0.1928 0.6100 0.3452
0.2429 0.6174 0.3240
0.2936 0.6339 0.2530
0.5402 0.6268 0.2731
0.6966 0.6204 0.2496
0.8521 0.6040 0.0121
0.9661 0.5853 0.0000
0.9999 0.6142 0.3473
0.1122 0.7351 0.4069
0.1719 0.7361 0.3995
0.2265 0.7418 0.3813
0.2789 0.7547 0.3283
0.4603 0.7625 0.2753
0.6593 0.7529 0.2982
0.8098 0.7449 0.2599
0.9487 0.7281 0.0000
1.0000 0.7370 0.4003
0.0000 0.8611 0.4601
0.0903 0.8619 0.4532
0.1616 0.8666 0.4362
0.2271 0.8771 0.3918
0.2956 0.8938 0.2940
0.5840 0.8892 0.2912
0.7712 0.8786 0.3125
0.9102 0.8696 0.2555
1.0000 0.8609 0.4573
0.0000 0.9840 0.5249
0.0000 0.9866 0.5164
0.0000 0.9929 0.4948
0.1650 1.0000 0.4591
0.5190 0.9941 0.4666
0.6901 0.9865 0.5011
0.8182 0.9794 0.5541
0.9127 0.9772 0.6088
0.9933 0.9833 0.5889
0.0376 0.0000 0.1999
0.1099 0.0000 0.2207
0.2557 0.0000 0.2304
0.4387 0.0000 0.2316
0.5715 0.0000 0.2408
0.6903 0.0000 0.2534
0.8020 0.0000 0.2702
0.9011 0.0000 0.2891
0.9943 0.0000 0.3095
0.0000 0.1033 0.3178
0.1259 0.1234 0.2527
0.2830 0.1202 0.2453
0.4991 0.0415 0.2490
0.6183 0.0000 0.2476
0.7258 0.0000 0.2541
0.8278 0.0000 0.2673
0.9207 0.0000 0.2844
1.0000 0.1097 0.3074
0.0147 0.2450 0.2586
0.1166 0.2457 0.2496
0.2568 0.2501 0.2302
0.4413 0.2464 0.2483
0.5997 0.2263 0.2561
0.7711 0.1467 0.2434
0.8868 0.0000 0.2397
0.9678 0.0000 0.2593
1.0000 0.2380 0.3098
0.0591 0.3659 0.2885
0.1359 0.3670 0.2837
0.2591 0.3722 0.2602
0.4331 0.3743 0.2584
0.5936 0.3642 0.2549
0.7752 0.3179 0.2024
0.9377 0.2016 0.0000
1.0000 0.2236 0.1920
1.0000 0.3672 0.3201
0.0967 0.4876 0.3357
0.1601 0.4889 0.3288
0.2784 0.4924 0.3090
0.3991 0.5028 0.2810
0.5701 0.4979 0.2802
0.7260 0.4856 0.2492
0.8902 0.4456 0.1045
1.0000 0.4127 0.1157
1.0000 0.4927 0.3405
0.1080 0.6107 0.3850
0.1692 0.6118 0.3782
0.2835 0.6149 0.3584
0.3523 0.6291 0.3129
0.5423 0.6269 0.3132
0.6941 0.6217 0.2963
0.8465 0.6062 0.2202
0.9816 0.5766 0.0000
1.0000 0.6151 0.3739
0.0742 0.7365 0.4358
0.1442 0.7374 0.4292
0.2678 0.7398 0.4106
0.3420 0.7506 0.3733
0.4620 0.7628 0.3152
0.6594 0.7532 0.3357
0.8078 0.7458 0.3063
0.9494 0.7286 0.1693
1.0000 0.7378 0.4214
0.0000 0.8610 0.4892
0.0441 0.8630 0.4803
0.2105 0.8650 0.4627
0.2923 0.8739 0.4293
0.3885 0.8880 0.3622
0.5864 0.8890 0.3313
0.7699 0.8792 0.3487
0.9085 0.8704 0.3048
1.0000 0.8615 0.4765
0.0000 0.9839 0.5529
0.0000 0.9863 0.5438
0.0000 0.9928 0.5200
0.1642 1.0000 0.4875
0.5015 0.9966 0.4814
0.6836 0.9886 0.5103
0.8165 0.9808 0.5650
0.9129 0.9780 0.6252
0.9936 0.9840 0.6063
0.0811 0.0000 0.2837
0.1379 0.0000 0.2996
0.2617 0.0000 0.3193
0.4389 0.0000 0.3249
0.5734 0.0000 0.3246
0.6928 0.0000 0.3288
0.8037 0.0000 0.3414
0.9025 0.0000 0.3541
0.9954 0.0000 0.3700
0.0715 0.0000 0.4348
0.1743 0.0000 0.4211
0.3403 0.0000 0.3932
0.4984 0.0000 0.3629
0.6157 0.0000 0.3436
0.7259 0.0000 0.3393
0.8283 0.0000 0.3460
0.9213 0.0000 0.3559
1.0000 0.1148 0.3700
0.0000 0.2270 0.4138
0.0218 0.2222 0.4564
0.2836 0.2386 0.3477
0.4727 0.2300 0.3464
0.6398 0.1867 0.3530
0.7998 0.0000 0.3539
0.8843 0.0000 0.3501
0.9666 0.0000 0.3537
1.0000 0.2399 0.3727
0.0000 0.3690 0.3669
0.0992 0.3699 0.3625
0.2651 0.3713 0.3443
0.4412 0.3749 0.3250
0.5814 0.3693 0.3446
0.7285 0.3491 0.3547
0.8852 0.2838 0.3484
1.0000 0.2150 0.3406
1.0000 0.3692 0.3764
0.0102 0.4927 0.3902
0.1060 0.4933 0.3871
0.2580 0.4945 0.3778
0.4274 0.5002 0.3453
0.5657 0.5006 0.3439
0.7195 0.4873 0.3500
0.8883 0.4439 0.3088
0.9952 0.4146 0.3113
1.0000 0.4943 0.3900
0.0159 0.6147 0.4345
0.1147 0.6151 0.4309
0.2649 0.6162 0.4201
0.4269 0.6217 0.3860
0.5327 0.6311 0.3552
0.6905 0.6233 0.3636
0.8326 0.6114 0.3463
0.9773 0.5784 0.2826
1.0000 0.6165 0.4167
0.0000 0.7386 0.4833
0.0746 0.7400 0.4771
0.2326 0.7420 0.4621
0.4179 0.7449 0.4346
0.4841 0.7604 0.3781
0.6582 0.7543 0.3883
0.8034 0.7476 0.3739
0.9419 0.7315 0.3139
1.0000 0.7393 0.4566
0.0000 0.8607 0.5371
0.0000 0.8636 0.5283
0.1660 0.8665 0.5110
0.3715 0.8699 0.4805
0.4430 0.8841 0.4237
0.5840 0.8900 0.3848
0.7694 0.8798 0.4034
0.9058 0.8717 0.3713
0.9998 0.8626 0.5091
0.0000 0.9839 0.6090
0.0000 0.9862 0.5996
0.0000 0.9924 0.5740
0.1613 0.9998 0.5364
0.4722 1.0000 0.5148
0.6702 0.9924 0.5282
0.8125 0.9837 0.5849
0.9132 0.9795 0.6543
0.9941 0.9852 0.6384
0.1327 0.0000 0.3662
0.1790 0.0000 0.3782
0.2838 0.0000 0.3997
0.4420 0.0000 0.4157
0.5733 0.0000 0.4194
0.6940 0.0000 0.4196
0.8058 0.0000 0.4230
0.9043 0.0000 0.4322
0.9968 0.0000 0.4455
0.1487 0.0000 0.4793
0.2106 0.0000 0.4783
0.3416 0.0000 0.4733
0.4885 0.0000 0.4649
0.6096 0.0000 0.4490
0.7244 0.0000 0.4365
0.8291 0.0000 0.4327
0.9222 0.0000 0.4388
1.0000 0.1217 0.4462
0.0000 0.1662 0.6518
0.0026 0.0000 0.8614
0.3375 0.1836 0.5447
0.5292 0.1520 0.5326
0.6476 0.1600 0.4812
0.7921 0.0000 0.4743
0.8818 0.0000 0.4542
0.9653 0.0000 0.4520
1.0000 0.2433 0.4476
0.0000 0.3529 0.5259
0.0000 0.3538 0.5523
0.2101 0.3537 0.5489
0.4619 0.3650 0.4451
0.6108 0.3519 0.4516
0.7710 0.3101 0.4611
0.9302 0.1878 0.4649
1.0000 0.2059 0.4586
1.0000 0.3711 0.4518
0.0000 0.4920 0.4797
0.0000 0.4960 0.4838
0.2325 0.4956 0.4705
0.4394 0.4977 0.4413
0.5773 0.4991 0.4207
0.7064 0.4924 0.4450
0.8468 0.4708 0.4544
0.9578 0.4490 0.4653
1.0000 0.4964 0.4567
0.0000 0.6162 0.4997
0.0000 0.6198 0.4990
0.1986 0.6211 0.4921
0.4154 0.6221 0.4765
0.5542 0.6279 0.4326
0.6817 0.6283 0.4282
0.8344 0.6093 0.4485
0.9460 0.5952 0.4545
0.9999 0.6189 0.4724
0.0000 0.7389 0.5481
0.0000 0.7419 0.5446
0.1745 0.7441 0.5356
0.4055 0.7446 0.5195
0.5433 0.7510 0.4695
0.6431 0.7607 0.4313
0.8015 0.7486 0.4540
0.9233 0.7375 0.4589
0.9998 0.7414 0.5052
0.0000 0.8610 0.6128
0.0000 0.8636 0.6065
0.0862 0.8685 0.5893
0.3479 0.8700 0.5616
0.5229 0.8741 0.5144
0.5829 0.8918 0.4432
0.7783 0.8766 0.4945
0.9019 0.8733 0.4570
0.9996 0.8642 0.5569
0.0000 0.9840 0.6967
0.0000 0.9863 0.6895
0.0000 0.9922 0.6688
0.1387 0.9998 0.6300
0.4710 0.9999 0.5919
0.6444 0.9986 0.5645
0.8056 0.9882 0.6185
0.9131 0.9819 0.6965
0.9948 0.9869 0.6877
0.1900 0.0000 0.4517
0.2285 0.0000 0.4618
0.3209 0.0000 0.4821
0.4547 0.0000 0.5046
0.5749 0.0000 0.5189
0.6939 0.0000 0.5231
0.8064 0.0000 0.5237
0.9057 0.0000 0.5265
0.9989 0.0000 0.5312
0.2102 0.0000 0.5454
0.2555 0.0000 0.5489
0.3649 0.0000 0.5541
0.4899 0.0000 0.5608
0.6047 0.0000 0.5588
0.7205 0.0000 0.5490
0.8276 0.0000 0.5400
0.9225 0.0000 0.5371
0.9998 0.1323 0.5322
0.1291 0.0000 0.8859
0.2212 0.0000 0.8703
0.4005 0.0000 0.8246
0.5489 0.0000 0.7596
0.6696 0.0000 0.6914
0.7804 0.0000 0.6264
0.8764 0.0000 0.5826
0.9634 0.0000 0.5625
0.9998 0.2479 0.5351
0.0000 0.3155 0.8130
0.0000 0.3055 0.8821
0.1542 0.2667 1.0000
0.4994 0.3190 0.7108
0.6596 0.2890 0.7026
0.7806 0.2837 0.6273
0.9508 0.0000 0.6634
0.9998 0.1956 0.5867
0.9999 0.3735 0.5402
0.0000 0.4782 0.6921
0.0000 0.4800 0.7154
0.0000 0.4829 0.7829
0.4136 0.4830 0.6879
0.5922 0.4899 0.5528
0.7373 0.4740 0.5717
0.8851 0.4341 0.5878
0.9768 0.4261 0.5733
0.9997 0.4979 0.5440
0.0000 0.6145 0.6221
0.0000 0.6176 0.6271
0.1013 0.6227 0.6305
0.4030 0.6212 0.5957
0.5671 0.6232 0.5472
0.6990 0.6232 0.5252
0.8210 0.6144 0.5552
0.9355 0.6009 0.5628
0.9994 0.6211 0.5498
0.0000 0.7402 0.6462
0.0000 0.7430 0.6461
0.0188 0.7496 0.6442
0.3286 0.7499 0.6258
0.5384 0.7493 0.5932
0.6672 0.7550 0.5305
0.7907 0.7546 0.5227
0.9166 0.7392 0.5722
0.9996 0.7438 0.5753
0.0000 0.8618 0.7203
0.0000 0.8643 0.7172
0.0000 0.8706 0.7077
0.2733 0.8732 0.6873
0.5208 0.8724 0.6541
0.6144 0.8858 0.5518
0.7669 0.8824 0.5470
0.9002 0.8720 0.5793
0.9997 0.8667 0.6341
0.0000 0.9846 0.7984
0.0000 0.9868 0.7945
0.0000 0.9923 0.7831
0.1175 0.9999 0.7600
0.4606 1.0000 0.7300
0.6401 0.9996 0.6794
0.7895 0.9958 0.6650
0.9115 0.9860 0.7476
0.9958 0.9893 0.7524
0.2511 0.0000 0.5445
0.2846 0.0000 0.5535
0.3682 0.0000 0.5770
0.4756 0.0000 0.6111
0.5825 0.0000 0.6432
0.6956 0.0000 0.6637
0.8066 0.0000 0.6697
0.9062 0.0000 0.6706
0.9998 0.0035 0.6730
0.2715 0.0000 0.6496
0.3107 0.0000 0.6566
0.4009 0.0000 0.6704
0.5030 0.0000 0.6905
0.6073 0.0000 0.7068
0.7184 0.0000 0.7104
0.8256 0.0000 0.7022
0.9219 0.0000 0.6929
0.9999 0.1366 0.6737
0.2607 0.0000 0.9355
0.3166 0.0000 0.9311
0.4342 0.0000 0.9159
0.5503 0.0000 0.8886
0.6602 0.0000 0.8581
0.7695 0.0000 0.8200
0.8692 0.0000 0.7783
0.9597 0.0000 0.7456
0.9999 0.2509 0.6746
0.1693 0.2701 1.0000
0.2347 0.2685 1.0000
0.3776 0.2631 1.0000
0.5366 0.2437 0.9998
0.6950 0.1863 0.9999
0.8399 0.0000 0.9865
0.9355 0.0000 0.9009
1.0000 0.1743 0.7953
1.0000 0.3763 0.6756
0.0000 0.4505 0.9804
0.0268 0.4490 1.0000
0.2219 0.4485 1.0000
0.4397 0.4464 0.9951
0.6236 0.4519 0.8906
0.7825 0.4199 0.8984
0.8962 0.4088 0.8287
0.9879 0.4043 0.7798
0.9998 0.5000 0.6769
0.0000 0.6017 0.8886
0.0000 0.6035 0.9031
0.0000 0.6076 0.9416
0.1221 0.6111 0.9891
0.5568 0.6095 0.8561
0.7109 0.6158 0.7108
0.8503 0.5948 0.7552
0.9561 0.5840 0.7387
0.9995 0.6227 0.6845
0.0000 0.7379 0.8212
0.0000 0.7403 0.8254
0.0000 0.7465 0.8359
0.2544 0.7499 0.8274
0.5383 0.7475 0.7719
0.6825 0.7494 0.7072
0.8105 0.7474 0.6716
0.9225 0.7379 0.7057
0.9996 0.7466 0.6929
0.0000 0.8631 0.8391
0.0000 0.8654 0.8395
0.0000 0.8710 0.8400
0.1246 0.8785 0.8354
0.4656 0.8783 0.8054
0.5977 0.8848 0.7659
0.7713 0.8828 0.6762
0.8985 0.8754 0.6924
0.9997 0.8700 0.7369
0.0000 0.9857 0.9093
0.0000 0.9877 0.9080
0.0000 0.9928 0.9039
0.1148 1.0000 0.8927
0.4560 1.0000 0.8715
0.6341 0.9997 0.8382
0.7793 0.9997 0.7845
0.9057 0.9926 0.8031
0.9971 0.9923 0.8296
0.3195 0.0000 0.6783
0.3505 0.0000 0.6898
0.4179 0.0000 0.7168
0.5027 0.0000 0.7544
0.5968 0.0000 0.7935
0.7015 0.0000 0.8251
0.8079 0.0000 0.8423
0.9064 0.0000 0.8472
0.9999 0.0079 0.8474
0.3404 0.0000 0.7809
0.3731 0.0000 0.7880
0.4404 0.0000 0.8037
0.5242 0.0000 0.8285
0.6171 0.0000 0.8553
0.7209 0.0000 0.8728
0.8245 0.0000 0.8783
0.9206 0.0000 0.8736
1.0000 0.1387 0.8474
0.3547 0.0000 0.9994
0.3940 0.0000 0.9995
0.4705 0.0000 0.9972
0.5625 0.0000 0.9912
0.6613 0.0000 0.9851
0.7644 0.0000 0.9750
0.8627 0.0000 0.9586
0.9548 0.0000 0.9349
1.0000 0.2523 0.8475
0.3533 0.2841 1.0000
0.3890 0.2851 1.0000
0.4602 0.2867 1.0000
0.5539 0.2849 0.9999
0.6601 0.2777 0.9999
0.7730 0.2621 1.0000
0.8850 0.2254 1.0000
1.0000 0.1295 0.9987
1.0000 0.3774 0.8476
0.3690 0.4403 1.0000
0.3978 0.4416 1.0000
0.4572 0.4445 1.0000
0.5382 0.4477 1.0000
0.6419 0.4505 0.9859
0.7640 0.4365 0.9966
0.8788 0.4178 0.9951
0.9927 0.3819 0.9897
0.9999 0.5006 0.8476
0.3709 0.5803 0.9999
0.3984 0.5814 1.0000
0.4542 0.5840 1.0000
0.5283 0.5879 0.9995
0.6219 0.5954 0.9750
0.7337 0.5990 0.9469
0.8516 0.5878 0.9574
0.9641 0.5710 0.9506
0.9997 0.6238 0.8474
0.3100 0.7192 1.0000
0.3428 0.7200 1.0000
0.4135 0.7220 1.0000
0.4985 0.7253 0.9998
0.6077 0.7290 0.9761
0.7188 0.7346 0.9329
0.8219 0.7384 0.9013
0.9407 0.7247 0.9138
0.9997 0.7481 0.8486
0.0000 0.8604 0.9970
0.0000 0.8624 0.9994
0.1196 0.8652 1.0000
0.2606 0.8699 1.0000
0.5844 0.8625 0.9606
0.7118 0.8643 0.9218
0.8039 0.8716 0.8880
0.9075 0.8733 0.8472
0.9998 0.8733 0.8572
0.2563 0.9808 1.0000
0.2646 0.9824 1.0000
0.2820 0.9866 1.0000
0.2942 0.9948 1.0000
0.4614 1.0000 0.9909
0.6351 0.9998 0.9733
0.7762 0.9998 0.9482
0.8954 0.9999 0.8999
0.9985 0.9958 0.9193
0.3916 0.0000 0.8309
0.4151 0.0000 0.8410
0.4644 0.0000 0.8643
0.5334 0.0000 0.8995
0.6163 0.0000 0.9380
0.7125 0.0000 0.9673
0.8122 0.0000 0.9873
0.9074 0.0000 0.9974
1.0000 0.0116 0.9996
0.4085 0.0000 0.9171
0.4310 0.0000 0.9242
0.4810 0.0000 0.9392
0.5496 0.0000 0.9605
0.6330 0.0000 0.9827
0.7279 0.0114 0.9998
0.8190 0.0972 0.9999
0.9090 0.1279 1.0000
1.0000 0.1397 0.9996
0.4277 0.1505 1.0000
0.4486 0.1548 1.0000
0.4958 0.1635 1.0000
0.5632 0.1755 0.9998
0.6417 0.1933 0.9999
0.7292 0.2134 0.9999
0.8196 0.2327 1.0000
0.9091 0.2464 1.0000
1.0000 0.2529 0.9996
0.4507 0.3128 1.0000
0.4681 0.3153 1.0000
0.5076 0.3212 1.0000
0.5682 0.3295 0.9999
0.6465 0.3389 1.0000
0.7318 0.3517 1.0000
0.8208 0.3643 1.0000
0.9094 0.3734 1.0000
1.0000 0.3776 0.9997
0.4928 0.4503 1.0000
0.5058 0.4523 1.0000
0.5358 0.4571 1.0000
0.5841 0.4650 1.0000
0.6530 0.4736 1.0000
0.7370 0.4819 0.9999
0.8231 0.4913 0.9999
0.9098 0.4983 0.9999
1.0000 0.5005 0.9997
0.5455 0.5769 0.9994
0.5556 0.5784 0.9994
0.5799 0.5821 0.9994
0.6200 0.5887 0.9995
0.6736 0.5983 0.9995
0.7438 0.6079 0.9996
0.8263 0.6154 0.9996
0.9102 0.6217 0.9997
0.9998 0.6237 0.9996
0.6042 0.7009 0.9995
0.6124 0.7021 0.9996
0.6328 0.7051 0.9996
0.6663 0.7105 0.9996
0.7124 0.7182 0.9996
0.7676 0.7284 0.9997
0.8325 0.7392 0.9997
0.9116 0.7458 0.9998
0.9998 0.7484 0.9997
0.6767 0.8208 0.9997
0.6829 0.8219 0.9997
0.6984 0.8246 0.9997
0.7244 0.8295 0.9997
0.7608 0.8367 0.9997
0.8068 0.8460 0.9998
0.8584 0.8574 0.9998
0.9167 0.8698 0.9999
0.9999 0.8742 0.9998
0.7864 0.9327 0.9998
0.7907 0.9338 0.9998
0.8012 0.9363 0.9998
0.8192 0.9409 0.9998
0.8442 0.9477 0.9999
0.8756 0.9569 0.9999
0.9125 0.9686 0.9999
0.9540 0.9830 0.9999
0.9999 0.9999 0.9999
