EA 50 Cinematic Luts Pack/EA_Cinematic Lut (13).cube
TITLE "Generated by Resolve"
LUT_3D_SIZE 5
0 0.0272679 0.0341344
0.252674 0 0.00730907
0.669566 0 0.026978
1 0 0.0708019
1 0 0.122972
0 0.255451 0.0370794
0.224537 0.197467 0.00781262
0.612497 0.150164 0
0.956985 0.112612 0
1 0.086717 0.039765
0 0.512749 0
0.244877 0.460609 0.00534066
0.548608 0.44152 0
0.854734 0.416052 0
1 0.387045 0
0 0.766552 0
0.28835 0.718242 0
0.542702 0.713909 0
0.796872 0.707118 0
1 0.693523 0
0 1 0
0.335088 0.976974 0
0.554314 0.98088 0
0.77818 0.984619 0
1 0.984771 0
0 0.0417945 0.21323
0.186679 0 0.174197
0.624765 0 0.288548
0.963302 0 0.342412
1 0 0.399268
0 0.303944 0.0555734
0.227436 0.205386 0.203281
0.597375 0.155703 0.228992
0.941848 0.108003 0.256687
1 0.0851148 0.309209
0 0.532753 0.0102388
0.325689 0.446723 0.180346
0.548943 0.446876 0.209186
0.864179 0.407279 0.165866
1 0.374792 0.204074
0 0.773312 0
0.376852 0.710857 0.110307
0.56025 0.717906 0.197696
0.796078 0.711345 0.1682
1 0.689479 0.142977
0.0379034 1 0
0.433585 0.967926 0.0458381
0.596551 0.979767 0.167193
0.785397 0.990372 0.182284
1 0.988891 0.152911
0 0.0498054 0.484794
0.201602 0 0.413046
0.531914 0 0.454078
0.902617 0 0.602899
1 0 0.690562
0 0.359045 0.316564
0.209842 0.221057 0.42948
0.532982 0.187716 0.443473
0.892805 0.114763 0.55996
1 0.0885634 0.621836
0 0.605997 0.109316
0.252308 0.493874 0.243442
0.549981 0.452949 0.448798
0.847517 0.411292 0.482536
1 0.363195 0.509834
0 0.828702 0.0282902
0.401175 0.729473 0.187991
0.638178 0.701137 0.415778
0.794583 0.71487 0.458228
1 0.674571 0.414221
0.000717174 1 0
0.500237 0.972793 0.132952
0.683207 0.97055 0.339635
0.800809 0.992218 0.441657
0.999878 0.989822 0.416297
0 0.0578012 0.752209
0.201038 0 0.688273
0.51397 0 0.666575
0.796368 0 0.753552
1 0 0.925734
0 0.369238 0.63772
0.18764 0.23209 0.723995
0.558999 0.20267 0.713344
0.809293 0.168261 0.754803
1 0.104692 0.901411
0 0.666102 0.341238
0.0894484 0.551858 0.527245
0.535424 0.471626 0.697963
0.786618 0.446784 0.720439
1 0.367605 0.830686
0 0.903151 0.161181
0.228214 0.803296 0.307576
0.565316 0.748806 0.499367
0.795666 0.720989 0.717815
1 0.678935 0.751171
0 1 0.0632334
0.399451 1 0.217395
0.708019 0.989639 0.43772
0.877729 0.974441 0.678691
0.998413 0.993378 0.726314
0 0.0647135 1
0.188556 0 0.97705
0.524514 0 0.95079
0.764553 0 0.960937
1 0 1
0 0.373068 0.94992
0.161395 0.239109 1
0.558022 0.202396 1
0.804929 0.204547 0.994476
1 0.168704 1
0 0.695918 0.667292
0.040238 0.561593 0.861555
0.516686 0.486137 1
0.82417 0.473289 1
1 0.430884 1
0 0.967269 0.387289
0.0435187 0.863005 0.552697
0.405814 0.810147 0.800092
0.784573 0.743145 0.984054
0.994934 0.718395 1
0 1 0.217853
0.20679 1 0.363912
0.536095 1 0.571954
0.805875 1 0.776837
1 1 1
