EA 50 Cinematic Luts Pack/EA_Cinematic Lut (51).cube
TITLE "This sharp and contrasted colorization turns the edited material into a beautiful, well-balanced shot."
LUT_3D_SIZE 25
0.0000 0.0000 0.0000
0.0294 0.0030 0.0030
0.0639 0.0072 0.0071
0.0989 0.0135 0.0133
0.1340 0.0224 0.0221
0.1694 0.0341 0.0333
0.2050 0.0482 0.0462
0.2413 0.0625 0.0598
0.2780 0.0765 0.0731
0.3152 0.0902 0.0863
0.3528 0.1036 0.0985
0.3913 0.1169 0.1106
0.4312 0.1299 0.1216
0.4717 0.1426 0.1325
0.5133 0.1549 0.1429
0.5641 0.1670 0.1526
0.6202 0.1791 0.1621
0.6739 0.1909 0.1710
0.7199 0.2015 0.1788
0.7639 0.2089 0.1836
0.8074 0.2131 0.1880
0.8500 0.2133 0.1894
0.8892 0.2094 0.1963
0.9283 0.1996 0.1960
0.9683 0.1824 0.1869
0.0000 0.0385 0.0339
0.0367 0.0403 0.0232
0.0823 0.0392 0.0138
0.1191 0.0407 0.0190
0.1525 0.0467 0.0272
0.1861 0.0549 0.0374
0.2202 0.0648 0.0494
0.2550 0.0758 0.0620
0.2903 0.0877 0.0748
0.3263 0.0996 0.0871
0.3631 0.1117 0.0991
0.4011 0.1237 0.1105
0.4405 0.1357 0.1211
0.4802 0.1475 0.1319
0.5228 0.1592 0.1421
0.5747 0.1707 0.1515
0.6304 0.1822 0.1607
0.6825 0.1935 0.1695
0.7273 0.2031 0.1764
0.7711 0.2096 0.1808
0.8141 0.2130 0.1848
0.8559 0.2127 0.1864
0.8944 0.2080 0.1928
0.9335 0.1973 0.1902
0.9734 0.1790 0.1791
0.0000 0.0789 0.0720
0.0096 0.0844 0.0729
0.0755 0.0812 0.0531
0.1233 0.0802 0.0314
0.1632 0.0798 0.0372
0.1988 0.0827 0.0454
0.2330 0.0885 0.0558
0.2676 0.0959 0.0671
0.3025 0.1046 0.0788
0.3380 0.1140 0.0899
0.3745 0.1239 0.1011
0.4119 0.1346 0.1120
0.4505 0.1455 0.1225
0.4893 0.1564 0.1330
0.5330 0.1673 0.1430
0.5854 0.1782 0.1522
0.6403 0.1891 0.1611
0.6904 0.1998 0.1699
0.7342 0.2084 0.1761
0.7776 0.2142 0.1802
0.8202 0.2168 0.1836
0.8614 0.2156 0.1855
0.8997 0.2099 0.1905
0.9390 0.1980 0.1850
0.9788 0.1784 0.1712
0.0000 0.1193 0.1103
0.0000 0.1243 0.1131
0.0431 0.1258 0.1082
0.1144 0.1221 0.0853
0.1649 0.1210 0.0550
0.2059 0.1201 0.0586
0.2448 0.1208 0.0660
0.2806 0.1243 0.0750
0.3157 0.1298 0.0853
0.3513 0.1363 0.0953
0.3875 0.1438 0.1058
0.4251 0.1521 0.1153
0.4635 0.1609 0.1251
0.5023 0.1699 0.1346
0.5483 0.1795 0.1441
0.6011 0.1895 0.1532
0.6542 0.1995 0.1619
0.7017 0.2091 0.1702
0.7445 0.2164 0.1752
0.7872 0.2211 0.1790
0.8291 0.2228 0.1815
0.8691 0.2209 0.1841
0.9070 0.2145 0.1865
0.9460 0.2021 0.1793
0.9854 0.1823 0.1629
0.0000 0.1598 0.1487
0.0000 0.1635 0.1509
0.0000 0.1686 0.1526
0.0848 0.1669 0.1425
0.1533 0.1631 0.1179
0.2075 0.1612 0.0767
0.2477 0.1605 0.0832
0.2897 0.1597 0.0876
0.3281 0.1613 0.0943
0.3647 0.1650 0.1028
0.4015 0.1700 0.1117
0.4394 0.1759 0.1204
0.4775 0.1824 0.1296
0.5174 0.1897 0.1385
0.5661 0.1975 0.1469
0.6195 0.2058 0.1553
0.6709 0.2141 0.1633
0.7160 0.2214 0.1695
0.7581 0.2272 0.1737
0.7999 0.2306 0.1770
0.8409 0.2310 0.1776
0.8792 0.2283 0.1814
0.9168 0.2210 0.1801
0.9553 0.2081 0.1701
0.9940 0.1882 0.1505
0.0000 0.2001 0.1869
0.0000 0.2030 0.1890
0.0000 0.2069 0.1907
0.0341 0.2101 0.1880
0.1247 0.2070 0.1751
0.1920 0.2030 0.1489
0.2500 0.2010 0.0985
0.2908 0.2006 0.1048
0.3336 0.1996 0.1077
0.3750 0.1995 0.1139
0.4151 0.2011 0.1197
0.4536 0.2049 0.1272
0.4916 0.2094 0.1353
0.5346 0.2146 0.1434
0.5861 0.2206 0.1512
0.6387 0.2272 0.1588
0.6881 0.2337 0.1656
0.7311 0.2388 0.1697
0.7733 0.2422 0.1720
0.8146 0.2435 0.1739
0.8548 0.2419 0.1725
0.8916 0.2380 0.1762
0.9290 0.2298 0.1701
0.9667 0.2164 0.1559
0.9975 0.2162 0.1602
0.0000 0.2401 0.2249
0.0000 0.2425 0.2267
0.0000 0.2457 0.2280
0.0000 0.2505 0.2302
0.0807 0.2506 0.2223
0.1638 0.2469 0.2067
0.2315 0.2425 0.1786
0.2933 0.2410 0.1203
0.3347 0.2405 0.1251
0.3779 0.2395 0.1287
0.4229 0.2381 0.1326
0.4651 0.2388 0.1371
0.5062 0.2405 0.1429
0.5533 0.2441 0.1495
0.6059 0.2485 0.1566
0.6585 0.2529 0.1625
0.7058 0.2568 0.1671
0.7481 0.2596 0.1692
0.7895 0.2613 0.1706
0.8299 0.2611 0.1702
0.8682 0.2586 0.1701
0.9049 0.2530 0.1679
0.9421 0.2431 0.1569
0.9794 0.2284 0.1374
0.9994 0.2512 0.1795
0.0000 0.2801 0.2628
0.0000 0.2821 0.2643
0.0000 0.2847 0.2658
0.0000 0.2888 0.2676
0.0046 0.2942 0.2680
0.1241 0.2907 0.2552
0.2028 0.2863 0.2367
0.2715 0.2820 0.2080
0.3356 0.2810 0.1472
0.3790 0.2802 0.1460
0.4232 0.2792 0.1510
0.4705 0.2778 0.1499
0.5165 0.2769 0.1545
0.5699 0.2777 0.1582
0.6262 0.2794 0.1623
0.6783 0.2817 0.1656
0.7230 0.2836 0.1674
0.7652 0.2846 0.1677
0.8062 0.2844 0.1677
0.8460 0.2824 0.1642
0.8826 0.2789 0.1650
0.9188 0.2724 0.1570
0.9552 0.2624 0.1415
0.9922 0.2482 0.1132
1.0000 0.2885 0.2011
0.0000 0.3201 0.3007
0.0000 0.3218 0.3020
0.0000 0.3240 0.3036
0.0000 0.3275 0.3049
0.0000 0.3323 0.3074
0.0626 0.3345 0.3012
0.1656 0.3307 0.2878
0.2417 0.3261 0.2661
0.3121 0.3217 0.2376
0.3772 0.3206 0.1782
0.4255 0.3199 0.1652
0.4711 0.3188 0.1683
0.5202 0.3172 0.1663
0.5809 0.3153 0.1689
0.6416 0.3146 0.1693
0.6959 0.3139 0.1686
0.7403 0.3134 0.1671
0.7822 0.3130 0.1654
0.8225 0.3116 0.1628
0.8608 0.3087 0.1589
0.8968 0.3040 0.1546
0.9328 0.2965 0.1422
0.9683 0.2862 0.1227
1.0000 0.2825 0.1151
1.0000 0.3275 0.2254
0.0000 0.3602 0.3388
0.0000 0.3617 0.3399
0.0000 0.3637 0.3415
0.0000 0.3667 0.3428
0.0000 0.3710 0.3447
0.0000 0.3764 0.3465
0.1112 0.3750 0.3348
0.2079 0.3704 0.3186
0.2808 0.3664 0.2947
0.3543 0.3614 0.2661
0.4203 0.3604 0.2076
0.4738 0.3594 0.1817
0.5220 0.3578 0.1825
0.5832 0.3564 0.1828
0.6503 0.3537 0.1765
0.7073 0.3506 0.1740
0.7535 0.3482 0.1685
0.7977 0.3451 0.1629
0.8379 0.3422 0.1566
0.8746 0.3389 0.1522
0.9103 0.3335 0.1416
0.9453 0.3261 0.1255
0.9812 0.3160 0.0928
1.0000 0.3283 0.1503
1.0000 0.3686 0.2543
0.0000 0.4007 0.3771
0.0000 0.4020 0.3781
0.0000 0.4037 0.3795
0.0000 0.4064 0.3810
0.0000 0.4101 0.3823
0.0000 0.4148 0.3852
0.0052 0.4207 0.3841
0.1560 0.4156 0.3678
0.2488 0.4101 0.3490
0.3194 0.4066 0.3216
0.3971 0.4011 0.2936
0.4650 0.4004 0.2346
0.5257 0.3984 0.1937
0.5873 0.3970 0.1915
0.6517 0.3951 0.1915
0.7114 0.3917 0.1785
0.7618 0.3870 0.1722
0.8072 0.3830 0.1648
0.8491 0.3781 0.1528
0.8872 0.3728 0.1431
0.9223 0.3671 0.1294
0.9567 0.3601 0.1063
0.9926 0.3505 0.0557
1.0000 0.3745 0.1864
1.0000 0.4097 0.2824
0.0000 0.4412 0.4155
0.0000 0.4423 0.4164
0.0000 0.4438 0.4176
0.0000 0.4462 0.4193
0.0000 0.4495 0.4205
0.0000 0.4538 0.4225
0.0000 0.4591 0.4246
0.0669 0.4618 0.4161
0.1957 0.4562 0.3992
0.2877 0.4501 0.3791
0.3576 0.4472 0.3470
0.4407 0.4406 0.3196
0.5106 0.4400 0.2591
0.5910 0.4380 0.2018
0.6552 0.4363 0.1974
0.7117 0.4337 0.1934
0.7626 0.4299 0.1803
0.8111 0.4250 0.1679
0.8558 0.4184 0.1567
0.8939 0.4133 0.1436
0.9306 0.4064 0.1225
0.9668 0.3978 0.0869
1.0000 0.3896 0.0290
1.0000 0.4202 0.2229
1.0000 0.4508 0.3115
0.0000 0.4811 0.4538
0.0000 0.4821 0.4546
0.0000 0.4835 0.4556
0.0000 0.4855 0.4573
0.0000 0.4884 0.4586
0.0000 0.4922 0.4600
0.0000 0.4968 0.4628
0.0000 0.5025 0.4633
0.1089 0.5026 0.4495
0.2325 0.4961 0.4304
0.3262 0.4897 0.4083
0.3955 0.4874 0.3711
0.4847 0.4796 0.3441
0.5659 0.4789 0.2813
0.6578 0.4772 0.2070
0.7121 0.4753 0.2033
0.7623 0.4721 0.1921
0.8090 0.4688 0.1871
0.8555 0.4637 0.1612
0.8964 0.4575 0.1514
0.9346 0.4503 0.1312
0.9708 0.4425 0.0969
1.0000 0.4390 0.1073
1.0000 0.4649 0.2585
1.0000 0.4910 0.3418
0.0000 0.5204 0.4912
0.0000 0.5213 0.4919
0.0000 0.5225 0.4928
0.0000 0.5244 0.4943
0.0000 0.5270 0.4958
0.0000 0.5304 0.4970
0.0000 0.5346 0.4990
0.0000 0.5396 0.5013
0.0000 0.5461 0.5002
0.1456 0.5429 0.4812
0.2700 0.5356 0.4598
0.3650 0.5288 0.4359
0.4357 0.5266 0.3955
0.5326 0.5177 0.3672
0.6264 0.5168 0.3018
0.7137 0.5158 0.2111
0.7612 0.5136 0.2040
0.8083 0.5109 0.1936
0.8518 0.5074 0.1883
0.8929 0.5039 0.1682
0.9329 0.4972 0.1490
0.9715 0.4889 0.1295
0.9995 0.4880 0.1601
1.0000 0.5085 0.2905
1.0000 0.5305 0.3714
0.0000 0.5602 0.5285
0.0000 0.5611 0.5291
0.0000 0.5622 0.5300
0.0000 0.5639 0.5313
0.0000 0.5663 0.5330
0.0000 0.5695 0.5341
0.0000 0.5735 0.5355
0.0000 0.5782 0.5384
0.0000 0.5838 0.5396
0.0000 0.5907 0.5369
0.1849 0.5837 0.5111
0.3089 0.5758 0.4879
0.4045 0.5679 0.4620
0.4802 0.5652 0.4226
0.5906 0.5562 0.3892
0.6837 0.5556 0.3231
0.7613 0.5549 0.2162
0.8061 0.5531 0.2093
0.8497 0.5507 0.1991
0.8880 0.5490 0.2028
0.9259 0.5453 0.1942
0.9653 0.5386 0.1643
0.9960 0.5356 0.1976
0.9983 0.5532 0.3270
0.9999 0.5727 0.4043
0.0000 0.6007 0.5665
0.0000 0.6014 0.5671
0.0000 0.6025 0.5679
0.0000 0.6041 0.5692
0.0000 0.6063 0.5709
0.0000 0.6092 0.5722
0.0000 0.6128 0.5735
0.0000 0.6172 0.5756
0.0000 0.6222 0.5784
0.0000 0.6284 0.5780
0.0000 0.6356 0.5742
0.2258 0.6243 0.5406
0.3490 0.6151 0.5151
0.4452 0.6069 0.4872
0.5276 0.6030 0.4483
0.6505 0.5951 0.4116
0.7308 0.5947 0.3458
0.8029 0.5949 0.2389
0.8468 0.5936 0.2216
0.8848 0.5935 0.2223
0.9204 0.5918 0.2270
0.9559 0.5884 0.2314
0.9919 0.5840 0.2165
0.9947 0.5986 0.3547
0.9965 0.6152 0.4392
0.0000 0.6411 0.6048
0.0000 0.6418 0.6054
0.0000 0.6428 0.6061
0.0000 0.6443 0.6073
0.0000 0.6463 0.6089
0.0000 0.6490 0.6104
0.0000 0.6523 0.6116
0.0000 0.6564 0.6131
0.0000 0.6610 0.6160
0.0000 0.6666 0.6176
0.0000 0.6731 0.6159
0.0613 0.6773 0.6042
0.2702 0.6642 0.5695
0.3916 0.6538 0.5417
0.4875 0.6457 0.5119
0.5859 0.6403 0.4732
0.7040 0.6334 0.4345
0.7732 0.6333 0.3704
0.8394 0.6344 0.2742
0.8816 0.6360 0.2493
0.9153 0.6363 0.2597
0.9509 0.6347 0.2584
0.9836 0.6326 0.2740
0.9893 0.6437 0.3884
0.9930 0.6576 0.4671
0.0000 0.6816 0.6431
0.0000 0.6823 0.6436
0.0000 0.6832 0.6443
0.0000 0.6845 0.6454
0.0000 0.6864 0.6468
0.0000 0.6888 0.6487
0.0000 0.6919 0.6498
0.0000 0.6957 0.6511
0.0000 0.7001 0.6533
0.0000 0.7050 0.6564
0.0000 0.7110 0.6566
0.0000 0.7179 0.6535
0.1521 0.7148 0.6285
0.3186 0.7026 0.5974
0.4379 0.6919 0.5682
0.5347 0.6834 0.5351
0.6473 0.6769 0.4974
0.7481 0.6709 0.4578
0.8120 0.6724 0.3990
0.8718 0.6759 0.3180
0.9134 0.6786 0.2819
0.9461 0.6789 0.2926
0.9793 0.6780 0.3004
0.9832 0.6880 0.4286
0.9867 0.6999 0.5068
0.0000 0.7220 0.6813
0.0000 0.7226 0.6817
0.0000 0.7234 0.6823
0.0000 0.7246 0.6833
0.0000 0.7263 0.6847
0.0000 0.7286 0.6864
0.0000 0.7314 0.6877
0.0000 0.7349 0.6889
0.0000 0.7390 0.6903
0.0000 0.7435 0.6933
0.0000 0.7489 0.6952
0.0000 0.7551 0.6942
0.0000 0.7623 0.6903
0.2249 0.7514 0.6533
0.3715 0.7393 0.6228
0.4856 0.7290 0.5939
0.5930 0.7204 0.5564
0.7036 0.7141 0.5221
0.7895 0.7085 0.4821
0.8484 0.7115 0.4294
0.9008 0.7194 0.3685
0.9433 0.7218 0.3211
0.9727 0.7230 0.3466
0.9796 0.7301 0.4627
0.9829 0.7403 0.5422
0.0000 0.7620 0.7191
0.0000 0.7625 0.7195
0.0000 0.7633 0.7201
0.0000 0.7644 0.7210
0.0000 0.7660 0.7222
0.0000 0.7681 0.7239
0.0000 0.7707 0.7254
0.0000 0.7740 0.7265
0.0000 0.7778 0.7279
0.0000 0.7821 0.7300
0.0000 0.7870 0.7332
0.0000 0.7927 0.7338
0.0000 0.7993 0.7315
0.0294 0.8049 0.7224
0.2909 0.7875 0.6779
0.4255 0.7757 0.6480
0.5377 0.7646 0.6176
0.6538 0.7571 0.5771
0.7497 0.7505 0.5470
0.8277 0.7475 0.5112
0.8801 0.7543 0.4715
0.9288 0.7634 0.4202
0.9674 0.7657 0.3939
0.9744 0.7714 0.5081
0.9799 0.7804 0.5832
0.0000 0.8019 0.7567
0.0000 0.8025 0.7572
0.0000 0.8032 0.7577
0.0000 0.8043 0.7585
0.0000 0.8058 0.7597
0.0000 0.8077 0.7612
0.0000 0.8101 0.7630
0.0000 0.8132 0.7640
0.0000 0.8167 0.7652
0.0000 0.8208 0.7666
0.0000 0.8254 0.7695
0.0000 0.8306 0.7716
0.0000 0.8367 0.7713
0.0000 0.8436 0.7683
0.1787 0.8374 0.7370
0.3543 0.8230 0.7021
0.4808 0.8113 0.6722
0.6022 0.7995 0.6399
0.7215 0.7902 0.6033
0.8033 0.7826 0.5891
0.8635 0.7862 0.5412
0.9079 0.8000 0.5243
0.9458 0.8058 0.5289
0.9712 0.8113 0.5583
0.9772 0.8196 0.6328
0.0000 0.8419 0.7931
0.0000 0.8424 0.7935
0.0000 0.8431 0.7940
0.0000 0.8441 0.7947
0.0000 0.8455 0.7957
0.0000 0.8473 0.7971
0.0000 0.8496 0.7988
0.0000 0.8524 0.8000
0.0000 0.8558 0.8011
0.0000 0.8596 0.8024
0.0000 0.8640 0.8045
0.0000 0.8688 0.8074
0.0000 0.8744 0.8083
0.0000 0.8808 0.8069
0.0000 0.8880 0.8034
0.2708 0.8717 0.7577
0.4163 0.8586 0.7267
0.5394 0.8459 0.6951
0.7208 0.8234 0.6642
0.8059 0.8139 0.6471
0.8593 0.8128 0.6473
0.8953 0.8277 0.6455
0.9288 0.8395 0.6424
0.9564 0.8482 0.6602
0.9768 0.8571 0.6861
0.0000 0.8819 0.8287
0.0000 0.8824 0.8290
0.0000 0.8830 0.8294
0.0000 0.8840 0.8301
0.0000 0.8853 0.8311
0.0000 0.8870 0.8324
0.0000 0.8891 0.8340
0.0000 0.8918 0.8354
0.0000 0.8949 0.8365
0.0000 0.8986 0.8377
0.0000 0.9027 0.8391
0.0000 0.9073 0.8419
0.0000 0.9125 0.8444
0.0000 0.9184 0.8447
0.0000 0.9252 0.8422
0.1611 0.9215 0.8153
0.3491 0.9071 0.7808
0.5181 0.8880 0.7483
0.7348 0.8582 0.7144
0.8237 0.8452 0.7013
0.8718 0.8444 0.6999
0.9015 0.8565 0.7307
0.9257 0.8705 0.7397
0.9481 0.8832 0.7517
0.9675 0.8933 0.7735
0.0000 0.9221 0.8648
0.0000 0.9225 0.8651
0.0000 0.9231 0.8655
0.0000 0.9240 0.8662
0.0000 0.9253 0.8671
0.0000 0.9269 0.8684
0.0000 0.9289 0.8700
0.0000 0.9314 0.8719
0.0000 0.9344 0.8729
0.0000 0.9379 0.8741
0.0000 0.9419 0.8755
0.0000 0.9463 0.8778
0.0000 0.9512 0.8809
0.0000 0.9567 0.8823
0.0000 0.9630 0.8816
0.0000 0.9700 0.8785
0.2686 0.9586 0.8444
0.5979 0.9180 0.7942
0.7698 0.8937 0.7688
0.8495 0.8817 0.7593
0.8935 0.8818 0.7684
0.9174 0.8928 0.7921
0.9372 0.9034 0.8180
0.9541 0.9152 0.8295
0.9692 0.9268 0.8451
0.0000 0.9625 0.9032
0.0000 0.9629 0.9035
0.0000 0.9635 0.9040
0.0000 0.9644 0.9047
0.0000 0.9656 0.9057
0.0000 0.9671 0.9070
0.0000 0.9691 0.9087
0.0000 0.9714 0.9108
0.0000 0.9742 0.9122
0.0000 0.9775 0.9135
0.0000 0.9813 0.9150
0.0000 0.9855 0.9169
0.0000 0.9901 0.9203
0.0000 0.9952 0.9237
0.0895 0.9995 0.9223
0.2675 0.9936 0.9035
0.4878 0.9746 0.8773
0.7227 0.9469 0.8505
0.8263 0.9314 0.8389
0.8843 0.9242 0.8383
0.9197 0.9242 0.8473
0.9420 0.9312 0.8678
0.9569 0.9413 0.8883
0.9699 0.9514 0.9124
0.9807 0.9625 0.9296
0.0002 0.0032 0.0094
0.0216 0.0076 0.0227
0.0625 0.0102 0.0252
0.0987 0.0163 0.0315
0.1342 0.0250 0.0399
0.1696 0.0364 0.0497
0.2054 0.0500 0.0601
0.2416 0.0638 0.0713
0.2783 0.0776 0.0833
0.3155 0.0912 0.0952
0.3531 0.1045 0.1063
0.3916 0.1176 0.1176
0.4314 0.1305 0.1279
0.4720 0.1432 0.1381
0.5135 0.1554 0.1481
0.5645 0.1676 0.1573
0.6206 0.1796 0.1665
0.6742 0.1914 0.1751
0.7201 0.2018 0.1827
0.7642 0.2092 0.1872
0.8076 0.2133 0.1916
0.8503 0.2136 0.1932
0.8894 0.2096 0.2004
0.9284 0.1998 0.2010
0.9685 0.1826 0.1926
0.0000 0.0416 0.0451
0.0272 0.0437 0.0575
0.0842 0.0399 0.0381
0.1170 0.0441 0.0422
0.1503 0.0504 0.0486
0.1837 0.0588 0.0564
0.2178 0.0686 0.0654
0.2525 0.0796 0.0758
0.2880 0.0913 0.0871
0.3240 0.1030 0.0982
0.3608 0.1150 0.1090
0.3987 0.1269 0.1197
0.4380 0.1389 0.1297
0.4779 0.1507 0.1397
0.5198 0.1623 0.1494
0.5712 0.1739 0.1585
0.6269 0.1854 0.1675
0.6794 0.1968 0.1761
0.7246 0.2065 0.1831
0.7684 0.2133 0.1873
0.8116 0.2170 0.1914
0.8538 0.2169 0.1930
0.8925 0.2128 0.2000
0.9314 0.2028 0.1995
0.9734 0.1796 0.1850
0.0000 0.0810 0.0767
0.0091 0.0855 0.0884
0.0688 0.0831 0.0807
0.1256 0.0798 0.0572
0.1638 0.0805 0.0580
0.1980 0.0844 0.0636
0.2319 0.0904 0.0711
0.2663 0.0981 0.0805
0.3012 0.1068 0.0905
0.3368 0.1160 0.1002
0.3733 0.1259 0.1103
0.4108 0.1365 0.1203
0.4495 0.1472 0.1299
0.4884 0.1580 0.1396
0.5319 0.1687 0.1489
0.5844 0.1795 0.1577
0.6393 0.1904 0.1663
0.6898 0.2010 0.1747
0.7337 0.2096 0.1806
0.7772 0.2153 0.1844
0.8198 0.2179 0.1879
0.8611 0.2168 0.1900
0.8994 0.2112 0.1954
0.9385 0.1997 0.1915
0.9803 0.1748 0.1736
0.0000 0.1209 0.1132
0.0000 0.1252 0.1216
0.0374 0.1272 0.1206
0.1105 0.1230 0.1056
0.1656 0.1209 0.0774
0.2074 0.1199 0.0752
0.2451 0.1213 0.0804
0.2801 0.1254 0.0880
0.3151 0.1310 0.0968
0.3505 0.1376 0.1055
0.3866 0.1453 0.1149
0.4241 0.1536 0.1235
0.4627 0.1623 0.1324
0.5015 0.1712 0.1414
0.5472 0.1808 0.1502
0.6001 0.1907 0.1589
0.6533 0.2007 0.1671
0.7011 0.2102 0.1750
0.7440 0.2175 0.1799
0.7868 0.2222 0.1835
0.8288 0.2239 0.1860
0.8688 0.2220 0.1889
0.9066 0.2158 0.1924
0.9456 0.2036 0.1860
0.9872 0.1776 0.1643
0.0000 0.1610 0.1507
0.0000 0.1643 0.1570
0.0020 0.1690 0.1590
0.0823 0.1679 0.1519
0.1506 0.1635 0.1343
0.2054 0.1616 0.0997
0.2495 0.1601 0.0953
0.2899 0.1602 0.0992
0.3281 0.1618 0.1052
0.3643 0.1658 0.1127
0.4011 0.1708 0.1207
0.4389 0.1767 0.1286
0.4769 0.1835 0.1369
0.5166 0.1908 0.1451
0.5652 0.1986 0.1530
0.6186 0.2068 0.1610
0.6702 0.2151 0.1685
0.7154 0.2225 0.1746
0.7576 0.2282 0.1784
0.7995 0.2316 0.1816
0.8405 0.2321 0.1826
0.8790 0.2294 0.1866
0.9164 0.2222 0.1865
0.9549 0.2095 0.1777
0.9958 0.1837 0.1519
0.0000 0.2010 0.1885
0.0000 0.2036 0.1933
0.0000 0.2074 0.1961
0.0352 0.2104 0.1935
0.1237 0.2076 0.1823
0.1904 0.2032 0.1613
0.2468 0.2017 0.1209
0.2910 0.2005 0.1191
0.3350 0.1992 0.1181
0.3751 0.1999 0.1230
0.4149 0.2017 0.1284
0.4533 0.2055 0.1352
0.4913 0.2100 0.1425
0.5342 0.2153 0.1500
0.5855 0.2214 0.1573
0.6380 0.2281 0.1645
0.6875 0.2345 0.1709
0.7307 0.2396 0.1748
0.7729 0.2430 0.1769
0.8143 0.2444 0.1788
0.8546 0.2428 0.1777
0.8912 0.2391 0.1823
0.9285 0.2310 0.1772
0.9663 0.2178 0.1645
0.9975 0.2167 0.1676
0.0000 0.2409 0.2261
0.0000 0.2430 0.2300
0.0000 0.2461 0.2325
0.0000 0.2509 0.2342
0.0823 0.2509 0.2261
0.1637 0.2472 0.2126
0.2304 0.2426 0.1883
0.2908 0.2415 0.1393
0.3348 0.2404 0.1376
0.3792 0.2391 0.1367
0.4233 0.2382 0.1406
0.4652 0.2391 0.1445
0.5060 0.2409 0.1498
0.5529 0.2446 0.1561
0.6055 0.2490 0.1626
0.6582 0.2534 0.1681
0.7056 0.2573 0.1725
0.7477 0.2602 0.1743
0.7892 0.2620 0.1757
0.8296 0.2619 0.1756
0.8680 0.2594 0.1757
0.9045 0.2539 0.1749
0.9418 0.2442 0.1652
0.9792 0.2297 0.1464
0.9994 0.2516 0.1860
0.0000 0.2807 0.2638
0.0000 0.2825 0.2670
0.0000 0.2851 0.2691
0.0000 0.2892 0.2711
0.0106 0.2941 0.2708
0.1232 0.2911 0.2594
0.2028 0.2866 0.2425
0.2708 0.2821 0.2157
0.3348 0.2809 0.1586
0.3796 0.2799 0.1552
0.4240 0.2789 0.1587
0.4715 0.2774 0.1571
0.5166 0.2770 0.1609
0.5699 0.2779 0.1643
0.6259 0.2797 0.1682
0.6782 0.2821 0.1713
0.7229 0.2839 0.1730
0.7651 0.2849 0.1731
0.8061 0.2848 0.1732
0.8459 0.2829 0.1701
0.8823 0.2797 0.1717
0.9185 0.2733 0.1649
0.9551 0.2633 0.1503
0.9918 0.2494 0.1260
1.0000 0.2887 0.2067
0.0000 0.3206 0.3016
0.0000 0.3221 0.3043
0.0000 0.3244 0.3061
0.0000 0.3278 0.3081
0.0000 0.3326 0.3100
0.0675 0.3345 0.3033
0.1657 0.3309 0.2910
0.2420 0.3261 0.2716
0.3115 0.3217 0.2442
0.3758 0.3206 0.1895
0.4236 0.3200 0.1786
0.4712 0.3186 0.1771
0.5212 0.3168 0.1727
0.5821 0.3150 0.1750
0.6418 0.3147 0.1750
0.6960 0.3140 0.1743
0.7402 0.3137 0.1727
0.7821 0.3133 0.1711
0.8224 0.3119 0.1689
0.8608 0.3090 0.1654
0.8966 0.3045 0.1626
0.9327 0.2971 0.1514
0.9683 0.2870 0.1331
0.9993 0.2841 0.1299
1.0000 0.3277 0.2305
0.0000 0.3607 0.3395
0.0000 0.3620 0.3419
0.0000 0.3640 0.3435
0.0000 0.3670 0.3456
0.0000 0.3712 0.3472
0.0000 0.3767 0.3486
0.1140 0.3750 0.3367
0.2081 0.3706 0.3213
0.2815 0.3662 0.2997
0.3538 0.3615 0.2719
0.4191 0.3604 0.2172
0.4722 0.3595 0.1938
0.5221 0.3576 0.1905
0.5843 0.3561 0.1880
0.6514 0.3534 0.1823
0.7074 0.3506 0.1796
0.7536 0.3482 0.1741
0.7978 0.3452 0.1689
0.8378 0.3425 0.1632
0.8744 0.3392 0.1602
0.9102 0.3339 0.1507
0.9454 0.3265 0.1355
0.9809 0.3166 0.1084
1.0000 0.3296 0.1625
1.0000 0.3688 0.2589
0.0000 0.4011 0.3778
0.0000 0.4023 0.3799
0.0000 0.4040 0.3812
0.0000 0.4066 0.3834
0.0000 0.4104 0.3848
0.0000 0.4152 0.3867
0.0130 0.4205 0.3853
0.1551 0.4159 0.3706
0.2490 0.4102 0.3514
0.3203 0.4063 0.3266
0.3966 0.4011 0.2987
0.4639 0.4004 0.2430
0.5239 0.3985 0.2052
0.5874 0.3968 0.1992
0.6520 0.3949 0.1991
0.7122 0.3914 0.1842
0.7626 0.3866 0.1780
0.8074 0.3829 0.1708
0.8493 0.3782 0.1597
0.8870 0.3730 0.1521
0.9223 0.3674 0.1389
0.9567 0.3604 0.1191
0.9924 0.3510 0.0785
1.0000 0.3747 0.1936
1.0000 0.4099 0.2864
