EA 50 Cinematic Luts Pack/EA_Cinematic Lut (42).cube
TITLE "An energetic, fantasy look that extracts the contrast between shadows and highlights of the footage."
LUT_3D_SIZE 5
0.0000 0.0000 0.0000
0.0835 0.0271 0.0271
0.2877 0.0985 0.0884
0.5402 0.2198 0.1837
0.7330 0.3787 0.3180
0.0585 0.1430 0.0765
0.1581 0.1603 0.0064
0.4356 0.1816 0.0467
0.6225 0.2910 0.1741
0.7765 0.4344 0.3263
0.2023 0.4724 0.2512
0.2763 0.4846 0.1994
0.4929 0.5106 0.0274
0.7414 0.5145 0.0643
0.9030 0.5650 0.1820
0.4137 0.7215 0.4886
0.4527 0.7281 0.4466
0.5890 0.7399 0.3327
0.7591 0.7561 0.0565
0.9554 0.7571 0.2537
0.7192 0.8899 0.7436
0.7320 0.8936 0.7388
0.7813 0.9024 0.7365
0.8451 0.9250 0.6840
0.9537 0.9435 0.7460
0.0134 0.0104 0.0552
0.1292 0.0076 0.1760
0.4718 0.0020 0.1633
0.7427 0.0000 0.1226
0.8846 0.1744 0.1983
0.0208 0.1586 0.1727
0.1354 0.1625 0.2224
0.4394 0.1818 0.1759
0.6255 0.2933 0.2600
0.7870 0.4299 0.3635
0.1824 0.4767 0.3658
0.2459 0.4911 0.3258
0.4889 0.5104 0.2162
0.7331 0.5173 0.2713
0.9146 0.5587 0.2354
0.4104 0.7214 0.5532
0.4421 0.7284 0.5286
0.5722 0.7430 0.4283
0.7561 0.7563 0.2378
0.9554 0.7582 0.3505
0.7209 0.8902 0.7617
0.7349 0.8938 0.7570
0.7820 0.9031 0.7524
0.8470 0.9250 0.7099
0.9539 0.9444 0.7592
0.0506 0.0452 0.1779
0.1193 0.0549 0.3052
0.4213 0.0344 0.5240
0.5421 0.2419 0.4699
0.9554 0.0057 0.4898
0.0927 0.1647 0.3515
0.1659 0.1731 0.4280
0.4438 0.1770 0.5237
0.6756 0.2533 0.4894
0.9554 0.1716 0.4782
0.0722 0.5065 0.5190
0.1656 0.5114 0.5350
0.4394 0.5151 0.5973
0.7449 0.5160 0.4928
0.8930 0.5778 0.5206
0.2883 0.7359 0.6481
0.3587 0.7386 0.6483
0.5564 0.7443 0.6279
0.7601 0.7531 0.5711
0.9480 0.7632 0.5597
0.7089 0.8952 0.8079
0.7309 0.8971 0.8063
0.7818 0.9060 0.7970
0.8532 0.9250 0.7782
0.9546 0.9471 0.7986
0.1080 0.0989 0.3713
0.1617 0.1121 0.4543
0.3910 0.1098 0.6367
0.6888 0.0758 0.7632
0.7509 0.3987 0.7035
0.1569 0.2017 0.5308
0.2177 0.2160 0.5621
0.4332 0.2220 0.6731
0.6985 0.2099 0.7695
0.7926 0.4444 0.7301
0.2079 0.5070 0.6563
0.2783 0.5125 0.6720
0.4712 0.5171 0.7528
0.7250 0.5244 0.7621
0.8721 0.5904 0.7640
0.1558 0.7529 0.7581
0.2399 0.7549 0.7649
0.4550 0.7604 0.7883
0.7154 0.7606 0.8194
0.9194 0.7772 0.7496
0.5655 0.9223 0.8590
0.6205 0.9216 0.8593
0.7372 0.9206 0.8619
0.8588 0.9281 0.8629
0.9553 0.9521 0.8636
0.1899 0.1765 0.5558
0.2363 0.1912 0.5959
0.4010 0.2147 0.7089
0.6724 0.1709 0.8703
0.8686 0.2198 0.9354
0.2380 0.2653 0.6617
0.2908 0.2766 0.6867
0.4588 0.2880 0.7800
0.7147 0.2199 0.9243
0.8737 0.3409 0.9360
0.3363 0.5244 0.7672
0.3683 0.5283 0.8033
0.5272 0.5246 0.8867
0.7300 0.5353 0.9211
0.8890 0.5842 0.9378
0.3363 0.7523 0.8731
0.3533 0.7572 0.8873
0.5498 0.7604 0.8956
0.7538 0.7636 0.9115
0.9171 0.7793 0.9416
0.6363 0.9249 0.9262
0.6599 0.9268 0.9273
0.7275 0.9327 0.9308
0.8319 0.9436 0.9373
0.9553 0.9553 0.9472
