EA 50 Cinematic Luts Pack/EA_Cinematic Lut (11).cube
TITLE "Generated by Resolve"
LUT_3D_SIZE 33
0.0568856 0.0898146 0.0542611
0.0823529 0.0840314 0.0633707
0.111131 0.0814832 0.0422217
0.138796 0.0801251 0.0223697
0.166476 0.0791485 0.00296025
0.194903 0.0786297 0
0.224323 0.0785077 0
0.254902 0.0787213 0
0.286748 0.0793164 0
0.320058 0.0803693 0
0.354482 0.0814527 0
0.389822 0.0826734 0
0.424979 0.0839551 0
0.459815 0.0852369 0
0.494301 0.0864576 0
0.528405 0.0875563 0
0.561913 0.088304 0
0.595239 0.0890974 0
0.628397 0.0899214 0
0.661402 0.0908064 0
0.694514 0.0919661 0
0.727306 0.0929732 0
0.759976 0.0940414 0
0.792538 0.0951553 0
0.825025 0.0963455 0
0.857511 0.0977188 0
0.889982 0.0992294 0
0.922271 0.100664 0
0.954467 0.102129 0
0.986648 0.103716 0
1 0.105425 0
1 0.107378 0
1 0.109331 0
0.0780499 0.092256 0.0728466
0.0877241 0.091249 0.0870375
0.112749 0.0902724 0.0641794
0.140673 0.0886091 0.043595
0.168673 0.0876326 0.0241245
0.197421 0.0872206 0.0053254
0.227192 0.0873121 0
0.258335 0.088014 0
0.290517 0.0888533 0
0.32398 0.0899977 0
0.35877 0.0914015 0
0.394476 0.0929427 0
0.429999 0.0945602 0
0.46537 0.0963455 0
0.500099 0.0977951 0
0.534325 0.0990005 0
0.567971 0.099855 0
0.601358 0.100694 0
0.634653 0.10164 0
0.667903 0.102754 0
0.700877 0.103777 0
0.733761 0.104875 0
0.766583 0.106065 0
0.799329 0.107347 0
0.832044 0.108751 0
0.864744 0.110292 0
0.897292 0.111803 0
0.929839 0.113451 0
0.962371 0.11519 0
0.994827 0.116991 0
1 0.11899 0
1 0.121141 0
1 0.123384 0
0.0941176 0.0981155 0.0902724
0.099794 0.0981308 0.104707
0.113436 0.0995193 0.0890059
0.140352 0.0985885 0.0654459
0.168826 0.097734 0.0449989
0.198001 0.0974594 0.0260166
0.228397 0.0979019 0.00799573
0.2598 0.0986648 0
0.292454 0.0998245 0
0.326406 0.10132 0
0.361639 0.103059 0
0.397803 0.104967 0
0.433967 0.107149 0
0.469581 0.109102 0
0.504738 0.110933 0
0.539391 0.112474 0
0.573343 0.113619 0
0.606851 0.114534 0
0.640406 0.115709 0
0.673686 0.116808 0
0.706859 0.117983 0
0.739895 0.119219 0
0.772854 0.120531 0
0.806012 0.122194 0
0.838941 0.123781 0
0.871794 0.12546 0
0.90457 0.127184 0
0.937331 0.12903 0
0.97023 0.131106 0
1 0.133486 0
1 0.135775 0
1 0.138125 0
1 0.140658 0
0.107622 0.105669 0.106126
0.111696 0.106081 0.120134
0.118547 0.108721 0.111818
0.140368 0.109361 0.0902876
0.168017 0.109255 0.0675364
0.197757 0.109483 0.0475471
0.228443 0.109987 0.0289921
0.260304 0.111009 0.011368
0.293446 0.112474 0
0.327901 0.114321 0
0.363836 0.116625 0
0.400595 0.118975 0
0.437079 0.121386 0
0.473198 0.123751 0
0.508827 0.125963 0
0.543954 0.127932 0
0.578637 0.129717 0
0.612406 0.130816 0
0.645945 0.131914 0
0.679393 0.13315 0
0.71281 0.134508 0
0.746151 0.136019 0
0.779629 0.137804 0
0.812787 0.139437 0
0.84596 0.141253 0
0.879179 0.143236 0
0.912398 0.145388 0
0.945602 0.147631 0
0.978943 0.150149 0
1 0.152697 0
1 0.155505 0
1 0.15848 0
1 0.161517 0
0.119936 0.114702 0.121019
0.123323 0.115404 0.134737
0.128374 0.118212 0.13106
0.14255 0.121035 0.114305
0.168231 0.121981 0.0928206
0.197055 0.122789 0.0710155
0.227985 0.123751 0.0512398
0.260349 0.125154 0.0331273
0.294026 0.126986 0.0160525
0.329168 0.129335 0
0.365515 0.131914 0
0.402762 0.134661 0
0.439841 0.137545 0
0.47657 0.140398 0
0.512779 0.143099 0
0.548608 0.145678 0
0.583612 0.147707 0
0.617838 0.149203 0
0.651728 0.150576 0
0.68545 0.152026 0
0.719112 0.153567 0
0.752987 0.15555 0
0.786664 0.157488 0
0.820279 0.159548 0
0.853819 0.161669 0
0.887358 0.163943 0
0.921263 0.166735 0
0.955047 0.169528 0
0.988815 0.172442 0
1 0.175418 0
1 0.178576 0
1 0.181979 0
1 0.18587 0
0.131807 0.125322 0.135454
0.13489 0.126223 0.148974
0.139086 0.129259 0.148333
0.149081 0.133013 0.136309
0.170016 0.135561 0.117403
0.197498 0.137362 0.0965896
0.227832 0.139147 0.0757916
0.260349 0.1411 0.0565957
0.294697 0.143618 0.0391852
0.330266 0.146304 0.0226596
0.367178 0.149294 0.00680552
0.40499 0.152483 0
0.442634 0.155795 0
0.480079 0.159304 0
0.517052 0.162646 0
0.553353 0.165606 0
0.588891 0.168109 0
0.623636 0.170031 0
0.657893 0.17171 0
0.692287 0.173754 0
0.726452 0.175738 0
0.760449 0.177768 0
0.794491 0.180026 0
0.828626 0.182528 0
0.862821 0.185275 0
0.897231 0.188373 0
0.931319 0.191302 0
0.965484 0.194446 0
0.999771 0.197833 0
1 0.201404 0
1 0.205051 0
1 0.209064 0
1 0.212955 0
0.143542 0.137606 0.149676
0.146731 0.138933 0.163317
0.150423 0.142061 0.164645
0.158816 0.145983 0.1561
0.17322 0.150454 0.140642
0.199542 0.15317 0.121935
0.229068 0.156085 0.102205
0.261311 0.159075 0.0826123
0.295583 0.162051 0.0641337
0.331548 0.165301 0.0470588
0.369055 0.168856 0.0310674
0.407553 0.172625 0.0157473
0.44596 0.176623 0.0009308
0.48397 0.18056 0
0.521477 0.184329 0
0.558495 0.187915 0
0.594812 0.191104 0
0.630243 0.193637 0
0.66508 0.195834 0
0.699794 0.198108 0
0.734508 0.200595 0
0.769192 0.203265 0
0.803784 0.205997 0
0.838346 0.208865 0
0.873259 0.212268 0
0.907988 0.215641 0
0.942702 0.21915 0
0.977356 0.222721 0
1 0.226398 0
1 0.230518 0
1 0.234562 0
1 0.238651 0
1 0.242802 0
0.155489 0.151812 0.164034
0.158541 0.153216 0.177539
0.162142 0.156588 0.180438
0.16965 0.160845 0.174746
0.182147 0.165835 0.162753
0.202945 0.170626 0.146395
0.231952 0.174548 0.128634
0.263508 0.178485 0.109972
0.297566 0.182483 0.0914015
0.3337 0.186526 0.0737469
0.371588 0.190707 0.0572824
0.410895 0.195346 0.0420386
0.449928 0.199924 0.0272374
0.488624 0.204486 0.0127871
0.526802 0.208835 0
0.564462 0.21297 0
0.601648 0.216938 0
0.638117 0.220432 0
0.673548 0.223133 0
0.708721 0.225803 0
0.743847 0.228641 0
0.779049 0.231754 0
0.814466 0.235264 0
0.849744 0.238788 0
0.88481 0.242298 0
0.91986 0.24593 0
0.954925 0.249744 0
0.990005 0.253697 0
1 0.257969 0
1 0.262104 0
1 0.266331 0
1 0.27071 0
1 0.275196 0
0.167636 0.167865 0.178515
0.170794 0.169528 0.192096
0.174411 0.173129 0.196216
0.181415 0.177737 0.192828
0.193225 0.183368 0.183932
0.209506 0.189639 0.170504
0.236103 0.19472 0.154421
0.267338 0.199649 0.137514
0.301106 0.204761 0.120073
0.337301 0.209979 0.102739
0.375662 0.215335 0.086244
0.415167 0.220508 0.0704662
0.454765 0.225772 0.0555276
0.49424 0.231128 0.0412451
0.533364 0.236408 0.0272831
0.571984 0.241443 0.0133364
0.609918 0.246067 0
0.646891 0.249989 0
0.683009 0.2533 0
0.718868 0.256596 0
0.754604 0.259953 0
0.790372 0.263569 0
0.826093 0.267308 0
0.861662 0.271092 0
0.897169 0.274983 0
0.932586 0.27892 0
0.967926 0.282963 0
1 0.287465 0
1 0.291814 0
1 0.296239 0
1 0.300725 0
1 0.305287 0
1 0.310231 0
0.18024 0.185992 0.193378
0.183703 0.188067 0.207233
0.187518 0.192004 0.212436
0.194461 0.197147 0.211139
0.205371 0.202945 0.204425
0.220813 0.209735 0.193851
0.241978 0.21706 0.180133
0.272877 0.223026 0.165057
0.306569 0.229221 0.149325
0.342855 0.235767 0.133379
0.381216 0.242176 0.117281
0.42121 0.248539 0.101671
0.461357 0.254765 0.086656
0.501366 0.260853 0.072282
0.541405 0.267109 0.0586252
0.580728 0.272862 0.044892
0.619348 0.278126 0.0309911
0.656977 0.282673 0.0166018
0.693614 0.286412 0.00158694
0.729976 0.290135 0
0.7664 0.294133 0
0.802472 0.297993 0
0.838407 0.301885 0
0.874281 0.305898 0
0.910124 0.310063 0
0.946105 0.314519 0
0.98201 0.319066 0
1 0.323491 0
1 0.328023 0
1 0.332692 0
1 0.337484 0
1 0.342535 0
1 0.347539 0
0.193576 0.206455 0.208927
0.197543 0.20911 0.223239
0.201816 0.213596 0.229572
0.208591 0.219028 0.229801
0.21912 0.225254 0.225193
0.233936 0.232441 0.216938
0.253101 0.240757 0.205921
0.28043 0.249149 0.193133
0.314321 0.256565 0.179355
0.350515 0.264057 0.164874
0.388876 0.27155 0.149935
0.429007 0.279042 0.134936
0.469596 0.286412 0.120241
0.51043 0.293782 0.106188
0.550652 0.300481 0.0921645
0.590417 0.306798 0.0783093
0.629526 0.312612 0.0644083
0.667765 0.317739 0.0501564
0.704967 0.322042 0.0353399
0.741909 0.326299 0.0206912
0.778485 0.330388 0.0059968
0.814984 0.3346 0
0.851377 0.338903 0
0.887633 0.343236 0
0.923888 0.347753 0
0.960204 0.352483 0
0.996277 0.357137 0
1 0.361883 0
1 0.366659 0
1 0.371511 0
1 0.376806 0
1 0.381857 0
1 0.386984 0
0.208255 0.229511 0.225757
0.212421 0.232425 0.240238
0.217029 0.237293 0.24744
0.224079 0.24332 0.249271
0.234699 0.250278 0.246799
0.249226 0.258076 0.240787
0.26804 0.267109 0.232349
0.290776 0.276967 0.221469
0.323415 0.28574 0.209384
0.359976 0.294484 0.196796
0.398581 0.303166 0.183505
0.438743 0.31165 0.169619
0.479622 0.320226 0.155734
0.520348 0.328191 0.141573
0.560906 0.335714 0.12752
0.601007 0.342672 0.113481
0.640421 0.348974 0.0993973
0.679347 0.354864 0.0853437
0.716976 0.359625 0.0705119
0.754208 0.364157 0.0557565
0.791211 0.368643 0.0411688
0.828046 0.373159 0.0267796
0.864836 0.377798 0.0126497
0.901793 0.382803 0
0.938323 0.387533 0
0.974716 0.392294 0
1 0.397131 0
1 0.402075 0
1 0.407187 0
1 0.412528 0
1 0.417639 0
1 0.422812 0
1 0.428046 0
0.22417 0.253941 0.243778
0.228916 0.257496 0.258808
0.234028 0.262882 0.266926
0.241276 0.269368 0.270039
0.252049 0.276997 0.269429
0.26656 0.285512 0.265553
0.284901 0.294865 0.259022
0.307042 0.30518 0.25034
0.334401 0.315953 0.239872
0.370611 0.325536 0.228672
0.409705 0.3355 0.217227
0.450095 0.345052 0.204807
0.490684 0.354223 0.191669
0.531365 0.362997 0.178012
0.572015 0.371283 0.164141
0.612345 0.378988 0.150134
0.652384 0.386252 0.136217
0.691218 0.392279 0.12163
0.729168 0.397482 0.106645
0.766842 0.402518 0.0919051
0.804318 0.407523 0.077409
0.841596 0.412467 0.0631113
0.879042 0.417716 0.0493172
0.915999 0.422675 0.0353857
0.95285 0.427695 0.0216373
0.989593 0.432761 0.0080415
1 0.437842 0
1 0.443 0
1 0.448447 0
1 0.453681 0
1 0.458976 0
1 0.464271 0
1 0.469612 0
0.241581 0.279927 0.263233
0.246815 0.284016 0.278737
0.252384 0.290074 0.287877
0.260365 0.297276 0.292378
0.271092 0.305257 0.293141
0.285206 0.31397 0.290715
0.303105 0.323659 0.285863
0.324834 0.334356 0.279103
0.350118 0.345937 0.270527
0.382666 0.357336 0.260792
0.421424 0.367834 0.250416
0.461967 0.378256 0.239384
0.502739 0.388388 0.227543
0.543481 0.398016 0.214923
0.584054 0.40705 0.201556
0.62472 0.415732 0.188052
0.66453 0.423301 0.173816
0.703578 0.429908 0.159091
0.741848 0.435676 0.143999
0.779873 0.44123 0.129198
0.818036 0.446998 0.114961
0.855741 0.45243 0.10071
0.893233 0.457755 0.0866255
0.93051 0.46302 0.072694
0.96762 0.468284 0.0589151
1 0.473564 0.0453193
1 0.47921 0.0322118
1 0.484535 0.0188449
1 0.489845 0.00555428
1 0.495171 0
1 0.500526 0
1 0.505943 0
1 0.511681 0
0.260731 0.307683 0.284398
0.26627 0.312108 0.300175
0.272435 0.318791 0.310201
0.280507 0.326207 0.315526
0.291203 0.334478 0.317449
0.305119 0.343496 0.316396
0.32256 0.353384 0.312947
0.343877 0.364416 0.307836
0.368765 0.37644 0.301167
0.396994 0.38912 0.292821
0.434043 0.400488 0.283436
0.474479 0.411551 0.273548
0.515389 0.422461 0.262989
0.556466 0.433158 0.251713
0.597223 0.443091 0.239445
0.637476 0.45211 0.226123
0.677195 0.460227 0.212024
0.716213 0.467338 0.197253
0.754849 0.473869 0.182315
0.793545 0.480369 0.167788
0.831754 0.486381 0.153231
0.869703 0.49218 0.138827
0.9075 0.497887 0.124666
0.945098 0.503502 0.110704
0.982483 0.509056 0.0968948
1 0.514916 0.0835737
1 0.520378 0.0700389
1 0.525841 0.056611
1 0.531289 0.0432898
1 0.536721 0.0300603
1 0.542153 0.0168765
1 0.547921 0.00408942
1 0.553323 0
0.281025 0.336645 0.306661
0.287144 0.341695 0.323018
0.293278 0.348318 0.333227
0.301457 0.355962 0.339284
0.312184 0.364523 0.342245
0.326024 0.373892 0.342504
0.343313 0.384176 0.340536
0.364141 0.395377 0.336751
0.388327 0.407324 0.331304
0.415869 0.420157 0.324468
0.447822 0.433326 0.31632
0.487678 0.445029 0.307424
0.528695 0.456703 0.29807
0.569772 0.467979 0.287846
0.610407 0.478462 0.276402
0.65066 0.488151 0.263951
0.690272 0.496849 0.250324
0.72929 0.504585 0.235859
0.768475 0.5122 0.221515
0.807111 0.519066 0.206806
0.845579 0.525628 0.192172
0.883818 0.531899 0.177676
0.921813 0.537987 0.163409
0.959884 0.544182 0.149554
0.997589 0.550103 0.135698
1 0.555825 0.12192
1 0.561486 0.108263
1 0.567071 0.0947127
1 0.57261 0.081239
1 0.578424 0.0681926
1 0.583932 0.054902
1 0.589364 0.0416419
1 0.594766 0.0284276
0.302449 0.366766 0.330037
0.308614 0.371878 0.346395
0.315068 0.378836 0.357153
0.32343 0.38674 0.363897
0.334112 0.395468 0.367681
0.348104 0.405341 0.369284
0.365011 0.415702 0.368368
0.38526 0.426886 0.365621
0.40885 0.438895 0.361349
0.435676 0.451759 0.355795
0.465888 0.465415 0.348989
0.501869 0.478782 0.341238
0.542306 0.490761 0.33257
0.583124 0.502373 0.32311
0.623758 0.513405 0.312627
0.663874 0.523583 0.300908
0.703609 0.533028 0.288243
0.743023 0.541802 0.274739
0.78201 0.549813 0.260548
0.820813 0.557336 0.246082
0.859403 0.564462 0.231525
0.89781 0.571252 0.216999
0.936248 0.577996 0.202808
0.97435 0.58439 0.188632
1 0.590494 0.174533
1 0.596414 0.16054
1 0.602228 0.14667
1 0.60795 0.132921
1 0.61387 0.11957
1 0.619486 0.106035
1 0.624933 0.0925002
1 0.63032 0.0790265
1 0.635676 0.0655985
0.324636 0.397696 0.354131
0.330968 0.402991 0.370657
0.337621 0.410132 0.381765
0.346166 0.418296 0.389151
0.357229 0.427588 0.394064
0.370733 0.437247 0.396201
0.387289 0.447669 0.396216
0.40708 0.4589 0.394476
0.430152 0.470954 0.391257
0.456489 0.483833 0.386831
0.48603 0.497597 0.381308
0.517952 0.51165 0.374289
0.556023 0.524376 0.366247
0.596475 0.536339 0.357519
0.636942 0.547738 0.347799
0.67718 0.558556 0.337102
0.717067 0.568734 0.325414
0.756481 0.578073 0.312703
0.795621 0.586831 0.299214
0.834516 0.595041 0.285222
0.873182 0.602747 0.270909
0.912016 0.610376 0.256794
0.950286 0.617304 0.242298
0.988342 0.623926 0.227832
1 0.63032 0.213489
1 0.636484 0.199298
1 0.642649 0.185351
1 0.6486 0.171466
1 0.654276 0.157534
1 0.659876 0.143694
1 0.665354 0.129931
1 0.670695 0.116152
1 0.676188 0.102678
0.347631 0.429465 0.379019
0.354208 0.435019 0.395743
0.360983 0.442283 0.407141
0.369894 0.450858 0.41529
0.380621 0.459953 0.420508
0.394003 0.469749 0.423423
0.410254 0.480201 0.424262
0.429557 0.491386 0.423346
0.452354 0.50367 0.421286
0.477928 0.51635 0.417639
0.506447 0.529747 0.412833
0.537575 0.543587 0.406699
0.570489 0.557565 0.399313
0.609812 0.569787 0.391058
0.650294 0.581827 0.382345
0.690455 0.593072 0.372442
0.730373 0.603754 0.361608
0.769879 0.613733 0.349752
0.809094 0.623133 0.337133
0.848142 0.632044 0.323842
0.887098 0.640558 0.310185
0.925582 0.648371 0.295949
0.963867 0.655726 0.281498
1 0.662684 0.266941
1 0.669322 0.252369
1 0.675883 0.238041
1 0.682216 0.223819
1 0.688151 0.209522
1 0.693874 0.195239
1 0.699413 0.181033
1 0.704875 0.166918
1 0.71043 0.153094
1 0.71574 0.139178
0.371267 0.461891 0.404486
0.378347 0.467979 0.421729
0.385367 0.475456 0.433478
0.393973 0.483787 0.441672
0.404578 0.492882 0.447333
0.417731 0.502647 0.450813
0.433661 0.513085 0.452338
0.452857 0.524529 0.452491
0.474678 0.536294 0.450767
0.499489 0.54873 0.447745
0.527276 0.561791 0.443595
0.557412 0.575387 0.438239
0.588968 0.589426 0.431739
0.623926 0.603265 0.424369
0.663462 0.61529 0.415915
0.703441 0.626902 0.406729
0.743343 0.638041 0.396719
0.783017 0.648646 0.385809
0.82237 0.658656 0.374014
0.861616 0.668299 0.361639
0.900267 0.677058 0.348287
0.938704 0.685313 0.334371
0.976944 0.693095 0.320104
1 0.70045 0.305592
1 0.707729 0.291279
1 0.71429 0.276524
1 0.720577 0.261784
1 0.726635 0.247135
1 0.732464 0.232578
1 0.73817 0.218143
1 0.74374 0.203815
1 0.748974 0.189334
1 0.754101 0.17496
0.395789 0.495262 0.430838
0.402762 0.501244 0.447944
0.409827 0.508766 0.459861
0.418463 0.517159 0.468391
0.429023 0.526284 0.474495
0.441947 0.536004 0.478447
0.457847 0.54667 0.480842
0.476173 0.557595 0.481193
0.497383 0.569162 0.480049
0.521492 0.581338 0.477592
0.548486 0.594095 0.474006
0.578256 0.607736 0.469673
0.60882 0.621469 0.463813
0.640467 0.635508 0.456855
0.676844 0.648386 0.448859
0.71635 0.660258 0.440223
0.756069 0.671702 0.430823
0.795987 0.683009 0.420951
0.83534 0.693446 0.409903
0.874281 0.703243 0.397925
0.912947 0.712505 0.385199
0.951278 0.721157 0.371786
0.989395 0.72932 0.357809
1 0.737285 0.343709
1 0.744533 0.329076
1 0.751385 0.314244
1 0.757809 0.29926
1 0.763928 0.284245
1 0.769894 0.269368
1 0.775784 0.254688
1 0.781186 0.239826
1 0.786328 0.224918
1 0.791287 0.21004
0.420554 0.528878 0.457404
0.427543 0.53489 0.47451
0.434638 0.542428 0.486564
0.443137 0.550851 0.495354
0.453925 0.560159 0.501991
0.466758 0.569924 0.506462
0.481956 0.580118 0.508965
0.499794 0.59086 0.509773
0.520394 0.602152 0.509102
0.54377 0.614023 0.507103
0.570291 0.626764 0.504295
0.598962 0.63978 0.500175
0.628672 0.653208 0.494972
0.659495 0.666896 0.488563
0.691157 0.680812 0.481086
0.729122 0.692988 0.472801
0.768765 0.704982 0.46424
0.808164 0.716182 0.454597
0.847349 0.726894 0.444114
0.886275 0.737087 0.432807
0.924819 0.746654 0.420645
0.963119 0.755749 0.407782
1 0.764553 0.394583
1 0.772488 0.380392
1 0.77995 0.365805
1 0.78703 0.350942
1 0.793698 0.335897
1 0.800275 0.320974
1 0.80618 0.305638
1 0.811795 0.290288
1 0.817212 0.275013
1 0.822385 0.259739
1 0.827359 0.244556
0.445457 0.562661 0.484077
0.452491 0.568734 0.501213
0.459602 0.576288 0.51339
0.468116 0.584939 0.522606
0.478813 0.594018 0.529351
0.491249 0.603525 0.534005
0.506081 0.613535 0.536843
0.523461 0.624079 0.538064
0.543481 0.635126 0.537804
0.566537 0.647028 0.536553
0.591928 0.659068 0.533776
0.619684 0.671626 0.529976
0.648676 0.684642 0.525216
0.678508 0.698009 0.519356
0.709636 0.711925 0.512749
0.742489 0.725338 0.504829
0.780697 0.737072 0.496178
0.819684 0.748394 0.486931
0.858671 0.759319 0.476982
0.897429 0.769741 0.466209
0.936187 0.779934 0.454917
0.974289 0.789227 0.442496
1 0.798047 0.429404
1 0.806302 0.415686
1 0.814008 0.401312
1 0.82121 0.386465
1 0.828336 0.371649
1 0.834791 0.356313
1 0.840833 0.34081
1 0.846494 0.325139
1 0.851835 0.309407
1 0.856992 0.293721
1 0.862165 0.278309
0.470466 0.596582 0.510826
0.477577 0.602747 0.528038
0.484886 0.610483 0.54049
0.49308 0.61883 0.549599
0.503456 0.627649 0.55639
0.515648 0.637018 0.561273
0.530083 0.646815 0.564385
0.547127 0.657252 0.566049
0.566735 0.668162 0.566262
0.588785 0.679393 0.565011
0.613443 0.691081 0.56257
0.64036 0.703197 0.55906
0.668421 0.715724 0.554559
0.697627 0.728954 0.549401
0.727733 0.742275 0.543023
0.75848 0.755749 0.535561
0.792554 0.768322 0.527108
0.830594 0.779614 0.518013
0.869154 0.790585 0.508385
0.907958 0.80145 0.498344
0.946303 0.811582 0.487282
0.984268 0.821118 0.475349
1 0.83003 0.462577
1 0.838514 0.44921
1 0.84651 0.435264
1 0.854261 0.420951
1 0.861189 0.405829
1 0.867689 0.390372
1 0.873854 0.374731
1 0.879652 0.358907
1 0.885344 0.343206
1 0.890394 0.327077
1 0.895186 0.310933
0.49543 0.630472 0.537514
0.502663 0.636774 0.554833
0.509621 0.64416 0.567025
0.517678 0.652354 0.576165
0.527794 0.660975 0.583017
0.539681 0.670146 0.588067
0.553918 0.679881 0.591546
0.57052 0.690074 0.593469
0.589334 0.70045 0.593729
0.610666 0.711269 0.592676
0.634592 0.72256 0.590494
0.660731 0.734279 0.587259
0.688289 0.746715 0.583337
0.716442 0.759152 0.578164
0.745342 0.771923 0.572015
0.775265 0.784955 0.56495
0.805798 0.798154 0.556909
0.841352 0.810101 0.548165
0.87924 0.821103 0.538766
0.917281 0.831632 0.528664
0.955291 0.84181 0.517922
0.993103 0.85153 0.506462
1 0.8607 0.494194
1 0.869459 0.4813
1 0.877653 0.467643
1 0.885313 0.453422
1 0.89247 0.438529
1 0.899107 0.423148
1 0.905303 0.40737
1 0.911391 0.391638
1 0.916884 0.375463
1 0.92192 0.358999
1 0.926482 0.34229
0.520287 0.664302 0.564095
0.527123 0.670207 0.580987
0.533959 0.677455 0.593133
0.541863 0.685496 0.602289
0.551781 0.693965 0.609232
0.563592 0.703151 0.614603
0.577234 0.712428 0.618021
0.593179 0.722133 0.619944
0.611475 0.732219 0.620417
0.632136 0.742641 0.619547
0.65536 0.753536 0.617594
0.680888 0.764996 0.61471
0.707301 0.776654 0.610681
0.734615 0.788647 0.605737
0.762753 0.800916 0.599863
0.791531 0.813397 0.592966
0.821378 0.826307 0.585412
0.85214 0.8392 0.576913
0.888426 0.850217 0.567544
0.925765 0.860655 0.557565
0.963272 0.870726 0.54696
1 0.880461 0.535775
1 0.889982 0.524117
1 0.898878 0.511589
1 0.907027 0.498116
1 0.914748 0.484031
1 0.922026 0.469459
1 0.928817 0.454246
1 0.935286 0.438697
1 0.940902 0.422354
1 0.94609 0.405692
1 0.950957 0.388815
1 0.955367 0.37171
0.544488 0.697475 0.589975
0.551141 0.703212 0.606683
0.557748 0.710201 0.618647
0.565423 0.718044 0.627741
0.575372 0.726589 0.634974
0.586587 0.735225 0.640116
0.599771 0.744167 0.643565
0.615152 0.753475 0.645502
0.632868 0.76318 0.646097
0.65301 0.773327 0.645502
0.6757 0.783978 0.643839
0.700175 0.79469 0.640833
0.725658 0.805768 0.636835
0.752117 0.817273 0.632029
0.779446 0.829099 0.626383
0.80766 0.841489 0.620142
0.836378 0.853635 0.612543
0.865751 0.866011 0.60412
0.897169 0.877989 0.594873
0.933471 0.888472 0.585031
0.970504 0.898589 0.574716
1 0.90837 0.563821
1 0.917632 0.552148
1 0.926497 0.539834
1 0.934829 0.526772
1 0.942428 0.512764
1 0.94963 0.498207
1 0.956329 0.48307
1 0.962463 0.467247
1 0.967971 0.450752
1 0.972763 0.433585
1 0.976974 0.41593
1 0.980972 0.398169
0.568032 0.730022 0.615183
0.574517 0.735607 0.631724
0.581231 0.742702 0.643854
0.588617 0.750225 0.652781
0.597848 0.758099 0.659541
0.608728 0.766476 0.664683
0.621561 0.775158 0.668208
0.636454 0.784115 0.670207
0.653834 0.793667 0.671107
