EA 50 Cinematic Luts Pack/EA_Cinematic Lut (32).cube
TITLE "A sweet, warm grade that makes the footage look very pleasant and proportional in hues. "
LUT_3D_SIZE 9
0.0000 0.0000 0.0000
0.0646 0.0000 0.0000
0.1746 0.0000 0.0000
0.2968 0.0098 0.0000
0.4268 0.0395 0.0000
0.5602 0.0704 0.0002
0.6920 0.1030 0.0066
0.8080 0.1367 0.0194
0.9032 0.1716 0.0351
0.0069 0.0471 0.0000
0.0776 0.0500 0.0000
0.1916 0.0548 0.0000
0.3147 0.0646 0.0000
0.4444 0.0813 0.0000
0.5751 0.1041 0.0013
0.7034 0.1312 0.0083
0.8159 0.1609 0.0217
0.9090 0.1927 0.0370
0.0340 0.1539 0.0216
0.0816 0.1589 0.0000
0.1997 0.1592 0.0042
0.3244 0.1635 0.0000
0.4606 0.1696 0.0017
0.5950 0.1811 0.0049
0.7220 0.1978 0.0147
0.8312 0.2183 0.0287
0.9215 0.2429 0.0430
0.0781 0.2715 0.0705
0.1120 0.2753 0.0474
0.1933 0.2823 0.0000
0.3342 0.2801 0.0387
0.4716 0.2839 0.0281
0.6037 0.2923 0.0164
0.7370 0.2989 0.0311
0.8448 0.3113 0.0382
0.9341 0.3281 0.0515
0.1276 0.3993 0.1215
0.1505 0.4027 0.1005
0.2175 0.4083 0.0623
0.3233 0.4149 0.0000
0.4802 0.4109 0.0794
0.6198 0.4140 0.0688
0.7436 0.4222 0.0469
0.8517 0.4298 0.0589
0.9446 0.4380 0.0697
0.1807 0.5315 0.1728
0.1942 0.5348 0.1514
0.2534 0.5389 0.1296
0.3358 0.5472 0.0334
0.4655 0.5515 0.0000
0.6263 0.5458 0.1208
0.7571 0.5487 0.1116
0.8588 0.5562 0.0797
0.9459 0.5653 0.0799
0.2364 0.6690 0.2240
0.2411 0.6725 0.2015
0.2933 0.6755 0.1865
0.3684 0.6817 0.1445
0.4687 0.6905 0.0000
0.6116 0.6911 0.0180
0.7611 0.6853 0.1623
0.8688 0.6872 0.1555
0.9562 0.6939 0.1286
0.2925 0.8063 0.2751
0.2895 0.8101 0.2509
0.3367 0.8124 0.2391
0.4067 0.8172 0.2117
0.4940 0.8248 0.1336
0.6090 0.8318 0.0000
0.7490 0.8309 0.0936
0.8717 0.8258 0.2036
0.9534 0.8281 0.3510
0.5171 0.9203 0.4506
0.5240 0.9219 0.4460
0.5470 0.9247 0.4402
0.5847 0.9300 0.4302
0.6281 0.9401 0.3987
0.6533 0.9630 0.2279
0.7534 0.9715 0.1489
0.8812 0.9557 0.4548
0.9568 0.9505 0.6478
0.0026 0.0000 0.0040
0.0628 0.0000 0.0398
0.1981 0.0000 0.0445
0.3313 0.0000 0.0312
0.4731 0.0000 0.0109
0.6022 0.0233 0.0044
0.7217 0.0688 0.0134
0.8277 0.1095 0.0271
0.9174 0.1490 0.0416
0.0000 0.0504 0.0606
0.0706 0.0529 0.0563
0.1846 0.0596 0.0457
0.3046 0.0722 0.0474
0.4337 0.0904 0.0512
0.5661 0.1129 0.0570
0.6966 0.1391 0.0645
0.8113 0.1680 0.0734
0.9195 0.1781 0.0380
0.0395 0.1539 0.0830
0.0680 0.1618 0.0542
0.1909 0.1625 0.0595
0.3232 0.1650 0.0531
0.4619 0.1698 0.0609
0.5945 0.1823 0.0658
0.7199 0.2003 0.0716
0.8282 0.2225 0.0793
0.9312 0.2314 0.0432
0.0849 0.2711 0.1182
0.0969 0.2781 0.0841
0.1863 0.2842 0.0392
0.3241 0.2841 0.0704
0.4702 0.2853 0.0730
0.6053 0.2922 0.0740
0.7378 0.2990 0.0823
0.8446 0.3120 0.0882
0.9433 0.3192 0.0521
0.1338 0.3988 0.1588
0.1423 0.4042 0.1318
0.2108 0.4101 0.0912
0.3164 0.4172 0.0110
0.4730 0.4138 0.1043
0.6200 0.4140 0.1194
0.7427 0.4232 0.0897
0.8525 0.4297 0.1022
0.9521 0.4326 0.0687
0.1861 0.5311 0.2026
0.1926 0.5352 0.1811
0.2465 0.5405 0.1478
0.3302 0.5485 0.0791
0.4564 0.5546 0.0000
0.6209 0.5481 0.1409
0.7573 0.5487 0.1520
0.8583 0.5569 0.1143
0.9512 0.5626 0.0808
0.2410 0.6685 0.2489
0.2461 0.6719 0.2309
0.2863 0.6769 0.1999
0.3641 0.6828 0.1622
0.4600 0.6928 0.0000
0.6054 0.6933 0.0309
0.7574 0.6871 0.1786
0.8689 0.6872 0.1879
0.9589 0.6934 0.1202
0.2966 0.8059 0.2966
0.3006 0.8088 0.2808
0.3294 0.8137 0.2501
0.4024 0.8182 0.2238
0.4899 0.8258 0.1580
0.6023 0.8338 0.0000
0.7449 0.8326 0.1021
0.8692 0.8273 0.2172
0.9538 0.8282 0.3612
0.5222 0.9196 0.4636
0.5296 0.9210 0.4602
0.5500 0.9244 0.4515
0.5883 0.9295 0.4430
0.6326 0.9393 0.4153
0.6609 0.9611 0.2726
0.7538 0.9716 0.1788
0.8809 0.9563 0.4584
0.9570 0.9508 0.6519
0.0109 0.0000 0.0661
0.0616 0.0000 0.1236
0.1711 0.0000 0.1388
0.3345 0.0000 0.1505
0.4746 0.0000 0.1436
0.6182 0.0000 0.1285
0.7530 0.0144 0.1115
0.8643 0.0320 0.0880
0.9568 0.0602 0.0581
0.0320 0.0503 0.1310
0.0784 0.0518 0.1690
0.1941 0.0563 0.1637
0.3357 0.0551 0.1520
0.4781 0.0591 0.1433
0.6212 0.0656 0.1302
0.7565 0.0731 0.1065
0.8591 0.1000 0.0929
0.9579 0.1062 0.0552
0.0000 0.1601 0.1747
0.0722 0.1610 0.1736
0.1858 0.1646 0.1669
0.3240 0.1670 0.1462
0.4445 0.1806 0.1484
0.5771 0.1951 0.1505
0.7057 0.2137 0.1539
0.8179 0.2356 0.1585
0.9585 0.1941 0.0451
0.0825 0.2727 0.1907
0.1056 0.2776 0.1821
0.1782 0.2859 0.1620
0.3247 0.2845 0.1730
0.4697 0.2878 0.1463
0.6101 0.2917 0.1566
0.7357 0.3019 0.1649
0.8412 0.3167 0.1681
0.9673 0.2939 0.0681
0.1403 0.3989 0.2239
0.1536 0.4034 0.2094
0.1826 0.4152 0.1647
0.3117 0.4185 0.1485
0.4615 0.4185 0.1711
0.6185 0.4159 0.1847
0.7426 0.4245 0.1678
0.8542 0.4295 0.1786
0.9666 0.4215 0.1074
0.1945 0.5307 0.2597
0.2034 0.5345 0.2454
0.2207 0.5448 0.1983
0.3141 0.5522 0.1523
0.4537 0.5555 0.1332
0.6068 0.5539 0.1800
0.7576 0.5487 0.2276
0.8571 0.5587 0.1798
0.9646 0.5550 0.1038
0.2493 0.6680 0.2989
0.2558 0.6712 0.2856
0.2693 0.6797 0.2449
0.3479 0.6861 0.2059
0.4546 0.6942 0.1321
0.5955 0.6968 0.1087
0.7478 0.6917 0.2123
0.8691 0.6872 0.2537
0.9625 0.6927 0.1631
0.3043 0.8054 0.3403
0.3093 0.8081 0.3283
0.3205 0.8151 0.2931
0.3860 0.8212 0.2563
0.4813 0.8281 0.2014
0.5954 0.8358 0.1011
0.7341 0.8372 0.1208
0.8630 0.8311 0.2467
0.9547 0.8287 0.3861
0.5327 0.9181 0.4902
0.5410 0.9193 0.4889
0.5606 0.9227 0.4834
0.5967 0.9284 0.4728
0.6433 0.9374 0.4532
0.6786 0.9565 0.3590
0.7550 0.9716 0.2408
0.8800 0.9580 0.4672
0.9575 0.9516 0.6622
0.0317 0.0091 0.1358
0.0690 0.0146 0.1735
0.1933 0.0000 0.2758
0.2910 0.0341 0.2385
0.4757 0.0000 0.2567
0.6200 0.0000 0.2516
0.7544 0.0155 0.2432
0.8662 0.0303 0.2281
0.9616 0.0475 0.2127
0.0585 0.0620 0.1913
0.0893 0.0620 0.2372
0.1968 0.0560 0.2799
0.3128 0.0737 0.2607
0.4782 0.0625 0.2580
0.6227 0.0669 0.2525
0.7566 0.0754 0.2431
0.8676 0.0848 0.2293
0.9669 0.0851 0.2109
0.0802 0.1558 0.2510
0.1083 0.1587 0.2675
0.1990 0.1623 0.2783
0.3267 0.1658 0.2744
0.4830 0.1636 0.2601
0.6288 0.1651 0.2536
0.7633 0.1687 0.2383
0.8733 0.1733 0.2203
0.9671 0.1797 0.2214
0.0000 0.2812 0.2894
0.0683 0.2822 0.2891
0.1875 0.2841 0.2857
0.3134 0.2886 0.2788
0.4763 0.2879 0.2495
0.5940 0.3017 0.2510
0.7164 0.3164 0.2533
0.8264 0.3323 0.2554
0.9681 0.2946 0.2173
0.1239 0.4025 0.3028
0.1437 0.4057 0.3006
0.1892 0.4143 0.2877
0.3016 0.4207 0.2717
0.4710 0.4162 0.2868
0.6218 0.4187 0.2453
0.7509 0.4234 0.2473
0.8528 0.4329 0.2647
0.9674 0.4211 0.2470
0.1953 0.5319 0.3330
0.2084 0.5349 0.3274
0.2375 0.5429 0.3087
0.3052 0.5538 0.2738
0.4457 0.5576 0.2585
0.6060 0.5544 0.2906
0.7554 0.5517 0.2942
0.8563 0.5608 0.2662
0.9653 0.5538 0.2637
0.2561 0.6682 0.3677
0.2648 0.6710 0.3588
0.2839 0.6785 0.3327
0.3106 0.6924 0.2769
0.4469 0.6958 0.2588
0.5912 0.6980 0.2467
0.7368 0.6967 0.2831
0.8695 0.6872 0.3427
0.9636 0.6924 0.2742
0.3130 0.8051 0.4036
0.3195 0.8076 0.3949
0.3342 0.8140 0.3699
0.3546 0.8263 0.3131
0.4561 0.8333 0.2722
0.5906 0.8369 0.2432
0.7270 0.8401 0.2307
0.8514 0.8379 0.2899
0.9563 0.8294 0.4276
0.5479 0.9163 0.5308
0.5569 0.9173 0.5304
0.5784 0.9201 0.5287
0.6114 0.9259 0.5216
0.6591 0.9343 0.5077
0.7050 0.9496 0.4637
0.7568 0.9716 0.3255
0.8780 0.9613 0.4810
0.9585 0.9530 0.6802
0.0618 0.0389 0.2063
0.0900 0.0431 0.2356
0.1664 0.0465 0.2948
0.3219 0.0000 0.3856
0.4188 0.0723 0.3393
0.6063 0.0363 0.3591
0.7586 0.0124 0.3605
0.8671 0.0326 0.3554
0.9623 0.0493 0.3449
0.0854 0.0805 0.2516
0.1086 0.0813 0.2878
0.1898 0.0800 0.3375
0.3251 0.0657 0.3888
0.4363 0.1030 0.3557
0.6136 0.0826 0.3658
0.7592 0.0761 0.3615
0.8683 0.0866 0.3559
0.9668 0.0885 0.3453
0.1180 0.1624 0.3139
0.1396 0.1641 0.3356
0.2010 0.1625 0.3960
0.3299 0.1654 0.3925
0.4655 0.1735 0.3848
0.6213 0.1729 0.3718
0.7618 0.1723 0.3635
0.8713 0.1775 0.3568
0.9671 0.1818 0.3500
0.1259 0.2745 0.3712
0.1467 0.2773 0.3788
0.2021 0.2819 0.4038
0.3310 0.2856 0.3907
0.4718 0.2885 0.3885
0.6317 0.2855 0.3734
0.7692 0.2850 0.3651
0.8793 0.2871 0.3460
0.9676 0.2952 0.3617
0.0000 0.4125 0.4074
0.0629 0.4136 0.4075
0.1887 0.4145 0.4060
0.3155 0.4178 0.4003
0.4520 0.4226 0.3935
0.6297 0.4183 0.3550
0.7409 0.4308 0.3554
0.8352 0.4484 0.3588
0.9686 0.4213 0.3663
0.1637 0.5371 0.4162
0.1812 0.5396 0.4149
0.2212 0.5458 0.4111
0.3089 0.5532 0.3998
0.4343 0.5601 0.3836
0.6170 0.5518 0.4053
0.7632 0.5533 0.3537
0.8661 0.5590 0.3397
0.9674 0.5525 0.3865
0.2488 0.6707 0.4444
0.2605 0.6729 0.4407
0.2880 0.6787 0.4306
0.3301 0.6894 0.4084
0.4373 0.6974 0.3851
0.5813 0.7006 0.3698
0.7429 0.6946 0.4077
0.8687 0.6906 0.4052
0.9654 0.6920 0.3873
0.3153 0.8060 0.4768
0.3239 0.8080 0.4729
0.3445 0.8134 0.4610
0.3756 0.8237 0.4295
0.4410 0.8357 0.3868
0.5812 0.8389 0.3682
0.7226 0.8415 0.3615
0.8510 0.8383 0.4050
0.9587 0.8302 0.4844
0.5630 0.9156 0.5813
0.5728 0.9164 0.5817
0.5963 0.9186 0.5824
0.6334 0.9230 0.5820
0.6781 0.9310 0.5746
0.7307 0.9428 0.5542
0.7593 0.9716 0.4237
0.8731 0.9670 0.4966
0.9599 0.9550 0.7063
0.0943 0.0698 0.2767
0.1169 0.0728 0.3022
0.1760 0.0799 0.3463
0.2952 0.0635 0.4351
0.4434 0.0530 0.4744
0.5514 0.1127 0.4413
0.7311 0.0811 0.4623
0.8713 0.0290 0.4696
0.9641 0.0505 0.4658
0.1147 0.1036 0.3140
0.1333 0.1048 0.3432
0.1962 0.1073 0.3866
0.3096 0.0956 0.4604
0.4630 0.0803 0.4972
0.5652 0.1378 0.4540
0.7370 0.1161 0.4679
0.8716 0.0861 0.4704
0.9667 0.0938 0.4683
0.1493 0.1753 0.3751
0.1667 0.1767 0.3959
0.2155 0.1743 0.4589
0.3310 0.1665 0.5085
0.4691 0.1733 0.5024
0.5951 0.1938 0.4832
0.7490 0.1881 0.4805
0.8725 0.1799 0.4723
0.9669 0.1848 0.4736
0.1792 0.2779 0.4379
0.1954 0.2801 0.4486
0.2374 0.2837 0.4789
0.3365 0.2848 0.5088
0.4758 0.2877 0.5069
0.6115 0.2953 0.4987
0.7560 0.2957 0.4863
0.8749 0.2928 0.4750
0.9672 0.2973 0.4827
0.1708 0.4035 0.4926
0.1887 0.4055 0.4977
0.2315 0.4105 0.5106
0.3306 0.4148 0.5179
0.4741 0.4183 0.5036
0.6177 0.4203 0.5020
0.7679 0.4169 0.4884
0.8826 0.4148 0.4769
0.9680 0.4221 0.4918
0.0000 0.5478 0.5238
0.0551 0.5490 0.5241
0.1844 0.5497 0.5230
0.3186 0.5512 0.5205
0.4530 0.5556 0.5133
0.5917 0.5602 0.5067
0.7645 0.5548 0.4666
0.8805 0.5528 0.4493
0.9686 0.5523 0.4997
0.2004 0.6768 0.5294
0.2160 0.6787 0.5285
0.2524 0.6834 0.5262
0.3165 0.6909 0.5215
0.4415 0.6960 0.5116
0.5689 0.7031 0.4943
0.7524 0.6914 0.5216
0.8854 0.6893 0.4384
0.9667 0.6904 0.5139
0.2990 0.8091 0.5539
0.3097 0.8109 0.5514
0.3356 0.8154 0.5449
0.3774 0.8236 0.5322
0.4481 0.8341 0.5132
0.5604 0.8430 0.4837
0.7114 0.8460 0.4663
0.8567 0.8347 0.5343
0.9617 0.8308 0.5555
0.5702 0.9174 0.6358
0.5810 0.9180 0.6368
0.6069 0.9196 0.6391
0.6485 0.9226 0.6427
0.7007 0.9280 0.6456
0.7537 0.9381 0.6398
0.8021 0.9555 0.6048
0.8691 0.9713 0.5513
0.9619 0.9579 0.7405
0.1289 0.1018 0.3478
0.1470 0.1037 0.3710
0.1960 0.1113 0.4063
0.2839 0.1142 0.4692
0.4517 0.0540 0.5889
0.5661 0.1073 0.5626
0.6820 0.1550 0.5423
0.8372 0.1268 0.5630
0.9662 0.0540 0.5782
0.1464 0.1301 0.3786
0.1619 0.1314 0.4029
0.2128 0.1348 0.4422
0.3006 0.1364 0.4971
0.4620 0.0894 0.6051
0.5838 0.1257 0.5826
0.6921 0.1761 0.5524
0.8414 0.1545 0.5681
0.9665 0.1029 0.5791
0.1802 0.1930 0.4362
0.1947 0.1943 0.4549
0.2345 0.1937 0.5076
0.3275 0.1923 0.5538
0.4721 0.1731 0.6211
0.6088 0.1846 0.6117
0.7156 0.2242 0.5771
0.8506 0.2159 0.5797
0.9670 0.1906 0.5830
0.2173 0.2873 0.5000
0.2314 0.2886 0.5128
0.2679 0.2902 0.5492
0.3369 0.2861 0.6247
0.4768 0.2884 0.6247
0.6159 0.2944 0.6172
0.7431 0.3049 0.6087
0.8630 0.3063 0.5970
0.9676 0.3009 0.5917
0.2396 0.4041 0.5602
0.2533 0.4058 0.5673
0.2874 0.4096 0.5862
0.3477 0.4141 0.6234
0.4812 0.4171 0.6217
0.6226 0.4191 0.6215
0.7486 0.4269 0.6128
0.8684 0.4267 0.6005
0.9680 0.4241 0.6038
0.2120 0.5374 0.6123
0.2278 0.5390 0.6161
0.2654 0.5430 0.6257
0.3339 0.5490 0.6395
0.4696 0.5525 0.6319
0.6150 0.5558 0.6154
0.7534 0.5562 0.6152
0.8743 0.5531 0.6057
0.9678 0.5532 0.6180
0.0000 0.6883 0.6415
0.0441 0.6896 0.6421
0.1788 0.6900 0.6412
0.3170 0.6908 0.6395
0.4560 0.6933 0.6348
0.5925 0.6971 0.6264
0.7251 0.7018 0.6203
0.8834 0.6882 0.5912
0.9692 0.6894 0.6277
0.2297 0.8172 0.6462
0.2441 0.8187 0.6455
0.2780 0.8225 0.6438
0.3316 0.8292 0.6404
0.4509 0.8334 0.6352
0.5654 0.8408 0.6223
0.7200 0.8421 0.6132
0.8656 0.8325 0.6384
0.9671 0.8309 0.6395
0.5556 0.9235 0.6953
0.5679 0.9239 0.6962
0.5980 0.9249 0.6987
0.6473 0.9268 0.7020
0.7075 0.9302 0.7089
0.7726 0.9358 0.7165
0.8292 0.9471 0.7148
0.8723 0.9713 0.6519
0.9645 0.9615 0.7867
0.1649 0.1348 0.4190
0.1796 0.1360 0.4411
0.2216 0.1431 0.4700
0.2940 0.1501 0.5196
0.4148 0.1401 0.6030
0.6070 0.0479 0.7264
0.6888 0.1598 0.6570
0.7984 0.1991 0.6456
0.9266 0.1734 0.6660
0.1802 0.1593 0.4448
0.1936 0.1604 0.4655
0.2354 0.1637 0.5009
0.3091 0.1694 0.5465
0.4270 0.1614 0.6227
0.6090 0.0967 0.7285
0.7020 0.1749 0.6726
0.8054 0.2171 0.6540
0.9397 0.1767 0.6777
0.2122 0.2150 0.4972
0.2246 0.2163 0.5136
0.2580 0.2168 0.5593
0.3354 0.2182 0.6043
0.4558 0.2096 0.6690
0.6129 0.1842 0.7326
0.7313 0.2125 0.7096
0.8219 0.2592 0.6748
0.9521 0.2245 0.6906
0.2514 0.3014 0.5607
0.2632 0.3026 0.5735
0.2939 0.3042 0.6085
0.3549 0.2998 0.6829
0.4766 0.2944 0.7285
0.6181 0.2950 0.7370
0.7473 0.3040 0.7295
0.8458 0.3274 0.7081
0.9550 0.3230 0.6984
0.2849 0.4111 0.6246
0.2957 0.4127 0.6321
0.3240 0.4161 0.6529
0.3788 0.4182 0.6990
0.4833 0.4177 0.7416
0.6234 0.4201 0.7408
0.7535 0.4254 0.7347
0.8580 0.4354 0.7253
0.9592 0.4369 0.7098
0.2971 0.5361 0.6836
0.3090 0.5374 0.6888
0.3390 0.5407 0.7022
0.3912 0.5456 0.7271
0.4806 0.5509 0.7511
0.6265 0.5503 0.7540
0.7628 0.5506 0.7506
0.8645 0.5588 0.7345
0.9644 0.5589 0.7246
0.2449 0.6776 0.7325
0.2592 0.6788 0.7354
0.2934 0.6820 0.7429
0.3500 0.6873 0.7563
0.4711 0.6909 0.7555
0.6036 0.6933 0.7602
0.7577 0.6906 0.7530
0.8678 0.6932 0.7424
0.9691 0.6909 0.7410
0.0000 0.8288 0.7605
0.0288 0.8303 0.7614
0.1715 0.8307 0.7606
0.3120 0.8313 0.7591
0.4592 0.8322 0.7569
0.5870 0.8363 0.7557
0.7373 0.8363 0.7540
0.8611 0.8351 0.7533
0.9703 0.8298 0.7570
0.4612 0.9406 0.7692
0.4795 0.9406 0.7696
0.5229 0.9403 0.7706
0.5920 0.9403 0.7729
0.6772 0.9409 0.7769
0.7620 0.9432 0.7862
0.8394 0.9476 0.7994
0.9005 0.9583 0.8076
0.9677 0.9661 0.8592
0.2023 0.1690 0.4897
0.2141 0.1694 0.5109
0.2509 0.1759 0.5350
0.3131 0.1846 0.5781
0.4106 0.1875 0.6440
0.5655 0.1512 0.7524
0.7402 0.0772 0.8742
0.7989 0.2121 0.7545
0.8940 0.2447 0.7503
0.2157 0.1905 0.5112
0.2259 0.1907 0.5329
0.2616 0.1933 0.5680
0.3252 0.2007 0.6078
0.4244 0.2022 0.6702
0.5789 0.1659 0.7765
0.7569 0.0807 0.9167
0.8132 0.2175 0.7752
0.9050 0.2505 0.7639
0.2454 0.2404 0.5593
0.2541 0.2413 0.5773
0.2790 0.2399 0.6305
0.3477 0.2405 0.6779
0.4525 0.2389 0.7318
0.6068 0.2036 0.8502
0.7630 0.1666 0.9332
0.8465 0.2303 0.8421
0.9318 0.2650 0.8054
0.2844 0.3195 0.6223
0.2918 0.3207 0.6367
0.3121 0.3220 0.6772
0.3575 0.3132 0.7745
0.4784 0.3030 0.8551
0.6171 0.3015 0.8830
0.7634 0.2858 0.9356
0.8651 0.3056 0.8912
0.9370 0.3513 0.8191
0.3232 0.4223 0.6877
0.3295 0.4238 0.6985
0.3464 0.4267 0.7282
0.3814 0.4273 0.8000
0.4873 0.4269 0.8525
0.6229 0.4271 0.8741
0.7618 0.4187 0.9241
0.8682 0.4258 0.9061
0.9410 0.4596 0.8333
0.3513 0.5408 0.7505
0.3566 0.5425 0.7582
0.3709 0.5463 0.7818
0.4025 0.5512 0.8377
0.5110 0.5545 0.8474
0.6320 0.5569 0.8686
0.7584 0.5559 0.9010
0.8722 0.5516 0.9270
0.9459 0.5776 0.8529
0.3502 0.6739 0.8213
0.3547 0.6756 0.8290
0.3669 0.6798 0.8502
0.4518 0.6812 0.8535
0.5470 0.6846 0.8577
0.6554 0.6890 0.8671
0.7651 0.6924 0.8903
0.8743 0.6875 0.9409
0.9528 0.7048 0.8789
0.2938 0.8167 0.8908
0.3200 0.8167 0.8907
0.3806 0.8168 0.8904
0.4719 0.8171 0.8902
0.5808 0.8175 0.8898
0.6863 0.8210 0.8921
0.7875 0.8257 0.8972
0.8751 0.8310 0.9169
0.9614 0.8369 0.9109
0.0000 0.9715 0.9405
0.0753 0.9716 0.9407
0.1996 0.9716 0.9409
0.3355 0.9716 0.9414
0.4818 0.9716 0.9420
0.6284 0.9714 0.9427
0.7640 0.9714 0.9440
0.8749 0.9715 0.9455
0.9715 0.9715 0.9472
