EA 50 Cinematic Luts Pack/EA_Cinematic Lut (42).cube
TITLE "An energetic, fantasy look that extracts the contrast between shadows and highlights of the footage."
LUT_3D_SIZE 9
0.0000 0.0000 0.0000
0.0281 0.0067 0.0073
0.0835 0.0271 0.0271
0.1715 0.0579 0.0545
0.2877 0.0985 0.0884
0.4164 0.1518 0.1300
0.5402 0.2198 0.1837
0.6442 0.2971 0.2477
0.7330 0.3787 0.3180
0.0191 0.0468 0.0268
0.0533 0.0524 0.0018
0.1396 0.0568 0.0116
0.2295 0.0812 0.0475
0.3324 0.1212 0.0896
0.4509 0.1749 0.1332
0.5647 0.2412 0.1873
0.6601 0.3162 0.2513
0.7458 0.3949 0.3213
0.0585 0.1430 0.0765
0.0841 0.1492 0.0590
0.1581 0.1603 0.0064
0.3075 0.1602 0.0123
0.4356 0.1816 0.0467
0.5371 0.2273 0.1038
0.6225 0.2910 0.1741
0.6987 0.3619 0.2510
0.7765 0.4344 0.3263
0.1179 0.2972 0.1480
0.1385 0.3037 0.1294
0.2004 0.3160 0.0906
0.3174 0.3301 0.0152
0.4946 0.3255 0.0000
0.6068 0.3449 0.0701
0.6973 0.3766 0.1027
0.7701 0.4278 0.1828
0.8347 0.4900 0.2853
0.2023 0.4724 0.2512
0.2133 0.4787 0.2253
0.2763 0.4846 0.1994
0.3602 0.4998 0.1190
0.4929 0.5106 0.0274
0.6438 0.5057 0.0000
0.7414 0.5145 0.0643
0.8254 0.5355 0.1196
0.9030 0.5650 0.1820
0.3043 0.6139 0.3712
0.3061 0.6184 0.3424
0.3624 0.6211 0.3240
0.4391 0.6280 0.2693
0.5232 0.6400 0.1440
0.6404 0.6461 0.0413
0.7654 0.6421 0.0000
0.8667 0.6435 0.0384
0.9397 0.6582 0.1752
0.4137 0.7215 0.4886
0.4155 0.7249 0.4687
0.4527 0.7281 0.4466
0.5187 0.7317 0.4147
0.5890 0.7399 0.3327
0.6559 0.7524 0.1661
0.7591 0.7561 0.0565
0.8795 0.7515 0.0000
0.9554 0.7571 0.2537
0.5175 0.8197 0.5827
0.5188 0.8221 0.5706
0.5376 0.8258 0.5487
0.5928 0.8283 0.5326
0.6488 0.8342 0.4892
0.7063 0.8434 0.3877
0.7674 0.8559 0.1851
0.8718 0.8579 0.0734
0.9554 0.8566 0.4725
0.7192 0.8899 0.7436
0.7229 0.8909 0.7421
0.7320 0.8936 0.7388
0.7542 0.8967 0.7398
0.7813 0.9024 0.7365
0.8115 0.9116 0.7228
0.8451 0.9250 0.6840
0.8828 0.9439 0.5588
0.9537 0.9435 0.7460
0.0034 0.0025 0.0180
0.0436 0.0019 0.0628
0.1122 0.0170 0.0595
0.3061 0.0000 0.0497
0.4426 0.0255 0.0521
0.5312 0.0881 0.0928
0.6126 0.1665 0.1520
0.6904 0.2529 0.2203
0.7690 0.3427 0.2947
0.0054 0.0518 0.0620
0.0460 0.0532 0.0784
0.1454 0.0555 0.0607
0.2299 0.0824 0.0807
0.3372 0.1212 0.1110
0.4556 0.1746 0.1518
0.5680 0.2410 0.2049
0.6623 0.3160 0.2672
0.7489 0.3937 0.3312
0.0498 0.1460 0.1147
0.0751 0.1521 0.1028
0.1569 0.1598 0.0749
0.2986 0.1619 0.0904
0.4325 0.1828 0.0988
0.5266 0.2338 0.1527
0.6191 0.2945 0.2094
0.6991 0.3628 0.2730
0.7793 0.4333 0.3365
0.1157 0.2979 0.1884
0.1310 0.3057 0.1722
0.1913 0.3187 0.1302
0.3145 0.3304 0.0808
0.4910 0.3256 0.0853
0.6060 0.3452 0.1184
0.6959 0.3776 0.1487
0.7649 0.4325 0.2327
0.8350 0.4906 0.3056
0.2019 0.4724 0.2882
0.2143 0.4779 0.2728
0.2621 0.4881 0.2297
0.3531 0.5015 0.1599
0.4909 0.5108 0.0889
0.6466 0.5043 0.0551
0.7379 0.5157 0.1341
0.8249 0.5357 0.1655
0.9062 0.5634 0.1963
0.3046 0.6139 0.4011
0.3146 0.6168 0.3885
0.3473 0.6234 0.3455
0.4309 0.6294 0.3008
0.5198 0.6407 0.1871
0.6393 0.6462 0.0992
0.7677 0.6414 0.0488
0.8641 0.6441 0.1159
0.9396 0.6586 0.2036
0.4141 0.7212 0.5093
0.4219 0.7235 0.5004
0.4386 0.7301 0.4609
0.5109 0.7330 0.4352
0.5846 0.7407 0.3626
0.6541 0.7528 0.2093
0.7582 0.7562 0.1115
0.8815 0.7510 0.0431
0.9554 0.7573 0.2823
0.5179 0.8197 0.5955
0.5235 0.8213 0.5899
0.5263 0.8275 0.5576
0.5856 0.8294 0.5443
0.6447 0.8348 0.5064
0.7038 0.8439 0.4149
0.7660 0.8562 0.2277
0.8712 0.8580 0.1260
0.9554 0.8568 0.4858
0.7199 0.8899 0.7489
0.7237 0.8910 0.7475
0.7325 0.8938 0.7435
0.7539 0.8970 0.7437
0.7816 0.9026 0.7412
0.8120 0.9117 0.7284
0.8456 0.9250 0.6915
0.8833 0.9438 0.5733
0.9538 0.9438 0.7498
0.0134 0.0104 0.0552
0.0396 0.0135 0.0990
0.1292 0.0076 0.1760
0.1739 0.0632 0.1483
0.4718 0.0020 0.1633
0.6240 0.0000 0.1423
0.7427 0.0000 0.1226
0.8201 0.0733 0.1407
0.8846 0.1744 0.1983
0.0280 0.0529 0.1122
0.0539 0.0553 0.1439
0.1394 0.0567 0.1760
0.2657 0.0711 0.1570
0.5413 0.0000 0.1266
0.6632 0.0000 0.1078
0.7509 0.0406 0.1081
0.7963 0.1548 0.1770
0.8568 0.2620 0.2481
0.0208 0.1586 0.1727
0.0530 0.1613 0.1830
0.1354 0.1625 0.2224
0.3073 0.1621 0.1579
0.4394 0.1818 0.1759
0.5355 0.2320 0.2121
0.6255 0.2933 0.2600
0.7041 0.3619 0.3164
0.7870 0.4299 0.3635
0.0735 0.3125 0.2523
0.1006 0.3157 0.2526
0.1840 0.3202 0.2410
0.3193 0.3277 0.1995
0.4767 0.3293 0.2337
0.6031 0.3469 0.2271
0.6900 0.3829 0.2561
0.7594 0.4385 0.3183
0.8357 0.4922 0.3572
0.1824 0.4767 0.3658
0.2021 0.4805 0.3560
0.2459 0.4911 0.3258
0.3490 0.5022 0.2672
0.4889 0.5104 0.2162
0.6404 0.5047 0.2250
0.7331 0.5173 0.2713
0.8240 0.5360 0.2753
0.9146 0.5587 0.2354
0.2959 0.6150 0.4640
0.3097 0.6174 0.4556
0.3399 0.6239 0.4301
0.4041 0.6338 0.3669
0.5127 0.6419 0.2894
0.6365 0.6464 0.2259
0.7686 0.6404 0.1833
0.8576 0.6456 0.2814
0.9407 0.6590 0.2623
0.4104 0.7214 0.5532
0.4201 0.7233 0.5469
0.4421 0.7284 0.5286
0.4853 0.7372 0.4774
0.5722 0.7430 0.4283
0.6485 0.7540 0.3081
0.7561 0.7563 0.2378
0.8820 0.7503 0.1793
0.9554 0.7582 0.3505
0.5167 0.8198 0.6252
0.5233 0.8212 0.6206
0.5385 0.8251 0.6077
0.5629 0.8330 0.5687
0.6334 0.8369 0.5437
0.6970 0.8453 0.4750
0.7625 0.8569 0.3258
0.8695 0.8581 0.2516
0.9552 0.8573 0.5172
0.7209 0.8902 0.7617
0.7251 0.8912 0.7605
0.7349 0.8938 0.7570
0.7526 0.8980 0.7531
0.7820 0.9031 0.7524
0.8133 0.9119 0.7422
0.8470 0.9250 0.7099
0.8846 0.9436 0.6049
0.9539 0.9444 0.7592
0.0297 0.0255 0.1066
0.0488 0.0300 0.1430
0.1192 0.0280 0.2511
0.2636 0.0192 0.3498
0.3039 0.1036 0.2947
0.4301 0.1586 0.3139
0.7410 0.0000 0.3203
0.8542 0.0000 0.2923
0.9554 0.0104 0.2746
0.0462 0.0612 0.1796
0.0671 0.0652 0.2055
0.1363 0.0659 0.2833
0.2715 0.0644 0.3554
0.3429 0.1272 0.3057
0.5430 0.1266 0.3233
0.7706 0.0000 0.2914
0.8771 0.0000 0.2669
0.9554 0.0628 0.2718
0.0559 0.1585 0.2617
0.0811 0.1614 0.2770
0.1468 0.1628 0.3467
0.2928 0.1655 0.3465
0.4645 0.1717 0.3110
0.7449 0.0000 0.2506
0.8375 0.0000 0.2228
0.9316 0.0000 0.1877
0.9475 0.1969 0.2762
0.0430 0.3265 0.3435
0.0713 0.3290 0.3516
0.1395 0.3343 0.3743
0.2757 0.3343 0.4263
0.4875 0.3319 0.3127
0.6205 0.3392 0.3274
0.6993 0.3788 0.3575
0.7673 0.4357 0.4003
0.8477 0.4862 0.4158
0.0914 0.4974 0.4351
0.1195 0.4985 0.4420
0.1882 0.5029 0.4442
0.3411 0.5026 0.4293
0.4955 0.5081 0.3773
0.6290 0.5091 0.4103
0.7273 0.5218 0.4097
0.8272 0.5348 0.3996
0.9112 0.5631 0.3633
0.2396 0.6224 0.5285
0.2617 0.6235 0.5288
0.3129 0.6269 0.5242
0.4031 0.6331 0.4963
0.5124 0.6416 0.4385
0.6397 0.6446 0.4065
0.7593 0.6411 0.4307
0.8507 0.6470 0.4681
0.9421 0.6599 0.3617
0.3843 0.7245 0.6083
0.3981 0.7259 0.6045
0.4301 0.7297 0.5942
0.4751 0.7374 0.5714
0.5549 0.7456 0.5194
0.6507 0.7531 0.4574
0.7545 0.7560 0.4185
0.8831 0.7490 0.3774
0.9539 0.7603 0.4492
0.5044 0.8214 0.6700
0.5132 0.8226 0.6665
0.5336 0.8257 0.6571
0.5640 0.8320 0.6380
0.6043 0.8423 0.5893
0.6921 0.8457 0.5608
0.7621 0.8567 0.4688
0.8667 0.8583 0.4270
0.9550 0.8582 0.5649
0.7195 0.8915 0.7818
0.7246 0.8923 0.7810
0.7365 0.8944 0.7789
0.7542 0.8987 0.7735
0.7816 0.9043 0.7704
0.8153 0.9123 0.7646
0.8494 0.9249 0.7398
0.8869 0.9431 0.6539
0.9542 0.9455 0.7754
0.0506 0.0452 0.1779
0.0668 0.0499 0.2121
0.1193 0.0549 0.3052
0.2525 0.0424 0.4465
0.4213 0.0344 0.5240
0.4570 0.1498 0.4656
0.5421 0.2419 0.4699
0.7276 0.2217 0.5025
0.9554 0.0057 0.4898
0.0668 0.0758 0.2655
0.0855 0.0812 0.2775
0.1392 0.0866 0.3485
0.2667 0.0789 0.4645
0.4285 0.0756 0.5287
0.4772 0.1785 0.4731
0.5675 0.2612 0.4768
0.7940 0.1611 0.5028
0.9554 0.0598 0.4858
0.0927 0.1647 0.3515
0.1107 0.1680 0.3748
0.1659 0.1731 0.4280
0.2908 0.1705 0.4950
0.4438 0.1770 0.5237
0.5355 0.2416 0.4832
0.6756 0.2533 0.4894
0.9286 0.0000 0.4584
0.9554 0.1716 0.4782
0.0903 0.3259 0.4458
0.1107 0.3295 0.4548
0.1775 0.3338 0.4767
0.2889 0.3332 0.5468
0.4679 0.3369 0.5220
0.6118 0.3491 0.4865
0.9143 0.0511 0.4224
0.9554 0.1457 0.4138
0.9555 0.3436 0.4777
0.0722 0.5065 0.5190
0.0985 0.5080 0.5237
0.1656 0.5114 0.5350
0.2732 0.5169 0.5590
0.4394 0.5151 0.5973
0.6392 0.5114 0.4817
0.7449 0.5160 0.4928
0.8429 0.5256 0.5084
0.8930 0.5778 0.5206
0.0994 0.6388 0.5880
0.1269 0.6394 0.5913
0.1954 0.6410 0.5997
0.3239 0.6429 0.5996
0.5069 0.6405 0.5884
0.6424 0.6436 0.5460
0.7500 0.6444 0.5630
0.8413 0.6521 0.5725
0.9326 0.6655 0.5146
0.2883 0.7359 0.6481
0.3090 0.7367 0.6481
0.3587 0.7386 0.6483
0.4372 0.7421 0.6474
0.5564 0.7443 0.6279
0.6510 0.7518 0.5881
0.7601 0.7531 0.5711
0.8601 0.7530 0.6079
0.9480 0.7632 0.5597
0.4550 0.8276 0.7180
0.4690 0.8282 0.7180
0.5011 0.8299 0.7158
0.5461 0.8343 0.7024
0.6201 0.8385 0.6854
0.6913 0.8449 0.6589
0.7716 0.8524 0.6175
0.8633 0.8552 0.6368
0.9551 0.8596 0.6205
0.7089 0.8952 0.8079
0.7154 0.8957 0.8075
0.7309 0.8971 0.8063
0.7547 0.9000 0.8037
0.7818 0.9060 0.7970
0.8171 0.9134 0.7936
0.8532 0.9250 0.7782
0.8905 0.9424 0.7154
0.9546 0.9471 0.7986
0.0765 0.0696 0.2698
0.0913 0.0742 0.2993
0.1353 0.0818 0.3750
0.2380 0.0820 0.4934
0.4137 0.0583 0.6017
0.5705 0.0532 0.6508
0.5974 0.2030 0.6031
0.6534 0.3200 0.5983
0.7301 0.4106 0.6123
0.0925 0.0967 0.3553
0.1097 0.1030 0.3591
0.1555 0.1106 0.4190
0.2564 0.1116 0.5184
0.4254 0.0926 0.6106
0.5765 0.0910 0.6549
0.6095 0.2308 0.6070
0.6680 0.3381 0.6028
0.7520 0.4153 0.6197
0.1231 0.1797 0.4469
0.1394 0.1827 0.4686
0.1890 0.1908 0.5003
0.2885 0.1953 0.5599
0.4454 0.1839 0.6264
0.5841 0.1915 0.6576
0.6364 0.2991 0.6136
0.7052 0.3804 0.6108
0.8267 0.3992 0.6367
0.1477 0.3291 0.5281
0.1680 0.3319 0.5368
0.2194 0.3377 0.5613
0.3103 0.3405 0.6145
0.4661 0.3359 0.6509
0.6012 0.3489 0.6510
0.6956 0.3901 0.6163
0.8276 0.3774 0.6163
0.9385 0.3722 0.6403
0.1367 0.5051 0.5954
0.1572 0.5072 0.5994
0.2095 0.5121 0.6097
0.3139 0.5159 0.6322
0.4517 0.5137 0.6867
0.6138 0.5182 0.6547
0.7404 0.5205 0.6200
0.9147 0.4577 0.5993
0.9550 0.5207 0.6240
0.1096 0.6426 0.6468
0.1348 0.6435 0.6495
0.1987 0.6454 0.6561
0.3029 0.6485 0.6685
0.4294 0.6527 0.6912
0.5893 0.6498 0.7263
0.7576 0.6465 0.6208
0.8564 0.6500 0.6261
0.9046 0.6799 0.6422
0.1073 0.7515 0.7042
0.1347 0.7519 0.7065
0.2023 0.7531 0.7123
0.3089 0.7550 0.7228
0.4744 0.7556 0.7198
0.6415 0.7520 0.7099
0.7625 0.7533 0.6631
0.8471 0.7588 0.6915
0.9460 0.7660 0.6435
0.3277 0.8403 0.7551
0.3471 0.8409 0.7553
0.3940 0.8422 0.7559
0.4683 0.8445 0.7573
0.5660 0.8464 0.7586
0.6957 0.8440 0.7421
0.7745 0.8510 0.7206
0.8616 0.8551 0.7336
0.9551 0.8614 0.6867
0.6700 0.9051 0.8293
0.6793 0.9051 0.8300
0.7016 0.9053 0.8320
0.7374 0.9058 0.8358
0.7789 0.9086 0.8342
0.8169 0.9158 0.8271
0.8576 0.9256 0.8212
0.8956 0.9416 0.7830
0.9552 0.9493 0.8283
0.1080 0.0989 0.3713
0.1220 0.1032 0.3949
0.1617 0.1121 0.4543
0.2458 0.1190 0.5433
0.3910 0.1098 0.6367
0.5680 0.0762 0.7220
0.6888 0.0758 0.7632
0.7096 0.2601 0.7147
0.7509 0.3987 0.7035
0.1244 0.1247 0.4402
0.1403 0.1311 0.4450
0.1812 0.1401 0.4918
0.2644 0.1477 0.5660
0.4053 0.1401 0.6493
0.5755 0.1097 0.7280
0.6931 0.1111 0.7667
0.7176 0.2862 0.7174
0.7634 0.4115 0.7116
0.1569 0.2017 0.5308
0.1720 0.2046 0.5478
0.2177 0.2160 0.5621
0.3011 0.2250 0.6073
0.4332 0.2220 0.6731
0.5895 0.1995 0.7393
0.6985 0.2099 0.7695
0.7367 0.3495 0.7226
0.7926 0.4444 0.7301
0.1982 0.3408 0.5952
0.2139 0.3437 0.6045
0.2553 0.3494 0.6288
0.3369 0.3571 0.6616
0.4648 0.3588 0.7025
0.6070 0.3455 0.7563
0.7102 0.3635 0.7637
0.7678 0.4478 0.7266
0.8385 0.4987 0.7557
0.2079 0.5070 0.6563
0.2280 0.5087 0.6606
0.2783 0.5125 0.6720
0.3634 0.5175 0.6939
0.4712 0.5171 0.7528
0.6172 0.5116 0.7793
0.7250 0.5244 0.7621
0.8226 0.5467 0.7282
0.8721 0.5904 0.7640
0.1921 0.6415 0.7108
0.2119 0.6426 0.7136
0.2612 0.6452 0.7206
0.3435 0.6494 0.7333
0.4682 0.6515 0.7592
0.5983 0.6485 0.8115
0.7235 0.6528 0.7831
0.8495 0.6544 0.7317
0.9404 0.6610 0.7495
0.1558 0.7529 0.7581
0.1801 0.7535 0.7600
0.2399 0.7549 0.7649
0.3372 0.7572 0.7734
0.4550 0.7604 0.7883
0.5767 0.7632 0.8103
0.7154 0.7606 0.8194
0.8611 0.7593 0.7350
0.9194 0.7772 0.7496
0.1489 0.8531 0.8096
0.1748 0.8535 0.8113
0.2378 0.8544 0.8156
0.3381 0.8559 0.8233
0.4505 0.8589 0.8352
0.6087 0.8595 0.8243
0.7663 0.8540 0.8010
0.8614 0.8583 0.7873
0.9552 0.8640 0.7639
0.5655 0.9223 0.8590
0.5825 0.9221 0.8591
0.6205 0.9216 0.8593
0.6725 0.9212 0.8582
0.7372 0.9206 0.8619
0.8056 0.9210 0.8685
0.8588 0.9281 0.8629
0.9017 0.9412 0.8493
0.9553 0.9521 0.8636
0.1458 0.1341 0.4706
0.1593 0.1385 0.4881
0.1957 0.1483 0.5301
0.2678 0.1596 0.5927
0.3879 0.1622 0.6704
0.5461 0.1396 0.7579
0.6896 0.0963 0.8335
0.7957 0.1020 0.8680
0.8143 0.3196 0.8189
0.1625 0.1599 0.5208
0.1772 0.1662 0.5253
0.2142 0.1759 0.5594
0.2859 0.1875 0.6122
0.4031 0.1905 0.6845
0.5551 0.1708 0.7658
0.6941 0.1297 0.8377
0.7990 0.1370 0.8707
0.8260 0.3314 0.8288
0.1953 0.2306 0.5998
0.2093 0.2334 0.6124
0.2518 0.2476 0.6146
0.3234 0.2591 0.6533
0.4342 0.2640 0.7120
0.5737 0.2506 0.7821
0.7041 0.2172 0.8467
0.8041 0.2322 0.8738
0.8541 0.3618 0.8522
0.2422 0.3597 0.6567
0.2561 0.3623 0.6655
0.2927 0.3677 0.6886
0.3654 0.3786 0.7104
0.4713 0.3853 0.7504
0.5982 0.3783 0.8053
0.7170 0.3586 0.8593
0.8104 0.3807 0.8761
0.8981 0.4165 0.8873
0.2797 0.5129 0.7118
0.2957 0.5146 0.7166
0.3349 0.5188 0.7298
0.3997 0.5242 0.7577
0.4942 0.5271 0.8005
0.6174 0.5267 0.8302
0.7285 0.5193 0.8704
0.8223 0.5381 0.8653
0.8993 0.5650 0.8808
0.2683 0.6429 0.7692
0.2875 0.6437 0.7721
0.3350 0.6457 0.7794
0.4132 0.6487 0.7929
0.5122 0.6515 0.8169
0.6219 0.6519 0.8518
0.7291 0.6534 0.8634
0.8273 0.6617 0.8555
0.9017 0.6781 0.8721
0.2536 0.7515 0.8180
0.2720 0.7523 0.8200
0.3173 0.7541 0.8250
0.3919 0.7572 0.8339
0.4877 0.7612 0.8483
0.6228 0.7612 0.8559
0.7330 0.7615 0.8674
0.8435 0.7637 0.8558
0.9091 0.7802 0.8601
0.2098 0.8542 0.8609
0.2324 0.8546 0.8624
0.2873 0.8557 0.8661
0.3759 0.8575 0.8727
0.5371 0.8554 0.8747
0.6558 0.8561 0.8751
0.7402 0.8613 0.8787
0.8406 0.8639 0.8822
0.9372 0.8712 0.8514
0.3827 0.9396 0.9035
0.4016 0.9400 0.9036
0.4465 0.9409 0.9039
0.5149 0.9423 0.9042
0.5974 0.9444 0.9048
0.7161 0.9420 0.9022
0.8270 0.9392 0.9011
0.9061 0.9428 0.9032
0.9553 0.9553 0.9035
0.1899 0.1765 0.5558
0.2027 0.1810 0.5680
0.2363 0.1912 0.5959
0.2998 0.2050 0.6431
0.4010 0.2147 0.7089
0.5346 0.2085 0.7871
0.6724 0.1709 0.8703
0.7974 0.1224 0.9354
0.8686 0.2198 0.9354
0.2064 0.2017 0.5898
0.2198 0.2059 0.5991
0.2543 0.2154 0.6239
0.3183 0.2277 0.6681
0.4195 0.2353 0.7307
0.5514 0.2256 0.8062
0.6857 0.1829 0.8871
0.7989 0.1627 0.9355
0.8701 0.2564 0.9356
0.2380 0.2653 0.6617
0.2524 0.2686 0.6695
0.2908 0.2766 0.6867
0.3573 0.2856 0.7238
0.4588 0.2880 0.7800
0.5870 0.2702 0.8504
0.7147 0.2199 0.9243
0.8026 0.2597 0.9357
0.8737 0.3409 0.9360
0.2870 0.3843 0.7154
0.2975 0.3852 0.7290
0.3266 0.3846 0.7670
0.3991 0.3853 0.8040
0.5037 0.3810 0.8505
0.6256 0.3616 0.9065
0.7210 0.3747 0.9235
0.8091 0.4028 0.9359
0.8800 0.4628 0.9369
0.3363 0.5244 0.7672
0.3449 0.5259 0.7769
0.3683 0.5283 0.8033
0.4165 0.5262 0.8592
0.5272 0.5246 0.8867
0.6360 0.5286 0.9025
0.7300 0.5353 0.9211
0.8183 0.5500 0.9357
0.8890 0.5842 0.9378
0.3583 0.6448 0.8215
0.3668 0.6460 0.8274
0.3892 0.6487 0.8432
0.4329 0.6517 0.8748
0.5421 0.6532 0.8855
0.6486 0.6549 0.8977
0.7413 0.6575 0.9177
0.8302 0.6636 0.9357
0.9015 0.6834 0.9395
0.3363 0.7523 0.8731
0.3409 0.7537 0.8770
0.3533 0.7572 0.8873
0.4266 0.7598 0.8955
0.5498 0.7604 0.8956
0.6589 0.7619 0.8979
0.7538 0.7636 0.9115
0.8433 0.7664 0.9342
0.9171 0.7793 0.9416
0.3916 0.8489 0.9081
0.4090 0.8494 0.9085
0.4506 0.8507 0.9093
0.5145 0.8527 0.9105
0.5933 0.8557 0.9126
0.6727 0.8596 0.9159
0.7598 0.8635 0.9195
0.8570 0.8653 0.9281
0.9360 0.8721 0.9442
0.6363 0.9249 0.9262
0.6431 0.9254 0.9265
0.6599 0.9268 0.9273
0.6883 0.9291 0.9287
0.7275 0.9327 0.9308
0.7761 0.9375 0.9337
0.8319 0.9436 0.9373
0.8930 0.9510 0.9418
0.9553 0.9553 0.9472
