EA 50 Cinematic Luts Pack/EA_Cinematic Lut (3).cube
TITLE "Generated by Resolve"
LUT_3D_SIZE 9
0.0565805 0.107637 0.254505
0.123308 0.109667 0.25214
0.185626 0.113466 0.251164
0.256977 0.114702 0.248966
0.347982 0.10956 0.243458
0.446036 0.102205 0.236973
0.548775 0.0945449 0.230457
0.652918 0.0880751 0.224628
0.756207 0.0852064 0.2206
0.0970321 0.168322 0.263081
0.160128 0.170748 0.261677
0.224552 0.173312 0.260441
0.309636 0.17113 0.256352
0.409155 0.167102 0.251026
0.516365 0.164584 0.246204
0.629252 0.165347 0.242832
0.74229 0.169863 0.241123
0.850126 0.177203 0.240833
0.130694 0.231128 0.271229
0.194049 0.238743 0.270527
0.272801 0.246052 0.26894
0.374853 0.251621 0.265721
0.484855 0.257832 0.262608
0.59852 0.26424 0.259739
0.712032 0.272236 0.257923
0.821378 0.282246 0.257237
0.924407 0.295308 0.258564
0.156039 0.328771 0.278187
0.233051 0.344625 0.2795
0.332341 0.355901 0.278218
0.44152 0.36527 0.27599
0.555764 0.374655 0.274098
0.670817 0.38439 0.272938
0.783536 0.395743 0.272923
0.889921 0.409384 0.274617
0.987518 0.425299 0.278447
0.196368 0.451743 0.289845
0.288045 0.467872 0.291005
0.396582 0.479698 0.290181
0.51046 0.491051 0.289418
0.626383 0.501762 0.289357
0.741161 0.513344 0.290242
0.850233 0.526223 0.292302
0.951583 0.540902 0.296162
1 0.558679 0.302098
0.248157 0.583276 0.305669
0.353613 0.597055 0.306935
0.466575 0.609186 0.307698
0.582513 0.619852 0.30869
0.69836 0.630518 0.310094
0.809689 0.641413 0.312123
0.91397 0.653803 0.315526
1 0.66804 0.32047
1 0.685237 0.327596
0.317113 0.712703 0.327626
0.428428 0.724468 0.329595
0.543221 0.734127 0.331212
0.659098 0.742916 0.332723
0.771878 0.75108 0.334524
0.877989 0.76022 0.337377
0.975052 0.77023 0.341344
1 0.782879 0.347372
1 0.797147 0.354849
0.399207 0.832822 0.355123
0.512505 0.840391 0.357351
0.627894 0.846403 0.359228
0.741512 0.851118 0.361151
0.849882 0.855879 0.36376
0.948699 0.860456 0.366735
1 0.865888 0.37084
1 0.873396 0.376623
1 0.881498 0.383261
0.495369 0.934783 0.388907
0.607492 0.937758 0.390661
0.717845 0.937942 0.391455
0.823377 0.937011 0.392187
0.920867 0.936065 0.393149
1 0.936461 0.39527
1 0.939757 0.399344
1 0.945602 0.40528
1 0.951965 0.411414
0.0632792 0.112093 0.272831
0.129488 0.114137 0.270619
0.192355 0.118364 0.269856
0.264591 0.118868 0.267185
0.35613 0.113298 0.261189
0.455283 0.106096 0.254643
0.558618 0.0987106 0.24828
0.66392 0.0931716 0.24303
0.768215 0.0914015 0.239948
0.103624 0.172686 0.281453
0.166278 0.17528 0.279957
0.231769 0.177829 0.278599
0.318853 0.175723 0.274556
0.420172 0.172595 0.269841
0.529335 0.171313 0.265995
0.643168 0.173404 0.263844
0.75581 0.178363 0.263264
0.863432 0.186481 0.264515
0.137026 0.237003 0.289677
0.201144 0.245472 0.289525
0.28365 0.254032 0.288975
0.38761 0.260441 0.286763
0.497917 0.266804 0.284764
0.611795 0.273793 0.283574
0.724636 0.281895 0.283452
0.834073 0.292393 0.285008
0.93611 0.305501 0.288441
0.165484 0.338323 0.299626
0.24416 0.354498 0.302281
0.344518 0.365713 0.302373
0.454536 0.375296 0.302205
0.568948 0.384802 0.302449
0.683772 0.394629 0.303288
0.795865 0.406241 0.305241
0.901457 0.419699 0.308675
0.998627 0.436042 0.314092
0.206989 0.46247 0.316884
0.299962 0.47805 0.319799
0.409155 0.490181 0.321065
0.523384 0.501366 0.322362
0.639246 0.512093 0.323751
0.753475 0.52372 0.32578
0.862089 0.536339 0.328969
0.962707 0.551171 0.333867
1 0.568811 0.340627
0.259556 0.593668 0.339086
0.365988 0.607507 0.341665
0.479042 0.619089 0.343694
0.59527 0.629816 0.345617
0.710842 0.640284 0.347753
0.821347 0.651057 0.350622
0.924681 0.663264 0.35491
1 0.677134 0.360555
1 0.694408 0.368429
0.329549 0.722637 0.364996
0.440772 0.733684 0.367651
0.555932 0.743236 0.370016
0.671244 0.751553 0.372168
0.783047 0.759701 0.374685
0.888334 0.768368 0.378241
0.984298 0.778119 0.382879
1 0.790448 0.389517
1 0.803555 0.397391
0.411307 0.841001 0.395193
0.524788 0.848341 0.398123
0.639597 0.85362 0.400504
0.75288 0.858152 0.403082
0.859739 0.862226 0.405997
0.957259 0.866117 0.409354
1 0.870985 0.413748
1 0.878004 0.419944
1 0.885832 0.42681
0.506676 0.94139 0.431342
0.617945 0.943328 0.43328
0.727489 0.942901 0.434333
0.831495 0.941238 0.435111
0.928283 0.940002 0.436377
1 0.940047 0.438666
1 0.943587 0.443351
1 0.949493 0.449378
1 0.955795 0.455741
0.0699931 0.116579 0.290929
0.136172 0.119005 0.289036
0.198978 0.122988 0.288548
0.271916 0.122835 0.285863
0.364645 0.117037 0.280476
0.464408 0.109682 0.27483
0.568551 0.102876 0.269749
0.674632 0.0982834 0.266651
0.780179 0.0979934 0.265995
0.109957 0.176867 0.300633
0.172335 0.179797 0.30013
0.238666 0.1823 0.299702
0.32845 0.180316 0.296941
0.430793 0.177768 0.294133
0.541939 0.178119 0.292821
0.656107 0.18114 0.293034
0.768872 0.186709 0.294667
0.875685 0.195407 0.297856
0.143267 0.243183 0.31281
0.208881 0.252674 0.314824
0.294087 0.261921 0.316304
0.398856 0.268666 0.316258
0.509987 0.275502 0.316396
0.623484 0.282628 0.316869
0.736934 0.291279 0.318349
0.845838 0.302068 0.321202
0.94757 0.315557 0.325765
0.17438 0.347784 0.330053
0.253971 0.364004 0.3346
0.35584 0.374899 0.336187
0.466575 0.384787 0.337362
0.580865 0.394232 0.338689
0.695918 0.404608 0.34052
0.807721 0.416007 0.343328
0.9131 0.429908 0.347814
1 0.446647 0.354162
0.216571 0.472801 0.352605
0.311345 0.488075 0.356359
0.421256 0.500191 0.358572
0.535531 0.511101 0.360632
0.651621 0.522118 0.362814
0.765179 0.533394 0.365621
0.873365 0.546334 0.369772
0.972641 0.560983 0.375296
1 0.578897 0.382971
0.270665 0.604059 0.377752
0.377951 0.617472 0.381094
0.491661 0.628809 0.383886
0.607736 0.639384 0.386481
0.722194 0.649454 0.389136
0.832441 0.660288 0.392828
0.934508 0.672068 0.397589
1 0.686183 0.403906
1 0.702922 0.412299
0.341192 0.731991 0.406058
0.452979 0.742901 0.409613
0.567895 0.752056 0.412451
0.682414 0.75993 0.414969
0.793851 0.767803 0.418082
0.89807 0.776028 0.421988
0.993103 0.785657 0.427115
1 0.797436 0.433906
1 0.809796 0.442069
0.423377 0.849134 0.438773
0.53637 0.855741 0.441947
0.651148 0.860655 0.444785
0.763455 0.864744 0.447547
0.869383 0.86804 0.450568
0.965499 0.871275 0.453925
1 0.875639 0.458259
1 0.882521 0.464714
1 0.88983 0.471473
0.517372 0.947387 0.476249
0.627909 0.94847 0.478126
0.736309 0.94725 0.478981
0.839734 0.945144 0.479683
0.935363 0.943709 0.480934
1 0.943694 0.483207
1 0.947402 0.487953
1 0.953124 0.493889
1 0.959625 0.500221
0.0762493 0.120897 0.311833
0.142489 0.123781 0.311421
0.204303 0.127169 0.312367
0.278828 0.12636 0.311254
0.372625 0.120287 0.307713
0.47277 0.113146 0.304006
0.577707 0.106767 0.300984
0.684489 0.102907 0.299596
0.791577 0.104372 0.300893
0.115328 0.180758 0.327031
0.177157 0.183734 0.328542
0.245304 0.186435 0.330205
0.337209 0.184802 0.329183
0.441459 0.183398 0.328069
0.553719 0.184863 0.328267
0.668467 0.188571 0.329686
0.781155 0.194736 0.332357
0.886854 0.203891 0.336263
0.147997 0.248951 0.345541
0.216052 0.260121 0.349447
0.303914 0.269581 0.351995
0.409888 0.27689 0.353017
0.521324 0.284062 0.353994
0.635294 0.291402 0.355413
0.749004 0.300328 0.357778
0.857282 0.31136 0.361486
0.958434 0.325505 0.367102
0.182361 0.357076 0.3673
0.263508 0.372946 0.372519
0.367025 0.384085 0.374975
0.478035 0.393912 0.376898
0.592889 0.403708 0.379004
0.707927 0.414023 0.381628
0.819303 0.425895 0.385351
0.923873 0.440024 0.390631
1 0.456641 0.397604
0.225483 0.482704 0.392493
0.322667 0.497871 0.397024
0.432929 0.509606 0.399832
0.547539 0.520882 0.402594
0.663233 0.531594 0.405371
0.776776 0.543175 0.408972
0.884169 0.556008 0.413733
0.9823 0.570657 0.419654
1 0.588617 0.42797
0.281956 0.614054 0.420111
0.389776 0.626978 0.423972
0.50367 0.638376 0.427375
0.619028 0.648569 0.430213
0.7337 0.65864 0.433524
0.842832 0.668971 0.437491
0.944015 0.680888 0.442542
1 0.694774 0.449241
1 0.711315 0.457984
0.352895 0.741253 0.450416
0.464805 0.751827 0.454261
0.579019 0.760433 0.45716
0.693706 0.768124 0.46009
0.804059 0.775387 0.463294
0.907881 0.783459 0.467323
1 0.79266 0.472297
1 0.804013 0.479393
1 0.815702 0.487221
0.435096 0.856962 0.484398
0.547982 0.86302 0.487678
0.66244 0.867521 0.490471
0.773922 0.870726 0.493126
0.878416 0.873381 0.495811
0.972656 0.875898 0.498711
1 0.880201 0.503136
1 0.886839 0.509255
1 0.893965 0.51574
0.528038 0.953262 0.522255
0.637827 0.953368 0.523537
0.745007 0.951308 0.523964
0.847425 0.948913 0.524269
0.941924 0.947112 0.525078
1 0.947372 0.52723
1 0.951034 0.531609
1 0.957 0.537346
1 0.963424 0.543114
0.0811017 0.124727 0.341909
0.147524 0.127718 0.343496
0.208728 0.130709 0.345464
0.284886 0.12929 0.345251
0.379339 0.123033 0.342443
0.480797 0.11635 0.339681
0.586725 0.110597 0.337774
0.695171 0.108232 0.337667
0.80296 0.110857 0.340215
0.119554 0.184268 0.361746
0.181415 0.187472 0.364309
0.251362 0.190311 0.366812
0.345586 0.189105 0.366552
0.452247 0.189395 0.366812
0.565438 0.191592 0.368124
0.680827 0.196033 0.370443
0.792737 0.202518 0.373678
0.898222 0.212436 0.378546
0.152651 0.2551 0.383307
0.222995 0.267292 0.388556
0.313878 0.277378 0.391913
0.420569 0.285039 0.393683
0.532616 0.292134 0.395407
0.647257 0.300038 0.397604
0.760143 0.309133 0.400595
0.868284 0.320821 0.405066
0.968673 0.334981 0.411414
0.189715 0.365911 0.408331
0.273274 0.381903 0.414267
0.378073 0.393027 0.417334
0.489464 0.403052 0.419898
0.60473 0.413062 0.422629
0.719463 0.423453 0.425757
0.830411 0.435676 0.429999
0.934112 0.449653 0.435737
1 0.466773 0.443336
0.235004 0.492546 0.435843
0.333623 0.507179 0.44065
0.444282 0.51931 0.444129
0.559335 0.530495 0.447288
0.674968 0.541176 0.450431
0.788098 0.552743 0.454353
0.894255 0.565438 0.45922
0.992126 0.580163 0.465537
1 0.597848 0.47393
0.292454 0.623636 0.464942
0.401419 0.63653 0.469306
0.514931 0.647654 0.472633
0.630716 0.65771 0.475807
0.744945 0.667597 0.47921
0.853391 0.677791 0.483131
0.953872 0.689448 0.488243
1 0.702998 0.494835
1 0.719554 0.5037
0.364416 0.750301 0.496345
0.475883 0.76025 0.499931
0.590616 0.768688 0.502937
0.704952 0.775982 0.505669
0.814755 0.783017 0.508797
0.917159 0.790921 0.512535
1 0.799603 0.517311
1 0.810239 0.524041
1 0.821118 0.53109
0.446265 0.864271 0.530327
0.559655 0.870024 0.533425
0.673442 0.873823 0.535821
0.784253 0.876738 0.538201
0.886946 0.878538 0.540093
0.980011 0.880629 0.542504
1 0.884672 0.546532
1 0.891005 0.552026
1 0.898085 0.557977
0.538338 0.958602 0.5673
0.646952 0.957824 0.567819
0.753674 0.955428 0.567697
0.854963 0.952544 0.567224
0.948638 0.95079 0.567483
1 0.951019 0.569177
1 0.95491 0.573098
1 0.961089 0.578195
1 0.96762 0.583398
0.0857404 0.128588 0.378408
0.150866 0.131167 0.380575
0.212467 0.133974 0.383185
0.290425 0.131899 0.383307
0.386191 0.125734 0.381216
0.488487 0.119295 0.379141
0.595956 0.114534 0.378271
0.70631 0.113848 0.379416
0.814527 0.117433 0.383062
0.123079 0.187503 0.40058
0.185626 0.191226 0.404059
0.257588 0.194141 0.407141
0.354238 0.193835 0.407706
0.462989 0.195026 0.408942
0.577554 0.198444 0.411246
0.692851 0.203326 0.41416
0.804242 0.210605 0.418036
0.909346 0.221057 0.423545
0.158343 0.261784 0.425071
0.23032 0.274739 0.431144
0.32372 0.285115 0.434958
0.431006 0.292729 0.437171
0.543816 0.300435 0.439628
0.658427 0.308415 0.442206
0.771374 0.318242 0.445716
0.879393 0.33019 0.450752
0.97908 0.344717 0.457465
0.197681 0.374899 0.452369
0.283238 0.390723 0.45864
0.388418 0.401816 0.461906
0.500862 0.412161 0.465049
0.616037 0.42208 0.467964
0.730816 0.433021 0.471397
0.841276 0.445106 0.475837
0.944747 0.459449 0.481819
1 0.476753 0.489616
0.244312 0.502358 0.481254
0.34435 0.516808 0.486061
0.455833 0.528847 0.48983
0.570718 0.539742 0.492958
0.686625 0.550668 0.496284
0.798764 0.56199 0.499962
0.904967 0.574838 0.504952
1 0.589456 0.511131
1 0.607446 0.519448
0.30341 0.633371 0.510887
0.412757 0.646067 0.515084
0.526543 0.656825 0.51838
0.642649 0.666651 0.521355
0.755917 0.676097 0.524392
0.863813 0.686442 0.528222
0.963058 0.697688 0.532876
1 0.711482 0.539361
1 0.727626 0.547585
0.375586 0.759075 0.541939
0.487572 0.768856 0.545296
0.602304 0.776837 0.547936
0.715694 0.783612 0.550195
0.824887 0.790616 0.552834
0.926268 0.797955 0.556054
1 0.806424 0.560433
1 0.816312 0.566293
1 0.826688 0.572656
0.458045 0.871763 0.575204
0.571145 0.87686 0.577768
0.684474 0.880232 0.579614
0.794034 0.882383 0.581018
0.895506 0.883589 0.582101
0.987442 0.885328 0.583764
1 0.889067 0.586984
1 0.895445 0.591684
1 0.90222 0.596475
0.548119 0.963623 0.610101
0.656229 0.96228 0.609812
0.762219 0.959411 0.608637
0.862684 0.956405 0.607263
0.955917 0.954528 0.606561
1 0.954879 0.607141
1 0.959182 0.609964
1 0.965393 0.613748
1 0.97229 0.617884
0.0895552 0.132021 0.418723
0.153872 0.134447 0.421271
0.215778 0.136889 0.424414
0.296239 0.134386 0.424674
0.393133 0.128481 0.423087
0.496971 0.122499 0.421607
0.605676 0.118853 0.421485
0.717021 0.119341 0.42359
0.826185 0.124239 0.428168
0.126436 0.190738 0.442634
0.189502 0.194766 0.44686
0.26453 0.198322 0.450294
0.364218 0.1991 0.451713
0.474113 0.201343 0.453666
0.589288 0.205432 0.456397
0.704311 0.210697 0.459525
0.815579 0.218723 0.463737
0.919997 0.22945 0.469596
0.164034 0.268513 0.469383
0.238193 0.282567 0.475929
0.333394 0.292744 0.479881
0.441718 0.300816 0.482521
0.555062 0.308782 0.48513
0.669657 0.317174 0.4878
0.782773 0.327276 0.491554
0.890257 0.3393 0.496681
0.989548 0.354528 0.503395
0.205646 0.383978 0.497932
0.2925 0.399512 0.504051
0.39939 0.410834 0.507607
0.512169 0.42118 0.510689
0.627512 0.431495 0.513527
0.742397 0.442435 0.51693
0.852705 0.454688 0.521416
0.955398 0.469306 0.527169
1 0.486625 0.5346
0.253376 0.511971 0.527001
0.35555 0.526375 0.531746
0.467079 0.538125 0.535164
0.582879 0.549187 0.53817
0.698039 0.55993 0.540963
0.810239 0.57145 0.544717
0.915511 0.584329 0.549264
1 0.598795 0.554971
1 0.616907 0.563104
0.314412 0.643137 0.556146
0.424338 0.655238 0.559853
0.538766 0.66601 0.56286
0.653986 0.675486 0.56524
0.767056 0.685039 0.567971
0.874083 0.694926 0.571115
0.97258 0.706172 0.575311
1 0.719966 0.581201
1 0.735805 0.588708
0.387335 0.767941 0.585931
0.499504 0.777401 0.588815
0.613642 0.784817 0.590692
0.726741 0.791592 0.592401
0.835081 0.797955 0.594125
0.935744 0.805127 0.596597
1 0.812909 0.599741
1 0.8224 0.604257
1 0.832349 0.609262
0.470008 0.879225 0.617655
0.582834 0.883741 0.619287
0.695674 0.886748 0.620172
0.803723 0.887831 0.619852
0.904341 0.888609 0.619547
0.995041 0.88986 0.619669
1 0.893904 0.621546
1 0.900252 0.624994
1 0.90695 0.628672
0.558465 0.968917 0.648905
0.665919 0.966934 0.647013
0.771176 0.9635 0.643885
0.871244 0.960433 0.641138
0.963241 0.958511 0.639124
1 0.959274 0.638788
1 0.96376 0.640696
1 0.970275 0.643885
1 0.977218 0.647578
0.0929732 0.135241 0.461524
0.156512 0.137545 0.464378
0.219242 0.13959 0.467628
0.302296 0.136721 0.467903
0.400259 0.131014 0.466514
0.505531 0.126146 0.465675
0.616053 0.123735 0.466148
0.728603 0.125536 0.468894
0.837919 0.131197 0.473838
0.129961 0.194018 0.48658
0.193805 0.198581 0.491096
0.271794 0.202579 0.494804
0.374044 0.204562 0.496773
0.485527 0.208072 0.499229
0.600916 0.21239 0.501869
0.716091 0.218463 0.505043
0.826856 0.226825 0.509163
0.930999 0.2383 0.514931
0.170077 0.275746 0.514473
0.246052 0.290394 0.521294
0.343435 0.300587 0.525154
0.452644 0.309026 0.527855
0.566003 0.317128 0.530098
0.681453 0.326024 0.532799
0.794293 0.336141 0.536263
0.90132 0.348928 0.541283
0.999741 0.364187 0.547768
0.213138 0.39292 0.543114
0.302678 0.40853 0.549172
0.410636 0.419974 0.552575
0.523735 0.43035 0.555245
0.639765 0.440894 0.557778
0.754177 0.451835 0.560784
0.864073 0.464546 0.565011
0.96553 0.479103 0.570138
1 0.49688 0.577447
0.26302 0.521965 0.571588
0.366995 0.53579 0.575845
0.479286 0.547723 0.578866
0.594736 0.558907 0.581308
0.709972 0.569543 0.583703
0.821714 0.581079 0.586847
0.925872 0.593698 0.590585
1 0.608515 0.59559
1 0.626276 0.60267
0.325933 0.652552 0.599222
0.436408 0.664759 0.602441
0.550698 0.675258 0.604623
0.665797 0.684672 0.606271
0.778622 0.694026 0.608026
0.884855 0.703746 0.609979
0.982422 0.714961 0.612802
1 0.728374 0.617395
1 0.744121 0.623545
0.399298 0.776944 0.626932
0.511269 0.785763 0.628458
0.62536 0.793225 0.629099
0.738399 0.799649 0.62948
0.846159 0.805768 0.62977
0.945907 0.812573 0.630747
1 0.819547 0.632517
1 0.828656 0.635904
1 0.837964 0.639796
0.482109 0.886519 0.654566
0.59501 0.890852 0.654795
0.707271 0.892989 0.653895
0.814435 0.893599 0.652277
0.913619 0.893812 0.650675
1 0.894987 0.649912
1 0.898939 0.651148
1 0.905074 0.653941
1 0.911879 0.657252
0.569223 0.974166 0.681056
0.675898 0.971557 0.677684
0.780621 0.968032 0.673823
0.879744 0.964675 0.670176
0.971099 0.962921 0.66772
1 0.963912 0.666957
1 0.968658 0.668757
1 0.975402 0.671885
1 0.981979 0.675242
0.0960555 0.138201 0.50547
0.158953 0.140337 0.508446
0.223194 0.142321 0.511543
0.308324 0.139178 0.511543
0.407645 0.134035 0.510109
0.514473 0.129885 0.509483
0.627176 0.129183 0.510521
0.740658 0.132189 0.513558
0.849897 0.138155 0.518517
0.133501 0.197421 0.530861
0.198932 0.202853 0.5355
0.27985 0.207385 0.539193
0.384466 0.21062 0.541283
0.49688 0.214725 0.543679
0.613123 0.219745 0.546181
0.728237 0.226413 0.548989
0.838621 0.23534 0.552941
0.942229 0.247517 0.558419
0.177035 0.283558 0.559045
0.254322 0.29836 0.565667
0.353902 0.30869 0.5691
0.463325 0.31722 0.571283
0.578103 0.32578 0.573343
0.693339 0.334829 0.575586
0.806256 0.345602 0.578973
0.912795 0.358801 0.583368
1 0.374395 0.589349
0.221805 0.402304 0.586877
0.313619 0.417685 0.592279
0.422095 0.428962 0.595056
0.535882 0.439887 0.597253
0.651713 0.450324 0.599207
0.766369 0.461723 0.601755
0.875303 0.474556 0.604623
0.976608 0.489372 0.608911
1 0.507439 0.615091
0.273823 0.53196 0.613626
0.378866 0.545571 0.617105
0.491402 0.557702 0.61915
0.606928 0.568521 0.620432
0.722377 0.579416 0.621881
0.833173 0.590738 0.623346
0.936919 0.603662 0.62591
1 0.618402 0.629801
1 0.636225 0.635935
0.338201 0.662516 0.638209
0.448905 0.674632 0.64004
0.563088 0.684749 0.640711
0.67834 0.694102 0.641199
0.790433 0.702968 0.641443
0.896132 0.712856 0.642374
0.992477 0.72369 0.644312
1 0.737285 0.648371
1 0.752514 0.653574
0.411841 0.786099 0.661448
0.523857 0.794797 0.661738
0.637934 0.801785 0.661433
0.750408 0.807553 0.660578
0.857496 0.813596 0.660212
0.955612 0.819654 0.660334
1 0.826337 0.661585
1 0.834806 0.664393
1 0.84387 0.667918
0.495354 0.894286 0.68603
0.607614 0.897993 0.685298
0.718654 0.899229 0.683406
0.82472 0.899275 0.681056
0.922606 0.899092 0.678859
1 0.900099 0.677867
1 0.903914 0.678935
1 0.910109 0.681788
1 0.916655 0.685023
0.579522 0.979309 0.709728
0.685954 0.976318 0.705791
0.790051 0.972534 0.701534
0.888395 0.9691 0.697704
0.978897 0.967422 0.695186
1 0.968475 0.694606
1 0.973556 0.696803
1 0.98027 0.70013
1 0.986938 0.703487
