EA 50 Cinematic Luts Pack/EA_Cinematic Lut (39).cube
TITLE "A very natural grading that works perfect with outside, semi-lighted shots."
LUT_3D_SIZE 9
0.0000 0.0000 0.0000
0.0868 0.0062 0.0028
0.1828 0.0222 0.0103
0.2963 0.0432 0.0227
0.4340 0.0643 0.0357
0.5541 0.0847 0.0441
0.6691 0.0970 0.0267
0.7953 0.1118 0.0000
0.9266 0.1367 0.0000
0.0160 0.0658 0.0092
0.1033 0.0672 0.0040
0.2078 0.0693 0.0000
0.3229 0.0785 0.0064
0.4553 0.0928 0.0194
0.5693 0.1083 0.0239
0.6801 0.1202 0.0000
0.7987 0.1404 0.0000
0.9298 0.1628 0.0000
0.0513 0.1510 0.0305
0.1055 0.1544 0.0044
0.2137 0.1539 0.0124
0.3480 0.1543 0.0000
0.4813 0.1609 0.0000
0.5882 0.1717 0.0000
0.6893 0.1859 0.0000
0.8075 0.2024 0.0000
0.9369 0.2212 0.0000
0.0850 0.2578 0.0518
0.1282 0.2600 0.0367
0.2049 0.2648 0.0000
0.3520 0.2625 0.0104
0.4979 0.2625 0.0000
0.6056 0.2667 0.0000
0.7059 0.2762 0.0000
0.8243 0.2880 0.0000
0.9509 0.3030 0.0000
0.0981 0.3791 0.0557
0.1398 0.3807 0.0401
0.2186 0.3839 0.0000
0.3384 0.3866 0.0000
0.5006 0.3832 0.0000
0.6158 0.3826 0.0000
0.7255 0.3850 0.0000
0.8457 0.3936 0.0000
0.9715 0.4057 0.0000
0.0830 0.5315 0.0292
0.1313 0.5328 0.0038
0.2266 0.5332 0.0000
0.3483 0.5352 0.0000
0.4906 0.5365 0.0000
0.6169 0.5326 0.0000
0.7337 0.5313 0.0000
0.8628 0.5334 0.0000
0.9929 0.5391 0.0000
0.0779 0.6931 0.0000
0.1404 0.6929 0.0000
0.2367 0.6927 0.0000
0.3629 0.6933 0.0000
0.4858 0.6968 0.0000
0.6104 0.6945 0.0000
0.7327 0.6912 0.0000
0.8710 0.6891 0.0000
0.9998 0.6922 0.0780
0.1050 0.8440 0.0134
0.1525 0.8443 0.0000
0.2474 0.8439 0.0000
0.3724 0.8443 0.0000
0.5012 0.8455 0.0000
0.5974 0.8496 0.0000
0.7265 0.8455 0.0000
0.8691 0.8430 0.0000
1.0000 0.8416 0.2115
0.2836 0.9819 0.1971
0.3018 0.9831 0.1865
0.3423 0.9866 0.1513
0.4027 0.9935 0.0675
0.5114 0.9966 0.0000
0.6088 0.9995 0.0000
0.7166 0.9999 0.1041
0.8676 0.9944 0.1632
0.9929 0.9815 0.5880
0.0067 0.0065 0.0200
0.0872 0.0085 0.0602
0.1860 0.0224 0.0642
0.3124 0.0349 0.0650
0.4611 0.0470 0.0623
0.5785 0.0619 0.0577
0.6901 0.0738 0.0419
0.8216 0.0835 0.0000
0.9492 0.1120 0.0000
0.0126 0.0669 0.0679
0.1003 0.0689 0.0632
0.2041 0.0715 0.0632
0.3183 0.0810 0.0668
0.4521 0.0952 0.0728
0.5675 0.1104 0.0753
0.6812 0.1197 0.0610
0.8209 0.1200 0.0000
0.9512 0.1415 0.0000
0.0540 0.1510 0.0818
0.0968 0.1568 0.0527
0.2016 0.1581 0.0582
0.3553 0.1530 0.0515
0.4851 0.1599 0.0554
0.5957 0.1675 0.0426
0.7072 0.1731 0.0000
0.8259 0.1892 0.0000
0.9555 0.2063 0.0000
0.0861 0.2578 0.0955
0.1183 0.2621 0.0677
0.1927 0.2687 0.0112
0.3469 0.2642 0.0639
0.5052 0.2612 0.0186
0.6161 0.2626 0.0000
0.7183 0.2702 0.0000
0.8376 0.2813 0.0000
0.9650 0.2946 0.0000
0.0929 0.3796 0.0967
0.1277 0.3827 0.0694
0.2042 0.3874 0.0179
0.3168 0.3921 0.0000
0.4975 0.3853 0.0313
0.6206 0.3820 0.0000
0.7335 0.3824 0.0000
0.8551 0.3899 0.0000
0.9819 0.4004 0.0000
0.0635 0.5329 0.0762
0.1164 0.5348 0.0472
0.2074 0.5373 0.0000
0.3347 0.5389 0.0000
0.4790 0.5411 0.0000
0.6148 0.5350 0.0000
0.7363 0.5316 0.0000
0.8692 0.5315 0.0000
0.9997 0.5364 0.0022
0.0000 0.6960 0.0390
0.0992 0.6966 0.0014
0.2160 0.6960 0.0000
0.3475 0.6964 0.0000
0.4782 0.6994 0.0000
0.6035 0.6979 0.0000
0.7308 0.6930 0.0000
0.8730 0.6894 0.0000
0.9999 0.6923 0.1123
0.0498 0.8465 0.0442
0.1363 0.8458 0.0403
0.2244 0.8468 0.0000
0.3575 0.8468 0.0000
0.4934 0.8478 0.0000
0.5894 0.8525 0.0000
0.7218 0.8478 0.0000
0.8675 0.8444 0.0000
1.0000 0.8418 0.2334
0.2955 0.9808 0.2340
0.3141 0.9818 0.2259
0.3557 0.9851 0.1976
0.4148 0.9918 0.1284
0.5011 0.9991 0.0000
0.6085 0.9998 0.0566
0.7168 0.9999 0.1370
0.8675 0.9944 0.1920
0.9929 0.9817 0.5992
0.0236 0.0231 0.0560
0.0722 0.0307 0.0921
0.1838 0.0295 0.1364
0.2961 0.0482 0.1424
0.4450 0.0612 0.1457
0.5732 0.0697 0.1435
0.7009 0.0609 0.1257
0.8658 0.0000 0.0735
1.0000 0.0297 0.0446
0.0275 0.0714 0.1180
0.0850 0.0760 0.1248
0.1939 0.0773 0.1404
0.3234 0.0807 0.1442
0.4693 0.0876 0.1420
0.5917 0.0912 0.1333
0.7189 0.0809 0.1089
0.8855 0.0332 0.0302
1.0000 0.0809 0.0461
0.0416 0.1534 0.1536
0.1050 0.1556 0.1510
0.2078 0.1575 0.1426
0.3509 0.1562 0.1307
0.4785 0.1643 0.1399
0.5908 0.1721 0.1360
0.7047 0.1761 0.1213
0.8498 0.1706 0.0828
1.0000 0.1645 0.0433
0.0845 0.2587 0.1699
0.1184 0.2624 0.1555
0.1863 0.2707 0.1183
0.3308 0.2698 0.1245
0.5117 0.2599 0.1153
0.6240 0.2596 0.1011
0.7383 0.2603 0.0730
0.8776 0.2583 0.0000
1.0000 0.2715 0.0348
0.1040 0.3788 0.1820
0.1236 0.3833 0.1582
0.1891 0.3912 0.1033
0.2947 0.3994 0.0433
0.4796 0.3924 0.1086
0.6292 0.3803 0.0729
0.7567 0.3742 0.0000
0.8814 0.3786 0.0000
1.0000 0.3908 0.0650
0.0891 0.5310 0.1769
0.1067 0.5356 0.1476
0.1824 0.5422 0.0881
0.2967 0.5486 0.0000
0.4429 0.5534 0.0000
0.6095 0.5392 0.0828
0.7459 0.5308 0.0000
0.8872 0.5256 0.0000
0.9997 0.5368 0.1193
0.0543 0.6941 0.1617
0.0734 0.6979 0.1267
0.1729 0.7019 0.0657
0.3066 0.7041 0.0000
0.4588 0.7059 0.0000
0.5794 0.7081 0.0000
0.7274 0.6966 0.0478
0.8783 0.6901 0.0000
0.9999 0.6926 0.1849
0.0902 0.8448 0.1653
0.1014 0.8480 0.1289
0.1989 0.8501 0.0853
0.3157 0.8532 0.0024
0.4704 0.8538 0.0000
0.5781 0.8576 0.0000
0.7028 0.8558 0.0000
0.8632 0.8470 0.0845
1.0000 0.8422 0.2841
0.3264 0.9779 0.3132
0.3437 0.9788 0.3075
0.3845 0.9816 0.2902
0.4421 0.9879 0.2417
0.5012 0.9990 0.1304
0.6097 0.9998 0.1417
0.7170 0.9999 0.2108
0.8672 0.9946 0.2563
0.9931 0.9823 0.6291
0.0506 0.0450 0.0959
0.0792 0.0510 0.1305
0.1610 0.0582 0.1831
0.2975 0.0537 0.2386
0.4322 0.0735 0.2463
0.5591 0.0871 0.2513
0.6860 0.0827 0.2507
0.8495 0.0446 0.2298
1.0000 0.0310 0.2017
0.0676 0.0816 0.1532
0.0983 0.0873 0.1627
0.1759 0.0921 0.2055
0.3066 0.0915 0.2429
0.4502 0.1011 0.2503
0.5752 0.1085 0.2525
0.7017 0.1017 0.2461
0.8672 0.0663 0.2167
1.0000 0.0814 0.2036
0.0546 0.1580 0.2284
0.0861 0.1615 0.2443
0.1887 0.1655 0.2378
0.3212 0.1667 0.2455
0.4872 0.1620 0.2498
0.6098 0.1597 0.2423
0.7396 0.1476 0.2213
0.9068 0.1142 0.1744
1.0000 0.1641 0.2094
0.0677 0.2617 0.2680
0.1198 0.2633 0.2658
0.2016 0.2675 0.2596
0.3406 0.2683 0.2480
0.5127 0.2621 0.2163
0.6153 0.2658 0.2262
0.7290 0.2668 0.2165
0.8742 0.2616 0.1850
1.0000 0.2709 0.2117
0.0872 0.3811 0.2831
0.1261 0.3835 0.2744
0.1872 0.3913 0.2428
0.2868 0.4011 0.2015
0.4807 0.3945 0.2070
0.6368 0.3784 0.1885
0.7674 0.3703 0.1628
0.9037 0.3682 0.1352
1.0000 0.3911 0.2104
0.0901 0.5312 0.2914
0.1209 0.5343 0.2775
0.1711 0.5435 0.2320
0.2741 0.5540 0.1520
0.4191 0.5627 0.0961
0.5869 0.5516 0.1715
0.7503 0.5309 0.1468
0.9224 0.5126 0.0254
0.9998 0.5375 0.2384
0.0809 0.6927 0.2908
0.1063 0.6958 0.2718
0.1483 0.7041 0.2120
0.2664 0.7109 0.1280
0.4151 0.7177 0.0000
0.5465 0.7220 0.0000
0.7061 0.7062 0.1576
0.8834 0.6902 0.1330
1.0000 0.6930 0.2900
0.1237 0.8427 0.2993
0.1404 0.8453 0.2797
0.1727 0.8524 0.2197
0.2897 0.8572 0.1467
0.4289 0.8631 0.0480
0.5577 0.8664 0.0000
0.6633 0.8714 0.0000
0.8515 0.8520 0.1946
1.0000 0.8430 0.3622
0.3689 0.9733 0.4199
0.3877 0.9742 0.4182
0.4265 0.9768 0.4083
0.4814 0.9814 0.3850
0.5363 0.9909 0.3252
0.6112 0.9999 0.2575
0.7175 1.0000 0.3155
0.8665 0.9951 0.3483
0.9933 0.9834 0.6836
0.0785 0.0684 0.1426
0.0984 0.0743 0.1669
0.1568 0.0826 0.2270
0.2655 0.0862 0.2985
0.4354 0.0789 0.3558
0.5543 0.0968 0.3679
0.6717 0.1032 0.3774
0.8268 0.0814 0.3781
1.0000 0.0297 0.3613
0.0952 0.0983 0.1952
0.1158 0.1039 0.2054
0.1687 0.1099 0.2664
0.2775 0.1152 0.3120
0.4425 0.1108 0.3601
0.5656 0.1208 0.3730
0.6843 0.1231 0.3792
0.8419 0.1000 0.3758
1.0000 0.0809 0.3621
0.0870 0.1665 0.2924
0.1191 0.1697 0.2975
0.1816 0.1776 0.3064
0.2974 0.1806 0.3371
0.4574 0.1796 0.3662
0.5901 0.1765 0.3786
0.7136 0.1710 0.3778
0.8765 0.1457 0.3627
1.0000 0.1642 0.3635
0.1101 0.2646 0.3468
0.1191 0.2680 0.3622
0.1541 0.2750 0.3978
0.3157 0.2763 0.3655
0.4741 0.2767 0.3671
0.6238 0.2615 0.3694
0.7599 0.2480 0.3533
0.9261 0.2226 0.3216
1.0000 0.2709 0.3659
0.0609 0.3844 0.3996
0.1183 0.3856 0.3974
0.2033 0.3887 0.3931
0.3143 0.3944 0.3830
0.4877 0.3922 0.3667
0.6353 0.3815 0.3223
0.7561 0.3780 0.3133
0.8880 0.3778 0.3177
1.0000 0.3904 0.3715
0.0457 0.5346 0.4106
0.1051 0.5363 0.4049
0.1854 0.5415 0.3857
0.2693 0.5540 0.3361
0.4097 0.5640 0.3003
0.5987 0.5492 0.3055
0.7652 0.5267 0.2792
0.9260 0.5112 0.2471
0.9999 0.5382 0.3751
0.0614 0.6938 0.4192
0.1059 0.6958 0.4094
0.1745 0.7011 0.3820
0.2453 0.7129 0.3146
0.3980 0.7203 0.2519
0.5349 0.7277 0.1843
0.6979 0.7117 0.2806
0.8826 0.6925 0.2748
1.0000 0.6937 0.4122
0.1329 0.8420 0.4325
0.1570 0.8439 0.4216
0.2038 0.8491 0.3898
0.2583 0.8603 0.3141
0.4091 0.8670 0.2271
0.5362 0.8745 0.1370
0.6475 0.8792 0.1513
0.8209 0.8644 0.2879
1.0000 0.8440 0.4644
0.3997 0.9701 0.5303
0.4195 0.9704 0.5308
0.4634 0.9714 0.5311
0.5197 0.9737 0.5273
0.5738 0.9811 0.5023
0.6249 0.9956 0.4285
0.7210 1.0000 0.4257
0.8609 0.9982 0.4360
0.9938 0.9851 0.7562
0.1065 0.0939 0.1986
0.1217 0.0990 0.2194
0.1643 0.1070 0.2809
0.2503 0.1167 0.3458
0.4004 0.1159 0.4259
0.5585 0.1009 0.4926
0.6698 0.1099 0.5123
0.8105 0.1042 0.5241
0.9869 0.0597 0.5251
0.1210 0.1197 0.2453
0.1366 0.1250 0.2549
0.1753 0.1328 0.3084
0.2637 0.1408 0.3663
0.4105 0.1415 0.4367
0.5634 0.1294 0.4971
0.6774 0.1338 0.5165
0.8219 0.1245 0.5260
0.9959 0.0861 0.5269
0.1316 0.1800 0.3372
0.1511 0.1836 0.3436
0.1954 0.1926 0.3572
0.2802 0.1973 0.4252
0.4307 0.2007 0.4575
0.5741 0.1926 0.5046
0.6958 0.1880 0.5231
0.8476 0.1737 0.5270
0.9998 0.1633 0.5281
0.0873 0.2748 0.4454
0.1120 0.2771 0.4556
0.1717 0.2821 0.4750
0.2825 0.2891 0.4725
0.4485 0.2892 0.4864
0.5849 0.2857 0.5065
0.7240 0.2705 0.5216
0.8853 0.2524 0.5156
0.9999 0.2703 0.5290
0.1230 0.3866 0.4912
0.1529 0.3882 0.4930
0.1760 0.3948 0.5217
0.2279 0.4041 0.5727
0.4642 0.4007 0.5070
0.5978 0.3988 0.4990
0.7621 0.3731 0.4989
0.9090 0.3654 0.4823
1.0000 0.3900 0.5306
0.0000 0.5373 0.5445
0.0863 0.5385 0.5426
0.1884 0.5409 0.5383
0.3074 0.5452 0.5302
0.4499 0.5506 0.5264
0.6028 0.5457 0.4968
0.7602 0.5306 0.4416
0.9099 0.5193 0.4485
0.9994 0.5377 0.5341
0.0000 0.6959 0.5529
0.0685 0.6978 0.5476
0.1748 0.7006 0.5354
0.2783 0.7077 0.5042
0.3976 0.7191 0.4599
0.5340 0.7263 0.4234
0.7111 0.7090 0.4276
0.9156 0.6825 0.3934
0.9995 0.6947 0.5443
0.1089 0.8436 0.5664
0.1443 0.8448 0.5602
0.2107 0.8480 0.5436
0.2954 0.8553 0.5068
0.3783 0.8706 0.4211
0.4984 0.8832 0.3348
0.6304 0.8886 0.2642
0.8255 0.8677 0.3737
0.9996 0.8452 0.5852
0.4079 0.9705 0.6545
0.4297 0.9705 0.6567
0.4771 0.9705 0.6620
0.5385 0.9707 0.6694
0.6046 0.9732 0.6736
0.6649 0.9820 0.6465
0.7247 0.9995 0.5546
0.8554 0.9996 0.5764
0.9946 0.9874 0.8237
0.1348 0.1223 0.2610
0.1470 0.1268 0.2784
0.1791 0.1354 0.3317
0.2503 0.1461 0.3991
0.3755 0.1523 0.4839
0.5331 0.1419 0.5762
0.6738 0.1134 0.6702
0.8103 0.1082 0.7045
0.9719 0.0865 0.7217
0.1473 0.1452 0.3013
0.1600 0.1501 0.3101
0.1916 0.1589 0.3515
0.2614 0.1668 0.4280
0.3876 0.1734 0.5006
0.5391 0.1651 0.5861
0.6774 0.1408 0.6750
0.8168 0.1331 0.7084
0.9905 0.0921 0.7350
0.1630 0.1991 0.3882
0.1774 0.2028 0.3950
0.2122 0.2121 0.4110
0.2744 0.2190 0.4888
0.4104 0.2237 0.5390
0.5517 0.2196 0.6062
0.6857 0.2020 0.6831
0.8306 0.1910 0.7140
0.9941 0.1681 0.7369
0.1330 0.2853 0.5150
0.1560 0.2875 0.5194
0.2067 0.2929 0.5298
0.2860 0.3023 0.5425
0.4081 0.3025 0.6499
0.5659 0.3027 0.6289
0.6941 0.2931 0.6847
0.8530 0.2756 0.7133
0.9987 0.2699 0.7386
0.0000 0.3993 0.6225
0.0333 0.4018 0.6366
0.1244 0.4060 0.6633
0.2199 0.4125 0.7058
0.4272 0.4148 0.6485
0.5716 0.4134 0.6618
0.7007 0.4078 0.6752
0.8775 0.3826 0.6939
1.0000 0.3888 0.7373
0.0829 0.5405 0.6739
0.1248 0.5418 0.6754
0.1986 0.5449 0.6791
0.2368 0.5549 0.7344
0.3564 0.5622 0.7786
0.5834 0.5551 0.6725
0.7157 0.5497 0.6512
0.8811 0.5312 0.6762
0.9995 0.5372 0.7351
0.0000 0.6974 0.7309
0.0366 0.6999 0.7305
0.1726 0.7013 0.7251
0.2987 0.7040 0.7166
0.4445 0.7085 0.7000
0.5672 0.7111 0.7078
0.7135 0.7054 0.6512
0.9038 0.6837 0.6356
0.9996 0.6949 0.7381
0.0540 0.8469 0.7420
0.1140 0.8476 0.7377
0.2020 0.8496 0.7264
0.3096 0.8539 0.7004
0.4293 0.8623 0.6484
0.5106 0.8773 0.5977
0.6352 0.8831 0.5567
0.8395 0.8654 0.5336
0.9998 0.8464 0.7636
0.3917 0.9747 0.7898
0.4154 0.9745 0.7912
0.4680 0.9743 0.7950
0.5359 0.9736 0.8010
0.6100 0.9740 0.8092
0.6900 0.9756 0.8190
0.7681 0.9850 0.8096
0.8554 0.9998 0.7724
0.9957 0.9906 0.8866
0.1636 0.1535 0.3267
0.1740 0.1576 0.3419
0.2010 0.1668 0.3818
0.2589 0.1759 0.4638
0.3665 0.1859 0.5450
0.5100 0.1838 0.6662
0.6507 0.1586 0.7884
0.8130 0.1121 0.8548
0.9710 0.0894 0.8757
0.1745 0.1740 0.3627
0.1852 0.1785 0.3712
0.2118 0.1869 0.4090
0.2664 0.1943 0.4986
0.3784 0.2041 0.5666
0.5172 0.2026 0.6854
0.6549 0.1809 0.7945
0.8156 0.1409 0.8562
0.9897 0.0922 0.8877
0.1906 0.2226 0.4465
0.2022 0.2263 0.4535
0.2313 0.2352 0.4704
0.2845 0.2444 0.5331
0.3976 0.2479 0.6321
0.5312 0.2487 0.7239
0.6634 0.2337 0.8059
0.8212 0.2048 0.8580
0.9925 0.1686 0.8896
0.1804 0.3001 0.5734
0.1962 0.3025 0.5788
0.2343 0.3084 0.5926
0.3003 0.3188 0.6132
0.3991 0.3230 0.7315
0.5460 0.3221 0.7745
0.6733 0.3150 0.8160
0.8270 0.2971 0.8565
0.9957 0.2711 0.8917
0.0598 0.4099 0.7475
0.0893 0.4119 0.7574
0.1529 0.4162 0.7758
0.2582 0.4222 0.7867
0.3917 0.4322 0.7891
0.5354 0.4275 0.8535
0.6816 0.4251 0.8213
0.8296 0.4144 0.8477
0.9970 0.3891 0.8925
0.0000 0.5516 0.8100
0.0000 0.5544 0.8202
0.0000 0.5612 0.8461
0.1586 0.5673 0.8706
0.2882 0.5749 0.8964
0.5314 0.5698 0.8756
0.6891 0.5600 0.8586
0.8376 0.5551 0.8506
0.9950 0.5386 0.8912
0.0476 0.7015 0.8462
0.1052 0.7023 0.8467
0.1894 0.7043 0.8481
0.2878 0.7082 0.8544
0.3421 0.7184 0.8938
0.4440 0.7280 0.9333
0.6859 0.7106 0.8794
0.8421 0.7063 0.8555
0.9933 0.6974 0.8896
0.0060 0.8494 0.8752
0.0983 0.8498 0.8741
0.2001 0.8508 0.8713
0.3199 0.8530 0.8674
0.4599 0.8562 0.8614
0.5665 0.8615 0.8600
0.6893 0.8605 0.8660
0.8528 0.8520 0.8690
0.9998 0.8475 0.8915
0.3778 0.9790 0.8881
0.4018 0.9790 0.8887
0.4555 0.9790 0.8903
0.5257 0.9789 0.8931
0.6017 0.9794 0.8974
0.6857 0.9802 0.9049
0.7849 0.9822 0.9140
0.8838 0.9906 0.9160
0.9975 0.9947 0.9451
0.1929 0.1871 0.3979
0.2019 0.1908 0.4121
0.2252 0.1993 0.4489
0.2707 0.2070 0.5412
0.3688 0.2187 0.6203
0.4963 0.2222 0.7546
0.6260 0.2064 0.8611
0.7858 0.1628 0.9313
0.9697 0.0979 0.9763
0.2021 0.2055 0.4321
0.2110 0.2088 0.4460
0.2346 0.2164 0.4820
0.2813 0.2240 0.5676
0.3819 0.2318 0.6686
0.5092 0.2323 0.7915
0.6394 0.2128 0.8852
0.8045 0.1646 0.9493
0.9878 0.0987 0.9885
0.2168 0.2493 0.5119
0.2258 0.2519 0.5249
0.2504 0.2579 0.5599
0.3019 0.2652 0.6378
0.4064 0.2640 0.7808
0.5358 0.2576 0.8640
0.6714 0.2292 0.9391
0.8389 0.1859 0.9809
0.9902 0.1738 0.9902
0.2150 0.3195 0.6505
0.2248 0.3215 0.6668
0.2515 0.3259 0.7087
0.3096 0.3303 0.7831
0.4114 0.3207 0.9039
0.5634 0.3071 0.9499
0.6904 0.2984 0.9680
0.8420 0.2834 0.9839
0.9927 0.2750 0.9922
0.1339 0.4236 0.8237
0.1487 0.4253 0.8324
0.1855 0.4292 0.8545
0.2529 0.4328 0.8942
0.3835 0.4278 0.9538
0.5681 0.4202 0.9529
0.6942 0.4124 0.9702
0.8432 0.4002 0.9858
0.9934 0.3925 0.9930
0.0000 0.5632 0.8957
0.0000 0.5657 0.9041
0.0000 0.5716 0.9260
0.0000 0.5801 0.9683
0.2956 0.5772 0.9874
0.5590 0.5661 0.9644
0.6964 0.5578 0.9685
0.8409 0.5486 0.9846
0.9912 0.5418 0.9919
0.0887 0.7082 0.9236
0.0757 0.7109 0.9297
0.0180 0.7176 0.9461
0.0000 0.7271 0.9728
0.1980 0.7328 0.9999
0.5008 0.7236 0.9998
0.6934 0.7111 0.9720
0.8406 0.7046 0.9816
0.9887 0.7004 0.9908
0.1275 0.8509 0.9537
0.1312 0.8530 0.9562
0.1408 0.8581 0.9627
0.1586 0.8670 0.9745
0.2701 0.8742 0.9868
0.5263 0.8688 0.9824
0.6625 0.8652 0.9960
0.8440 0.8547 0.9818
0.9901 0.8519 0.9925
0.3960 0.9811 0.9691
0.4186 0.9811 0.9695
0.4689 0.9812 0.9704
0.5346 0.9813 0.9718
0.6082 0.9821 0.9745
0.6889 0.9837 0.9783
0.7851 0.9869 0.9837
0.8919 0.9920 0.9908
0.9999 0.9999 0.9999
