EA 50 Cinematic Luts Pack/EA_Cinematic Lut (31).cube
TITLE "A very gloomy grade that will freeze your footage into a bluish, horror-like composition of hues."
LUT_3D_SIZE 25
0.0000 0.0000 0.0000
0.0148 0.0068 0.0055
0.0346 0.0162 0.0129
0.0569 0.0304 0.0243
0.0794 0.0500 0.0400
0.1021 0.0715 0.0580
0.1252 0.0931 0.0761
0.1486 0.1149 0.0943
0.1723 0.1366 0.1124
0.1961 0.1581 0.1304
0.2202 0.1795 0.1483
0.2447 0.2008 0.1663
0.2697 0.2222 0.1842
0.2951 0.2435 0.2022
0.3210 0.2646 0.2200
0.3476 0.2857 0.2379
0.3762 0.3070 0.2560
0.4064 0.3282 0.2741
0.4381 0.3494 0.2923
0.4710 0.3703 0.3103
0.5045 0.3910 0.3282
0.5390 0.4116 0.3462
0.5755 0.4323 0.3643
0.6128 0.4525 0.3822
0.6506 0.4721 0.4001
0.0095 0.0427 0.0173
0.0290 0.0479 0.0173
0.0479 0.0545 0.0314
0.0686 0.0650 0.0447
0.0897 0.0787 0.0579
0.1111 0.0947 0.0724
0.1330 0.1124 0.0880
0.1554 0.1311 0.1043
0.1783 0.1505 0.1211
0.2014 0.1701 0.1379
0.2250 0.1901 0.1550
0.2491 0.2103 0.1722
0.2737 0.2306 0.1895
0.2988 0.2511 0.2069
0.3245 0.2716 0.2244
0.3510 0.2921 0.2420
0.3795 0.3129 0.2598
0.4096 0.3336 0.2776
0.4413 0.3543 0.2954
0.4740 0.3749 0.3133
0.5074 0.3953 0.3310
0.5419 0.4157 0.3488
0.5782 0.4360 0.3667
0.6154 0.4559 0.3845
0.6533 0.4752 0.4022
0.0224 0.0887 0.0410
0.0392 0.0929 0.0341
0.0585 0.0962 0.0410
0.0772 0.1023 0.0617
0.0979 0.1112 0.0763
0.1191 0.1227 0.0898
0.1408 0.1364 0.1031
0.1628 0.1518 0.1173
0.1851 0.1685 0.1323
0.2078 0.1859 0.1477
0.2309 0.2041 0.1636
0.2546 0.2228 0.1800
0.2788 0.2419 0.1965
0.3036 0.2613 0.2133
0.3290 0.2808 0.2302
0.3555 0.3007 0.2474
0.3839 0.3207 0.2648
0.4140 0.3409 0.2822
0.4455 0.3611 0.2998
0.4780 0.3812 0.3173
0.5112 0.4011 0.3348
0.5458 0.4211 0.3523
0.5820 0.4410 0.3700
0.6190 0.4606 0.3876
0.6568 0.4795 0.4052
0.0406 0.1350 0.0701
0.0510 0.1390 0.0610
0.0686 0.1413 0.0612
0.0885 0.1449 0.0703
0.1078 0.1504 0.0930
0.1279 0.1587 0.1078
0.1492 0.1688 0.1220
0.1710 0.1805 0.1351
0.1932 0.1939 0.1482
0.2156 0.2086 0.1620
0.2385 0.2245 0.1764
0.2618 0.2411 0.1915
0.2858 0.2585 0.2069
0.3102 0.2764 0.2227
0.3353 0.2947 0.2389
0.3619 0.3135 0.2555
0.3903 0.3325 0.2722
0.4203 0.3518 0.2892
0.4517 0.3712 0.3062
0.4839 0.3905 0.3233
0.5170 0.4099 0.3404
0.5515 0.4292 0.3576
0.5875 0.4485 0.3750
0.6243 0.4675 0.3923
0.6622 0.4858 0.4096
0.0594 0.1814 0.0995
0.0638 0.1858 0.0880
0.0801 0.1872 0.0883
0.0986 0.1900 0.0893
0.1190 0.1936 0.0997
0.1386 0.1985 0.1240
0.1580 0.2064 0.1389
0.1796 0.2151 0.1532
0.2014 0.2257 0.1672
0.2240 0.2376 0.1799
0.2469 0.2508 0.1930
0.2702 0.2651 0.2066
0.2940 0.2804 0.2208
0.3183 0.2965 0.2355
0.3434 0.3133 0.2507
0.3702 0.3306 0.2664
0.3985 0.3484 0.2823
0.4284 0.3665 0.2985
0.4598 0.3849 0.3150
0.4916 0.4032 0.3315
0.5245 0.4217 0.3481
0.5590 0.4403 0.3649
0.5949 0.4588 0.3818
0.6314 0.4768 0.3987
0.6695 0.4945 0.4157
0.0782 0.2275 0.1287
0.0808 0.2312 0.1188
0.0924 0.2331 0.1152
0.1097 0.2350 0.1152
0.1288 0.2380 0.1176
0.1496 0.2416 0.1287
0.1696 0.2461 0.1545
0.1887 0.2538 0.1696
0.2106 0.2618 0.1843
0.2329 0.2713 0.1983
0.2554 0.2822 0.2123
0.2790 0.2942 0.2247
0.3029 0.3072 0.2378
0.3273 0.3213 0.2514
0.3527 0.3364 0.2656
0.3797 0.3521 0.2802
0.4082 0.3683 0.2952
0.4382 0.3851 0.3105
0.4693 0.4021 0.3261
0.5010 0.4193 0.3418
0.5338 0.4367 0.3578
0.5683 0.4542 0.3741
0.6039 0.4715 0.3905
0.6401 0.4886 0.4069
0.6788 0.5056 0.4234
0.0969 0.2730 0.1578
0.0992 0.2759 0.1501
0.1050 0.2790 0.1418
0.1216 0.2802 0.1421
0.1398 0.2825 0.1420
0.1594 0.2857 0.1458
0.1806 0.2892 0.1577
0.2012 0.2934 0.1849
0.2207 0.3006 0.2005
0.2421 0.3085 0.2153
0.2649 0.3172 0.2295
0.2881 0.3271 0.2434
0.3119 0.3384 0.2571
0.3367 0.3505 0.2698
0.3627 0.3636 0.2830
0.3901 0.3775 0.2965
0.4189 0.3921 0.3106
0.4490 0.4073 0.3250
0.4799 0.4229 0.3397
0.5116 0.4387 0.3547
0.5445 0.4547 0.3699
0.5791 0.4708 0.3854
0.6144 0.4868 0.4010
0.6505 0.5029 0.4168
0.6902 0.5190 0.4328
0.1159 0.3182 0.1868
0.1179 0.3206 0.1806
0.1200 0.3241 0.1703
0.1340 0.3254 0.1688
0.1513 0.3271 0.1691
0.1703 0.3297 0.1692
0.1906 0.3329 0.1739
0.2122 0.3364 0.1867
0.2334 0.3404 0.2148
0.2534 0.3471 0.2313
0.2745 0.3551 0.2461
0.2981 0.3633 0.2608
0.3220 0.3726 0.2749
0.3465 0.3831 0.2890
0.3728 0.3944 0.3023
0.4008 0.4065 0.3150
0.4301 0.4193 0.3282
0.4605 0.4328 0.3417
0.4914 0.4466 0.3555
0.5232 0.4609 0.3696
0.5564 0.4752 0.3840
0.5908 0.4898 0.3987
0.6260 0.5047 0.4136
0.6624 0.5197 0.4288
0.7033 0.5348 0.4441
0.1350 0.3629 0.2158
0.1367 0.3649 0.2107
0.1387 0.3678 0.2024
0.1469 0.3704 0.1956
0.1639 0.3716 0.1956
0.1819 0.3736 0.1958
0.2016 0.3764 0.1964
0.2225 0.3797 0.2025
0.2447 0.3834 0.2159
0.2665 0.3873 0.2443
0.2874 0.3937 0.2624
0.3081 0.4017 0.2771
0.3322 0.4094 0.2921
0.3574 0.4181 0.3064
0.3839 0.4277 0.3205
0.4117 0.4382 0.3346
0.4413 0.4493 0.3475
0.4721 0.4609 0.3602
0.5032 0.4727 0.3731
0.5352 0.4851 0.3863
0.5689 0.4980 0.3999
0.6034 0.5113 0.4139
0.6386 0.5249 0.4281
0.6759 0.5387 0.4425
0.7179 0.5531 0.4573
0.1543 0.4074 0.2449
0.1559 0.4091 0.2405
0.1577 0.4116 0.2336
0.1606 0.4153 0.2222
0.1767 0.4162 0.2228
0.1944 0.4179 0.2230
0.2136 0.4202 0.2226
0.2337 0.4231 0.2249
0.2553 0.4265 0.2318
0.2782 0.4300 0.2452
0.3006 0.4338 0.2739
0.3222 0.4396 0.2934
0.3437 0.4471 0.3083
0.3683 0.4547 0.3233
0.3955 0.4626 0.3378
0.4239 0.4712 0.3519
0.4534 0.4805 0.3659
0.4834 0.4904 0.3798
0.5150 0.5006 0.3921
0.5476 0.5114 0.4046
0.5817 0.5229 0.4176
0.6164 0.5348 0.4307
0.6519 0.5474 0.4442
0.6908 0.5604 0.4580
0.7338 0.5737 0.4718
0.1740 0.4512 0.2742
0.1754 0.4527 0.2704
0.1772 0.4548 0.2646
0.1794 0.4581 0.2545
0.1901 0.4601 0.2498
0.2077 0.4612 0.2497
0.2259 0.4631 0.2503
0.2458 0.4655 0.2501
0.2667 0.4683 0.2533
0.2889 0.4715 0.2612
0.3125 0.4748 0.2745
0.3355 0.4783 0.3033
0.3584 0.4835 0.3242
0.3817 0.4903 0.3394
0.4070 0.4976 0.3541
0.4360 0.5047 0.3688
0.4660 0.5125 0.3830
0.4963 0.5208 0.3968
0.5274 0.5298 0.4105
0.5600 0.5396 0.4242
0.5945 0.5500 0.4364
0.6297 0.5609 0.4490
0.6660 0.5723 0.4619
0.7066 0.5840 0.4747
0.7504 0.5961 0.4878
0.1939 0.4928 0.3034
0.1952 0.4940 0.3000
0.1968 0.4957 0.2950
0.1989 0.4984 0.2864
0.2041 0.5015 0.2764
0.2208 0.5024 0.2770
0.2389 0.5037 0.2771
0.2582 0.5057 0.2772
0.2788 0.5081 0.2775
0.3004 0.5110 0.2817
0.3233 0.5140 0.2904
0.3478 0.5173 0.3037
0.3726 0.5206 0.3325
0.3975 0.5254 0.3548
0.4226 0.5317 0.3703
0.4482 0.5389 0.3847
0.4784 0.5456 0.3996
0.5093 0.5528 0.4138
0.5410 0.5608 0.4276
0.5742 0.5695 0.4414
0.6080 0.5789 0.4553
0.6428 0.5887 0.4684
0.6806 0.5988 0.4802
0.7227 0.6093 0.4925
0.7673 0.6203 0.5050
0.2140 0.5327 0.3325
0.2152 0.5338 0.3295
0.2167 0.5352 0.3252
0.2187 0.5376 0.3177
0.2212 0.5410 0.3062
0.2345 0.5424 0.3038
0.2526 0.5434 0.3038
0.2712 0.5451 0.3043
0.2915 0.5472 0.3039
0.3129 0.5497 0.3049
0.3352 0.5526 0.3100
0.3593 0.5557 0.3197
0.3860 0.5589 0.3328
0.4126 0.5622 0.3617
0.4394 0.5667 0.3854
0.4660 0.5727 0.4011
0.4925 0.5795 0.4154
0.5223 0.5861 0.4301
0.5548 0.5930 0.4444
0.5884 0.6006 0.4585
0.6226 0.6087 0.4720
0.6574 0.6174 0.4854
0.6960 0.6266 0.4989
0.7389 0.6361 0.5113
0.7840 0.6459 0.5231
0.2345 0.5723 0.3617
0.2356 0.5733 0.3590
0.2370 0.5746 0.3552
0.2389 0.5767 0.3486
0.2413 0.5797 0.3386
0.2489 0.5823 0.3306
0.2663 0.5831 0.3311
0.2851 0.5843 0.3310
0.3046 0.5861 0.3315
0.3258 0.5883 0.3310
0.3481 0.5909 0.3327
0.3722 0.5937 0.3384
0.3984 0.5967 0.3491
0.4270 0.5999 0.3621
0.4554 0.6030 0.3909
0.4833 0.6071 0.4156
0.5106 0.6126 0.4315
0.5383 0.6190 0.4460
0.5687 0.6259 0.4605
0.6026 0.6324 0.4747
0.6371 0.6395 0.4885
0.6732 0.6471 0.5020
0.7136 0.6552 0.5153
0.7564 0.6638 0.5285
0.8003 0.6728 0.5419
0.2553 0.6111 0.3908
0.2563 0.6120 0.3883
0.2576 0.6131 0.3849
0.2595 0.6150 0.3792
0.2617 0.6176 0.3704
0.2643 0.6211 0.3578
0.2806 0.6219 0.3580
0.2992 0.6229 0.3580
0.3184 0.6244 0.3584
0.3391 0.6262 0.3585
0.3617 0.6285 0.3585
0.3860 0.6311 0.3611
0.4123 0.6339 0.3667
0.4401 0.6369 0.3783
0.4703 0.6399 0.3911
0.4994 0.6427 0.4197
0.5286 0.6464 0.4456
0.5576 0.6518 0.4617
0.5870 0.6580 0.4761
0.6168 0.6649 0.4900
0.6515 0.6711 0.5044
0.6894 0.6777 0.5181
0.7311 0.6847 0.5315
0.7747 0.6924 0.5449
0.8188 0.7006 0.5584
0.2764 0.6490 0.4197
0.2773 0.6498 0.4175
0.2786 0.6509 0.4144
0.2803 0.6525 0.4093
0.2825 0.6549 0.4015
0.2850 0.6580 0.3905
0.2953 0.6600 0.3847
0.3134 0.6608 0.3851
0.3330 0.6619 0.3849
0.3533 0.6636 0.3856
0.3762 0.6655 0.3852
0.4006 0.6679 0.3859
0.4267 0.6705 0.3893
0.4549 0.6733 0.3949
0.4837 0.6760 0.4074
0.5148 0.6788 0.4199
0.5454 0.6816 0.4483
0.5765 0.6852 0.4746
0.6066 0.6903 0.4911
0.6367 0.6962 0.5056
0.6677 0.7027 0.5193
0.7059 0.7089 0.5335
0.7487 0.7152 0.5476
0.7929 0.7221 0.5614
0.8334 0.7301 0.5778
0.2979 0.6864 0.4485
0.2987 0.6871 0.4465
0.2999 0.6880 0.4436
0.3016 0.6895 0.4391
0.3036 0.6916 0.4322
0.3061 0.6944 0.4223
0.3107 0.6976 0.4111
0.3282 0.6982 0.4118
0.3478 0.6992 0.4119
0.3686 0.7005 0.4121
0.3912 0.7023 0.4125
0.4162 0.7043 0.4116
0.4422 0.7067 0.4131
0.4697 0.7093 0.4174
0.4988 0.7118 0.4228
0.5286 0.7144 0.4361
0.5615 0.7172 0.4485
0.5936 0.7199 0.4764
0.6254 0.7233 0.5025
0.6565 0.7280 0.5200
0.6901 0.7337 0.5347
0.7265 0.7401 0.5488
0.7665 0.7466 0.5631
0.8109 0.7527 0.5775
0.8375 0.7621 0.6070
0.3196 0.7231 0.4768
0.3204 0.7238 0.4750
0.3215 0.7247 0.4724
0.3232 0.7261 0.4685
0.3252 0.7280 0.4623
0.3276 0.7306 0.4536
0.3303 0.7339 0.4417
0.3436 0.7354 0.4382
0.3632 0.7362 0.4386
0.3849 0.7372 0.4383
0.4071 0.7387 0.4391
0.4317 0.7405 0.4390
0.4582 0.7425 0.4386
0.4854 0.7447 0.4398
0.5136 0.7470 0.4449
0.5441 0.7496 0.4508
0.5758 0.7523 0.4645
0.6100 0.7551 0.4765
0.6428 0.7577 0.5039
0.6769 0.7610 0.5302
0.7134 0.7656 0.5491
0.7514 0.7712 0.5644
0.7901 0.7772 0.5787
0.8229 0.7840 0.6001
0.8441 0.7919 0.6374
0.3417 0.7593 0.5045
0.3425 0.7599 0.5028
0.3436 0.7608 0.5005
0.3451 0.7620 0.4968
0.3472 0.7638 0.4913
0.3495 0.7662 0.4835
0.3523 0.7693 0.4731
0.3598 0.7719 0.4641
0.3792 0.7726 0.4648
0.4009 0.7734 0.4648
0.4238 0.7746 0.4649
0.4480 0.7761 0.4654
0.4742 0.7778 0.4648
0.5012 0.7796 0.4651
0.5296 0.7815 0.4667
0.5597 0.7838 0.4721
0.5918 0.7861 0.4787
0.6245 0.7884 0.4921
0.6598 0.7908 0.5039
0.6970 0.7929 0.5313
0.7364 0.7957 0.5583
0.7763 0.7993 0.5786
0.8141 0.8036 0.5965
0.8355 0.8094 0.6363
0.8544 0.8160 0.6700
0.3647 0.7929 0.5319
0.3655 0.7933 0.5303
0.3665 0.7939 0.5282
0.3681 0.7949 0.5248
0.3701 0.7963 0.5198
0.3725 0.7981 0.5127
0.3752 0.8003 0.5033
0.3783 0.8030 0.4909
0.3959 0.8038 0.4900
0.4175 0.8044 0.4904
0.4412 0.8051 0.4900
0.4651 0.8062 0.4907
0.4904 0.8072 0.4908
0.5178 0.8084 0.4898
0.5461 0.8099 0.4908
0.5764 0.8117 0.4934
0.6079 0.8136 0.4988
0.6408 0.8154 0.5062
0.6758 0.8173 0.5197
0.7169 0.8193 0.5314
0.7584 0.8211 0.5591
0.8000 0.8234 0.5865
0.8294 0.8265 0.6340
0.8511 0.8311 0.6744
0.8701 0.8366 0.7080
0.3889 0.8199 0.5598
0.3896 0.8202 0.5583
0.3906 0.8207 0.5563
0.3921 0.8214 0.5530
0.3942 0.8225 0.5484
0.3965 0.8238 0.5417
0.3993 0.8256 0.5330
0.4024 0.8277 0.5218
0.4135 0.8292 0.5151
0.4349 0.8297 0.5157
0.4584 0.8302 0.5157
0.4827 0.8309 0.5156
0.5076 0.8317 0.5161
0.5345 0.8326 0.5159
0.5637 0.8339 0.5152
0.5937 0.8354 0.5165
0.6248 0.8370 0.5201
0.6575 0.8387 0.5254
0.6944 0.8404 0.5337
0.7350 0.8423 0.5475
0.7796 0.8442 0.5593
0.8216 0.8460 0.5915
0.8486 0.8479 0.6664
0.8702 0.8516 0.7150
0.8887 0.8567 0.7473
0.4141 0.8437 0.5878
0.4149 0.8440 0.5864
0.4159 0.8444 0.5845
0.4173 0.8450 0.5815
0.4194 0.8459 0.5772
0.4217 0.8472 0.5711
0.4244 0.8487 0.5630
0.4276 0.8506 0.5526
0.4319 0.8528 0.5401
0.4531 0.8532 0.5409
0.4760 0.8536 0.5412
0.5007 0.8540 0.5408
0.5256 0.8548 0.5412
0.5524 0.8558 0.5416
0.5814 0.8570 0.5411
0.6115 0.8585 0.5410
0.6426 0.8601 0.5423
0.6760 0.8619 0.5469
0.7145 0.8638 0.5525
0.7559 0.8658 0.5619
0.7996 0.8670 0.5964
0.8413 0.8687 0.6260
0.8710 0.8700 0.6984
0.8924 0.8733 0.7512
0.9097 0.8784 0.7859
0.4404 0.8678 0.6159
0.4411 0.8681 0.6145
0.4421 0.8686 0.6127
0.4435 0.8692 0.6099
0.4470 0.8700 0.6070
0.4543 0.8706 0.6049
0.4629 0.8714 0.6022
0.4726 0.8723 0.5988
0.4836 0.8734 0.5948
0.5010 0.8740 0.5950
0.5230 0.8742 0.5978
0.5469 0.8747 0.6002
0.5723 0.8756 0.6029
0.5986 0.8765 0.6081
0.6261 0.8777 0.6129
0.6547 0.8792 0.6171
0.6865 0.8808 0.6247
0.7215 0.8826 0.6341
0.7585 0.8843 0.6506
0.7961 0.8865 0.6676
0.8323 0.8887 0.6915
0.8655 0.8914 0.7193
0.8955 0.8949 0.7433
0.9169 0.8983 0.7881
0.9326 0.9038 0.8227
0.5417 0.8839 0.6894
0.5435 0.8841 0.6893
0.5458 0.8843 0.6891
0.5494 0.8846 0.6889
0.5543 0.8851 0.6887
0.5605 0.8857 0.6883
0.5678 0.8866 0.6875
0.5763 0.8876 0.6867
0.5859 0.8890 0.6857
0.5979 0.8903 0.6858
0.6159 0.8911 0.6897
0.6352 0.8920 0.6939
0.6557 0.8932 0.6981
0.6785 0.8946 0.7038
0.7037 0.8963 0.7106
0.7309 0.8983 0.7175
0.7597 0.9007 0.7245
0.7893 0.9032 0.7347
0.8192 0.9061 0.7462
0.8486 0.9092 0.7610
0.8764 0.9129 0.7760
0.9015 0.9170 0.7951
0.9235 0.9219 0.8155
0.9424 0.9279 0.8347
0.9562 0.9348 0.8656
0.6487 0.9021 0.7603
0.6502 0.9022 0.7604
0.6521 0.9025 0.7606
0.6552 0.9029 0.7609
0.6593 0.9034 0.7612
0.6648 0.9041 0.7617
0.6713 0.9051 0.7622
0.6792 0.9063 0.7628
0.6884 0.9077 0.7635
0.6989 0.9094 0.7645
0.7146 0.9107 0.7681
0.7329 0.9120 0.7726
0.7528 0.9137 0.7773
0.7738 0.9157 0.7825
0.7956 0.9179 0.7892
0.8181 0.9206 0.7963
0.8408 0.9237 0.8039
0.8633 0.9273 0.8125
0.8852 0.9314 0.8229
0.9060 0.9361 0.8350
0.9251 0.9415 0.8491
0.9422 0.9479 0.8643
0.9569 0.9550 0.8828
0.9697 0.9634 0.9028
0.9809 0.9732 0.9237
0.0000 0.0042 0.0065
0.0195 0.0068 0.0285
0.0391 0.0168 0.0278
0.0630 0.0291 0.0363
0.0857 0.0474 0.0490
0.1076 0.0687 0.0648
0.1303 0.0904 0.0816
0.1537 0.1118 0.0982
0.1775 0.1333 0.1151
0.2007 0.1553 0.1328
0.2243 0.1770 0.1504
0.2484 0.1987 0.1681
0.2730 0.2203 0.1858
0.2981 0.2418 0.2036
0.3238 0.2631 0.2214
0.3503 0.2844 0.2392
0.3788 0.3058 0.2572
0.4090 0.3271 0.2752
0.4406 0.3483 0.2932
0.4734 0.3694 0.3112
0.5068 0.3901 0.3291
0.5413 0.4108 0.3470
0.5777 0.4315 0.3650
0.6149 0.4518 0.3829
0.6528 0.4715 0.4008
0.0026 0.0475 0.0466
0.0287 0.0504 0.0391
0.0501 0.0565 0.0420
0.0713 0.0663 0.0507
0.0917 0.0799 0.0627
0.1127 0.0959 0.0765
0.1343 0.1134 0.0915
0.1565 0.1320 0.1073
0.1793 0.1513 0.1236
0.2023 0.1709 0.1402
0.2258 0.1907 0.1569
0.2498 0.2109 0.1739
0.2743 0.2311 0.1911
0.2994 0.2515 0.2083
0.3250 0.2720 0.2257
0.3515 0.2925 0.2432
0.3800 0.3132 0.2609
0.4101 0.3340 0.2786
0.4418 0.3547 0.2964
0.4745 0.3752 0.3141
0.5078 0.3956 0.3318
0.5424 0.4159 0.3496
0.5787 0.4362 0.3674
0.6158 0.4562 0.3852
0.6556 0.4746 0.4023
0.0178 0.0911 0.0649
0.0394 0.0939 0.0584
0.0606 0.0971 0.0551
0.0798 0.1031 0.0678
0.1003 0.1118 0.0807
0.1212 0.1233 0.0930
0.1425 0.1370 0.1058
0.1641 0.1525 0.1198
0.1862 0.1690 0.1345
0.2087 0.1865 0.1498
0.2317 0.2046 0.1655
0.2553 0.2233 0.1817
0.2794 0.2423 0.1981
0.3042 0.2617 0.2147
0.3295 0.2812 0.2315
0.3560 0.3010 0.2486
0.3844 0.3211 0.2658
0.4145 0.3412 0.2832
0.4460 0.3614 0.3007
0.4785 0.3814 0.3181
0.5117 0.4014 0.3356
0.5462 0.4213 0.3531
0.5824 0.4412 0.3707
0.6194 0.4608 0.3883
0.6591 0.4788 0.4052
0.0377 0.1364 0.0881
0.0535 0.1387 0.0827
0.0695 0.1420 0.0776
0.0899 0.1456 0.0803
0.1094 0.1511 0.0974
0.1297 0.1591 0.1113
0.1509 0.1691 0.1248
0.1725 0.1809 0.1372
0.1944 0.1942 0.1500
0.2167 0.2090 0.1636
0.2394 0.2248 0.1780
0.2627 0.2415 0.1929
0.2865 0.2589 0.2083
0.3109 0.2767 0.2241
0.3359 0.2950 0.2402
0.3625 0.3138 0.2566
0.3909 0.3329 0.2733
0.4208 0.3521 0.2902
0.4522 0.3715 0.3072
0.4843 0.3908 0.3242
0.5174 0.4101 0.3412
0.5519 0.4295 0.3584
0.5879 0.4488 0.3757
0.6247 0.4677 0.3930
0.6645 0.4852 0.4097
0.0576 0.1824 0.1135
0.0694 0.1842 0.1090
0.0798 0.1880 0.1014
0.0991 0.1905 0.1023
0.1200 0.1941 0.1076
0.1399 0.1990 0.1274
0.1595 0.2067 0.1418
0.1810 0.2154 0.1555
0.2027 0.2259 0.1692
0.2252 0.2378 0.1815
0.2480 0.2510 0.1943
0.2712 0.2654 0.2079
0.2948 0.2807 0.2220
0.3190 0.2967 0.2366
0.3441 0.3135 0.2517
0.3708 0.3309 0.2674
0.3991 0.3487 0.2833
0.4290 0.3668 0.2995
0.4603 0.3851 0.3159
0.4921 0.4035 0.3323
0.5250 0.4219 0.3489
0.5595 0.4405 0.3656
0.5953 0.4590 0.3825
0.6318 0.4770 0.3994
0.6718 0.4939 0.4157
0.0768 0.2282 0.1401
0.0862 0.2297 0.1362
0.0914 0.2339 0.1256
0.1101 0.2354 0.1257
0.1293 0.2384 0.1273
0.1503 0.2419 0.1349
0.1706 0.2465 0.1574
0.1897 0.2541 0.1720
0.2117 0.2620 0.1864
0.2339 0.2715 0.2001
0.2565 0.2824 0.2136
0.2799 0.2943 0.2260
0.3037 0.3074 0.2388
0.3281 0.3215 0.2524
0.3534 0.3366 0.2665
0.3804 0.3523 0.2811
0.4089 0.3686 0.2960
0.4388 0.3853 0.3113
0.4699 0.4023 0.3269
0.5015 0.4195 0.3427
0.5343 0.4369 0.3586
0.5688 0.4544 0.3748
0.6044 0.4717 0.3912
0.6406 0.4888 0.4075
0.6812 0.5050 0.4234
0.0959 0.2736 0.1671
0.1036 0.2748 0.1639
0.1066 0.2788 0.1536
0.1214 0.2807 0.1510
0.1399 0.2829 0.1512
0.1599 0.2860 0.1531
0.1813 0.2895 0.1627
0.2020 0.2937 0.1874
0.2215 0.3009 0.2025
0.2431 0.3087 0.2171
0.2659 0.3173 0.2310
0.2890 0.3273 0.2448
0.3128 0.3385 0.2582
0.3376 0.3507 0.2708
0.3635 0.3638 0.2839
0.3908 0.3777 0.2974
0.4196 0.3923 0.3114
0.4497 0.4075 0.3257
0.4805 0.4230 0.3404
0.5122 0.4388 0.3553
0.5451 0.4549 0.3705
0.5796 0.4709 0.3860
0.6149 0.4870 0.4016
0.6509 0.5031 0.4175
0.6926 0.5184 0.4329
0.1150 0.3186 0.1946
0.1215 0.3197 0.1918
0.1241 0.3229 0.1835
0.1334 0.3259 0.1765
0.1516 0.3274 0.1762
0.1705 0.3299 0.1770
0.1910 0.3331 0.1800
0.2128 0.3367 0.1908
0.2341 0.3406 0.2173
0.2542 0.3473 0.2330
0.2753 0.3552 0.2477
0.2989 0.3634 0.2622
0.3228 0.3728 0.2761
0.3473 0.3832 0.2901
0.3736 0.3945 0.3032
0.4015 0.4066 0.3159
0.4308 0.4194 0.3290
0.4613 0.4329 0.3424
0.4920 0.4468 0.3561
0.5238 0.4610 0.3702
0.5570 0.4753 0.3846
0.5914 0.4899 0.3993
0.6266 0.5048 0.4142
0.6630 0.5198 0.4293
0.7057 0.5342 0.4441
0.1342 0.3633 0.2225
0.1398 0.3642 0.2201
0.1421 0.3669 0.2131
0.1462 0.3709 0.2019
0.1637 0.3719 0.2022
0.1822 0.3739 0.2020
0.2017 0.3766 0.2031
0.2228 0.3800 0.2081
0.2452 0.3836 0.2193
0.2670 0.3875 0.2475
0.2880 0.3939 0.2639
0.3087 0.4019 0.2785
0.3330 0.4095 0.2933
0.3581 0.4182 0.3075
0.3847 0.4278 0.3215
0.4124 0.4383 0.3355
0.4421 0.4494 0.3483
0.4728 0.4610 0.3609
0.5039 0.4728 0.3738
0.5359 0.4851 0.3869
0.5695 0.4981 0.4005
0.6040 0.5114 0.4144
0.6392 0.5250 0.4286
0.6765 0.5388 0.4430
0.7204 0.5526 0.4573
0.1537 0.4077 0.2507
0.1586 0.4085 0.2486
0.1607 0.4108 0.2427
0.1635 0.4146 0.2323
0.1763 0.4166 0.2285
0.1946 0.4181 0.2282
0.2137 0.4204 0.2283
0.2341 0.4233 0.2297
0.2556 0.4266 0.2367
0.2787 0.4302 0.2482
0.3010 0.4340 0.2767
0.3228 0.4398 0.2947
0.3443 0.4473 0.3095
0.3690 0.4548 0.3244
0.3963 0.4627 0.3388
0.4246 0.4712 0.3528
0.4541 0.4806 0.3667
0.4840 0.4904 0.3806
0.5156 0.5006 0.3927
0.5483 0.5115 0.4052
0.5823 0.5230 0.4181
0.6170 0.5349 0.4313
0.6524 0.5475 0.4447
0.6915 0.5605 0.4585
0.7362 0.5732 0.4718
0.1735 0.4515 0.2793
0.1778 0.4522 0.2775
0.1797 0.4542 0.2723
0.1824 0.4573 0.2635
0.1896 0.4605 0.2546
0.2074 0.4615 0.2549
0.2261 0.4633 0.2550
0.2459 0.4656 0.2552
0.2670 0.4685 0.2574
0.2891 0.4716 0.2655
0.3129 0.4750 0.2771
0.3359 0.4785 0.3058
0.3590 0.4837 0.3254
0.3823 0.4904 0.3405
0.4077 0.4977 0.3552
0.4367 0.5047 0.3698
0.4667 0.5125 0.3839
0.4969 0.5209 0.3975
0.5280 0.5299 0.4112
0.5607 0.5397 0.4247
0.5952 0.5501 0.4370
0.6303 0.5610 0.4495
0.6666 0.5723 0.4624
0.7072 0.5841 0.4752
0.7527 0.5957 0.4878
