EA 50 Cinematic Luts Pack/EA_Cinematic Lut (32).cube
TITLE "A sweet, warm grade that makes the footage look very pleasant and proportional in hues. "
LUT_3D_SIZE 5
0.0000 0.0000 0.0000
0.1746 0.0000 0.0000
0.4268 0.0395 0.0000
0.6920 0.1030 0.0066
0.9032 0.1716 0.0351
0.0340 0.1539 0.0216
0.1997 0.1592 0.0042
0.4606 0.1696 0.0017
0.7220 0.1978 0.0147
0.9215 0.2429 0.0430
0.1276 0.3993 0.1215
0.2175 0.4083 0.0623
0.4802 0.4109 0.0794
0.7436 0.4222 0.0469
0.9446 0.4380 0.0697
0.2364 0.6690 0.2240
0.2933 0.6755 0.1865
0.4687 0.6905 0.0000
0.7611 0.6853 0.1623
0.9562 0.6939 0.1286
0.5171 0.9203 0.4506
0.5470 0.9247 0.4402
0.6281 0.9401 0.3987
0.7534 0.9715 0.1489
0.9568 0.9505 0.6478
0.0109 0.0000 0.0661
0.1711 0.0000 0.1388
0.4746 0.0000 0.1436
0.7530 0.0144 0.1115
0.9568 0.0602 0.0581
0.0000 0.1601 0.1747
0.1858 0.1646 0.1669
0.4445 0.1806 0.1484
0.7057 0.2137 0.1539
0.9585 0.1941 0.0451
0.1403 0.3989 0.2239
0.1826 0.4152 0.1647
0.4615 0.4185 0.1711
0.7426 0.4245 0.1678
0.9666 0.4215 0.1074
0.2493 0.6680 0.2989
0.2693 0.6797 0.2449
0.4546 0.6942 0.1321
0.7478 0.6917 0.2123
0.9625 0.6927 0.1631
0.5327 0.9181 0.4902
0.5606 0.9227 0.4834
0.6433 0.9374 0.4532
0.7550 0.9716 0.2408
0.9575 0.9516 0.6622
0.0618 0.0389 0.2063
0.1664 0.0465 0.2948
0.4188 0.0723 0.3393
0.7586 0.0124 0.3605
0.9623 0.0493 0.3449
0.1180 0.1624 0.3139
0.2010 0.1625 0.3960
0.4655 0.1735 0.3848
0.7618 0.1723 0.3635
0.9671 0.1818 0.3500
0.0000 0.4125 0.4074
0.1887 0.4145 0.4060
0.4520 0.4226 0.3935
0.7409 0.4308 0.3554
0.9686 0.4213 0.3663
0.2488 0.6707 0.4444
0.2880 0.6787 0.4306
0.4373 0.6974 0.3851
0.7429 0.6946 0.4077
0.9654 0.6920 0.3873
0.5630 0.9156 0.5813
0.5963 0.9186 0.5824
0.6781 0.9310 0.5746
0.7593 0.9716 0.4237
0.9599 0.9550 0.7063
0.1289 0.1018 0.3478
0.1960 0.1113 0.4063
0.4517 0.0540 0.5889
0.6820 0.1550 0.5423
0.9662 0.0540 0.5782
0.1802 0.1930 0.4362
0.2345 0.1937 0.5076
0.4721 0.1731 0.6211
0.7156 0.2242 0.5771
0.9670 0.1906 0.5830
0.2396 0.4041 0.5602
0.2874 0.4096 0.5862
0.4812 0.4171 0.6217
0.7486 0.4269 0.6128
0.9680 0.4241 0.6038
0.0000 0.6883 0.6415
0.1788 0.6900 0.6412
0.4560 0.6933 0.6348
0.7251 0.7018 0.6203
0.9692 0.6894 0.6277
0.5556 0.9235 0.6953
0.5980 0.9249 0.6987
0.7075 0.9302 0.7089
0.8292 0.9471 0.7148
0.9645 0.9615 0.7867
0.2023 0.1690 0.4897
0.2509 0.1759 0.5350
0.4106 0.1875 0.6440
0.7402 0.0772 0.8742
0.8940 0.2447 0.7503
0.2454 0.2404 0.5593
0.2790 0.2399 0.6305
0.4525 0.2389 0.7318
0.7630 0.1666 0.9332
0.9318 0.2650 0.8054
0.3232 0.4223 0.6877
0.3464 0.4267 0.7282
0.4873 0.4269 0.8525
0.7618 0.4187 0.9241
0.9410 0.4596 0.8333
0.3502 0.6739 0.8213
0.3669 0.6798 0.8502
0.5470 0.6846 0.8577
0.7651 0.6924 0.8903
0.9528 0.7048 0.8789
0.0000 0.9715 0.9405
0.1996 0.9716 0.9409
0.4818 0.9716 0.9420
0.7640 0.9714 0.9440
0.9715 0.9715 0.9472
