EA 50 Cinematic Luts Pack/EA_Cinematic Lut (49).cube
TITLE "A sharp, futuristic, greenish colorization that will give your footage a digital look straight from outer space."
LUT_3D_SIZE 9
0.0000 0.0000 0.0000
0.0563 0.0000 0.0008
0.1406 0.0000 0.0027
0.2580 0.0000 0.0062
0.3835 0.0000 0.0114
0.5037 0.0000 0.0185
0.6418 0.0000 0.0278
0.7039 0.0000 0.0377
0.8086 0.0000 0.0478
0.0006 0.0467 0.0093
0.0536 0.0514 0.0000
0.1388 0.0519 0.0102
0.2705 0.0435 0.0000
0.3961 0.0409 0.0000
0.5199 0.0372 0.0000
0.6576 0.0322 0.0000
0.7120 0.0254 0.0000
0.8209 0.0561 0.0537
0.0014 0.1704 0.0311
0.0544 0.1765 0.0000
0.1346 0.1821 0.0000
0.2462 0.1927 0.0257
0.4049 0.1915 0.0179
0.5457 0.1872 0.0000
0.6865 0.1901 0.0000
0.7412 0.1872 0.0000
0.8512 0.2152 0.0699
0.0000 0.2606 0.0562
0.0488 0.2673 0.0000
0.1364 0.2757 0.0000
0.2519 0.2880 0.0000
0.3805 0.3042 0.0054
0.5353 0.3097 0.0020
0.7062 0.3113 0.0000
0.7640 0.3090 0.0000
0.8726 0.3315 0.0941
0.0000 0.3519 0.0838
0.0359 0.3591 0.0000
0.1379 0.3698 0.0000
0.2539 0.3856 0.0000
0.3956 0.4034 0.0000
0.5002 0.4237 0.0000
0.6789 0.4392 0.0000
0.7783 0.4389 0.0000
0.8950 0.4470 0.1106
0.0000 0.4529 0.1117
0.0000 0.4572 0.0207
0.1331 0.4743 0.0000
0.2650 0.4935 0.0000
0.4013 0.5159 0.0000
0.5322 0.5355 0.0000
0.6597 0.5631 0.0000
0.7887 0.5784 0.0000
0.8817 0.5807 0.0000
0.0000 0.5563 0.1410
0.0000 0.5597 0.0830
0.1240 0.5803 0.0000
0.2634 0.6036 0.0000
0.4152 0.6295 0.0000
0.5384 0.6537 0.0000
0.6995 0.6815 0.0000
0.7988 0.7088 0.0000
0.8574 0.7199 0.0000
0.0000 0.6552 0.1726
0.0000 0.6578 0.1256
0.1036 0.6793 0.0000
0.2565 0.7073 0.0000
0.4228 0.7387 0.0000
0.5528 0.7647 0.0000
0.7055 0.7969 0.0000
0.8277 0.8217 0.0000
0.8676 0.8409 0.0000
0.0000 0.7820 0.2081
0.0000 0.7856 0.1655
0.1360 0.8150 0.1214
0.2925 0.8494 0.1039
0.4569 0.8847 0.1194
0.6036 0.9154 0.1519
0.7653 0.9491 0.2453
0.8588 0.9696 0.4027
0.9149 0.9811 0.6099
0.0004 0.0001 0.0264
0.0550 0.0000 0.0742
0.1421 0.0000 0.0718
0.2594 0.0000 0.0757
0.3843 0.0000 0.0772
0.5047 0.0000 0.0793
0.6424 0.0000 0.0834
0.7041 0.0000 0.0882
0.8094 0.0000 0.0935
0.0000 0.0475 0.0749
0.0431 0.0553 0.0697
0.1567 0.0407 0.0747
0.2896 0.0270 0.0692
0.4190 0.0056 0.0475
0.5502 0.0000 0.0271
0.6690 0.0000 0.0351
0.7129 0.0000 0.0438
0.8211 0.0570 0.1008
0.0000 0.1692 0.1038
0.0445 0.1771 0.0813
0.1250 0.1852 0.0550
0.2815 0.1817 0.0801
0.4209 0.1803 0.0688
0.5700 0.1620 0.0212
0.6987 0.1498 0.0000
0.7421 0.1416 0.0000
0.8513 0.2156 0.1093
0.0000 0.2598 0.1198
0.0465 0.2667 0.0958
0.1166 0.2783 0.0226
0.2419 0.2903 0.0299
0.4048 0.2990 0.0782
0.5589 0.3024 0.0677
0.7216 0.2987 0.0000
0.7689 0.2967 0.0000
0.8727 0.3317 0.1257
0.0000 0.3513 0.1360
0.0284 0.3579 0.1044
0.1100 0.3712 0.0000
0.2383 0.3870 0.0000
0.3893 0.4053 0.0000
0.5160 0.4221 0.0329
0.7026 0.4336 0.0358
0.7841 0.4280 0.0000
0.8950 0.4468 0.1446
0.0000 0.4524 0.1558
0.0000 0.4565 0.1173
0.1018 0.4740 0.0000
0.2439 0.4939 0.0000
0.3930 0.5170 0.0000
0.5273 0.5368 0.0000
0.6580 0.5643 0.0000
0.7931 0.5737 0.0000
0.9023 0.5791 0.0000
0.0000 0.5559 0.1793
0.0000 0.5591 0.1433
0.0838 0.5772 0.0000
0.2413 0.6028 0.0000
0.4038 0.6301 0.0000
0.5328 0.6545 0.0000
0.6958 0.6826 0.0000
0.7984 0.7098 0.0000
0.8611 0.7194 0.0000
0.0000 0.6550 0.2061
0.0000 0.6574 0.1718
0.0325 0.6692 0.0000
0.2338 0.7048 0.0000
0.4097 0.7380 0.0000
0.5447 0.7648 0.0000
0.7004 0.7973 0.0000
0.8270 0.8228 0.0000
0.8687 0.8412 0.0000
0.0000 0.7817 0.2378
0.0000 0.7853 0.1989
0.1330 0.8144 0.1523
0.2931 0.8495 0.1284
0.4574 0.8848 0.1414
0.6043 0.9155 0.1702
0.7661 0.9493 0.2606
0.8590 0.9696 0.4183
0.9154 0.9812 0.6184
0.0016 0.0051 0.0699
0.0322 0.0038 0.1432
0.1374 0.0000 0.1561
0.2615 0.0000 0.1507
0.3860 0.0000 0.1537
0.5063 0.0000 0.1574
0.6437 0.0000 0.1607
0.7045 0.0000 0.1621
0.8100 0.0000 0.1648
0.0000 0.0590 0.1053
0.0395 0.0650 0.1147
0.1337 0.0571 0.1448
0.2950 0.0205 0.1585
0.4294 0.0000 0.1536
0.5498 0.0000 0.1491
0.6692 0.0000 0.1466
0.7131 0.0000 0.1453
0.8218 0.0605 0.1692
0.0000 0.1715 0.1566
0.0164 0.1789 0.1569
0.1103 0.1874 0.1478
0.2911 0.1781 0.1566
0.4336 0.1676 0.1539
0.5856 0.1373 0.1402
0.7005 0.0463 0.1024
0.7545 0.0000 0.0622
0.8515 0.2165 0.1787
0.0000 0.2595 0.1917
0.0177 0.2652 0.1861
0.1134 0.2770 0.1592
0.2278 0.2920 0.1285
0.4349 0.2905 0.1554
0.5878 0.2919 0.1419
0.7330 0.2808 0.1000
0.7982 0.2507 0.0000
0.8729 0.3322 0.1911
0.0000 0.3496 0.2353
0.0134 0.3552 0.2124
0.1040 0.3697 0.1679
0.2094 0.3889 0.0912
0.3739 0.4080 0.1021
0.5831 0.4086 0.1539
0.7412 0.4164 0.1360
0.8001 0.4077 0.0835
0.8951 0.4469 0.2131
0.0000 0.4511 0.2545
0.0000 0.4550 0.2286
0.0867 0.4719 0.1754
0.1863 0.4935 0.0508
0.3628 0.5194 0.0000
0.5114 0.5402 0.0282
0.6778 0.5629 0.1166
0.8015 0.5604 0.1281
0.9195 0.5773 0.1308
0.0000 0.5549 0.2806
0.0000 0.5580 0.2506
0.0528 0.5729 0.1821
0.1671 0.5978 0.0059
0.3598 0.6301 0.0000
0.5141 0.6564 0.0000
0.6823 0.6853 0.0000
0.7964 0.7128 0.0401
0.8749 0.7175 0.0000
0.0000 0.6542 0.3108
0.0000 0.6566 0.2785
0.0380 0.6689 0.2032
0.1493 0.6950 0.0000
0.3591 0.7343 0.0000
0.5181 0.7651 0.0000
0.6859 0.7988 0.0000
0.8237 0.8258 0.0000
0.8722 0.8421 0.0000
0.0000 0.7805 0.3474
0.0000 0.7841 0.3078
0.1202 0.8118 0.2476
0.2940 0.8497 0.1998
0.4588 0.8851 0.2079
0.6064 0.9160 0.2302
0.7690 0.9499 0.3193
0.8596 0.9698 0.4666
0.9173 0.9816 0.6465
0.0036 0.0234 0.1120
0.0174 0.0286 0.1633
0.1080 0.0177 0.2298
0.2522 0.0005 0.2716
0.3869 0.0000 0.2649
0.5093 0.0000 0.2568
0.6460 0.0000 0.2624
0.7050 0.0000 0.2662
0.8101 0.0003 0.2718
0.0000 0.0790 0.1439
0.0333 0.0861 0.1541
0.1098 0.0781 0.2395
0.2505 0.0635 0.2592
0.4075 0.0190 0.2762
0.5493 0.0000 0.2678
0.6694 0.0000 0.2638
0.7134 0.0000 0.2607
0.8228 0.0649 0.2726
0.0000 0.1792 0.2006
0.0000 0.1857 0.2110
0.1102 0.1927 0.2088
0.2487 0.1939 0.2459
0.4343 0.1648 0.2770
0.6015 0.1015 0.2696
0.6987 0.0000 0.2467
0.7529 0.0000 0.2342
0.8521 0.2192 0.2791
0.0000 0.2618 0.2722
0.0000 0.2662 0.2767
0.0792 0.2788 0.2698
0.2028 0.2926 0.2620
0.4350 0.2895 0.2824
0.6000 0.2855 0.2747
0.7358 0.2687 0.2487
0.8093 0.2315 0.2134
0.8732 0.3331 0.3021
0.0000 0.3509 0.3337
0.0000 0.3546 0.3308
0.0654 0.3678 0.3170
0.2075 0.3860 0.2751
0.3617 0.4090 0.2221
0.6068 0.4034 0.2662
0.7511 0.4078 0.2425
0.8222 0.3908 0.1926
0.8955 0.4476 0.3255
0.0000 0.4502 0.4031
0.0000 0.4534 0.3971
0.0537 0.4673 0.3653
0.1866 0.4906 0.2787
0.3382 0.5198 0.1703
0.4925 0.5420 0.1827
0.7374 0.5514 0.2655
0.8157 0.5429 0.2472
0.9193 0.5756 0.2960
0.0000 0.5528 0.4571
0.0000 0.5558 0.4385
0.0414 0.5692 0.3790
0.1709 0.5955 0.2890
0.2981 0.6270 0.1317
0.4881 0.6586 0.1175
0.6630 0.6868 0.1541
0.8087 0.7042 0.2443
0.9221 0.7157 0.0000
0.0000 0.6525 0.4759
0.0000 0.6549 0.4568
0.0434 0.6679 0.3997
0.1766 0.6961 0.3181
0.2947 0.7278 0.1363
0.4700 0.7648 0.0671
0.6568 0.7999 0.0545
0.8171 0.8293 0.1379
0.8798 0.8435 0.0000
0.0000 0.7783 0.4968
0.0000 0.7819 0.4736
0.0894 0.8054 0.4247
0.2779 0.8462 0.3685
0.4610 0.8856 0.3264
0.6091 0.9166 0.3492
0.7737 0.9510 0.4204
0.8604 0.9697 0.5337
0.9208 0.9823 0.6920
0.0067 0.0576 0.1532
0.0179 0.0653 0.1905
0.0714 0.0483 0.4011
0.2140 0.0395 0.3920
0.3790 0.0018 0.4464
0.5089 0.0000 0.4414
0.6482 0.0000 0.4235
0.7058 0.0000 0.4201
0.8106 0.0030 0.4264
0.0001 0.1071 0.1898
0.0313 0.1141 0.1977
0.0760 0.1131 0.3459
0.2167 0.1023 0.3912
0.3821 0.0710 0.4346
0.5321 0.0115 0.4559
0.6694 0.0000 0.4365
0.7137 0.0000 0.4262
0.8240 0.0713 0.4285
0.0000 0.1919 0.2403
0.0000 0.1964 0.2667
0.0985 0.2050 0.2825
0.2185 0.2042 0.4101
0.3886 0.2042 0.4246
0.5700 0.1528 0.4594
0.6967 0.0005 0.4587
0.7509 0.0000 0.4321
0.8526 0.2220 0.4373
0.0000 0.2679 0.3534
0.0000 0.2718 0.3635
0.0295 0.2832 0.3792
0.2063 0.2968 0.3708
0.3872 0.3044 0.4208
0.5997 0.2836 0.4610
0.7383 0.2496 0.4516
0.8222 0.2117 0.4285
0.8737 0.3350 0.4528
0.0000 0.3535 0.4470
0.0000 0.3569 0.4500
0.0000 0.3654 0.4574
0.1575 0.3863 0.4425
0.3248 0.4088 0.4377
0.5882 0.4060 0.4629
0.7513 0.4046 0.4604
0.8011 0.4030 0.4558
0.8957 0.4484 0.4770
0.0000 0.4518 0.5011
0.0000 0.4547 0.5002
0.0000 0.4621 0.4962
0.1306 0.4854 0.4798
0.3333 0.5152 0.4476
0.4876 0.5422 0.3734
0.7719 0.5350 0.4512
0.8154 0.5414 0.4622
0.9187 0.5737 0.4997
0.0000 0.5533 0.5571
0.0000 0.5557 0.5542
0.0000 0.5618 0.5454
0.1277 0.5872 0.5250
0.3189 0.6241 0.4533
0.4705 0.6587 0.2987
0.6430 0.6873 0.3359
0.8175 0.6951 0.4442
0.9457 0.7120 0.3533
0.0000 0.6512 0.6165
0.0000 0.6530 0.6129
0.0000 0.6581 0.5943
0.1585 0.6907 0.5421
0.3103 0.7258 0.4662
0.4502 0.7636 0.2630
0.6394 0.7990 0.2637
0.8058 0.8321 0.3026
0.8965 0.8456 0.0000
0.0000 0.7754 0.6542
0.0000 0.7787 0.6407
0.0176 0.7903 0.6005
0.2426 0.8383 0.5599
0.4531 0.8839 0.5126
0.6125 0.9170 0.4982
0.7796 0.9519 0.5335
0.8621 0.9700 0.6206
0.9262 0.9835 0.7520
0.0108 0.1013 0.2042
0.0208 0.1086 0.2355
0.0517 0.1134 0.3903
0.1741 0.0898 0.5285
0.3494 0.0642 0.5518
0.5042 0.0000 0.6057
0.6468 0.0000 0.5960
0.7060 0.0000 0.5796
0.8117 0.0100 0.5683
0.0054 0.1401 0.2421
0.0325 0.1470 0.2541
0.0645 0.1541 0.3746
0.1748 0.1361 0.5401
0.3529 0.1251 0.5468
0.5088 0.0651 0.5971
0.6662 0.0000 0.6159
0.7132 0.0000 0.5907
0.8254 0.0804 0.5672
0.0000 0.2063 0.3161
0.0076 0.2104 0.3433
0.0894 0.2201 0.3644
0.1711 0.2181 0.5418
0.3598 0.2221 0.5523
0.5216 0.2093 0.5900
0.6948 0.1517 0.6149
0.7473 0.0000 0.6164
0.8529 0.2262 0.5725
0.0000 0.2782 0.4148
0.0000 0.2819 0.4250
0.0126 0.2910 0.4547
0.1908 0.3054 0.4645
0.3592 0.3097 0.5787
0.5216 0.3155 0.5842
0.7250 0.2873 0.6250
0.8125 0.2111 0.6177
0.8736 0.3373 0.5875
0.0000 0.3595 0.5216
0.0000 0.3626 0.5271
0.0000 0.3704 0.5414
0.0912 0.3901 0.5442
0.3319 0.4126 0.5372
0.5168 0.4223 0.5819
0.7512 0.4011 0.6313
0.8054 0.3970 0.6151
0.8956 0.4501 0.6089
0.0000 0.4548 0.5985
0.0000 0.4576 0.6006
0.0000 0.4643 0.6063
0.0725 0.4838 0.6050
0.2660 0.5134 0.5977
0.4478 0.5419 0.5993
0.7517 0.5439 0.6317
0.8096 0.5451 0.6318
0.9187 0.5747 0.6348
0.0000 0.5553 0.6512
0.0000 0.5575 0.6509
0.0000 0.5633 0.6496
0.0221 0.5771 0.6420
0.2428 0.6158 0.6319
0.4641 0.6527 0.6100
0.6366 0.6866 0.5405
0.8294 0.6770 0.6580
0.9443 0.7069 0.6375
0.0000 0.6526 0.7006
0.0000 0.6544 0.6991
0.0000 0.6590 0.6945
0.0525 0.6757 0.6822
0.2532 0.7150 0.6773
0.4253 0.7578 0.5742
0.6021 0.7991 0.4199
0.8042 0.8342 0.4783
0.9524 0.8513 0.0000
0.0000 0.7759 0.7506
0.0000 0.7786 0.7479
0.0000 0.7854 0.7398
0.1931 0.8274 0.7326
0.4218 0.8770 0.7076
0.6083 0.9161 0.6592
0.7855 0.9533 0.6626
0.8643 0.9706 0.7187
0.9342 0.9853 0.8204
0.0161 0.1465 0.2750
0.0253 0.1525 0.3095
0.0499 0.1615 0.4257
0.1138 0.1299 0.6986
0.3096 0.1308 0.6653
0.4763 0.0721 0.7137
0.6451 0.0000 0.7505
0.7056 0.0000 0.7397
0.8122 0.0119 0.7226
0.0109 0.1727 0.3167
0.0345 0.1782 0.3316
0.0604 0.1860 0.4299
0.1208 0.1740 0.6542
0.3134 0.1698 0.6741
0.4814 0.1333 0.7095
0.6557 0.0251 0.7566
0.7117 0.0000 0.7538
0.8255 0.0803 0.7201
0.0000 0.2236 0.4020
0.0150 0.2277 0.4207
0.0829 0.2374 0.4404
0.1430 0.2415 0.5814
0.3169 0.2365 0.7007
0.4901 0.2336 0.7102
0.6769 0.2043 0.7478
0.7387 0.1068 0.7646
0.8533 0.2275 0.7215
0.0000 0.2911 0.4741
0.0000 0.2939 0.4906
0.0372 0.3028 0.5243
0.1709 0.3168 0.5440
0.3037 0.3188 0.7191
0.4929 0.3259 0.7160
0.6836 0.3242 0.7442
0.7710 0.2804 0.7698
0.8740 0.3390 0.7274
0.0000 0.3694 0.5772
0.0000 0.3724 0.5834
0.0000 0.3799 0.5991
0.0517 0.3970 0.6169
0.3151 0.4208 0.6312
0.4881 0.4257 0.7395
0.6831 0.4395 0.7409
0.7908 0.4112 0.7722
0.8960 0.4521 0.7392
0.0000 0.4609 0.6728
0.0000 0.4634 0.6765
0.0000 0.4697 0.6857
0.0000 0.4806 0.7022
0.1769 0.5128 0.6959
0.4550 0.5458 0.6982
0.6760 0.5622 0.7411
0.8100 0.5441 0.7735
0.9192 0.5765 0.7588
0.0000 0.5584 0.7386
0.0000 0.5605 0.7401
0.0000 0.5658 0.7438
0.0000 0.5752 0.7499
0.1847 0.6119 0.7427
0.4062 0.6514 0.7470
0.5791 0.6830 0.7547
0.8263 0.6810 0.7827
0.9444 0.7064 0.7861
0.0000 0.6546 0.7812
0.0000 0.6563 0.7812
0.0000 0.6606 0.7811
0.0000 0.6684 0.7796
0.1650 0.7051 0.7697
0.3378 0.7454 0.7671
0.6315 0.7942 0.7458
0.8199 0.8280 0.7240
0.9598 0.8374 0.7453
0.0000 0.7788 0.8177
0.0000 0.7814 0.8169
0.0350 0.7940 0.8127
0.2216 0.8337 0.8120
0.4161 0.8757 0.8228
0.5774 0.9098 0.8340
0.7853 0.9533 0.8037
0.8670 0.9712 0.8174
0.9456 0.9879 0.8850
0.0215 0.1846 0.3690
0.0295 0.1886 0.3989
0.0503 0.1962 0.4811
0.0944 0.1968 0.6585
0.2542 0.1721 0.8047
0.4441 0.1555 0.8024
0.6298 0.0410 0.8476
0.7050 0.0000 0.8553
0.8117 0.0092 0.8448
0.0170 0.2010 0.4038
0.0369 0.2055 0.4173
0.0583 0.2127 0.4887
0.1029 0.2161 0.6485
0.2534 0.1946 0.8150
0.4484 0.1887 0.8072
0.6378 0.1095 0.8440
0.7099 0.0000 0.8655
0.8240 0.0720 0.8425
0.0000 0.2434 0.4793
0.0189 0.2475 0.4906
0.0779 0.2572 0.5100
0.1248 0.2640 0.6298
0.2390 0.2478 0.8443
0.4533 0.2554 0.8181
0.6501 0.2363 0.8417
0.7389 0.1696 0.8619
0.8527 0.2244 0.8441
0.0000 0.3054 0.5476
0.0000 0.3079 0.5643
0.0346 0.3164 0.5971
0.1536 0.3310 0.6193
0.2564 0.3371 0.7649
0.4550 0.3357 0.8376
0.6543 0.3390 0.8425
0.7602 0.3193 0.8611
0.8736 0.3374 0.8500
0.0000 0.3827 0.6250
0.0000 0.3856 0.6310
0.0000 0.3923 0.6516
0.0686 0.4077 0.6907
0.2860 0.4309 0.7111
0.4413 0.4353 0.8439
0.6526 0.4474 0.8448
0.7758 0.4459 0.8598
0.8958 0.4509 0.8590
0.0000 0.4704 0.7255
0.0000 0.4727 0.7294
0.0000 0.4786 0.7393
0.0000 0.4891 0.7565
0.1188 0.5170 0.7603
0.4299 0.5506 0.8056
0.6591 0.5630 0.8573
0.7940 0.5710 0.8651
0.9193 0.5765 0.8700
0.0000 0.5640 0.7995
0.0000 0.5660 0.8015
0.0000 0.5710 0.8066
0.0000 0.5798 0.8152
0.0531 0.6013 0.8221
0.2405 0.6403 0.8299
0.6079 0.6831 0.8601
0.8137 0.6981 0.8729
0.9447 0.7079 0.8826
0.0000 0.6575 0.8430
0.0000 0.6592 0.8437
0.0000 0.6633 0.8457
0.0000 0.6705 0.8491
0.0927 0.6970 0.8473
0.2638 0.7365 0.8527
0.4815 0.7834 0.8692
0.8200 0.8240 0.8888
0.9677 0.8342 0.9029
0.0000 0.7828 0.8706
0.0000 0.7851 0.8709
0.1083 0.8093 0.8671
0.2653 0.8434 0.8718
0.4423 0.8815 0.8849
0.5961 0.9138 0.8986
0.7735 0.9508 0.9158
0.8686 0.9711 0.9093
0.9660 0.9924 0.9407
0.0258 0.2163 0.4599
0.0326 0.2195 0.4816
0.0502 0.2267 0.5462
0.0848 0.2330 0.6807
0.1602 0.1999 0.9121
0.4058 0.2000 0.8902
0.5999 0.1536 0.9031
0.7035 0.0050 0.9248
0.8108 0.0041 0.9237
0.0207 0.2282 0.4837
0.0282 0.2314 0.5041
0.0468 0.2383 0.5675
0.0822 0.2443 0.6979
0.1576 0.2154 0.9147
0.4124 0.2052 0.9080
0.6130 0.1612 0.9143
0.7130 0.0595 0.9221
0.8213 0.0582 0.9216
0.0000 0.2652 0.5525
0.0000 0.2675 0.5750
0.0223 0.2741 0.6284
0.0657 0.2804 0.7451
0.1420 0.2632 0.9203
0.4177 0.2642 0.9142
0.6258 0.2515 0.9159
0.7389 0.2158 0.9214
0.8518 0.2191 0.9231
0.0000 0.3223 0.6197
0.0000 0.3245 0.6368
0.0000 0.3292 0.6837
0.0000 0.3335 0.7825
0.0915 0.3293 0.9213
0.4213 0.3422 0.9171
0.6373 0.3430 0.9193
0.7582 0.3279 0.9259
0.8731 0.3346 0.9290
0.0000 0.3975 0.6832
0.0000 0.3997 0.6949
0.0000 0.4047 0.7265
0.0000 0.4117 0.7889
0.0000 0.4122 0.8911
0.4164 0.4372 0.9207
0.6465 0.4468 0.9241
0.7765 0.4404 0.9324
0.8953 0.4486 0.9379
0.0000 0.4825 0.7673
0.0000 0.4846 0.7721
0.0000 0.4901 0.7840
0.0000 0.4995 0.8049
0.0000 0.5084 0.8596
0.3093 0.5406 0.9129
0.6533 0.5630 0.9326
0.7956 0.5660 0.9407
0.9190 0.5748 0.9480
0.0000 0.5726 0.8375
0.0000 0.5744 0.8401
0.0000 0.5788 0.8469
0.0000 0.5866 0.8589
0.0000 0.5977 0.8773
0.0000 0.6114 0.9053
0.6011 0.6815 0.9347
0.8147 0.6959 0.9502
0.9445 0.7067 0.9602
0.0000 0.6626 0.8828
0.0000 0.6641 0.8844
0.0000 0.6678 0.8885
0.0000 0.6742 0.8959
0.0000 0.6840 0.9075
0.0969 0.7143 0.9134
0.4948 0.7846 0.9316
0.8278 0.8207 0.9601
0.9678 0.8343 0.9717
0.0514 0.7975 0.9106
0.1001 0.8076 0.9096
0.1943 0.8277 0.9113
0.3349 0.8584 0.9197
0.4827 0.8902 0.9327
0.6307 0.9210 0.9477
0.7974 0.9561 0.9659
0.8699 0.9718 0.9738
0.9998 0.9999 0.9878
