EA 50 Cinematic Luts Pack/EA_Cinematic Lut (49).cube
TITLE "A sharp, futuristic, greenish colorization that will give your footage a digital look straight from outer space."
LUT_3D_SIZE 25
0.0000 0.0000 0.0000
0.0159 0.0000 0.0002
0.0346 0.0000 0.0004
0.0563 0.0000 0.0008
0.0813 0.0000 0.0013
0.1093 0.0000 0.0019
0.1406 0.0000 0.0027
0.1756 0.0000 0.0037
0.2146 0.0000 0.0048
0.2580 0.0000 0.0062
0.3030 0.0000 0.0077
0.3452 0.0000 0.0094
0.3835 0.0000 0.0114
0.4205 0.0000 0.0135
0.4600 0.0000 0.0159
0.5037 0.0000 0.0185
0.5507 0.0000 0.0213
0.5973 0.0000 0.0244
0.6418 0.0000 0.0278
0.6742 0.0000 0.0311
0.6920 0.0000 0.0344
0.7039 0.0000 0.0377
0.7191 0.0000 0.0411
0.7466 0.0000 0.0444
0.8086 0.0000 0.0478
0.0001 0.0031 0.0019
0.0140 0.0036 0.0000
0.0313 0.0039 0.0022
0.0570 0.0031 0.0019
0.0844 0.0024 0.0000
0.1128 0.0022 0.0000
0.1447 0.0021 0.0000
0.1802 0.0018 0.0000
0.2202 0.0015 0.0000
0.2643 0.0012 0.0000
0.3094 0.0009 0.0000
0.3512 0.0006 0.0000
0.3893 0.0004 0.0000
0.4267 0.0001 0.0000
0.4673 0.0000 0.0000
0.5121 0.0000 0.0000
0.5599 0.0000 0.0000
0.6062 0.0000 0.0007
0.6491 0.0000 0.0042
0.6780 0.0000 0.0077
0.6940 0.0000 0.0117
0.7057 0.0000 0.0160
0.7220 0.0000 0.0202
0.7516 0.0000 0.0253
0.8105 0.0026 0.0473
0.0003 0.0175 0.0048
0.0143 0.0187 0.0000
0.0319 0.0195 0.0000
0.0510 0.0208 0.0027
0.0785 0.0198 0.0056
0.1114 0.0174 0.0043
0.1467 0.0162 0.0006
0.1826 0.0154 0.0000
0.2226 0.0147 0.0000
0.2666 0.0143 0.0000
0.3116 0.0134 0.0000
0.3536 0.0126 0.0000
0.3916 0.0117 0.0000
0.4288 0.0106 0.0000
0.4697 0.0096 0.0000
0.5145 0.0085 0.0000
0.5619 0.0072 0.0000
0.6084 0.0060 0.0000
0.6518 0.0046 0.0000
0.6801 0.0033 0.0000
0.6955 0.0022 0.0000
0.7073 0.0012 0.0000
0.7248 0.0004 0.0000
0.7573 0.0000 0.0000
0.8138 0.0198 0.0500
0.0006 0.0467 0.0093
0.0138 0.0485 0.0000
0.0319 0.0498 0.0000
0.0536 0.0514 0.0000
0.0731 0.0547 0.0018
0.1028 0.0539 0.0094
0.1388 0.0519 0.0102
0.1816 0.0484 0.0070
0.2255 0.0446 0.0013
0.2705 0.0435 0.0000
0.3158 0.0429 0.0000
0.3584 0.0420 0.0000
0.3961 0.0409 0.0000
0.4332 0.0396 0.0000
0.4749 0.0390 0.0000
0.5199 0.0372 0.0000
0.5672 0.0356 0.0000
0.6143 0.0339 0.0000
0.6576 0.0322 0.0000
0.6851 0.0297 0.0000
0.7003 0.0277 0.0000
0.7120 0.0254 0.0000
0.7294 0.0226 0.0000
0.7620 0.0199 0.0000
0.8209 0.0561 0.0537
0.0009 0.0870 0.0152
0.0123 0.0895 0.0000
0.0324 0.0906 0.0000
0.0526 0.0926 0.0000
0.0772 0.0946 0.0000
0.0991 0.0994 0.0000
0.1314 0.0991 0.0114
0.1722 0.0978 0.0153
0.2161 0.0973 0.0151
0.2702 0.0905 0.0093
0.3207 0.0871 0.0009
0.3639 0.0864 0.0000
0.4025 0.0857 0.0000
0.4398 0.0844 0.0000
0.4818 0.0841 0.0000
0.5282 0.0835 0.0000
0.5754 0.0826 0.0000
0.6229 0.0813 0.0000
0.6666 0.0796 0.0000
0.6940 0.0775 0.0000
0.7089 0.0750 0.0000
0.7206 0.0726 0.0000
0.7385 0.0701 0.0000
0.7718 0.0673 0.0000
0.8309 0.1077 0.0585
0.0012 0.1307 0.0224
0.0109 0.1336 0.0000
0.0314 0.1347 0.0000
0.0537 0.1363 0.0000
0.0763 0.1386 0.0000
0.1037 0.1407 0.0000
0.1278 0.1456 0.0000
0.1634 0.1485 0.0124
0.2061 0.1487 0.0220
0.2577 0.1475 0.0222
0.3114 0.1459 0.0195
0.3654 0.1397 0.0103
0.4085 0.1361 0.0000
0.4472 0.1357 0.0000
0.4897 0.1361 0.0000
0.5365 0.1362 0.0000
0.5851 0.1358 0.0000
0.6324 0.1363 0.0000
0.6764 0.1356 0.0000
0.7039 0.1342 0.0000
0.7188 0.1326 0.0000
0.7308 0.1307 0.0000
0.7494 0.1288 0.0000
0.7840 0.1268 0.0000
0.8419 0.1641 0.0642
0.0014 0.1704 0.0311
0.0069 0.1729 0.0000
0.0302 0.1746 0.0000
0.0544 0.1765 0.0000
0.0779 0.1783 0.0000
0.1036 0.1802 0.0000
0.1346 0.1821 0.0000
0.1615 0.1876 0.0000
0.1997 0.1917 0.0113
0.2462 0.1927 0.0257
0.3029 0.1936 0.0290
0.3549 0.1943 0.0272
0.4049 0.1915 0.0179
0.4530 0.1864 0.0016
0.4986 0.1864 0.0000
0.5457 0.1872 0.0000
0.5945 0.1879 0.0000
0.6428 0.1892 0.0000
0.6865 0.1901 0.0000
0.7135 0.1893 0.0000
0.7287 0.1882 0.0000
0.7412 0.1872 0.0000
0.7606 0.1863 0.0000
0.7962 0.1859 0.0000
0.8512 0.2152 0.0699
0.0014 0.2018 0.0397
0.0004 0.2040 0.0000
0.0278 0.2059 0.0000
0.0527 0.2079 0.0000
0.0790 0.2101 0.0000
0.1045 0.2124 0.0000
0.1338 0.2142 0.0000
0.1692 0.2177 0.0000
0.1990 0.2233 0.0000
0.2381 0.2278 0.0058
0.2916 0.2296 0.0244
0.3442 0.2330 0.0337
0.3970 0.2329 0.0295
0.4426 0.2329 0.0210
0.4982 0.2296 0.0000
0.5519 0.2285 0.0000
0.6025 0.2293 0.0000
0.6514 0.2311 0.0000
0.6952 0.2329 0.0000
0.7215 0.2334 0.0000
0.7365 0.2332 0.0000
0.7492 0.2325 0.0000
0.7696 0.2324 0.0000
0.8069 0.2331 0.0000
0.8586 0.2557 0.0774
0.0011 0.2313 0.0482
0.0000 0.2331 0.0117
0.0249 0.2353 0.0000
0.0506 0.2377 0.0000
0.0777 0.2400 0.0000
0.1058 0.2425 0.0000
0.1338 0.2453 0.0000
0.1684 0.2487 0.0000
0.2077 0.2524 0.0000
0.2423 0.2578 0.0000
0.2825 0.2633 0.0000
0.3363 0.2668 0.0191
0.3850 0.2708 0.0323
0.4361 0.2708 0.0279
0.4858 0.2711 0.0153
0.5419 0.2715 0.0000
0.6033 0.2689 0.0000
0.6575 0.2698 0.0000
0.7033 0.2711 0.0000
0.7291 0.2717 0.0000
0.7438 0.2716 0.0000
0.7567 0.2716 0.0000
0.7775 0.2719 0.0000
0.8160 0.2732 0.0000
0.8655 0.2940 0.0856
0.0000 0.2606 0.0562
0.0000 0.2621 0.0265
0.0191 0.2647 0.0000
0.0488 0.2673 0.0000
0.0766 0.2700 0.0000
0.1065 0.2726 0.0000
0.1364 0.2757 0.0000
0.1689 0.2799 0.0000
0.2078 0.2836 0.0000
0.2519 0.2880 0.0000
0.2906 0.2941 0.0000
0.3303 0.3004 0.0000
0.3805 0.3042 0.0054
0.4275 0.3078 0.0181
0.4748 0.3093 0.0215
0.5353 0.3097 0.0020
0.5917 0.3116 0.0000
0.6495 0.3130 0.0000
0.7062 0.3113 0.0000
0.7359 0.3098 0.0000
0.7509 0.3092 0.0000
0.7640 0.3090 0.0000
0.7855 0.3095 0.0000
0.8250 0.3115 0.0000
0.8726 0.3315 0.0941
0.0000 0.2902 0.0652
0.0000 0.2916 0.0407
0.0080 0.2938 0.0000
0.0467 0.2973 0.0000
0.0754 0.3001 0.0000
0.1056 0.3030 0.0000
0.1380 0.3061 0.0000
0.1714 0.3104 0.0000
0.2080 0.3150 0.0000
0.2520 0.3196 0.0000
0.3001 0.3249 0.0000
0.3401 0.3315 0.0000
0.3765 0.3375 0.0000
0.4210 0.3417 0.0000
0.4683 0.3455 0.0000
0.5190 0.3491 0.0061
0.5831 0.3507 0.0000
0.6435 0.3528 0.0000
0.6987 0.3550 0.0000
0.7376 0.3544 0.0000
0.7569 0.3497 0.0000
0.7710 0.3474 0.0000
0.7936 0.3475 0.0000
0.8347 0.3498 0.0000
0.8799 0.3688 0.1044
0.0000 0.3204 0.0744
0.0000 0.3217 0.0535
0.0000 0.3235 0.0064
0.0433 0.3277 0.0000
0.0737 0.3309 0.0000
0.1050 0.3341 0.0000
0.1385 0.3373 0.0000
0.1740 0.3419 0.0000
0.2104 0.3467 0.0000
0.2519 0.3521 0.0000
0.3007 0.3575 0.0000
0.3494 0.3633 0.0000
0.3870 0.3697 0.0000
0.4192 0.3760 0.0000
0.4596 0.3815 0.0000
0.5119 0.3862 0.0000
0.5686 0.3901 0.0000
0.6304 0.3937 0.0000
0.6948 0.3953 0.0000
0.7380 0.3971 0.0000
0.7601 0.3963 0.0000
0.7749 0.3927 0.0000
0.7981 0.3889 0.0000
0.8425 0.3892 0.0000
0.8873 0.4068 0.1148
0.0000 0.3519 0.0838
0.0000 0.3531 0.0653
0.0000 0.3547 0.0277
0.0359 0.3591 0.0000
0.0711 0.3628 0.0000
0.1034 0.3662 0.0000
0.1379 0.3698 0.0000
0.1757 0.3745 0.0000
0.2138 0.3796 0.0000
0.2539 0.3856 0.0000
0.3001 0.3915 0.0000
0.3504 0.3973 0.0000
0.3956 0.4034 0.0000
0.4305 0.4097 0.0000
0.4610 0.4169 0.0000
0.5002 0.4237 0.0000
0.5600 0.4291 0.0000
0.6207 0.4327 0.0000
0.6789 0.4392 0.0000
0.7359 0.4408 0.0000
0.7636 0.4399 0.0000
0.7783 0.4389 0.0000
0.7970 0.4377 0.0000
0.8380 0.4357 0.0000
0.8950 0.4470 0.1106
0.0000 0.3847 0.0929
0.0000 0.3858 0.0766
0.0000 0.3874 0.0467
0.0230 0.3914 0.0000
0.0680 0.3961 0.0000
0.1015 0.4000 0.0000
0.1368 0.4038 0.0000
0.1760 0.4093 0.0000
0.2166 0.4145 0.0000
0.2583 0.4204 0.0000
0.3026 0.4275 0.0000
0.3500 0.4338 0.0000
0.3974 0.4398 0.0000
0.4392 0.4459 0.0000
0.4742 0.4524 0.0000
0.5062 0.4604 0.0000
0.5504 0.4682 0.0000
0.6110 0.4747 0.0000
0.6718 0.4804 0.0000
0.7272 0.4866 0.0000
0.7643 0.4872 0.0000
0.7834 0.4839 0.0000
0.8003 0.4838 0.0000
0.8321 0.4843 0.0000
0.9031 0.4899 0.0454
0.0000 0.4186 0.1022
0.0000 0.4197 0.0876
0.0000 0.4211 0.0622
0.0051 0.4237 0.0000
0.0643 0.4303 0.0000
0.0989 0.4344 0.0000
0.1351 0.4387 0.0000
0.1748 0.4444 0.0000
0.2183 0.4506 0.0000
0.2620 0.4564 0.0000
0.3071 0.4634 0.0000
0.3530 0.4711 0.0000
0.3977 0.4774 0.0000
0.4413 0.4832 0.0000
0.4830 0.4893 0.0000
0.5220 0.4967 0.0000
0.5566 0.5057 0.0000
0.6041 0.5143 0.0000
0.6635 0.5222 0.0000
0.7216 0.5287 0.0000
0.7642 0.5326 0.0000
0.7852 0.5337 0.0000
0.8021 0.5308 0.0000
0.8318 0.5299 0.0000
0.8953 0.5346 0.0000
0.0000 0.4529 0.1117
0.0000 0.4538 0.0983
0.0000 0.4551 0.0762
0.0000 0.4572 0.0207
0.0556 0.4649 0.0000
0.0960 0.4698 0.0000
0.1331 0.4743 0.0000
0.1737 0.4803 0.0000
0.2176 0.4868 0.0000
0.2650 0.4935 0.0000
0.3117 0.5004 0.0000
0.3570 0.5080 0.0000
0.4013 0.5159 0.0000
0.4428 0.5218 0.0000
0.4860 0.5278 0.0000
0.5322 0.5355 0.0000
0.5756 0.5437 0.0000
0.6124 0.5534 0.0000
0.6597 0.5631 0.0000
0.7140 0.5718 0.0000
0.7630 0.5771 0.0000
0.7887 0.5784 0.0000
0.8034 0.5802 0.0000
0.8272 0.5797 0.0000
0.8817 0.5807 0.0000
0.0000 0.4871 0.1213
0.0000 0.4879 0.1089
0.0000 0.4892 0.0893
0.0000 0.4911 0.0466
0.0418 0.4980 0.0000
0.0924 0.5048 0.0000
0.1306 0.5097 0.0000
0.1717 0.5158 0.0000
0.2166 0.5228 0.0000
0.2656 0.5300 0.0000
0.3155 0.5378 0.0000
0.3621 0.5455 0.0000
0.4047 0.5534 0.0000
0.4461 0.5610 0.0000
0.4877 0.5672 0.0000
0.5352 0.5746 0.0000
0.5862 0.5835 0.0000
0.6321 0.5920 0.0000
0.6695 0.6022 0.0000
0.7139 0.6124 0.0000
0.7567 0.6220 0.0000
0.7906 0.6240 0.0000
0.8077 0.6250 0.0000
0.8263 0.6265 0.0000
0.8641 0.6299 0.0000
0.0000 0.5217 0.1311
0.0000 0.5226 0.1193
0.0000 0.5237 0.1014
0.0000 0.5254 0.0663
0.0230 0.5304 0.0000
0.0884 0.5393 0.0000
0.1277 0.5453 0.0000
0.1696 0.5517 0.0000
0.2152 0.5592 0.0000
0.2647 0.5670 0.0000
0.3181 0.5756 0.0000
0.3669 0.5838 0.0000
0.4102 0.5915 0.0000
0.4488 0.5990 0.0000
0.4902 0.6067 0.0000
0.5362 0.6137 0.0000
0.5887 0.6221 0.0000
0.6426 0.6317 0.0000
0.6886 0.6410 0.0000
0.7253 0.6514 0.0000
0.7640 0.6615 0.0000
0.7912 0.6689 0.0000
0.8111 0.6703 0.0000
0.8280 0.6718 0.0000
0.8605 0.6746 0.0000
0.0000 0.5563 0.1410
0.0000 0.5570 0.1301
0.0000 0.5581 0.1134
0.0000 0.5597 0.0830
0.0000 0.5619 0.0032
0.0784 0.5735 0.0000
0.1240 0.5803 0.0000
0.1670 0.5877 0.0000
0.2130 0.5954 0.0000
0.2634 0.6036 0.0000
0.3178 0.6127 0.0000
0.3702 0.6217 0.0000
0.4152 0.6295 0.0000
0.4549 0.6372 0.0000
0.4935 0.6450 0.0000
0.5384 0.6537 0.0000
0.5901 0.6618 0.0000
0.6456 0.6715 0.0000
0.6995 0.6815 0.0000
0.7443 0.6910 0.0000
0.7760 0.7009 0.0000
0.7988 0.7088 0.0000
0.8151 0.7144 0.0000
0.8314 0.7164 0.0000
0.8574 0.7199 0.0000
0.0000 0.5902 0.1514
0.0000 0.5908 0.1408
0.0000 0.5918 0.1253
0.0000 0.5933 0.0982
0.0000 0.5953 0.0406
0.0635 0.6074 0.0000
0.1199 0.6152 0.0000
0.1635 0.6226 0.0000
0.2107 0.6316 0.0000
0.2615 0.6401 0.0000
0.3163 0.6495 0.0000
0.3716 0.6592 0.0000
0.4192 0.6675 0.0000
0.4602 0.6753 0.0000
0.4992 0.6834 0.0000
0.5422 0.6921 0.0000
0.5918 0.7017 0.0000
0.6472 0.7115 0.0000
0.7033 0.7218 0.0000
0.7550 0.7316 0.0000
0.7906 0.7399 0.0000
0.8091 0.7473 0.0000
0.8224 0.7540 0.0000
0.8352 0.7590 0.0000
0.8574 0.7629 0.0000
0.0000 0.6235 0.1617
0.0000 0.6241 0.1517
0.0000 0.6250 0.1371
0.0000 0.6263 0.1120
0.0000 0.6281 0.0661
0.0447 0.6374 0.0000
0.1153 0.6490 0.0000
0.1597 0.6562 0.0000
0.2078 0.6654 0.0000
0.2593 0.6751 0.0000
0.3151 0.6848 0.0000
0.3711 0.6950 0.0000
0.4220 0.7042 0.0000
0.4647 0.7123 0.0000
0.5047 0.7204 0.0000
0.5470 0.7291 0.0000
0.5957 0.7389 0.0000
0.6480 0.7497 0.0000
0.7048 0.7600 0.0000
0.7590 0.7703 0.0000
0.7994 0.7783 0.0000
0.8198 0.7839 0.0000
0.8315 0.7902 0.0000
0.8423 0.7967 0.0000
0.8599 0.8026 0.0000
0.0000 0.6552 0.1726
0.0000 0.6558 0.1632
0.0000 0.6566 0.1490
0.0000 0.6578 0.1256
0.0000 0.6595 0.0860
0.0177 0.6645 0.0000
0.1036 0.6793 0.0000
0.1553 0.6881 0.0000
0.2043 0.6973 0.0000
0.2565 0.7073 0.0000
0.3130 0.7180 0.0000
0.3700 0.7287 0.0000
0.4228 0.7387 0.0000
0.4679 0.7475 0.0000
0.5094 0.7560 0.0000
0.5528 0.7647 0.0000
0.5993 0.7743 0.0000
0.6519 0.7859 0.0000
0.7055 0.7969 0.0000
0.7609 0.8073 0.0000
0.8043 0.8162 0.0000
0.8277 0.8217 0.0000
0.8411 0.8265 0.0000
0.8525 0.8329 0.0000
0.8676 0.8409 0.0000
0.0000 0.6876 0.1837
0.0000 0.6882 0.1747
0.0000 0.6890 0.1609
0.0000 0.6902 0.1388
0.0000 0.6919 0.1034
0.0000 0.6941 0.0228
0.0883 0.7113 0.0000
0.1510 0.7220 0.0000
0.2009 0.7322 0.0000
0.2540 0.7422 0.0000
0.3113 0.7534 0.0000
0.3700 0.7650 0.0000
0.4239 0.7757 0.0000
0.4718 0.7852 0.0000
0.5146 0.7941 0.0000
0.5599 0.8040 0.0000
0.6077 0.8140 0.0000
0.6567 0.8255 0.0000
0.7110 0.8376 0.0000
0.7637 0.8484 0.0000
0.8095 0.8575 0.0000
0.8341 0.8633 0.0000
0.8491 0.8679 0.0000
0.8638 0.8738 0.0000
0.8828 0.8832 0.0000
0.0000 0.7289 0.1956
0.0000 0.7297 0.1869
0.0000 0.7308 0.1737
0.0000 0.7326 0.1521
0.0000 0.7351 0.1195
0.0000 0.7383 0.0600
0.0694 0.7541 0.0000
0.1467 0.7677 0.0000
0.1976 0.7785 0.0000
0.2520 0.7901 0.0000
0.3103 0.8014 0.0000
0.3707 0.8142 0.0000
0.4259 0.8260 0.0000
0.4752 0.8363 0.0000
0.5208 0.8459 0.0000
0.5677 0.8567 0.0000
0.6172 0.8684 0.0000
0.6673 0.8808 0.0000
0.7186 0.8937 0.0000
0.7715 0.9063 0.0000
0.8167 0.9169 0.0000
0.8429 0.9229 0.0000
0.8584 0.9276 0.0000
0.8746 0.9329 0.0000
0.8993 0.9418 0.0000
0.0000 0.7820 0.2081
0.0000 0.7828 0.1992
0.0000 0.7839 0.1862
0.0000 0.7856 0.1655
0.0326 0.7936 0.1466
0.0867 0.8048 0.1351
0.1360 0.8150 0.1214
0.1873 0.8262 0.1046
0.2381 0.8374 0.1012
0.2925 0.8494 0.1039
0.3502 0.8616 0.1078
0.4063 0.8735 0.1131
0.4569 0.8847 0.1194
0.5033 0.8946 0.1272
0.5512 0.9044 0.1358
0.6036 0.9154 0.1519
0.6583 0.9268 0.1752
0.7129 0.9382 0.2059
0.7653 0.9491 0.2453
0.8125 0.9595 0.2916
0.8419 0.9660 0.3461
0.8588 0.9696 0.4027
0.8720 0.9723 0.4598
0.8887 0.9756 0.5264
0.9149 0.9811 0.6099
0.0001 0.0000 0.0059
0.0154 0.0000 0.0238
0.0350 0.0000 0.0223
0.0568 0.0000 0.0228
0.0818 0.0000 0.0237
0.1097 0.0000 0.0242
0.1410 0.0000 0.0245
0.1759 0.0000 0.0252
0.2150 0.0000 0.0264
0.2585 0.0000 0.0276
0.3033 0.0000 0.0291
0.3455 0.0000 0.0307
0.3837 0.0000 0.0324
0.4207 0.0000 0.0341
0.4601 0.0000 0.0361
0.5039 0.0000 0.0381
0.5510 0.0000 0.0402
0.5975 0.0000 0.0426
0.6419 0.0000 0.0449
0.6743 0.0000 0.0474
0.6920 0.0000 0.0499
0.7040 0.0000 0.0524
0.7191 0.0000 0.0552
0.7468 0.0000 0.0577
0.8086 0.0000 0.0606
0.0000 0.0032 0.0261
0.0104 0.0041 0.0245
0.0376 0.0027 0.0255
0.0621 0.0019 0.0246
0.0898 0.0012 0.0224
0.1213 0.0005 0.0183
0.1565 0.0000 0.0129
0.1959 0.0000 0.0071
0.2355 0.0000 0.0068
0.2773 0.0000 0.0080
0.3195 0.0000 0.0095
0.3585 0.0000 0.0112
0.3946 0.0000 0.0132
0.4308 0.0000 0.0153
0.4706 0.0000 0.0176
0.5143 0.0000 0.0202
0.5607 0.0000 0.0231
0.6062 0.0000 0.0262
0.6491 0.0000 0.0294
0.6780 0.0000 0.0326
0.6940 0.0000 0.0358
0.7057 0.0000 0.0391
0.7220 0.0000 0.0424
0.7516 0.0000 0.0456
0.8105 0.0026 0.0615
0.0000 0.0173 0.0333
0.0111 0.0192 0.0250
0.0288 0.0208 0.0175
0.0604 0.0169 0.0258
0.0867 0.0160 0.0250
0.1179 0.0143 0.0218
0.1530 0.0127 0.0176
0.1924 0.0098 0.0116
0.2370 0.0064 0.0041
0.2827 0.0044 0.0000
0.3253 0.0037 0.0000
0.3643 0.0029 0.0000
0.4006 0.0022 0.0000
0.4375 0.0016 0.0000
0.4785 0.0010 0.0000
0.5233 0.0006 0.0000
0.5701 0.0002 0.0000
0.6156 0.0000 0.0000
0.6571 0.0000 0.0000
0.6825 0.0000 0.0000
0.6966 0.0000 0.0037
0.7084 0.0000 0.0079
0.7263 0.0000 0.0124
0.7590 0.0000 0.0172
0.8139 0.0199 0.0635
0.0000 0.0461 0.0419
0.0112 0.0487 0.0288
0.0269 0.0520 0.0124
0.0504 0.0532 0.0149
0.0850 0.0477 0.0282
0.1146 0.0464 0.0300
0.1482 0.0461 0.0286
0.1871 0.0444 0.0239
0.2308 0.0407 0.0178
0.2793 0.0365 0.0093
0.3276 0.0310 0.0000
0.3673 0.0294 0.0000
0.4037 0.0280 0.0000
0.4406 0.0263 0.0000
0.4822 0.0251 0.0000
0.5272 0.0235 0.0000
0.5742 0.0217 0.0000
0.6197 0.0198 0.0000
0.6609 0.0180 0.0000
0.6856 0.0158 0.0000
0.6997 0.0140 0.0000
0.7114 0.0117 0.0000
0.7301 0.0094 0.0000
0.7649 0.0072 0.0000
0.8209 0.0563 0.0666
0.0009 0.0863 0.0462
0.0123 0.0889 0.0349
0.0260 0.0927 0.0131
0.0480 0.0952 0.0053
0.0741 0.0965 0.0109
0.1013 0.0984 0.0246
0.1404 0.0939 0.0327
0.1816 0.0922 0.0337
0.2272 0.0896 0.0321
0.2755 0.0867 0.0258
0.3247 0.0838 0.0168
0.3702 0.0786 0.0056
0.4092 0.0747 0.0000
0.4464 0.0729 0.0000
0.4890 0.0720 0.0000
0.5348 0.0707 0.0000
0.5817 0.0692 0.0000
0.6283 0.0675 0.0000
0.6695 0.0653 0.0000
0.6941 0.0627 0.0000
0.7079 0.0600 0.0000
0.7197 0.0572 0.0000
0.7389 0.0546 0.0000
0.7741 0.0510 0.0000
0.8310 0.1079 0.0706
0.0019 0.1301 0.0519
0.0128 0.1326 0.0404
0.0265 0.1360 0.0154
0.0471 0.1387 0.0047
0.0724 0.1408 0.0000
0.1011 0.1424 0.0049
0.1261 0.1466 0.0155
0.1725 0.1442 0.0337
0.2162 0.1438 0.0385
0.2669 0.1430 0.0379
0.3219 0.1385 0.0346
0.3691 0.1364 0.0265
0.4116 0.1327 0.0130
0.4531 0.1280 0.0000
0.4962 0.1280 0.0000
0.5432 0.1273 0.0000
0.5909 0.1265 0.0000
0.6376 0.1259 0.0000
0.6799 0.1248 0.0000
0.7044 0.1229 0.0000
0.7184 0.1210 0.0000
0.7306 0.1187 0.0000
0.7503 0.1164 0.0000
0.7869 0.1143 0.0000
0.8419 0.1642 0.0749
0.0026 0.1700 0.0573
0.0128 0.1720 0.0459
0.0242 0.1752 0.0141
0.0484 0.1775 0.0083
0.0726 0.1799 0.0000
0.1005 0.1815 0.0000
0.1322 0.1831 0.0000
0.1601 0.1882 0.0083
0.2069 0.1895 0.0340
0.2536 0.1904 0.0425
0.3107 0.1912 0.0430
0.3619 0.1909 0.0410
0.4115 0.1869 0.0329
0.4559 0.1838 0.0173
0.5043 0.1817 0.0000
0.5514 0.1821 0.0000
0.6002 0.1824 0.0000
0.6476 0.1830 0.0000
0.6897 0.1833 0.0000
0.7145 0.1819 0.0000
0.7288 0.1807 0.0000
0.7415 0.1793 0.0000
0.7618 0.1780 0.0000
0.7994 0.1775 0.0000
0.8512 0.2153 0.0796
0.0027 0.2015 0.0626
0.0123 0.2033 0.0513
0.0186 0.2062 0.0136
0.0466 0.2085 0.0076
0.0725 0.2111 0.0000
0.1003 0.2135 0.0000
0.1308 0.2152 0.0000
0.1671 0.2184 0.0000
0.1976 0.2239 0.0000
0.2460 0.2260 0.0306
0.2984 0.2282 0.0414
0.3513 0.2312 0.0466
0.4019 0.2308 0.0429
0.4480 0.2302 0.0356
0.5040 0.2266 0.0147
0.5582 0.2250 0.0000
0.6076 0.2264 0.0000
0.6560 0.2280 0.0000
0.6982 0.2293 0.0000
0.7227 0.2296 0.0000
0.7370 0.2289 0.0000
0.7500 0.2282 0.0000
0.7715 0.2279 0.0000
0.8106 0.2284 0.0000
0.8586 0.2558 0.0859
0.0025 0.2311 0.0680
0.0112 0.2328 0.0567
0.0107 0.2352 0.0122
0.0434 0.2381 0.0044
0.0714 0.2407 0.0000
0.1010 0.2432 0.0000
0.1307 0.2461 0.0000
0.1655 0.2494 0.0000
0.2058 0.2530 0.0000
0.2413 0.2582 0.0000
0.2811 0.2637 0.0138
0.3421 0.2658 0.0372
0.3898 0.2696 0.0459
0.4415 0.2687 0.0405
0.4904 0.2694 0.0308
0.5484 0.2690 0.0098
0.6101 0.2662 0.0000
0.6628 0.2669 0.0000
0.7060 0.2688 0.0000
0.7302 0.2691 0.0000
0.7443 0.2689 0.0000
0.7575 0.2687 0.0000
0.7794 0.2688 0.0000
0.8198 0.2702 0.0000
0.8655 0.2940 0.0929
0.0007 0.2604 0.0728
0.0085 0.2621 0.0612
0.0046 0.2642 0.0143
0.0400 0.2676 0.0000
0.0704 0.2704 0.0000
0.1014 0.2732 0.0000
0.1326 0.2762 0.0000
0.1664 0.2804 0.0000
0.2054 0.2841 0.0000
0.2502 0.2885 0.0000
0.2897 0.2945 0.0000
0.3298 0.3008 0.0000
0.3845 0.3035 0.0255
0.4308 0.3070 0.0355
0.4792 0.3081 0.0358
0.5392 0.3086 0.0176
0.5982 0.3094 0.0000
0.6558 0.3106 0.0000
0.7099 0.3088 0.0000
0.7373 0.3072 0.0000
0.7515 0.3072 0.0000
0.7647 0.3070 0.0000
0.7871 0.3074 0.0000
0.8287 0.3094 0.0000
0.8726 0.3315 0.1003
0.0000 0.2901 0.0786
0.0025 0.2915 0.0637
0.0000 0.2934 0.0201
0.0380 0.2972 0.0000
0.0696 0.3004 0.0000
0.1010 0.3033 0.0000
0.1342 0.3065 0.0000
0.1684 0.3108 0.0000
0.2060 0.3153 0.0000
0.2500 0.3200 0.0000
0.2988 0.3253 0.0000
0.3394 0.3318 0.0000
0.3761 0.3378 0.0000
0.4247 0.3411 0.0019
0.4720 0.3447 0.0137
0.5226 0.3483 0.0216
0.5891 0.3493 0.0000
0.6485 0.3514 0.0000
0.7032 0.3533 0.0000
0.7397 0.3520 0.0000
0.7577 0.3476 0.0000
0.7720 0.3453 0.0000
0.7950 0.3460 0.0000
0.8383 0.3485 0.0000
0.8799 0.3688 0.1093
