EA 50 Cinematic Luts Pack/EA_Cinematic Lut (46).cube
TITLE "This look turns saturated hues into bleak, cold tones that make the whole picture a little more obscure."
LUT_3D_SIZE 5
0.0000 0.0000 0.0000
0.0780 0.0452 0.0468
0.2346 0.1452 0.1388
0.4123 0.2656 0.2395
0.5962 0.3839 0.3435
0.0766 0.1665 0.0899
0.1697 0.1816 0.0912
0.3241 0.2299 0.1768
0.4695 0.3233 0.2661
0.6405 0.4245 0.3629
0.2075 0.4148 0.2198
0.2602 0.4236 0.2122
0.4207 0.4398 0.2153
0.6010 0.4685 0.3063
0.7879 0.5272 0.3984
0.3287 0.6625 0.3398
0.3627 0.6685 0.3264
0.4811 0.6801 0.3139
0.6817 0.6921 0.3133
0.9004 0.7146 0.4832
0.5761 0.9040 0.6465
0.6000 0.9079 0.6514
0.6838 0.9165 0.6832
0.8253 0.9314 0.7634
0.9659 0.9638 0.9053
0.0208 0.0141 0.0485
0.0901 0.0569 0.1065
0.2457 0.1513 0.1730
0.4269 0.2657 0.2603
0.6119 0.3817 0.3580
0.0697 0.1743 0.1732
0.1701 0.1863 0.1826
0.3316 0.2326 0.2270
0.4815 0.3222 0.2976
0.6624 0.4194 0.3781
0.2081 0.4171 0.2749
0.2616 0.4255 0.2723
0.4194 0.4420 0.2770
0.5951 0.4729 0.3481
0.7960 0.5277 0.4130
0.3296 0.6634 0.3883
0.3688 0.6682 0.3829
0.4753 0.6827 0.3588
0.6808 0.6932 0.3678
0.9039 0.7149 0.5153
0.5809 0.9042 0.6740
0.6027 0.9088 0.6755
0.6842 0.9183 0.7010
0.8252 0.9338 0.7739
0.9676 0.9657 0.9111
0.0635 0.0663 0.1516
0.1196 0.0953 0.2071
0.2629 0.1744 0.2750
0.4303 0.2852 0.3370
0.6211 0.3917 0.4310
0.1299 0.1868 0.2851
0.1894 0.2030 0.3088
0.3350 0.2500 0.3435
0.4859 0.3364 0.3819
0.6874 0.4206 0.4583
0.1823 0.4286 0.4188
0.2550 0.4333 0.4256
0.4202 0.4475 0.4389
0.6087 0.4740 0.4879
0.8566 0.5134 0.4856
0.3220 0.6676 0.5355
0.3605 0.6725 0.5315
0.4850 0.6822 0.5317
0.6789 0.6956 0.5356
0.9163 0.7159 0.6159
0.5913 0.9066 0.7462
0.6149 0.9105 0.7494
0.6853 0.9240 0.7572
0.8255 0.9410 0.8085
0.9732 0.9716 0.9290
0.1259 0.1340 0.2729
0.1686 0.1572 0.3134
0.2880 0.2170 0.4082
0.4535 0.3078 0.4918
0.6242 0.4154 0.5654
0.1860 0.2267 0.3928
0.2269 0.2420 0.4232
0.3495 0.2806 0.5056
0.5003 0.3553 0.5554
0.6805 0.4446 0.6105
0.2634 0.4319 0.6168
0.3082 0.4386 0.6286
0.4349 0.4556 0.6626
0.6173 0.4825 0.6931
0.8395 0.5295 0.6999
0.2711 0.6808 0.7390
0.3308 0.6830 0.7421
0.4786 0.6889 0.7507
0.6774 0.7008 0.7564
0.9246 0.7217 0.7648
0.5966 0.9155 0.8488
0.6227 0.9187 0.8521
0.7017 0.9293 0.8624
0.8265 0.9529 0.8779
0.9837 0.9829 0.9591
0.1994 0.2126 0.4170
0.2315 0.2296 0.4570
0.3325 0.2726 0.5692
0.4751 0.3461 0.6788
0.6563 0.4343 0.7466
0.2471 0.2822 0.5422
0.2745 0.2909 0.6075
0.3791 0.3218 0.6882
0.5225 0.3802 0.7609
0.7076 0.4605 0.7971
0.3283 0.4522 0.7664
0.3472 0.4575 0.8086
0.4430 0.4607 0.9267
0.6317 0.4875 0.9270
0.8222 0.5517 0.8946
0.3553 0.6806 0.9248
0.3782 0.6852 0.9379
0.4983 0.6927 0.9491
0.6933 0.7021 0.9692
0.9010 0.7390 0.9443
0.5931 0.9327 0.9601
0.6197 0.9358 0.9619
0.7010 0.9459 0.9677
0.8360 0.9662 0.9795
0.9999 0.9999 0.9999
