EA 50 Cinematic Luts Pack/EA_Cinematic Lut (25).cube
TITLE "Generated by Resolve"
LUT_3D_SIZE 5
0 0 0
0.102525 0 0
0.372305 0 0
0.656733 0 0
0.917433 0 0
0 0.163104 0
0.108263 0.18497 0
0.361212 0.180652 0
0.656107 0.171939 0
0.931991 0.174914 0
0 0.419913 0
0.0950027 0.451621 0
0.360067 0.462547 0
0.663432 0.4654 0
0.943877 0.474937 0
0 0.720806 0
0.10219 0.756359 0
0.369192 0.76762 0
0.667445 0.767666 0
0.938628 0.77052 0
0 1 0
0.131365 1 0
0.390158 1 0
0.679133 1 0
0.942214 1 0
0 0 0.189517
0.115145 0 0.160388
0.38201 0 0.142275
0.666209 0 0.0994583
0.927596 0 0.0648203
0 0.155535 0.150881
0.120439 0.177569 0.186099
0.353323 0.177996 0.162661
0.667613 0.163516 0.124346
0.944335 0.168093 0.105058
0 0.413428 0.127794
0.12871 0.44213 0.201144
0.375937 0.458854 0.206363
0.67863 0.460945 0.159136
0.958206 0.46949 0.143801
0 0.718532 0.144747
0.115282 0.753231 0.194507
0.384619 0.762707 0.19968
0.680598 0.761227 0.179477
0.949905 0.7626 0.156939
0 1 0.190326
0.140917 1 0.226932
0.401968 1 0.22385
0.690684 1 0.20116
0.952758 1 0.17673
0 0 0.528481
0.116167 0 0.51754
0.391974 0 0.434913
0.675929 0 0.387091
0.937972 0 0.354116
0 0.161181 0.380255
0.0318608 0.162387 0.456214
0.368292 0.168933 0.431662
0.681971 0.154498 0.41706
0.95996 0.160372 0.40061
0 0.383246 0.37734
0.0574197 0.423072 0.430365
0.396475 0.4598 0.480278
0.676905 0.464454 0.461067
0.971878 0.463233 0.435996
0 0.701167 0.390066
0.085893 0.741863 0.452903
0.419699 0.754574 0.510277
0.696223 0.757275 0.501472
0.961822 0.754864 0.449729
0 0.991028 0.442023
0.127993 1 0.494621
0.411765 1 0.509117
0.703395 1 0.493278
0.964141 1 0.470436
0 0 0.844709
0.05626 0 0.858137
0.391318 0 0.764004
0.687297 0 0.682628
0.949767 0 0.642374
0 0.166995 0.695415
0 0.140597 0.770687
0.3561 0.131289 0.773556
0.69575 0.143618 0.711513
0.975341 0.152682 0.69189
0 0.403265 0.572122
0 0.403128 0.63212
0.289021 0.425727 0.729473
0.693263 0.456779 0.729427
0.985916 0.453895 0.726375
0 0.671687 0.647257
0 0.682216 0.67097
0.328923 0.716045 0.717983
0.715557 0.757031 0.772152
0.956985 0.755261 0.746517
0 0.961486 0.678599
0.0341344 0.983444 0.719173
0.370916 0.996139 0.754025
0.735897 0.996719 0.799283
0.978637 0.998215 0.789258
0 0 1
0 0 1
0.363958 0 1
0.697063 0 0.95053
0.968078 0 0.886381
0 0.179141 0.959289
0 0.152621 1
0.293584 0.123842 1
0.699443 0.129137 0.982986
0.996307 0.147997 0.935042
0 0.427817 0.806195
0 0.417548 0.893919
0.178714 0.388815 0.966842
0.670542 0.408621 0.99884
1 0.445869 0.961715
0 0.690394 0.785275
0 0.694011 0.79556
0.109972 0.665949 0.827619
0.583978 0.698848 0.935271
0.971405 0.745647 0.950973
0 0.933639 0.880903
0 0.932982 0.893431
0.194385 0.906081 0.879728
0.627405 0.940475 0.927291
1 1 1
