EA 50 Cinematic Luts Pack/EA_Cinematic Lut (8).cube
TITLE "Generated by Resolve"
LUT_3D_SIZE 5
0 0.047776 0.0635996
0.351507 0 0.103822
0.70071 0 0.165469
1 0 0.233356
1 0 0.308171
0 0.275944 0.0034638
0.239979 0.230167 0
0.624842 0.191897 0
0.998413 0.166888 0.0863813
1 0.156359 0.196231
0 0.563546 0
0.238483 0.552743 0
0.595407 0.563073 0
0.976761 0.564569 0.0334783
1 0.557168 0.127428
0 0.932143 0.055314
0.29427 0.925002 0.035584
0.626459 0.931914 0.0339361
0.950896 0.929717 0.0379492
1 0.908141 0.0569314
0 1 0.084535
0.283162 1 0.0348669
0.578073 1 0
0.855009 1 0
1 1 0
0 0.0393225 0.338491
0.298558 0 0.313481
0.607385 0 0.430014
0.934524 0 0.515648
1 0 0.597971
0 0.268254 0.28101
0.230137 0.230289 0.230137
0.598535 0.19823 0.310994
0.954635 0.182528 0.408209
1 0.177462 0.51606
0 0.566522 0.280018
0.24976 0.559472 0.259663
0.596597 0.574243 0.269459
0.987457 0.570642 0.342046
1 0.562539 0.454688
0 0.937774 0.346654
0.305364 0.929641 0.32517
0.628962 0.935683 0.319341
0.943832 0.932647 0.318196
1 0.903975 0.340551
0 1 0.36672
0.283192 1 0.312886
0.572763 1 0.274205
0.842893 1 0.239185
1 1 0.21387
0 0.0272831 0.66215
0.296925 0 0.608225
0.590616 0 0.632975
0.85803 0 0.768277
1 0 0.892042
0 0.257069 0.605966
0.236164 0.222644 0.558206
0.550698 0.218067 0.578134
0.86952 0.211627 0.733318
1 0.206958 0.860075
0 0.566232 0.616938
0.263569 0.561227 0.599023
0.594247 0.581857 0.60676
0.963531 0.579339 0.717159
1 0.575906 0.826642
0 0.938689 0.685328
0.314778 0.928252 0.661799
0.631373 0.933547 0.653773
0.931334 0.930114 0.645365
1 0.892576 0.684031
0 1 0.695445
0.281086 1 0.638666
0.566018 1 0.598306
0.829694 1 0.561242
1 1 0.5337
0 0.0124361 1
0.29366 0 0.954894
0.591196 0 0.937072
0.862257 0 0.990341
1 0 1
0 0.244785 0.959121
0.241291 0.214115 0.915022
0.557183 0.2168 0.910628
0.862867 0.226108 0.976028
1 0.236896 1
0 0.564553 0.981216
0.276738 0.560616 0.964187
0.607843 0.581796 0.97203
0.918181 0.601678 1
1 0.602396 1
0 0.936568 1
0.32372 0.923873 1
0.636301 0.926406 1
0.915358 0.924117 0.998688
1 0.88513 1
0 1 1
0.277882 1 0.990387
0.560098 1 0.949279
0.818647 1 0.911879
1 1 0.881468
0 0 1
0.290181 0 1
0.582696 0 1
0.866041 0 1
1 0 1
0 0.231998 1
0.246372 0.205524 1
0.563333 0.212039 1
0.874937 0.227146 1
1 0.247044 1
0 0.561929 1
0.288869 0.558999 1
0.619379 0.57966 1
0.925933 0.601694 1
1 0.613519 1
0 0.931975 1
0.330388 0.916732 1
0.639796 0.916121 1
0.914488 0.90956 1
1 0.891508 1
0 1 1
0.273564 1 1
0.554543 1 1
0.811963 1 1
1 1 1
