EA 50 Cinematic Luts Pack/EA_Cinematic Lut (23).cube
TITLE "Generated by Resolve"
LUT_3D_SIZE 33
0 0.000564584 0.00894179
0.0131533 0.00225834 0.00766003
0.0297093 0.00488289 0.00729381
0.0505989 0.00657664 0.00601205
0.0761273 0.00669871 0.00315862
0.106233 0.00550851 0
0.140063 0.00321965 0
0.176791 6.10361e-05 0
0.215595 0 0
0.255894 0 0
0.29572 0 0
0.328084 0 0
0.360204 0 0
0.392782 0 0
0.425666 0 0
0.458869 0 0
0.492012 0 0
0.525063 0 0
0.557839 0 0
0.590188 0 0
0.622263 0 0
0.653422 0 0
0.683604 0 0
0.71281 0 0
0.741085 0 0
0.768643 0 0
0.795605 0 0
0.821958 0 0
0.848035 0 0
0.873899 0 0
0.899641 0 0
0.925566 0 0
0.951186 0 0
0.0147097 0.0174563 0.0294652
0.0329137 0.0194705 0.030045
0.0456855 0.0235142 0.0283665
0.061799 0.0263981 0.0245975
0.0829328 0.0278782 0.0192874
0.109178 0.027924 0.012665
0.139879 0.0266728 0.00505074
0.174502 0.024506 0
0.211826 0.0212558 0
0.251286 0.0173342 0
0.291173 0.0132143 0
0.327214 0.0100252 0
0.359319 0.00784314 0
0.392096 0.00572213 0
0.424933 0.00335698 0
0.458 0.000961318 0
0.491157 0 0
0.524285 0 0
0.557198 0 0
0.589807 0 0
0.621775 0 0
0.653025 0 0
0.68336 0 0
0.712749 0 0
0.741238 0 0
0.768994 0 0
0.796002 0 0
0.822583 0 0
0.84892 0 0
0.875013 0 0
0.901061 0 0
0.927199 0 0
0.953063 0 0
0.0291752 0.0368048 0.04477
0.0512703 0.0373846 0.0469215
0.0633707 0.0411383 0.0462196
0.0763561 0.0449226 0.0418402
0.0935683 0.0476539 0.0349889
0.115846 0.0489815 0.0263523
0.143175 0.049073 0.0168002
0.174716 0.0477455 0.00640879
0.209903 0.0452735 0
0.247944 0.0419318 0
0.287312 0.0380865 0
0.326116 0.034287 0
0.358419 0.0322881 0
0.390997 0.029984 0
0.423835 0.0276493 0
0.456931 0.0253147 0
0.49012 0.0229953 0
0.523278 0.0208133 0
0.55642 0.0189364 0
0.588968 0.0170596 0
0.621073 0.0153506 0
0.65243 0.0138552 0
0.682841 0.0126802 0
0.712596 0.0120546 0
0.741222 0.0115663 0
0.769055 0.0113527 0
0.796231 0.0113527 0
0.82295 0.0115663 0
0.849577 0.0120394 0
0.876173 0.0128328 0
0.902434 0.01355 0
0.928695 0.014313 0
0.954787 0.0152743 0
0.0374151 0.0580301 0.0538643
0.0641184 0.0569924 0.0569619
0.0789654 0.0596628 0.0580758
0.0915999 0.0633707 0.054902
0.106447 0.0667582 0.048127
0.125704 0.0693065 0.0389105
0.149508 0.0703593 0.0278782
0.177996 0.0700694 0.0159304
0.210651 0.068513 0.00364691
0.246845 0.0658732 0
0.285267 0.0627298 0
0.323964 0.0592203 0
0.357855 0.056672 0
0.390448 0.0544137 0
0.423301 0.0521248 0
0.456458 0.0498665 0
0.489952 0.0478828 0
0.523201 0.0457923 0
0.556237 0.0438392 0
0.588891 0.0420844 0
0.621149 0.0405585 0
0.652735 0.0393072 0
0.683574 0.0385595 0
0.713252 0.0379034 0
0.742046 0.0376135 0
0.770138 0.0376745 0
0.79765 0.0380255 0
0.824704 0.0385901 0
0.851682 0.0394446 0
0.87837 0.0403296 0
0.904997 0.0414588 0
0.931716 0.0426795 0
0.958175 0.0440375 0
0.039765 0.0812238 0.0570687
0.0709544 0.0787823 0.0607767
0.0897536 0.0801251 0.0633402
0.104463 0.0831922 0.0621347
0.119142 0.0866255 0.0567178
0.1364 0.0894942 0.047837
0.157641 0.091371 0.0366369
0.183413 0.0920272 0.0240482
0.213581 0.0914168 0.0108186
0.247852 0.0897383 0
0.284642 0.0871138 0
0.322438 0.0840162 0
0.357595 0.0813764 0
0.390295 0.0792554 0
0.423239 0.0770886 0
0.456641 0.0751049 0
0.490043 0.0730602 0
0.523445 0.0711528 0
0.556695 0.0694285 0
0.589517 0.0678721 0
0.621927 0.0664988 0
0.653925 0.0656901 0
0.684825 0.0650492 0
0.714839 0.064744 0
0.743893 0.0647288 0
0.772198 0.0650187 0
0.800244 0.065919 0
0.82768 0.0668956 0
0.854902 0.0680095 0
0.881895 0.0692302 0
0.908721 0.070573 0
0.935668 0.0720531 0
0.962646 0.0739452 0
0.0369879 0.106386 0.0551308
0.0722057 0.102754 0.0590829
0.0951705 0.102907 0.0626841
0.113039 0.104921 0.0631418
0.129137 0.107744 0.0595254
0.146227 0.110613 0.0521553
0.16611 0.112902 0.0418402
0.189868 0.114229 0.029572
0.218082 0.114611 0.0164492
0.250248 0.113603 0.00280766
0.28542 0.111666 0
0.322087 0.109117 0
0.35761 0.106615 0
0.390555 0.104799 0
0.423758 0.102922 0
0.45716 0.100969 0
0.490669 0.0990616 0
0.524193 0.0973068 0
0.557641 0.0958267 0
0.590967 0.0948043 0
0.623728 0.0937972 0
0.655711 0.0930037 0
0.686854 0.092607 0
0.717205 0.0926528 0
0.7467 0.0931106 0
0.775647 0.0940871 0
0.803708 0.0950332 0
0.831342 0.0962081 0
0.858793 0.0975662 0
0.886076 0.0990921 0
0.913146 0.10071 0
0.94049 0.102617 0
0.967361 0.104417 0
0.0301823 0.133272 0.0491798
0.0689403 0.128908 0.053193
0.0955978 0.127901 0.0572366
0.116808 0.128756 0.0588388
0.135393 0.13077 0.0570077
0.153643 0.133272 0.051545
0.173526 0.135714 0.0429847
0.196429 0.13756 0.0320439
0.222904 0.138293 0.0194247
0.253422 0.137926 0.00607309
0.287114 0.13669 0
0.322683 0.134813 0
0.358038 0.132845 0
0.391058 0.131151 0
0.424338 0.129396 0
0.457984 0.127733 0
0.491798 0.126162 0
0.525582 0.124697 0
0.55938 0.123598 0
0.592844 0.122728 0
0.625925 0.122087 0
0.658366 0.121767 0
0.689845 0.121736 0
0.720409 0.122026 0
0.750362 0.122942 0
0.779309 0.123949 0
0.80766 0.1252 0
0.835492 0.126604 0
0.863081 0.12813 0
0.89073 0.130053 0
0.918013 0.131899 0
0.945296 0.133761 0
0.97229 0.135714 0
0.0204623 0.161746 0.0402991
0.0616617 0.156619 0.0437018
0.0915236 0.154849 0.0478828
0.11606 0.154849 0.0503395
0.137499 0.156039 0.0499733
0.157748 0.158007 0.0464332
0.178607 0.160281 0.0398871
0.201373 0.162127 0.0306096
0.227207 0.163256 0.01944
0.256641 0.163409 0.00712596
0.289097 0.162707 0
0.323857 0.161654 0
0.358434 0.160128 0
0.391669 0.158709 0
0.425177 0.157229 0
0.459022 0.155795 0
0.493217 0.15465 0
0.527535 0.15375 0
0.561563 0.152926 0
0.595239 0.1523 0
0.628519 0.151888 0
0.661158 0.151797 0
0.693065 0.152224 0
0.72398 0.152895 0
0.753857 0.153765 0
0.782925 0.15491 0
0.811414 0.156329 0
0.839445 0.157946 0
0.86743 0.159899 0
0.895003 0.161761 0
0.922362 0.163714 0
0.949783 0.165728 0
0.976959 0.16788 0
0.00860609 0.191379 0.0292973
0.0515908 0.185962 0.0319219
0.0839094 0.183658 0.0358282
0.111315 0.183001 0.0386969
0.135805 0.183795 0.0396735
0.158358 0.185168 0.0377356
0.180606 0.186892 0.0329595
0.204089 0.188602 0.0256199
0.229984 0.189914 0.0163119
0.259113 0.190539 0.00561532
0.291081 0.19057 0
0.324834 0.189792 0
0.358557 0.188708 0
0.392096 0.187671 0
0.426032 0.186679 0
0.460319 0.185763 0
0.494804 0.184955 0
0.529168 0.184131 0
0.563409 0.183566 0
0.597345 0.18323 0
0.630838 0.183078 0
0.663767 0.183291 0
0.69575 0.183841 0
0.726741 0.184604 0
0.756802 0.185672 0
0.786023 0.186999 0
0.814603 0.18854 0
0.84303 0.190585 0
0.870939 0.192477 0
0.898619 0.194491 0
0.926101 0.196582 0
0.953613 0.198703 0
0.981079 0.201175 0
0 0.222095 0.0171054
0.0396582 0.216785 0.0187686
0.0738079 0.214282 0.0222171
0.103655 0.213428 0.0252689
0.130373 0.213504 0.026688
0.155276 0.214466 0.0260929
0.179492 0.215946 0.0231479
0.204273 0.217487 0.0178073
0.230777 0.218799 0.0104067
0.260182 0.219806 0.0018616
0.291829 0.220111 0
0.325231 0.219913 0
0.35845 0.219242 0
0.392203 0.218479 0
0.426551 0.21799 0
0.461006 0.217288 0
0.495598 0.216617 0
0.530114 0.216037 0
0.564477 0.215625 0
0.598611 0.215534 0
0.632471 0.215778 0
0.665431 0.216068 0
0.697429 0.216632 0
0.728496 0.217517 0
0.758663 0.218738 0
0.788174 0.220386 0
0.81706 0.222263 0
0.845304 0.22414 0
0.873289 0.226139 0
0.901091 0.22829 0
0.92871 0.230533 0
0.956512 0.232975 0
0.983963 0.235447 0
0 0.253498 0.00547799
0.0277256 0.248722 0.00616464
0.0629892 0.246464 0.00885023
0.094316 0.245411 0.0114748
0.122988 0.245243 0.0131685
0.149905 0.245869 0.0133974
0.176028 0.247089 0.011902
0.202701 0.248859 0.00875868
0.230335 0.250217 0.00350958
0.260044 0.251102 0
0.291752 0.251545 0
0.324498 0.251423 0
0.357961 0.251102 0
0.392187 0.250904 0
0.426444 0.250385 0
0.46099 0.249851 0
0.49572 0.249393 0
0.530434 0.249042 0
0.564996 0.248875 0
0.59939 0.249088 0
0.633127 0.249256 0
0.666209 0.249714 0
0.698375 0.250492 0
0.729564 0.25153 0
0.75993 0.252964 0
0.789578 0.25478 0
0.818418 0.256641 0
0.846784 0.258686 0
0.874876 0.260807 0
0.902724 0.263035 0
0.930709 0.26566 0
0.958419 0.26804 0
0.985855 0.270527 0
0 0.283497 0.00143435
0.0196994 0.280186 0
0.0529335 0.279225 0
0.085069 0.278538 0
0.115297 0.278553 0.000991836
0.143923 0.279179 0.00184634
0.171878 0.280461 0.00155642
0.199664 0.281758 0
0.228382 0.283024 0
0.258885 0.283894 0
0.290929 0.284092 0
0.323705 0.284077 0
0.357534 0.284215 0
0.391653 0.283986 0
0.426093 0.283711 0
0.460761 0.283391 0
0.495567 0.283085 0
0.530663 0.283177 0
0.565332 0.283162 0
0.599634 0.283345 0
0.633494 0.283665 0
0.666636 0.28423 0
0.698894 0.285145 0
0.73048 0.28661 0
0.760861 0.288106 0
0.790402 0.289845 0
0.819303 0.291783 0
0.847745 0.293919 0
0.876005 0.296254 0
0.904158 0.298802 0
0.931899 0.301213 0
0.959625 0.303655 0
0.987106 0.306218 0
0 0.314458 0
0.0161135 0.311528 0
0.0496986 0.310903 0
0.0806287 0.311101 0
0.110399 0.311971 0
0.139361 0.3131 0
0.167926 0.314275 0
0.196765 0.315404 0
0.226429 0.316365 0
0.257527 0.317021 0
0.289982 0.317678 0
0.322988 0.317952 0
0.356649 0.317983 0
0.39086 0.317922 0
0.425391 0.31783 0
0.460227 0.317739 0
0.495476 0.317922 0
0.530373 0.317891 0
0.565118 0.318013 0
0.599512 0.318334 0
0.633494 0.318837 0
0.666743 0.319539 0
0.699321 0.320836 0
0.730694 0.322118 0
0.761135 0.32372 0
0.790784 0.325582 0
0.819745 0.327626 0
0.84828 0.3299 0
0.876738 0.332448 0
0.904723 0.334859 0
0.932494 0.337362 0
0.960281 0.339864 0
0.987778 0.342458 0
0 0.346731 0
0.0127413 0.34403 0
0.0466621 0.343679 0
0.0780499 0.344274 0
0.108003 0.345251 0
0.137087 0.34641 0
0.165896 0.347753 0
0.194995 0.349081 0
0.224887 0.350225 0
0.256321 0.351217 0
0.288746 0.351843 0
0.321843 0.352255 0
0.355688 0.352514 0
0.390021 0.352636 0
0.424628 0.352697 0
0.459831 0.353033 0
0.494911 0.353124 0
0.529946 0.353292 0
0.564767 0.353567 0
0.599222 0.353994 0
0.633509 0.354864 0
0.666865 0.355718 0
0.699229 0.356847 0
0.730663 0.358236 0
0.761135 0.359899 0
0.790799 0.361837 0
0.820111 0.364263 0
0.848646 0.366552 0
0.876875 0.368917 0
0.904875 0.371374 0
0.932662 0.373892 0
0.960464 0.376455 0
0.988251 0.37937 0
0 0.380087 0
0.00975052 0.377523 0
0.0441138 0.377569 0
0.0755932 0.37818 0
0.105699 0.379232 0
0.134997 0.380529 0
0.163973 0.381979 0
0.193393 0.383566 0
0.223651 0.385016 0
0.2551 0.385977 0
0.287602 0.386679 0
0.320806 0.387213 0
0.354757 0.38761 0
0.389395 0.388113 0
0.424247 0.388464 0
0.459236 0.388663 0
0.494377 0.388876 0
0.529473 0.389181 0
0.564401 0.389609 0
0.599161 0.390417 0
0.633265 0.39115 0
0.666621 0.39205 0
0.699031 0.393256 0
0.730495 0.394736 0
0.760998 0.396475 0
0.790982 0.398764 0
0.819989 0.400931 0
0.848524 0.40325 0
0.876768 0.405661 0
0.904768 0.408148 0
0.932525 0.410697 0
0.960601 0.413535 0
0.988067 0.416159 0
0 0.414282 0
0.00732433 0.4121 0
0.0415656 0.412009 0
0.0731975 0.412711 0
0.103487 0.413886 0
0.133013 0.415335 0
0.162325 0.417029 0
0.191943 0.418753 0
0.222202 0.420157 0
0.253834 0.421256 0
0.286519 0.42211 0
0.319875 0.422797 0
0.35407 0.423468 0
0.388739 0.424018 0
0.42356 0.424414 0
0.458671 0.424765 0
0.493874 0.425116 0
0.529015 0.425528 0
0.564263 0.426337 0
0.59881 0.426993 0
0.632914 0.427771 0
0.666285 0.428748 0
0.698695 0.429999 0
0.730373 0.431739 0
0.760952 0.433616 0
0.790646 0.435645 0
0.819654 0.437842 0
0.848157 0.440177 0
0.876356 0.442588 0
0.904601 0.44535 0
0.932357 0.447913 0
0.960082 0.450446 0
0.987503 0.453056 0
0 0.449317 0
0.00491341 0.447044 0
0.039353 0.447105 0
0.0711528 0.447913 0
0.101564 0.449165 0
0.131533 0.450996 0
0.160937 0.452705 0
0.190585 0.454383 0
0.220996 0.455879 0
0.252735 0.457053 0
0.285634 0.458076 0
0.319341 0.459098 0
0.353491 0.459739 0
0.388113 0.460258 0
0.423011 0.460746 0
0.458167 0.461204 0
0.493584 0.461814 0
0.528939 0.462486 0
0.563897 0.463066 0
0.598444 0.463767 0
0.632517 0.464591 0
0.665888 0.465629 0
0.698497 0.467124 0
0.730053 0.468772 0
0.760525 0.470588 0
0.790158 0.472618 0
0.819135 0.474815 0
0.847593 0.477165 0
0.876005 0.47982 0
0.90396 0.482322 0
0.931624 0.484825 0
0.959258 0.487312 0
0.986603 0.489876 0
0 0.484733 0
0.00297551 0.482551 0
0.0375525 0.482704 0
0.0695201 0.48365 0
0.100389 0.485283 0
0.13019 0.4869 0
0.159701 0.488655 0
0.189502 0.49041 0
0.220081 0.491997 0
0.252033 0.493324 0
0.285176 0.494575 0
0.318761 0.495445 0
0.353002 0.496162 0
0.387717 0.496788 0
0.422675 0.497368 0
0.457984 0.498009 0
0.493462 0.498726 0
0.528664 0.499275 0
0.563607 0.499916 0
0.598154 0.500664 0
0.632212 0.501518 0
0.665843 0.502876 0
0.698207 0.504173 0
0.72961 0.50573 0
0.760021 0.507546 0
0.789624 0.50956 0
0.818692 0.51191 0
0.847196 0.514336 0
0.875288 0.516701 0
0.90312 0.519127 0
0.930709 0.521584 0
0.958236 0.52401 0
0.985687 0.526711 0
0 0.520562 0
0.00161746 0.518502 0
0.0363012 0.51873 0
0.0686656 0.520027 0
0.099382 0.521477 0
0.129351 0.523171 0
0.158984 0.524987 0
0.188876 0.526772 0
0.219852 0.52871 0
0.25185 0.530022 0
0.284871 0.531106 0
0.318547 0.532021 0
0.35285 0.532784 0
0.38764 0.533486 0
0.422904 0.534386 0
0.458137 0.534966 0
0.493416 0.535515 0
0.528588 0.536095 0
0.563516 0.536736 0
0.598093 0.537575 0
0.632319 0.538659 0
0.665614 0.539712 0
0.697902 0.541009 0
0.729244 0.542535 0
0.759579 0.544305 0
0.789227 0.546441 0
0.818204 0.548745 0
0.84651 0.551003 0
0.874479 0.553292 0
0.902174 0.555627 0
0.929656 0.558022 0
0.95729 0.560571 0
0.984497 0.563073 0
0 0.556634 0
0.00108339 0.55494 0
0.0359503 0.555322 0
0.0681315 0.55639 0
0.0989548 0.55787 0
0.129015 0.559625 0
0.158785 0.561502 0
0.189075 0.563638 0
0.219852 0.565301 0
0.251926 0.566629 0
0.285008 0.567727 0
0.31873 0.568673 0
0.353109 0.569467 0
0.38819 0.570443 0
0.423194 0.571069 0
0.458396 0.571633 0
0.493645 0.572198 0
0.528801 0.572763 0
0.563745 0.573465 0
0.598398 0.574441 0
0.632334 0.57528 0
0.665537 0.576288 0
0.697749 0.577569 0
0.729 0.579065 0
0.759533 0.581094 0
0.788922 0.583001 0
0.817639 0.585061 0
0.845823 0.587259 0
0.873701 0.589502 0
0.901381 0.591852 0
0.928878 0.594293 0
0.956161 0.596536 0
0.983154 0.59884 0
0 0.593149 0
0.0009308 0.591318 0
0.0358434 0.591714 0
0.0681315 0.592859 0
0.0990616 0.5944 0
0.129213 0.59617 0
0.159335 0.598352 0
0.18941 0.600214 0
0.220264 0.601892 0
0.252384 0.603235 0
0.285527 0.604334 0
0.31957 0.605539 0
0.353964 0.606317 0
0.388754 0.606989 0
0.423758 0.607599 0
0.45893 0.608148 0
0.494133 0.608667 0
0.529519 0.609491 0
0.564309 0.610101 0
0.598688 0.610803 0
0.632532 0.611597 0
0.665629 0.612558 0
0.697765 0.613779 0
0.729152 0.615457 0
0.759274 0.617136 0
0.788571 0.618982 0
0.817136 0.620951 0
0.845151 0.623026 0
0.872969 0.625238 0
0.900603 0.627604 0
0.927794 0.62977 0
0.95491 0.631876 0
0.981689 0.634028 0
0 0.629511 0
0.00151064 0.62768 0
0.0364843 0.628092 0
0.0688334 0.629267 0
0.100023 0.631022 0
0.130343 0.632914 0
0.160235 0.634806 0
0.190356 0.636652 0
0.221241 0.638315 0
0.253407 0.639628 0
0.286824 0.64094 0
0.320638 0.641886 0
0.355016 0.642618 0
0.389792 0.643229 0
0.424735 0.643778 0
0.459876 0.644282 0
0.495323 0.64506 0
0.530343 0.645533 0
0.565042 0.646052 0
0.599283 0.646662 0
0.633036 0.647395 0
0.666041 0.64831 0
0.698314 0.649714 0
0.729274 0.651026 0
0.759258 0.652567 0
0.788388 0.654337 0
0.816831 0.656214 0
0.844999 0.658473 0
0.872541 0.660441 0
0.899779 0.662455 0
0.926802 0.664515 0
0.95378 0.666514 0
0.980453 0.668574 0
0 0.665644 0
0.00297551 0.663828 0
0.037995 0.664286 0
0.070573 0.665629 0
0.101717 0.667308 0
0.13196 0.669078 0
0.161883 0.670939 0
0.192035 0.67277 0
0.222934 0.674388 0
0.255406 0.675959 0
0.288563 0.676951 0
0.322316 0.677791 0
0.356664 0.678462 0
0.391409 0.679011 0
0.426566 0.679713 0
0.461677 0.680186 0
0.496727 0.680568 0
0.531655 0.68098 0
0.566293 0.681422 0
0.600412 0.681956 0
0.634287 0.682826 0
0.667155 0.683619 0
0.699001 0.684657 0
0.729839 0.685893 0
0.759655 0.687312 0
0.788602 0.688914 0
0.817136 0.690944 0
0.844862 0.692805 0
0.872251 0.694682 0
0.899306 0.696544 0
0.926116 0.698405 0
0.952911 0.700267 0
0.979599 0.702403 0
0 0.701549 0
0.00534066 0.699825 0
0.040589 0.700465 0
0.0729992 0.70161 0
0.104036 0.703151 0
0.134295 0.70489 0
0.164202 0.706706 0.000350958
0.194491 0.708598 0.00163272
0.225528 0.710307 0.00251774
0.25771 0.711528 0.00273136
0.290837 0.712459 0.00247196
0.324559 0.713191 0.00183108
0.358846 0.713756 0.000823987
0.393729 0.714412 0
0.428687 0.7149 0
0.463676 0.715221 0
0.498634 0.71548 0
0.53341 0.715755 0
0.56791 0.716091 0
0.602182 0.716762 0
0.635706 0.717311 0
0.668376 0.717952 0
0.700023 0.718822 0
0.730709 0.719921 0
0.760388 0.721248 0
0.789456 0.723018 0
0.817487 0.72459 0
0.844984 0.726268 0
0.87219 0.727993 0
0.899092 0.729747 0
0.925978 0.731731 0
0.952514 0.733364 0
0.978729 0.735042 0
0 0.737194 0
0.00856031 0.735592 0
0.043595 0.735988 0
0.0759899 0.737087 0
0.106996 0.738552 0.0012665
0.137255 0.74023 0.00271611
0.167269 0.742123 0.00421149
0.197574 0.743969 0.00549325
0.228412 0.745434 0.00619516
0.260517 0.746517 0.00636301
0.293614 0.747356 0.00608835
0.327306 0.748028 0.00544747
0.361822 0.748775 0.00471504
0.396399 0.749096 0.0033875
0.431144 0.74934 0.00181582
0.466041 0.749538 4.57771e-05
0.500923 0.749706 0
0.53576 0.750011 0
0.570199 0.750301 0
0.604044 0.750576 0
0.637385 0.750957 0
0.669947 0.751492 0
0.701427 0.752224 0
0.732097 0.753338 0
0.761639 0.754559 0
0.790265 0.755901 0
0.818128 0.757366 0
0.845441 0.758877 0
0.872389 0.760403 0
0.899306 0.762203 0
0.925765 0.763821 0
0.952163 0.765347 0
0.978195 0.766873 0
0 0.772641 0.00392157
0.0121004 0.770733 0.00242618
0.0471046 0.771084 0.00302129
0.0794842 0.772122 0.00416571
0.110491 0.773556 0.00555428
0.140917 0.775387 0.00720226
0.170764 0.77705 0.00849927
0.200855 0.778637 0.00956741
0.231662 0.780011 0.0102541
0.263706 0.780987 0.0103456
0.296788 0.781765 0.0100862
0.330587 0.782483 0.00958267
0.364736 0.782834 0.00854505
0.399252 0.783047 0.007187
0.43389 0.783139 0.00555428
0.468635 0.783154 0.00369268
0.503502 0.783307 0.00180056
0.538231 0.783475 0
0.572427 0.78352 0
0.606104 0.783627 0
0.639231 0.783795 0
0.671595 0.784176 0
0.70312 0.784955 0
0.733516 0.785824 0
0.762768 0.786786 0
0.791135 0.78793 0
0.81883 0.789212 0
0.845975 0.790616 0
0.873014 0.792279 0
0.899489 0.793667 0
0.925704 0.795087 0
0.951919 0.796475 0
0.977844 0.797909 0
0 0.807477 0.00868238
0.0159457 0.805493 0.0071107
0.0508888 0.805737 0.00761425
0.0832074 0.806699 0.0087129
0.114412 0.808286 0.0102846
0.144533 0.809781 0.0116121
0.174304 0.811307 0.0128176
0.204273 0.812757 0.0137789
0.235019 0.813993 0.014374
0.267063 0.814939 0.0145113
0.300206 0.815717 0.0143282
0.333669 0.816068 0.0135195
0.367697 0.816236 0.0123598
0.402121 0.816281 0.0109407
0.436652 0.816266 0.00927749
0.471565 0.816419 0.00762951
0.506142 0.81622 0.00549325
0.54052 0.816037 0.00321965
0.574578 0.81593 0.000885023
0.608133 0.8159 0
0.641199 0.816037 0
0.673503 0.816358 0
0.704631 0.816739 0
0.734752 0.81738 0
0.763851 0.818219 0
0.792065 0.819226 0
0.819684 0.820493 0
0.846723 0.82182 0
0.873381 0.823117 0
0.899718 0.824414 0
0.925811 0.825727 0
0.951843 0.826993 0
0.977783 0.828489 0
0 0.841886 0.0135348
0.0198978 0.839826 0.011902
0.0550393 0.840253 0.012604
0.0872511 0.841077 0.0135653
0.118074 0.842237 0.0147402
0.148135 0.84361 0.0159762
0.177829 0.845045 0.0171206
0.207721 0.846357 0.0180056
0.23859 0.847684 0.0187533
