EA 50 Cinematic Luts Pack/EA_Cinematic Lut (23).cube
TITLE "Generated by Resolve"
LUT_3D_SIZE 5
0 0.000564584 0.00894179
0.215595 0 0
0.492012 0 0
0.741085 0 0
0.951186 0 0
0.00860609 0.191379 0.0292973
0.229984 0.189914 0.0163119
0.494804 0.184955 0
0.756802 0.185672 0
0.981079 0.201175 0
0 0.449317 0
0.220996 0.455879 0
0.493584 0.461814 0
0.760525 0.470588 0
0.986603 0.489876 0
0 0.737194 0
0.228412 0.745434 0.00619516
0.500923 0.749706 0
0.761639 0.754559 0
0.978195 0.766873 0
0 1 0.0336156
0.249134 1 0.0331579
0.514275 1 0.0193027
0.767025 0.997147 0
0.976745 1 0
0 0.0233616 0.105837
0.243107 0 0.0511788
0.516793 0 0.0274052
0.766247 0 0
0.977371 0 0
0 0.199802 0.0747845
0.258747 0.199084 0.0872511
0.503471 0.19884 0.0631418
0.784161 0.193133 0.0335851
1 0.209735 0.0263371
0 0.45803 0.0569924
0.269917 0.461585 0.105196
0.524269 0.472923 0.105028
0.790402 0.480827 0.0636149
1 0.498985 0.0578775
0 0.749813 0.0760052
0.256306 0.757107 0.0983597
0.531029 0.759457 0.0964218
0.789456 0.762798 0.0810407
1 0.773785 0.0681163
0.00401312 1 0.112718
0.273198 1 0.122042
0.540978 1 0.113207
0.793317 1 0.0964828
1 1 0.0830396
0 0.0285496 0.382757
0.247791 0 0.345418
0.530922 0 0.257633
0.780804 0 0.218082
0.993133 0 0.199481
0 0.210147 0.242283
0.175753 0.189471 0.296361
0.523217 0.194568 0.270359
0.802884 0.188464 0.264088
1 0.206088 0.259388
0 0.432364 0.24448
0.202884 0.446799 0.272099
0.54873 0.477806 0.316289
0.792004 0.487663 0.302281
1 0.496071 0.286854
0 0.735866 0.258167
0.229923 0.748745 0.293202
0.569482 0.754711 0.343832
0.808286 0.762051 0.339651
1 0.76968 0.297978
0 1 0.301427
0.263905 1 0.326787
0.554513 1 0.335637
0.809842 0.9991 0.325856
1 1 0.313771
0 0.0331121 0.686152
0.187808 0 0.672572
0.530709 0 0.5738
0.793194 0 0.501274
1 0 0.476066
0 0.217411 0.545525
0.0822156 0.169329 0.5991
0.511849 0.157733 0.599695
0.816815 0.177737 0.545312
1 0.198535 0.537438
0 0.45272 0.42623
0.0138247 0.426581 0.460212
0.441123 0.44358 0.551965
0.808118 0.479744 0.557046
1 0.486503 0.563622
0 0.705913 0.501534
0.0833143 0.688609 0.497398
0.47808 0.715557 0.53753
0.827222 0.76141 0.596567
1 0.769665 0.580972
0 0.979736 0.524376
0.170077 0.974746 0.538018
0.513619 0.981704 0.567132
0.842573 0.988617 0.618708
1 1 0.619455
0 0.0381628 0.984283
0.119188 0 0.98201
0.50013 0 0.9037
0.800061 0 0.807492
1 0 0.758999
0 0.227008 0.848035
0.0184176 0.178912 0.90013
0.44625 0.147234 0.913848
0.817166 0.159915 0.854658
1 0.190173 0.818097
0 0.473564 0.69778
0 0.437018 0.759228
0.326436 0.402289 0.826169
0.781033 0.427207 0.863264
1 0.473747 0.835431
0 0.720302 0.676417
0 0.696132 0.65893
0.254765 0.661097 0.684001
0.691661 0.699229 0.796902
1 0.756161 0.822736
0 0.947463 0.76347
0.021912 0.920256 0.749432
0.33312 0.887678 0.730053
0.730114 0.928405 0.783963
1 1 0.868864
