EA 50 Cinematic Luts Pack/EA_Cinematic Lut (14).cube
TITLE "Generated by Resolve"
LUT_3D_SIZE 9
0 0 0.00958267
0.0374609 0 0.0177157
0.305913 0 0.0129549
0.519188 0 0.0214084
0.69604 0 0.0398566
0.863493 0 0.0619821
1 0 0.0861219
1 0 0.111833
1 0 0.138781
0 0.0804456 0.0451972
0.057847 0.0733196 0.0524147
0.279255 0.0486152 0
0.496254 0.0185855 0
0.674113 0 0
0.842542 0 0.0200504
1 0 0.0443275
1 0 0.0702525
1 0 0.0975052
0 0.21355 0.000701915
0.0881056 0.197803 0.045243
0.265965 0.185779 0.00163272
0.447883 0.168673 0
0.627161 0.145708 0
0.798917 0.126375 0
0.962539 0.110597 0
1 0.0970474 0.0175937
1 0.0851911 0.0437476
0 0.346349 0
0.100328 0.332631 0.00128176
0.268513 0.320241 0
0.422553 0.310536 0
0.580118 0.296452 0
0.744793 0.279332 0
0.908904 0.262486 0
1 0.247257 0
1 0.233936 0
0 0.472862 0
0.131487 0.459831 0
0.281239 0.450935 0
0.419379 0.445914 0
0.558206 0.439063 0
0.702968 0.429145 0
0.855238 0.416052 0
1 0.401602 0
1 0.387549 0
0.011902 0.599588 0
0.16231 0.586923 0
0.301045 0.580179 0
0.423255 0.579538 0
0.55227 0.576425 0
0.681987 0.571908 0
0.817426 0.564645 0
0.95993 0.554482 0
1 0.542458 0
0.0429999 0.727016 0
0.192264 0.714458 0
0.323857 0.708919 0
0.434394 0.711101 0
0.551431 0.711803 0
0.673411 0.710292 0
0.796506 0.707469 0
0.924895 0.702205 0
1 0.694347 0
0.0725414 0.855085 0
0.220829 0.842618 0
0.348074 0.837736 0
0.449866 0.841733 0
0.555795 0.845533 0
0.669856 0.846784 0
0.785809 0.846693 0
0.9037 0.845212 0
1 0.84155 0
0.10071 0.983688 0
0.248737 0.971191 0
0.372717 0.966796 0
0.467857 0.972 0
0.565179 0.97792 0
0.669062 0.982269 0
0.779934 0.984131 0
0.891234 0.985138 0
1 0.984756 0
0 0 0
0.0119631 0 0.00114443
0.274388 0 0.0732128
0.503166 0 0.103655
0.680674 0 0.123507
0.848859 0 0.14667
1 0 0.171817
1 0 0.198428
1 0 0.22623
0 0.111879 0
0.0665904 0.0845655 0.0499275
0.257267 0.0629892 0.0660563
0.476768 0.0297856 0.0705577
0.670283 0.00190738 0.0803693
0.835081 0 0.100267
0.994766 0 0.124498
1 0 0.150286
1 0 0.177325
0 0.222568 0
0.15256 0.188891 0.0753033
0.268299 0.190616 0.0913863
0.441794 0.176226 0.0491188
0.639139 0.147662 0.0331273
0.804013 0.126162 0.0496986
0.964141 0.111025 0.0728923
1 0.0984054 0.0986038
1 0.0872663 0.12578
0 0.353079 0
0.165347 0.324285 0.0274815
0.295094 0.317266 0.080766
0.426047 0.316548 0.0484627
0.58912 0.301701 0.0065156
0.755276 0.279133 0.00732433
0.918029 0.260655 0.0226749
1 0.24596 0.044831
1 0.233371 0.0699931
0.026154 0.477256 0
0.183856 0.458793 0
0.305364 0.453727 0.0348516
0.426917 0.452918 0.036286
0.562921 0.446311 0.0159609
0.707927 0.433173 0
0.86331 0.416617 0
1 0.400397 0.002533
1 0.385809 0.0209354
0.0639353 0.602533 0
0.218051 0.586389 0
0.335119 0.582193 0.0169985
0.438376 0.585016 0.037995
0.558938 0.583535 0.0279545
0.685802 0.578241 0.00825513
0.821439 0.569039 0
0.966415 0.55642 0
1 0.542336 0
0.0974136 0.729061 0
0.249439 0.71371 0
0.364569 0.710048 0
0.456977 0.715206 0.0286564
0.561929 0.718395 0.0326543
0.679408 0.71725 0.0197452
0.80029 0.713771 0.00161746
0.928573 0.707057 0
1 0.69723 0
0.12842 0.856535 0
0.279286 0.841657 0
0.393347 0.838163 0
0.478691 0.844602 0.0114748
0.572152 0.850828 0.0290532
0.677913 0.853773 0.0251469
0.791348 0.853559 0.0117952
0.907454 0.851484 0
1 0.846647 0
0.157549 0.984726 0
0.307729 0.970153 0
0.420874 0.966812 0
0.501945 0.973983 0
0.586755 0.982101 0.0178225
0.681575 0.988312 0.0243839
0.787274 0.991073 0.0171206
0.896452 0.991913 0.00390631
1 0.991012 0
0 0.000244144 0.12369
0.0409705 0 0.0839551
0.244984 0 0.114855
0.475502 0 0.201205
0.656306 0 0.236423
0.824231 0 0.264668
0.985733 0 0.29276
1 0 0.321126
1 0 0.350088
0 0.148165 0.0352026
0.0622263 0.0968338 0.0832837
0.229206 0.0831311 0.0932326
0.44242 0.0434577 0.174319
0.651316 0.00833143 0.205997
0.815961 0 0.22649
0.976211 0 0.251591
1 0 0.278462
1 0 0.306447
0 0.267109 0
0.120684 0.217288 0.0274968
0.273915 0.198764 0.132113
0.417334 0.188144 0.159197
0.61709 0.156298 0.165057
0.796841 0.128176 0.174624
0.952453 0.111055 0.195193
1 0.0992294 0.221073
1 0.0886549 0.248203
0 0.382818 0
0.194232 0.33019 0.0249027
0.356191 0.304997 0.153796
0.425528 0.318547 0.181704
0.580362 0.3066 0.141863
0.764035 0.277867 0.125704
0.918807 0.256123 0.142046
1 0.2421 0.166354
1 0.23064 0.193225
0.00978103 0.497932 0
0.218204 0.462486 0
0.367102 0.4421 0.104112
0.45034 0.446784 0.169085
0.563592 0.449485 0.140185
0.713802 0.435294 0.0988937
0.869718 0.412345 0.099321
1 0.394263 0.115084
1 0.380331 0.138003
0.0690166 0.616831 0
0.262348 0.5879 0
0.384405 0.578073 0.0608072
0.459312 0.584619 0.121874
0.563455 0.587503 0.127001
0.687419 0.582361 0.108156
0.822721 0.56939 0.0889448
0.970489 0.552972 0.0849165
1 0.537057 0.0953384
0.116594 0.738827 0
0.298558 0.713741 0
0.417411 0.706584 0.0332036
0.488045 0.714183 0.103014
0.574029 0.720851 0.127825
0.682979 0.721279 0.119707
0.800763 0.716762 0.100786
0.928969 0.707851 0.0833295
1 0.695369 0.0760357
0.156939 0.863218 0
0.330709 0.840696 0
0.447532 0.834424 0.00273136
0.516396 0.842725 0.0777447
0.591684 0.851865 0.117556
0.685359 0.857298 0.123781
0.794171 0.857359 0.112078
0.907912 0.854444 0.0945144
1 0.847974 0.0781567
0.192462 0.989258 0
0.360555 0.968551 0
0.47628 0.962798 0
0.544137 0.971344 0.0490425
0.612482 0.981872 0.0994583
0.69485 0.990509 0.119448
0.792218 0.994934 0.117006
0.898772 0.995575 0.104494
1 0.993942 0.0881208
0 0.00421149 0.260105
0.0572976 0 0.238499
0.254093 0 0.216724
0.4224 0 0.254078
0.619043 0 0.332708
0.796613 0 0.385885
0.959487 0 0.424018
1 0 0.457145
1 0 0.48925
0 0.15906 0.201877
0.0501564 0.101381 0.230472
0.258961 0.0813306 0.199695
0.413306 0.0627146 0.239139
0.622217 0.0180667 0.325002
0.789883 0 0.360586
0.949599 0 0.390509
1 0 0.42031
1 0 0.45008
0 0.305455 0.0560006
0.0200046 0.253056 0.130938
0.268605 0.210071 0.187396
0.388388 0.207385 0.208377
0.581598 0.168841 0.290578
0.776608 0.133333 0.321889
0.931243 0.113176 0.342229
1 0.100313 0.368811
1 0.0895705 0.397101
0 0.422278 0
0.0943618 0.373831 0.0461891
0.322988 0.332036 0.127535
0.42974 0.325261 0.2439
0.555108 0.317723 0.274052
0.7411 0.285634 0.279652
0.909957 0.256474 0.288212
1 0.239582 0.308995
1 0.229084 0.336217
0 0.533654 0
0.168734 0.491127 0.0152743
0.394583 0.446601 0.123003
0.509773 0.432837 0.263325
0.561929 0.45034 0.295186
0.704067 0.4392 0.256153
0.876936 0.409537 0.239063
1 0.387106 0.254719
1 0.373877 0.279835
0.017792 0.646067 0
0.2448 0.607431 0
0.417426 0.580423 0.0915541
0.519463 0.571405 0.212436
0.585397 0.579904 0.281224
0.686931 0.58439 0.254124
0.827161 0.570077 0.212696
0.974517 0.546288 0.212299
1 0.528313 0.228153
0.086717 0.761837 0
0.302449 0.726848 0
0.460502 0.706905 0.0682383
0.535943 0.708675 0.168307
0.593469 0.718944 0.233097
0.686168 0.723918 0.240314
0.800961 0.719478 0.222156
0.928252 0.706218 0.202655
1 0.689601 0.198444
0.144121 0.880995 0
0.348592 0.849195 0
0.495399 0.833204 0.0399939
0.567987 0.838026 0.139757
0.621439 0.849531 0.213458
0.696117 0.858412 0.240497
0.796338 0.859968 0.233509
0.906737 0.855787 0.214923
1 0.84686 0.197436
0.192813 1 0
0.387747 0.973907 0
0.52639 0.960525 0.00968948
0.597025 0.966293 0.108186
0.648844 0.978653 0.187259
0.713024 0.990188 0.229465
0.798276 0.997086 0.237156
0.900099 0.997879 0.226184
1 0.995254 0.208911
0 0.00880446 0.388296
0.0523384 0 0.370733
0.260456 0 0.346761
0.406561 0 0.344823
0.564004 0 0.395026
0.750744 0 0.479957
0.925582 0 0.546304
1 0 0.594736
1 0 0.63444
0 0.162875 0.346471
0.0378424 0.105699 0.383673
0.275639 0.0755779 0.370993
0.425589 0.0699168 0.360632
0.571481 0.0476997 0.396658
0.752392 0.00961318 0.473091
0.920836 0 0.527016
1 0 0.56669
1 0 0.60119
0 0.322759 0.20824
0 0.26424 0.314366
0.25687 0.214954 0.35137
0.419364 0.206821 0.332494
0.553246 0.188861 0.372595
0.746548 0.142107 0.456352
0.903944 0.118364 0.491539
1 0.104021 0.522667
1 0.0926375 0.553887
0 0.456397 0.0735943
0 0.412131 0.16437
0.222248 0.367742 0.247349
0.423926 0.33608 0.315129
0.52575 0.336553 0.339254
0.704952 0.29752 0.420966
0.888945 0.260853 0.451102
1 0.240085 0.470863
1 0.228428 0.498634
0 0.57171 0
0.074464 0.530205 0.0775464
0.29427 0.489799 0.160266
0.47567 0.459007 0.252628
0.565179 0.456107 0.372854
0.678492 0.450004 0.404456
0.85359 0.416892 0.409049
1 0.386267 0.416114
1 0.369284 0.43682
0 0.682811 0
0.168948 0.642512 0.0347753
0.3673 0.608423 0.128023
0.545998 0.574975 0.246815
0.643626 0.564752 0.390692
0.684596 0.584573 0.424872
0.816907 0.57348 0.385885
0.980667 0.542428 0.367407
1 0.51899 0.382055
0.0162814 0.794766 0
0.250492 0.755352 0.00375372
0.442267 0.72575 0.103944
0.568078 0.710155 0.214618
0.652491 0.704631 0.338979
0.707103 0.715312 0.409949
0.799802 0.720821 0.383871
0.931716 0.705928 0.341878
1 0.68101 0.340337
0.0911879 0.909209 0
0.317922 0.871397 0
0.498573 0.845594 0.0786908
0.610346 0.837613 0.190494
0.668406 0.843091 0.294286
0.714519 0.855482 0.361181
0.798657 0.861738 0.369696
0.905974 0.857542 0.351766
1 0.843702 0.331685
0.15581 1 0
0.374075 0.990829 0
0.543465 0.968215 0.0510414
0.644129 0.964294 0.16112
0.699672 0.97319 0.264958
0.741909 0.986999 0.340963
0.808164 0.997314 0.369436
0.90135 0.999557 0.363134
1 0.995392 0.344564
0 0.0122683 0.528878
0.0434577 0 0.514214
0.261601 0 0.491035
0.411551 0 0.481209
0.543191 0 0.492973
0.694865 0 0.551843
0.873304 0 0.639963
1 0 0.71577
1 0 0.773754
0 0.165194 0.495705
0.0255589 0.110033 0.524712
0.270787 0.0782025 0.516442
0.432898 0.0712596 0.504692
0.55993 0.0672465 0.504784
0.700847 0.0426642 0.55198
0.875822 0.00703441 0.635004
1 0 0.701549
1 0 0.750927
0 0.329076 0.378698
0 0.268193 0.472175
0.245151 0.219867 0.518242
0.436606 0.201648 0.517464
0.568963 0.199481 0.510597
0.698405 0.174334 0.543709
0.866468 0.133272 0.617151
1 0.110307 0.671351
1 0.0968185 0.712276
0 0.478553 0.222904
0 0.429511 0.329778
0.18175 0.379492 0.444419
0.412787 0.341558 0.49279
0.55819 0.337453 0.477928
0.677592 0.318517 0.517052
0.858152 0.268894 0.597925
1 0.244297 0.632273
1 0.230869 0.664302
0 0.604822 0.104005
0 0.564111 0.192523
0.185153 0.528313 0.291752
0.375113 0.494896 0.385702
0.559121 0.466667 0.456931
0.648966 0.468666 0.482582
0.817029 0.428351 0.563012
0.991684 0.390082 0.591546
1 0.368429 0.610407
0 0.71957 0.0292058
0.0706798 0.680079 0.112825
0.272908 0.647364 0.20325
0.445487 0.61796 0.296971
0.608896 0.59028 0.392447
0.687129 0.589624 0.514916
0.791272 0.584207 0.547204
0.957168 0.549615 0.550301
1 0.517205 0.555596
0 0.831434 0
0.162722 0.791516 0.0641947
0.366033 0.760449 0.159121
0.517555 0.737758 0.263783
0.678325 0.707485 0.385748
0.76437 0.699199 0.531563
0.797024 0.720577 0.567285
0.921202 0.709056 0.527886
1 0.67631 0.507713
0.00968948 0.943648 0
0.246906 0.903746 0.0276493
0.446113 0.87361 0.12665
0.591684 0.856001 0.238849
0.699901 0.843931 0.353033
0.772671 0.840269 0.479271
0.81883 0.852369 0.551659
0.904372 0.858457 0.526146
1 0.84268 0.483268
0.0880598 1 0
0.320531 1 0
0.512245 0.989868 0.098024
0.646815 0.976211 0.212421
0.741558 0.97229 0.328298
0.78819 0.979873 0.43418
0.825757 0.993591 0.502403
0.903029 1 0.511772
1 0.996429 0.493782
0 0.0149081 0.680018
0.0323339 0 0.667491
0.258 0 0.646281
0.41529 0 0.634485
0.544152 0 0.631815
0.669917 0 0.656413
0.817456 0 0.721248
0.989136 0 0.811322
1 0 0.893904
0 0.166873 0.652125
0.0116121 0.112703 0.675486
0.261219 0.0795148 0.670253
0.433539 0.0698558 0.659449
0.566247 0.0697795 0.653498
0.684123 0.0641947 0.665019
0.823133 0.0400244 0.721096
0.99205 0.0062562 0.807401
1 0 0.882948
0 0.331044 0.553704
0 0.269841 0.631724
0.232761 0.224109 0.670176
0.432029 0.204532 0.674174
0.577356 0.201923 0.666743
0.691295 0.198322 0.667247
0.818555 0.169955 0.710674
0.983459 0.131975 0.791348
1 0.106874 0.857755
0 0.490425 0.400137
0 0.435264 0.510689
0.171069 0.383719 0.613489
0.401801 0.347204 0.671382
0.57615 0.332998 0.674601
0.696895 0.332738 0.669642
0.812757 0.303883 0.699046
0.969665 0.259358 0.769039
1 0.236378 0.823224
0 0.629923 0.252155
0 0.585702 0.352255
0.129519 0.545892 0.46836
0.335317 0.507347 0.594476
0.548714 0.472892 0.646311
0.683024 0.471183 0.63386
0.790814 0.450507 0.67126
0.960311 0.397543 0.748791
1 0.371801 0.781979
0 0.752529 0.144457
0 0.712596 0.231266
0.177569 0.681224 0.329168
0.336721 0.656825 0.439811
0.508659 0.626505 0.536858
0.68098 0.600092 0.609888
0.7617 0.602838 0.636301
0.920333 0.5608 0.715007
1 0.520623 0.741619
0 0.867323 0.0712291
0.0621653 0.827756 0.154772
0.26743 0.797665 0.247837
0.423178 0.776715 0.350011
0.577752 0.750423 0.446845
0.729152 0.724239 0.543816
0.799008 0.725063 0.667765
0.895628 0.71986 0.700267
1 0.683482 0.701595
0 0.979858 0.0181735
0.153277 0.93991 0.102953
0.357931 0.909361 0.197665
0.515221 0.890486 0.304799
0.649134 0.87129 0.41294
0.797955 0.842573 0.536477
0.875288 0.835447 0.683452
0.90132 0.857923 0.720272
1 0.845685 0.680156
0 1 0
0.238514 1 0.0623636
0.440787 1 0.159792
0.594018 1 0.271031
0.722591 0.990387 0.38735
0.819196 0.980224 0.503441
0.883207 0.977661 0.630762
0.922606 0.990723 0.704128
1 0.99707 0.678874
0 0.0168307 0.840391
0.0196841 0 0.829465
0.251102 0 0.810498
0.415641 0 0.798093
0.548791 0 0.792691
0.66656 0 0.797589
0.789334 0 0.832181
0.933562 0 0.901427
1 0 0.992828
0 0.168109 0.815976
0 0.114656 0.835477
0.249424 0.0803998 0.832364
0.429236 0.0683146 0.823545
0.569833 0.0675517 0.816175
0.686793 0.069276 0.815106
0.801617 0.061799 0.838636
0.938964 0.0382086 0.900984
1 0.00613413 0.98938
0 0.331472 0.731731
0 0.270832 0.797024
0.218128 0.226093 0.829801
0.421897 0.20528 0.836942
0.577585 0.200107 0.83064
0.699046 0.202289 0.826947
0.806027 0.195697 0.837446
0.934096 0.168261 0.890272
1 0.132387 0.974472
0 0.495705 0.590433
0 0.436576 0.69456
0.158206 0.384802 0.782025
0.389425 0.351461 0.832868
0.571954 0.336263 0.84123
0.706493 0.336355 0.83653
0.810193 0.332403 0.836667
0.925505 0.299809 0.875853
1 0.259159 0.953872
0 0.646464 0.429953
0 0.596933 0.538354
0.0976272 0.551217 0.658381
0.325017 0.51194 0.773465
0.538582 0.479377 0.835294
0.701808 0.467552 0.840894
0.813794 0.468406 0.837064
0.917784 0.435401 0.862303
1 0.387137 0.928557
0 0.779355 0.293629
0 0.737102 0.388403
0.0998856 0.702327 0.497948
0.281407 0.674739 0.626291
0.469673 0.63975 0.755962
0.671412 0.607156 0.809659
0.797482 0.60708 0.79884
0.895354 0.584207 0.834028
1 0.527611 0.907927
0 0.900008 0.193393
0 0.860182 0.279057
0.167208 0.829694 0.375311
0.327886 0.81062 0.485512
0.469459 0.789746 0.59968
0.629358 0.760906 0.698192
0.792859 0.735531 0.77229
0.866148 0.738582 0.798993
1 0.694514 0.875669
0 1 0.120928
0.0513619 0.975326 0.204395
0.256947 0.945159 0.297368
0.416358 0.927459 0.402792
0.554864 0.910353 0.508827
0.697444 0.885557 0.607172
0.839689 0.860121 0.70486
0.902831 0.861952 0.829831
0.993088 0.856672 0.862257
0 1 0.0656443
0.141466 1 0.150072
0.346761 1 0.244236
0.505516 1 0.351278
0.646006 1 0.462715
0.768292 1 0.572747
0.908034 0.979507 0.697063
0.978347 0.973098 0.844739
0.998871 0.996353 0.882353
0 0.0181125 1
0.0059205 0 0.999329
0.24181 0 0.982498
0.412497 0 0.970565
0.551003 0 0.96347
0.670161 0 0.962585
0.781949 0 0.976074
0.902937 0 1
1 0 1
0 0.168872 0.986999
0 0.115969 1
0.236164 0.0809339 1
0.421744 0.0669108 0.995621
0.569665 0.06421 0.987686
0.691752 0.0673991 0.984771
0.800107 0.0690471 0.990127
0.913771 0.059968 1
1 0.0370184 1
0 0.331197 0.913344
0 0.271458 0.968719
0.202838 0.22742 0.99765
0.409476 0.205554 1
0.572686 0.197955 1
0.702571 0.2 0.998032
0.810498 0.202564 0.997787
0.916075 0.193561 1
1 0.167193 1
0 0.497414 0.785977
0 0.436408 0.88043
0.144381 0.385183 0.955184
0.374182 0.352834 1
0.561334 0.336522 1
0.706386 0.334218 1
0.819471 0.337896 1
0.91725 0.329809 1
1 0.298833 1
0 0.656046 0.62565
0 0.601617 0.736553
0.0766308 0.551934 0.850126
0.311681 0.512551 0.949996
0.526299 0.483711 1
0.69807 0.471275 1
0.824674 0.473304 1
0.919829 0.468528 1
1 0.431403 1
0 0.799115 0.470817
0 0.753094 0.574105
0.0453346 0.712993 0.691966
0.249149 0.679698 0.824399
0.459846 0.644816 0.943877
0.662196 0.614572 1
0.817182 0.604349 1
0.922103 0.605875 1
1 0.568399 1
0 0.927749 0.344793
0 0.886488 0.436164
0.0790265 0.853681 0.540398
0.249805 0.831327 0.662379
0.414557 0.808057 0.795026
0.591257 0.775036 0.926665
0.784222 0.743526 0.98143
0.903731 0.74461 0.971786
0.992798 0.719249 1
0 1 0.249622
0 1 0.334554
0.155077 0.977142 0.429664
0.315724 0.95906 0.538323
0.459709 0.944396 0.652934
0.58967 0.925429 0.769009
0.740414 0.897292 0.868223
0.896773 0.872511 0.942901
0.96376 0.875547 0.969604
0 1 0.177493
0.038529 1 0.260853
0.244434 1 0.353735
0.404181 1 0.459083
0.546975 1 0.569009
0.67422 1 0.677302
0.807645 1 0.776364
0.942443 0.997452 0.874311
1 1 1
