EA 50 Cinematic Luts Pack/EA_Cinematic Lut (11).cube
TITLE "Generated by Resolve"
LUT_3D_SIZE 9
0.0568856 0.0898146 0.0542611
0.166476 0.0791485 0.00296025
0.286748 0.0793164 0
0.424979 0.0839551 0
0.561913 0.088304 0
0.694514 0.0919661 0
0.825025 0.0963455 0
0.954467 0.102129 0
1 0.109331 0
0.119936 0.114702 0.121019
0.168231 0.121981 0.0928206
0.294026 0.126986 0.0160525
0.439841 0.137545 0
0.583612 0.147707 0
0.719112 0.153567 0
0.853819 0.161669 0
0.988815 0.172442 0
1 0.18587 0
0.167636 0.167865 0.178515
0.193225 0.183368 0.183932
0.301106 0.204761 0.120073
0.454765 0.225772 0.0555276
0.609918 0.246067 0
0.754604 0.259953 0
0.897169 0.274983 0
1 0.291814 0
1 0.310231 0
0.22417 0.253941 0.243778
0.252049 0.276997 0.269429
0.334401 0.315953 0.239872
0.490684 0.354223 0.191669
0.652384 0.386252 0.136217
0.804318 0.407523 0.077409
0.95285 0.427695 0.0216373
1 0.448447 0
1 0.469612 0
0.302449 0.366766 0.330037
0.334112 0.395468 0.367681
0.40885 0.438895 0.361349
0.542306 0.490761 0.33257
0.703609 0.533028 0.288243
0.859403 0.564462 0.231525
1 0.590494 0.174533
1 0.61387 0.11957
1 0.635676 0.0655985
0.395789 0.495262 0.430838
0.429023 0.526284 0.474495
0.497383 0.569162 0.480049
0.60882 0.621469 0.463813
0.756069 0.671702 0.430823
0.912947 0.712505 0.385199
1 0.744533 0.329076
1 0.769894 0.269368
1 0.791287 0.21004
0.49543 0.630472 0.537514
0.527794 0.660975 0.583017
0.589334 0.70045 0.593729
0.688289 0.746715 0.583337
0.805798 0.798154 0.556909
0.955291 0.84181 0.517922
1 0.877653 0.467643
1 0.905303 0.40737
1 0.926482 0.34229
0.590829 0.761837 0.639628
0.619577 0.788876 0.683299
0.673686 0.823011 0.694789
0.760388 0.861601 0.685756
0.864027 0.905257 0.662272
0.981476 0.949493 0.624781
1 0.982971 0.57583
1 1 0.514961
1 1 0.444678
0.673213 0.87985 0.72842
0.696223 0.90164 0.768078
0.741909 0.928237 0.776547
0.814694 0.956146 0.763882
0.900893 0.986847 0.735805
0.99646 1 0.695735
1 1 0.64477
1 1 0.586374
1 1 0.5205
0 0.125536 0.0197757
0.132769 0.0881514 0.0579995
0.2598 0.0855116 0
0.399908 0.0889906 0
0.539651 0.0942245 0
0.673259 0.0978256 0
0.804746 0.102449 0
0.935012 0.108354 0
1 0.115694 0
0.0657054 0.140581 0.0706798
0.153674 0.123369 0.128862
0.275456 0.124758 0.0568093
0.419913 0.135592 0
0.566506 0.149615 0
0.704952 0.159106 0
0.839857 0.16788 0
0.975402 0.179538 0
1 0.193622 0
0.14966 0.182406 0.13669
0.194324 0.181506 0.199481
0.279377 0.199527 0.148516
0.433982 0.21915 0.0880598
0.594263 0.245182 0.0403449
0.746944 0.267872 0
0.889403 0.283467 0
1 0.30074 0
1 0.319326 0
0.222553 0.264988 0.210483
0.259571 0.276631 0.273869
0.320378 0.309255 0.266438
0.467811 0.348058 0.21915
0.636698 0.385168 0.171283
0.800107 0.417426 0.126818
0.949126 0.438407 0.0737469
1 0.459007 0.0211032
1 0.480049 0
0.308721 0.376928 0.302419
0.344732 0.39646 0.367056
0.403586 0.434104 0.381567
0.52221 0.48658 0.361532
0.690974 0.537209 0.326085
0.857114 0.577478 0.279179
1 0.603174 0.224506
1 0.625498 0.170657
1 0.646601 0.117403
0.405936 0.505043 0.406821
0.441642 0.528572 0.471397
0.499184 0.567651 0.496162
0.602609 0.619074 0.492561
0.74583 0.677882 0.470375
0.908141 0.724544 0.430976
1 0.757488 0.376028
1 0.781933 0.317128
1 0.802213 0.258671
0.507332 0.639582 0.51545
0.541085 0.663645 0.577859
0.594263 0.699535 0.604669
0.684627 0.743893 0.60618
0.799634 0.797314 0.589761
0.945129 0.848188 0.557763
1 0.887541 0.511254
1 0.916091 0.451926
1 0.936202 0.38674
0.602823 0.769528 0.618006
0.632136 0.790692 0.675608
0.679545 0.821378 0.700587
0.758419 0.857832 0.702785
0.856947 0.90103 0.687556
0.968917 0.948653 0.657328
1 0.985916 0.612284
1 1 0.554192
1 1 0.484794
0.684153 0.885451 0.706096
0.707469 0.901671 0.757336
0.746914 0.924636 0.776989
0.812192 0.949798 0.774029
0.892195 0.978958 0.753491
0.984787 1 0.720104
1 1 0.674922
1 1 0.621027
1 1 0.558175
0 0.160754 0.0187839
0.0422522 0.11667 0.111345
0.213535 0.0942702 0.0690013
0.362646 0.0939803 0
0.505241 0.0997482 0
0.641367 0.104082 0
0.775158 0.108904 0
0.907454 0.114992 0
1 0.122545 0
0 0.179171 0.0533608
0.0692302 0.153552 0.146715
0.239155 0.12871 0.139269
0.386862 0.135988 0.0661173
0.536233 0.149859 0.00840772
0.68072 0.163485 0
0.818082 0.173602 0
0.955276 0.186191 0
1 0.201053 0
0.0687266 0.216754 0.108324
0.163012 0.200092 0.187411
0.261738 0.196765 0.213931
0.410605 0.211826 0.15584
0.570459 0.239063 0.110079
0.729351 0.269001 0.0671397
0.876753 0.290257 0.0155947
1 0.308019 0
1 0.327398 0
0.173434 0.291966 0.185534
0.260609 0.287175 0.272374
0.317739 0.305455 0.317693
0.441169 0.337545 0.273976
0.61088 0.373144 0.230182
0.782254 0.413931 0.197299
0.942657 0.447135 0.157549
1 0.467704 0.105348
1 0.489052 0.0540475
0.282628 0.398489 0.284642
0.354955 0.404807 0.371359
0.408499 0.431357 0.419226
0.50132 0.474678 0.414572
0.662791 0.525521 0.37966
0.838972 0.573693 0.343038
1 0.613001 0.305501
1 0.635599 0.253986
1 0.656107 0.201266
0.394308 0.523033 0.395026
0.454673 0.53576 0.478355
0.507576 0.565621 0.526436
0.59263 0.608988 0.539651
0.720958 0.668727 0.525917
0.893355 0.726375 0.498085
1 0.769482 0.454108
1 0.793271 0.397238
1 0.812039 0.33962
0.504067 0.654719 0.507622
0.554986 0.669825 0.585977
0.604471 0.6981 0.63064
0.68246 0.737591 0.649378
0.78941 0.790005 0.645167
0.931456 0.850675 0.625162
1 0.896895 0.585916
1 0.926711 0.528069
1 0.94548 0.463142
0.604044 0.781598 0.612055
0.645518 0.795331 0.683558
0.689754 0.819348 0.722774
0.759289 0.851789 0.740078
0.848798 0.892668 0.736187
0.957702 0.941802 0.715648
1 0.986664 0.678035
1 1 0.62446
1 1 0.556359
0.687099 0.894499 0.700862
0.719097 0.903899 0.763851
0.75494 0.920165 0.794476
0.812726 0.941527 0.804364
0.884367 0.968139 0.794553
0.971771 1 0.769574
1 1 0.732937
1 1 0.685344
1 1 0.626871
0 0.196017 0.0413977
0 0.153063 0.146517
0.129274 0.117372 0.162676
0.307012 0.103105 0.107866
0.460716 0.103319 0.0353399
0.60235 0.107607 0
0.738781 0.11397 0
0.872663 0.121538 0
1 0.129824 0
0 0.216541 0.0679637
0 0.187778 0.168597
0.151934 0.152712 0.226184
0.335988 0.139925 0.18117
0.492973 0.149493 0.114412
0.642252 0.165499 0.0484169
0.784421 0.17882 0
0.925139 0.192828 0
1 0.208576 0
0 0.256474 0.111772
0.0606088 0.23978 0.195544
0.181704 0.224979 0.275471
0.372564 0.213535 0.261494
0.534096 0.236393 0.204044
0.696544 0.267002 0.163165
0.852308 0.294697 0.11902
0.996704 0.314107 0.0662242
1 0.334478 0.0142367
0.0848859 0.33109 0.182391
0.187472 0.322698 0.269703
0.295918 0.323613 0.338628
0.421317 0.332265 0.362814
0.583062 0.361242 0.318791
0.754269 0.403479 0.288151
0.922927 0.445991 0.257877
1 0.474571 0.213733
1 0.496345 0.162829
0.21677 0.433433 0.28159
0.318166 0.430869 0.37435
0.41532 0.440909 0.447227
0.494545 0.467338 0.489403
0.629801 0.508583 0.453254
0.8065 0.554879 0.420264
0.984054 0.604654 0.396399
1 0.64332 0.362173
1 0.664012 0.31014
0.348745 0.552834 0.395621
0.439353 0.555062 0.48835
0.519966 0.572168 0.557321
0.594018 0.602625 0.600259
0.693614 0.650187 0.597528
0.858045 0.707546 0.569726
1 0.759823 0.537087
1 0.800717 0.500923
1 0.820447 0.446464
0.47335 0.679316 0.511772
0.550454 0.68423 0.600336
0.617319 0.702327 0.661845
0.686976 0.73138 0.701473
0.77409 0.774136 0.711574
0.900175 0.834821 0.699168
1 0.893965 0.673518
1 0.93611 0.628595
1 0.95404 0.565454
0.582971 0.801297 0.618738
0.64651 0.80589 0.700313
0.701885 0.821576 0.753445
0.765545 0.845884 0.787182
0.841627 0.880812 0.798779
0.941344 0.927779 0.789212
1 0.983078 0.764492
1 1 0.719722
1 1 0.653651
0.672389 0.909606 0.708934
0.721767 0.910719 0.781231
0.764767 0.919387 0.823056
0.817517 0.933471 0.845808
0.879347 0.955581 0.850156
0.957855 0.986999 0.836515
1 1 0.810575
1 1 0.772534
1 1 0.7205
0 0.231418 0.0688945
0 0.189593 0.177188
0.0239261 0.15082 0.226917
0.223117 0.123888 0.21033
0.397848 0.112886 0.153536
0.551461 0.112505 0.0834821
0.694759 0.117235 0.0112154
0.832929 0.124697 0
0.968429 0.134813 0
0 0.252918 0.0912032
0 0.222187 0.195239
0.0446937 0.188495 0.271977
0.250004 0.160296 0.280629
0.43212 0.154498 0.232013
0.592371 0.164828 0.170092
0.742153 0.179751 0.105989
0.887236 0.196689 0.0415198
1 0.215183 0
0 0.295933 0.126818
0 0.27744 0.21828
0.0866407 0.261463 0.304067
0.286885 0.237125 0.357916
0.480278 0.238132 0.323369
0.649607 0.263584 0.272999
0.811063 0.294362 0.222248
0.961334 0.318166 0.170291
1 0.340429 0.121431
0 0.373922 0.192065
0.0851301 0.365347 0.280888
0.194827 0.366094 0.354879
0.344106 0.361196 0.437919
0.542718 0.361151 0.429053
0.713558 0.396811 0.384451
0.885481 0.439765 0.35584
1 0.476921 0.321294
1 0.501183 0.273426
0.125673 0.476143 0.285985
0.232227 0.471687 0.377218
0.345586 0.47744 0.450965
0.475456 0.485557 0.519173
0.606485 0.499779 0.544808
0.772473 0.53666 0.508827
0.949462 0.587488 0.486854
1 0.637263 0.46392
1 0.66894 0.422934
0.273442 0.592096 0.397757
0.378393 0.589456 0.491035
0.486824 0.597177 0.566201
0.601358 0.610742 0.634348
0.682994 0.638621 0.674067
0.816861 0.682475 0.641337
0.993637 0.731884 0.611124
1 0.785 0.590585
1 0.824689 0.557427
0.413504 0.713451 0.514305
0.509758 0.711284 0.606088
0.603433 0.718807 0.676249
0.697856 0.735027 0.736233
0.771023 0.76286 0.772992
0.865873 0.807752 0.768338
1 0.866148 0.742351
1 0.918578 0.70956
1 0.956313 0.669902
0.53579 0.829572 0.622248
0.619318 0.826383 0.708965
0.697322 0.832563 0.771466
0.775723 0.846357 0.820996
0.84123 0.8692 0.851072
0.918517 0.903746 0.852918
1 0.957809 0.835172
1 1 0.805997
1 1 0.755886
0.63476 0.931991 0.713222
0.702693 0.92491 0.79115
0.763333 0.924895 0.841596
0.825299 0.930434 0.877348
0.879881 0.94345 0.89659
0.945037 0.968826 0.8981
1 1 0.884092
1 1 0.860822
1 1 0.820111
0 0.266835 0.096788
0 0.225956 0.206241
0 0.187655 0.272084
0.120348 0.154299 0.287877
0.313054 0.132937 0.257847
0.484276 0.124041 0.201663
0.638956 0.124117 0.134798
0.784451 0.129473 0.0655985
0.925048 0.138964 0
0 0.289464 0.11725
0 0.257206 0.222858
0 0.225269 0.305013
0.143252 0.192691 0.34725
0.345281 0.173632 0.333913
0.525231 0.172045 0.286778
0.68748 0.182437 0.228336
0.840604 0.198596 0.168139
0.988388 0.217807 0.108019
0 0.335393 0.14789
0 0.314473 0.244724
0 0.297841 0.332876
0.180026 0.27451 0.408362
0.39321 0.258869 0.424079
0.584909 0.266606 0.389517
0.75639 0.290181 0.341711
0.915648 0.31632 0.289372
1 0.342275 0.234363
0 0.417411 0.208072
0 0.407416 0.300511
0.0963455 0.405936 0.381353
0.249042 0.400092 0.469352
0.45597 0.385336 0.526619
0.655207 0.395743 0.50248
0.832837 0.431357 0.463142
1 0.471839 0.42266
1 0.502068 0.375814
0.0249027 0.521462 0.297658
0.130465 0.516304 0.389059
0.243107 0.521462 0.46392
0.374289 0.529213 0.537301
0.528389 0.529747 0.620859
0.72781 0.533486 0.617807
0.902434 0.574975 0.579217
1 0.62472 0.557
1 0.666407 0.527123
0.180316 0.6365 0.404013
0.28751 0.632685 0.495903
0.400519 0.638086 0.569284
0.531304 0.647044 0.638285
0.661738 0.656291 0.702876
0.788266 0.668482 0.728847
0.951568 0.705516 0.693095
1 0.75903 0.673899
1 0.810864 0.653056
0.331365 0.754314 0.516747
0.435294 0.749172 0.607584
0.542092 0.751537 0.678065
0.663874 0.758206 0.744244
0.775616 0.768627 0.804822
0.851148 0.790951 0.839368
0.976043 0.831876 0.806287
1 0.879484 0.773587
1 0.929366 0.749783
0.465064 0.865309 0.622843
0.560235 0.85716 0.709911
0.655772 0.856611 0.775586
0.759991 0.859907 0.833616
0.848157 0.868864 0.882231
0.909819 0.886061 0.907668
0.992065 0.92076 0.895613
1 0.973434 0.865019
1 1 0.82768
0.574029 0.961608 0.712718
0.655253 0.947784 0.791806
0.733516 0.940414 0.846906
0.816785 0.936477 0.8916
0.885115 0.938796 0.925795
0.939727 0.951583 0.944717
1 0.980453 0.942412
1 1 0.926085
1 1 0.902861
0 0.30248 0.1252
0 0.262196 0.235035
0 0.225193 0.308919
0.0112001 0.189685 0.346395
0.212497 0.16173 0.342885
0.398733 0.144533 0.307332
0.568338 0.13753 0.252842
0.724743 0.138643 0.189517
0.873106 0.145937 0.124544
0 0.325917 0.144579
0 0.293019 0.251484
0 0.262516 0.335775
0.0343023 0.229969 0.394888
0.241566 0.204135 0.412329
0.438163 0.191989 0.390692
0.617304 0.193362 0.345937
0.782193 0.204822 0.291569
0.937819 0.221973 0.234928
0 0.374609 0.172549
0 0.352331 0.273732
0 0.334966 0.362768
0.076997 0.313924 0.44509
0.287312 0.293355 0.493156
0.495995 0.286213 0.491157
0.685054 0.295705 0.456687
0.85658 0.316381 0.409735
1 0.341604 0.359289
0 0.460594 0.228992
0 0.449409 0.326192
0 0.444984 0.410758
0.154833 0.438514 0.500435
0.34934 0.424155 0.578607
0.564828 0.416388 0.601572
0.762432 0.431357 0.576623
0.941268 0.46305 0.538216
1 0.495216 0.492561
0 0.567071 0.313985
0.027985 0.561547 0.407904
0.140368 0.56437 0.485283
0.275776 0.569619 0.565057
0.4327 0.568994 0.652888
0.636484 0.557443 0.711894
0.837461 0.56997 0.693919
1 0.609644 0.659998
1 0.65388 0.623835
0.0794385 0.682795 0.416342
0.186267 0.678859 0.508644
0.29752 0.682734 0.581338
0.427207 0.690669 0.651118
0.558511 0.699062 0.720455
0.705318 0.698466 0.798459
0.90042 0.698024 0.799115
1 0.738994 0.761181
1 0.789822 0.738689
0.235691 0.798779 0.523247
0.340658 0.792737 0.612924
0.449027 0.7935 0.681651
0.57496 0.797589 0.745785
0.701762 0.803159 0.806668
0.824125 0.80763 0.863127
0.941955 0.81268 0.889052
1 0.843488 0.84715
1 0.891875 0.822873
0.377096 0.905974 0.624567
0.476616 0.895705 0.710262
0.578973 0.892195 0.77496
0.695277 0.889662 0.832609
0.808881 0.888334 0.886122
0.908537 0.888167 0.93344
0.973022 0.897871 0.958373
1 0.928695 0.919753
1 0.970459 0.880262
0.494163 0.996872 0.710872
0.582208 0.978973 0.788693
0.670726 0.966751 0.843961
0.770718 0.955978 0.891508
0.8645 0.94844 0.934279
0.942519 0.948119 0.97142
0.998322 0.958968 0.991577
1 0.990188 0.980438
1 1 0.955413
0 0.338308 0.15404
0 0.298314 0.264134
0 0.262654 0.342107
0 0.227024 0.393103
0.104479 0.195773 0.411032
0.299702 0.17261 0.39707
0.481956 0.158663 0.359319
0.651591 0.154055 0.307591
0.810422 0.157595 0.249042
0 0.362325 0.172686
0 0.329076 0.280598
0 0.299825 0.366003
0 0.268772 0.434104
0.132677 0.240757 0.472694
0.337224 0.222049 0.476478
0.530465 0.215061 0.451835
0.709804 0.219089 0.409949
0.876112 0.231342 0.359121
0 0.413596 0.199435
0 0.390738 0.304158
0 0.373526 0.394324
0 0.35433 0.479469
0.180133 0.33341 0.543832
0.392309 0.318624 0.570382
0.595621 0.316213 0.559731
0.782834 0.326589 0.525979
0.954635 0.345968 0.481025
0 0.503471 0.253697
0 0.491371 0.355352
0 0.485527 0.443076
0.061387 0.47805 0.532906
0.246983 0.465156 0.617105
0.457633 0.451408 0.669505
0.669383 0.450401 0.675486
0.863844 0.465675 0.649516
1 0.490791 0.608637
0 0.612482 0.334524
0 0.606332 0.431876
0.041062 0.607706 0.51313
0.17966 0.609644 0.595911
0.337728 0.607538 0.684291
0.528374 0.595987 0.761639
0.741482 0.589624 0.788449
0.940368 0.605386 0.768261
1 0.63772 0.732296
0 0.729351 0.432517
0.0829938 0.724834 0.526024
0.194141 0.727947 0.600671
0.323079 0.732982 0.672343
0.457755 0.738094 0.747066
0.607706 0.735821 0.828672
0.80235 0.721736 0.886366
1 0.729152 0.870024
1 0.766186 0.835386
0.133501 0.844663 0.534981
0.237659 0.837995 0.624384
0.345434 0.838392 0.693278
0.469032 0.840391 0.756161
0.594079 0.844236 0.817151
0.717235 0.847883 0.878218
0.852094 0.84239 0.946807
1 0.830869 0.94873
1 0.862409 0.903227
0.278279 0.949279 0.630121
0.378241 0.938216 0.714763
0.48127 0.933654 0.77818
0.598245 0.928771 0.833341
0.714473 0.923766 0.883635
0.827497 0.918868 0.930724
0.9364 0.912428 0.973693
1 0.90454 0.997482
1 0.925566 0.945861
0.400122 1 0.71046
0.490379 1 0.78645
0.582422 1 0.840146
0.688777 0.987243 0.886549
0.794644 0.974655 0.929427
0.898054 0.965866 0.972229
0.992447 0.960693 1
1 0.96585 1
1 0.996323 1
0 0.374212 0.182483
0 0.334493 0.292653
0 0.299779 0.372869
0 0.265034 0.432532
0 0.232639 0.466087
0.192935 0.205875 0.471382
0.384054 0.186725 0.451774
0.564935 0.176593 0.414603
0.735393 0.175189 0.366705
0 0.398795 0.200793
0 0.365316 0.309438
0 0.336965 0.395377
0 0.307866 0.46894
0.0238651 0.28014 0.521248
0.230152 0.258198 0.545663
0.431571 0.245258 0.541863
0.622782 0.242252 0.516457
0.80148 0.248066 0.476921
0 0.452415 0.22707
0 0.429343 0.334691
0 0.412573 0.425925
0 0.394949 0.512612
0.0758831 0.375219 0.585626
0.284596 0.357519 0.631601
0.494194 0.347997 0.644862
0.693645 0.348974 0.630121
0.87866 0.359701 0.597101
0 0.546014 0.280354
0 0.533074 0.385672
0 0.526558 0.475898
0 0.519051 0.56643
0.149142 0.507561 0.652979
0.351019 0.492836 0.720043
0.564279 0.483482 0.752438
0.770108 0.485451 0.748714
0.959564 0.498619 0.720516
0 0.657618 0.357961
0 0.650675 0.458808
0 0.651087 0.543755
0.085893 0.651255 0.628977
0.243809 0.647349 0.716579
0.425437 0.636713 0.798764
0.631724 0.624216 0.852171
0.841138 0.622614 0.861143
1 0.636088 0.837079
0 0.775738 0.45156
0 0.770733 0.547402
0.0923018 0.773007 0.624872
0.222599 0.775692 0.699382
0.359167 0.776394 0.775738
0.510231 0.772366 0.857633
0.691508 0.758267 0.930251
0.896529 0.746838 0.956481
1 0.757046 0.936187
0.02916 0.890532 0.549065
0.132998 0.883619 0.639429
0.240284 0.88333 0.709285
0.363012 0.883741 0.773281
0.486778 0.884153 0.835538
0.612604 0.884123 0.901274
0.751141 0.87599 0.972808
0.929076 0.852552 1
1 0.846815 1
0.173602 0.993439 0.639353
0.273075 0.982071 0.723964
0.375051 0.976638 0.786847
0.490593 0.97055 0.841321
0.603571 0.962509 0.889448
0.714519 0.955581 0.936309
0.823713 0.947997 0.983246
0.942397 0.933364 1
1 0.910811 1
0.296757 1 0.712581
0.386831 1 0.78735
0.479042 1 0.839918
0.585977 1 0.885054
0.692927 1 0.926085
0.799695 0.999176 0.966888
0.906538 0.990677 1
1 0.982651 1
1 0.972946 1
