EA 50 Cinematic Luts Pack/EA_Cinematic Lut (11).cube
TITLE "Generated by Resolve"
LUT_3D_SIZE 5
0.0568856 0.0898146 0.0542611
0.286748 0.0793164 0
0.561913 0.088304 0
0.825025 0.0963455 0
1 0.109331 0
0.167636 0.167865 0.178515
0.301106 0.204761 0.120073
0.609918 0.246067 0
0.897169 0.274983 0
1 0.310231 0
0.302449 0.366766 0.330037
0.40885 0.438895 0.361349
0.703609 0.533028 0.288243
1 0.590494 0.174533
1 0.635676 0.0655985
0.49543 0.630472 0.537514
0.589334 0.70045 0.593729
0.805798 0.798154 0.556909
1 0.877653 0.467643
1 0.926482 0.34229
0.673213 0.87985 0.72842
0.741909 0.928237 0.776547
0.900893 0.986847 0.735805
1 1 0.64477
1 1 0.5205
0 0.160754 0.0187839
0.213535 0.0942702 0.0690013
0.505241 0.0997482 0
0.775158 0.108904 0
1 0.122545 0
0.0687266 0.216754 0.108324
0.261738 0.196765 0.213931
0.570459 0.239063 0.110079
0.876753 0.290257 0.0155947
1 0.327398 0
0.282628 0.398489 0.284642
0.408499 0.431357 0.419226
0.662791 0.525521 0.37966
1 0.613001 0.305501
1 0.656107 0.201266
0.504067 0.654719 0.507622
0.604471 0.6981 0.63064
0.78941 0.790005 0.645167
1 0.896895 0.585916
1 0.94548 0.463142
0.687099 0.894499 0.700862
0.75494 0.920165 0.794476
0.884367 0.968139 0.794553
1 1 0.732937
1 1 0.626871
0 0.231418 0.0688945
0.0239261 0.15082 0.226917
0.397848 0.112886 0.153536
0.694759 0.117235 0.0112154
0.968429 0.134813 0
0 0.295933 0.126818
0.0866407 0.261463 0.304067
0.480278 0.238132 0.323369
0.811063 0.294362 0.222248
1 0.340429 0.121431
0.125673 0.476143 0.285985
0.345586 0.47744 0.450965
0.606485 0.499779 0.544808
0.949462 0.587488 0.486854
1 0.66894 0.422934
0.413504 0.713451 0.514305
0.603433 0.718807 0.676249
0.771023 0.76286 0.772992
1 0.866148 0.742351
1 0.956313 0.669902
0.63476 0.931991 0.713222
0.763333 0.924895 0.841596
0.879881 0.94345 0.89659
1 1 0.884092
1 1 0.820111
0 0.30248 0.1252
0 0.225193 0.308919
0.212497 0.16173 0.342885
0.568338 0.13753 0.252842
0.873106 0.145937 0.124544
0 0.374609 0.172549
0 0.334966 0.362768
0.287312 0.293355 0.493156
0.685054 0.295705 0.456687
1 0.341604 0.359289
0 0.567071 0.313985
0.140368 0.56437 0.485283
0.4327 0.568994 0.652888
0.837461 0.56997 0.693919
1 0.65388 0.623835
0.235691 0.798779 0.523247
0.449027 0.7935 0.681651
0.701762 0.803159 0.806668
0.941955 0.81268 0.889052
1 0.891875 0.822873
0.494163 0.996872 0.710872
0.670726 0.966751 0.843961
0.8645 0.94844 0.934279
0.998322 0.958968 0.991577
1 1 0.955413
0 0.374212 0.182483
0 0.299779 0.372869
0 0.232639 0.466087
0.384054 0.186725 0.451774
0.735393 0.175189 0.366705
0 0.452415 0.22707
0 0.412573 0.425925
0.0758831 0.375219 0.585626
0.494194 0.347997 0.644862
0.87866 0.359701 0.597101
0 0.657618 0.357961
0 0.651087 0.543755
0.243809 0.647349 0.716579
0.631724 0.624216 0.852171
1 0.636088 0.837079
0.02916 0.890532 0.549065
0.240284 0.88333 0.709285
0.486778 0.884153 0.835538
0.751141 0.87599 0.972808
1 0.846815 1
0.296757 1 0.712581
0.479042 1 0.839918
0.692927 1 0.926085
0.906538 0.990677 1
1 0.972946 1
