EA 50 Cinematic Luts Pack/EA_Cinematic Lut (14).cube
TITLE "Generated by Resolve"
LUT_3D_SIZE 5
0 0 0.00958267
0.305913 0 0.0129549
0.69604 0 0.0398566
1 0 0.0861219
1 0 0.138781
0 0.21355 0.000701915
0.265965 0.185779 0.00163272
0.627161 0.145708 0
0.962539 0.110597 0
1 0.0851911 0.0437476
0 0.472862 0
0.281239 0.450935 0
0.558206 0.439063 0
0.855238 0.416052 0
1 0.387549 0
0.0429999 0.727016 0
0.323857 0.708919 0
0.551431 0.711803 0
0.796506 0.707469 0
1 0.694347 0
0.10071 0.983688 0
0.372717 0.966796 0
0.565179 0.97792 0
0.779934 0.984131 0
1 0.984756 0
0 0.000244144 0.12369
0.244984 0 0.114855
0.656306 0 0.236423
0.985733 0 0.29276
1 0 0.350088
0 0.267109 0
0.273915 0.198764 0.132113
0.61709 0.156298 0.165057
0.952453 0.111055 0.195193
1 0.0886549 0.248203
0.00978103 0.497932 0
0.367102 0.4421 0.104112
0.563592 0.449485 0.140185
0.869718 0.412345 0.099321
1 0.380331 0.138003
0.116594 0.738827 0
0.417411 0.706584 0.0332036
0.574029 0.720851 0.127825
0.800763 0.716762 0.100786
1 0.695369 0.0760357
0.192462 0.989258 0
0.47628 0.962798 0
0.612482 0.981872 0.0994583
0.792218 0.994934 0.117006
1 0.993942 0.0881208
0 0.00880446 0.388296
0.260456 0 0.346761
0.564004 0 0.395026
0.925582 0 0.546304
1 0 0.63444
0 0.322759 0.20824
0.25687 0.214954 0.35137
0.553246 0.188861 0.372595
0.903944 0.118364 0.491539
1 0.0926375 0.553887
0 0.57171 0
0.29427 0.489799 0.160266
0.565179 0.456107 0.372854
0.85359 0.416892 0.409049
1 0.369284 0.43682
0.0162814 0.794766 0
0.442267 0.72575 0.103944
0.652491 0.704631 0.338979
0.799802 0.720821 0.383871
1 0.68101 0.340337
0.15581 1 0
0.543465 0.968215 0.0510414
0.699672 0.97319 0.264958
0.808164 0.997314 0.369436
1 0.995392 0.344564
0 0.0149081 0.680018
0.258 0 0.646281
0.544152 0 0.631815
0.817456 0 0.721248
1 0 0.893904
0 0.331044 0.553704
0.232761 0.224109 0.670176
0.577356 0.201923 0.666743
0.818555 0.169955 0.710674
1 0.106874 0.857755
0 0.629923 0.252155
0.129519 0.545892 0.46836
0.548714 0.472892 0.646311
0.790814 0.450507 0.67126
1 0.371801 0.781979
0 0.867323 0.0712291
0.26743 0.797665 0.247837
0.577752 0.750423 0.446845
0.799008 0.725063 0.667765
1 0.683482 0.701595
0 1 0
0.440787 1 0.159792
0.722591 0.990387 0.38735
0.883207 0.977661 0.630762
1 0.99707 0.678874
0 0.0181125 1
0.24181 0 0.982498
0.551003 0 0.96347
0.781949 0 0.976074
1 0 1
0 0.331197 0.913344
0.202838 0.22742 0.99765
0.572686 0.197955 1
0.810498 0.202564 0.997787
1 0.167193 1
0 0.656046 0.62565
0.0766308 0.551934 0.850126
0.526299 0.483711 1
0.824674 0.473304 1
1 0.431403 1
0 0.927749 0.344793
0.0790265 0.853681 0.540398
0.414557 0.808057 0.795026
0.784222 0.743526 0.98143
0.992798 0.719249 1
0 1 0.177493
0.244434 1 0.353735
0.546975 1 0.569009
0.807645 1 0.776364
1 1 1
