EA 50 Cinematic Luts Pack/EA_Cinematic Lut (34).cube
TITLE "A heated grading that will bring out the natural lighting and stabilize shadows and midtones of the shot."
LUT_3D_SIZE 25
0.0000 0.0000 0.0000
0.0232 0.0000 0.0001
0.0477 0.0000 0.0003
0.0741 0.0000 0.0006
0.1042 0.0000 0.0009
0.1398 0.0000 0.0014
0.1781 0.0000 0.0020
0.2176 0.0000 0.0026
0.2586 0.0000 0.0034
0.3011 0.0000 0.0044
0.3444 0.0000 0.0054
0.3888 0.0000 0.0066
0.4342 0.0000 0.0079
0.4797 0.0000 0.0094
0.5250 0.0000 0.0111
0.5730 0.0000 0.0129
0.6231 0.0000 0.0149
0.6742 0.0000 0.0171
0.7258 0.0000 0.0193
0.7769 0.0000 0.0215
0.8269 0.0000 0.0239
0.8755 0.0000 0.0264
0.9211 0.0000 0.0290
0.9626 0.0000 0.0318
1.0000 0.0164 0.0416
0.0070 0.0214 0.0042
0.0262 0.0229 0.0033
0.0538 0.0212 0.0011
0.0823 0.0193 0.0000
0.1130 0.0182 0.0000
0.1494 0.0168 0.0000
0.1877 0.0150 0.0000
0.2275 0.0134 0.0000
0.2689 0.0118 0.0000
0.3116 0.0100 0.0000
0.3553 0.0080 0.0000
0.4001 0.0058 0.0000
0.4458 0.0033 0.0000
0.4914 0.0005 0.0000
0.5364 0.0000 0.0015
0.5841 0.0000 0.0035
0.6336 0.0000 0.0056
0.6841 0.0000 0.0078
0.7348 0.0000 0.0101
0.7852 0.0000 0.0128
0.8346 0.0000 0.0156
0.8823 0.0000 0.0184
0.9268 0.0000 0.0213
0.9677 0.0000 0.0242
1.0000 0.0406 0.0456
0.0166 0.0457 0.0096
0.0325 0.0470 0.0094
0.0523 0.0479 0.0076
0.0828 0.0463 0.0041
0.1175 0.0438 0.0005
0.1543 0.0418 0.0000
0.1918 0.0406 0.0000
0.2321 0.0388 0.0000
0.2739 0.0367 0.0000
0.3167 0.0345 0.0000
0.3604 0.0324 0.0000
0.4050 0.0303 0.0000
0.4505 0.0279 0.0000
0.4956 0.0252 0.0000
0.5418 0.0221 0.0000
0.5908 0.0188 0.0000
0.6415 0.0152 0.0000
0.6931 0.0113 0.0000
0.7447 0.0068 0.0000
0.7958 0.0021 0.0000
0.8448 0.0000 0.0018
0.8915 0.0000 0.0050
0.9346 0.0000 0.0082
0.9748 0.0000 0.0116
1.0000 0.0629 0.0509
0.0306 0.0705 0.0177
0.0431 0.0715 0.0178
0.0579 0.0726 0.0168
0.0805 0.0732 0.0140
0.1154 0.0716 0.0092
0.1562 0.0692 0.0038
0.1984 0.0664 0.0000
0.2381 0.0651 0.0000
0.2787 0.0640 0.0000
0.3216 0.0622 0.0000
0.3657 0.0603 0.0000
0.4107 0.0583 0.0000
0.4564 0.0562 0.0000
0.5015 0.0540 0.0000
0.5478 0.0520 0.0000
0.5969 0.0499 0.0000
0.6474 0.0477 0.0000
0.6987 0.0450 0.0000
0.7500 0.0422 0.0000
0.8007 0.0388 0.0000
0.8502 0.0351 0.0000
0.8977 0.0306 0.0000
0.9411 0.0253 0.0000
0.9818 0.0191 0.0000
1.0000 0.0882 0.0597
0.0453 0.0959 0.0271
0.0556 0.0966 0.0274
0.0678 0.0977 0.0269
0.0860 0.0989 0.0253
0.1130 0.0996 0.0220
0.1539 0.0980 0.0167
0.1976 0.0957 0.0095
0.2421 0.0931 0.0023
0.2864 0.0904 0.0000
0.3284 0.0893 0.0000
0.3712 0.0885 0.0000
0.4164 0.0867 0.0000
0.4622 0.0849 0.0000
0.5073 0.0830 0.0000
0.5542 0.0810 0.0000
0.6040 0.0790 0.0000
0.6550 0.0767 0.0000
0.7059 0.0750 0.0000
0.7569 0.0729 0.0000
0.8072 0.0709 0.0000
0.8561 0.0686 0.0000
0.9030 0.0660 0.0000
0.9458 0.0631 0.0000
0.9861 0.0600 0.0000
1.0000 0.1158 0.0708
0.0607 0.1227 0.0385
0.0699 0.1232 0.0390
0.0803 0.1242 0.0387
0.0963 0.1254 0.0378
0.1190 0.1268 0.0351
0.1514 0.1274 0.0312
0.1949 0.1258 0.0254
0.2408 0.1236 0.0174
0.2875 0.1211 0.0084
0.3351 0.1181 0.0007
0.3805 0.1160 0.0000
0.4242 0.1151 0.0000
0.4682 0.1145 0.0000
0.5135 0.1127 0.0000
0.5612 0.1110 0.0000
0.6111 0.1093 0.0000
0.6620 0.1075 0.0000
0.7133 0.1055 0.0000
0.7644 0.1035 0.0000
0.8148 0.1011 0.0000
0.8633 0.0993 0.0000
0.9095 0.0975 0.0000
0.9514 0.0954 0.0000
0.9912 0.0931 0.0000
1.0000 0.1453 0.0838
0.0773 0.1508 0.0530
0.0857 0.1512 0.0539
0.0953 0.1520 0.0536
0.1097 0.1533 0.0528
0.1304 0.1547 0.0512
0.1576 0.1562 0.0471
0.1929 0.1568 0.0425
0.2384 0.1553 0.0356
0.2859 0.1533 0.0267
0.3347 0.1507 0.0172
0.3835 0.1481 0.0061
0.4326 0.1451 0.0000
0.4783 0.1433 0.0000
0.5223 0.1427 0.0000
0.5686 0.1424 0.0000
0.6187 0.1408 0.0000
0.6697 0.1391 0.0000
0.7209 0.1374 0.0000
0.7719 0.1356 0.0000
0.8219 0.1337 0.0000
0.8704 0.1317 0.0000
0.9161 0.1296 0.0000
0.9575 0.1273 0.0000
0.9972 0.1252 0.0000
1.0000 0.1764 0.0985
0.0955 0.1805 0.0705
0.1036 0.1808 0.0715
0.1127 0.1816 0.0714
0.1262 0.1827 0.0707
0.1455 0.1841 0.0699
0.1696 0.1858 0.0675
0.1991 0.1874 0.0619
0.2367 0.1879 0.0568
0.2840 0.1865 0.0485
0.3331 0.1845 0.0379
0.3835 0.1821 0.0272
0.4339 0.1796 0.0156
0.4840 0.1767 0.0038
0.5323 0.1741 0.0000
0.5806 0.1728 0.0000
0.6290 0.1722 0.0000
0.6779 0.1720 0.0000
0.7290 0.1705 0.0000
0.7798 0.1689 0.0000
0.8295 0.1672 0.0000
0.8777 0.1654 0.0000
0.9224 0.1635 0.0000
0.9630 0.1615 0.0000
1.0000 0.1629 0.0105
1.0000 0.2093 0.1135
0.1157 0.2119 0.0883
0.1239 0.2121 0.0895
0.1327 0.2128 0.0895
0.1456 0.2139 0.0892
0.1626 0.2154 0.0881
0.1848 0.2169 0.0871
0.2114 0.2187 0.0841
0.2429 0.2205 0.0777
0.2827 0.2210 0.0731
0.3317 0.2197 0.0645
0.3824 0.2179 0.0521
0.4342 0.2156 0.0391
0.4852 0.2131 0.0266
0.5355 0.2105 0.0125
0.5894 0.2072 0.0006
0.6407 0.2051 0.0000
0.6907 0.2041 0.0000
0.7399 0.2037 0.0000
0.7884 0.2035 0.0000
0.8375 0.2022 0.0000
0.8850 0.2005 0.0000
0.9287 0.1987 0.0000
0.9688 0.1967 0.0000
1.0000 0.2038 0.0301
1.0000 0.2438 0.1283
0.1385 0.2452 0.1066
0.1463 0.2453 0.1076
0.1548 0.2459 0.1079
0.1667 0.2469 0.1077
0.1823 0.2484 0.1071
0.2025 0.2500 0.1063
0.2268 0.2519 0.1045
0.2560 0.2538 0.1013
0.2895 0.2559 0.0940
0.3312 0.2564 0.0898
0.3815 0.2551 0.0815
0.4333 0.2533 0.0693
0.4850 0.2512 0.0542
0.5369 0.2485 0.0394
0.5910 0.2460 0.0248
0.6459 0.2432 0.0090
0.7009 0.2400 0.0000
0.7524 0.2381 0.0000
0.8011 0.2373 0.0000
0.8481 0.2369 0.0000
0.8928 0.2366 0.0000
0.9349 0.2352 0.0000
0.9745 0.2332 0.0000
1.0000 0.2445 0.0508
1.0000 0.2798 0.1444
0.1630 0.2806 0.1252
0.1702 0.2808 0.1262
0.1785 0.2812 0.1267
0.1895 0.2822 0.1266
0.2040 0.2835 0.1263
0.2220 0.2853 0.1252
0.2452 0.2870 0.1246
0.2717 0.2891 0.1224
0.3029 0.2912 0.1186
0.3380 0.2935 0.1105
0.3813 0.2940 0.1069
0.4327 0.2927 0.0987
0.4847 0.2909 0.0868
0.5367 0.2887 0.0721
0.5923 0.2861 0.0556
0.6482 0.2836 0.0384
0.7038 0.2810 0.0214
0.7594 0.2775 0.0054
0.8113 0.2747 0.0000
0.8594 0.2727 0.0000
0.9034 0.2718 0.0000
0.9433 0.2711 0.0000
0.9807 0.2706 0.0000
1.0000 0.2858 0.0743
1.0000 0.3177 0.1611
0.1886 0.3184 0.1441
0.1952 0.3185 0.1450
0.2033 0.3189 0.1457
0.2136 0.3198 0.1457
0.2272 0.3211 0.1455
0.2441 0.3227 0.1449
0.2650 0.3246 0.1441
0.2901 0.3267 0.1429
0.3187 0.3290 0.1403
0.3516 0.3312 0.1360
0.3881 0.3337 0.1272
0.4328 0.3341 0.1243
0.4844 0.3327 0.1162
0.5367 0.3308 0.1045
0.5922 0.3288 0.0903
0.6492 0.3263 0.0742
0.7057 0.3235 0.0554
0.7609 0.3206 0.0359
0.8145 0.3174 0.0168
0.8668 0.3131 0.0001
0.9120 0.3106 0.0000
0.9522 0.3085 0.0000
0.9896 0.3075 0.0000
1.0000 0.3280 0.1036
1.0000 0.3570 0.1798
0.2152 0.3582 0.1632
0.2213 0.3584 0.1639
0.2293 0.3586 0.1648
0.2389 0.3595 0.1649
0.2516 0.3607 0.1648
0.2676 0.3622 0.1644
0.2866 0.3642 0.1634
0.3103 0.3661 0.1629
0.3369 0.3685 0.1611
0.3675 0.3709 0.1583
0.4019 0.3733 0.1533
0.4395 0.3758 0.1447
0.4847 0.3760 0.1417
0.5364 0.3744 0.1337
0.5918 0.3727 0.1224
0.6485 0.3705 0.1085
0.7051 0.3680 0.0923
0.7616 0.3648 0.0747
0.8156 0.3617 0.0533
0.8671 0.3584 0.0315
0.9155 0.3543 0.0123
0.9582 0.3503 0.0000
0.9972 0.3475 0.0000
1.0000 0.3709 0.1330
1.0000 0.3967 0.2025
0.2427 0.3995 0.1823
0.2484 0.3996 0.1830
0.2559 0.3999 0.1839
0.2653 0.4006 0.1842
0.2773 0.4017 0.1842
0.2923 0.4031 0.1839
0.3103 0.4050 0.1832
0.3318 0.4070 0.1823
0.3574 0.4091 0.1815
0.3855 0.4115 0.1793
0.4175 0.4139 0.1761
0.4529 0.4163 0.1705
0.4904 0.4184 0.1623
0.5361 0.4183 0.1590
0.5908 0.4168 0.1511
0.6472 0.4149 0.1400
0.7042 0.4126 0.1263
0.7602 0.4099 0.1106
0.8153 0.4066 0.0935
0.8674 0.4033 0.0734
0.9156 0.3999 0.0496
0.9586 0.3963 0.0255
0.9994 0.3923 0.0164
1.0000 0.4139 0.1560
1.0000 0.4364 0.2248
0.2708 0.4413 0.2014
0.2761 0.4414 0.2020
0.2832 0.4416 0.2029
0.2924 0.4421 0.2034
0.3037 0.4431 0.2034
0.3178 0.4444 0.2033
0.3348 0.4460 0.2028
0.3545 0.4479 0.2018
0.3785 0.4498 0.2012
0.4053 0.4520 0.1998
0.4349 0.4543 0.1974
0.4678 0.4566 0.1937
0.5026 0.4587 0.1873
0.5412 0.4606 0.1796
0.5900 0.4605 0.1761
0.6457 0.4589 0.1682
0.7022 0.4569 0.1573
0.7585 0.4545 0.1440
0.8132 0.4517 0.1287
0.8663 0.4484 0.1119
0.9150 0.4449 0.0929
0.9584 0.4412 0.0705
0.9956 0.4397 0.0682
0.9984 0.4572 0.1798
1.0000 0.4760 0.2448
0.2991 0.4823 0.2203
0.3040 0.4824 0.2209
0.3106 0.4826 0.2216
0.3198 0.4830 0.2224
0.3303 0.4838 0.2224
0.3437 0.4850 0.2223
0.3597 0.4864 0.2220
0.3784 0.4881 0.2212
0.3999 0.4900 0.2201
0.4256 0.4919 0.2195
0.4533 0.4941 0.2176
0.4835 0.4962 0.2149
0.5166 0.4981 0.2108
0.5529 0.5003 0.2036
0.5940 0.5022 0.1967
0.6440 0.5019 0.1928
0.6999 0.5001 0.1850
0.7557 0.4980 0.1744
0.8106 0.4954 0.1614
0.8631 0.4925 0.1465
0.9124 0.4892 0.1297
0.9568 0.4854 0.1118
0.9900 0.4856 0.1276
0.9943 0.5003 0.2136
0.9974 0.5168 0.2696
0.3275 0.5237 0.2389
0.3320 0.5238 0.2395
0.3382 0.5239 0.2401
0.3474 0.5241 0.2411
0.3572 0.5249 0.2411
0.3698 0.5260 0.2411
0.3849 0.5273 0.2408
0.4025 0.5289 0.2403
0.4226 0.5308 0.2392
0.4463 0.5326 0.2384
0.4726 0.5346 0.2374
0.5002 0.5367 0.2349
0.5316 0.5387 0.2320
0.5671 0.5409 0.2275
0.6050 0.5434 0.2198
0.6471 0.5450 0.2135
0.6974 0.5444 0.2093
0.7526 0.5422 0.2015
0.8069 0.5397 0.1910
0.8597 0.5368 0.1783
0.9092 0.5337 0.1638
0.9535 0.5303 0.1474
0.9836 0.5315 0.1758
0.9891 0.5445 0.2497
0.9933 0.5598 0.3018
0.3560 0.5673 0.2575
0.3603 0.5674 0.2580
0.3661 0.5675 0.2586
0.3747 0.5677 0.2595
0.3844 0.5684 0.2598
0.3962 0.5694 0.2598
0.4105 0.5707 0.2596
0.4272 0.5722 0.2592
0.4463 0.5741 0.2584
0.4674 0.5762 0.2570
0.4923 0.5778 0.2565
0.5189 0.5798 0.2549
0.5484 0.5820 0.2522
0.5818 0.5843 0.2488
0.6187 0.5864 0.2439
0.6572 0.5888 0.2356
0.6996 0.5903 0.2300
0.7498 0.5894 0.2256
0.8036 0.5870 0.2178
0.8560 0.5843 0.2075
0.9058 0.5811 0.1950
0.9505 0.5776 0.1808
0.9767 0.5801 0.2181
0.9838 0.5914 0.2863
0.9890 0.6055 0.3411
0.3844 0.6134 0.2759
0.3884 0.6134 0.2763
0.3938 0.6135 0.2769
0.4019 0.6137 0.2778
0.4116 0.6142 0.2783
0.4227 0.6151 0.2782
0.4361 0.6164 0.2781
0.4519 0.6178 0.2778
0.4697 0.6195 0.2771
0.4893 0.6214 0.2759
0.5120 0.6233 0.2749
0.5380 0.6252 0.2740
0.5666 0.6277 0.2719
0.5983 0.6302 0.2693
0.6328 0.6328 0.2654
0.6702 0.6352 0.2600
0.7091 0.6379 0.2513
0.7512 0.6394 0.2462
0.8005 0.6381 0.2416
0.8525 0.6351 0.2338
0.9021 0.6318 0.2237
0.9470 0.6281 0.2115
0.9695 0.6315 0.2619
0.9782 0.6425 0.3257
0.9846 0.6574 0.3888
0.4125 0.6672 0.2940
0.4163 0.6672 0.2945
0.4214 0.6673 0.2950
0.4290 0.6675 0.2958
0.4387 0.6680 0.2966
0.4491 0.6691 0.2966
0.4618 0.6705 0.2964
0.4763 0.6721 0.2961
0.4929 0.6740 0.2956
0.5116 0.6763 0.2947
0.5324 0.6789 0.2932
0.5581 0.6812 0.2926
0.5860 0.6840 0.2913
0.6155 0.6872 0.2888
0.6485 0.6901 0.2860
0.6838 0.6930 0.2819
0.7212 0.6959 0.2759
0.7599 0.6990 0.2667
0.8012 0.7005 0.2624
0.8491 0.6987 0.2574
0.8984 0.6949 0.2498
0.9433 0.6907 0.2397
0.9624 0.6947 0.3056
0.9727 0.7051 0.3792
0.9804 0.7200 0.4445
0.4406 0.7308 0.3129
0.4441 0.7309 0.3134
0.4489 0.7310 0.3140
0.4561 0.7312 0.3148
0.4656 0.7314 0.3159
0.4752 0.7324 0.3159
0.4868 0.7337 0.3158
0.5005 0.7353 0.3155
0.5164 0.7371 0.3150
0.5344 0.7393 0.3141
0.5550 0.7420 0.3128
0.5786 0.7448 0.3115
0.6057 0.7473 0.3107
0.6345 0.7502 0.3088
0.6650 0.7534 0.3058
0.6985 0.7563 0.3026
0.7341 0.7591 0.2982
0.7710 0.7619 0.2915
0.8090 0.7648 0.2821
0.8492 0.7660 0.2783
0.8949 0.7640 0.2732
0.9395 0.7603 0.2677
0.9561 0.7628 0.3615
0.9680 0.7711 0.4422
0.9767 0.7832 0.5031
0.4682 0.7943 0.3344
0.4715 0.7943 0.3349
0.4758 0.7944 0.3355
0.4825 0.7944 0.3364
0.4914 0.7945 0.3375
0.5008 0.7953 0.3378
0.5119 0.7963 0.3377
0.5251 0.7976 0.3375
0.5405 0.7992 0.3370
0.5583 0.8012 0.3362
0.5782 0.8034 0.3351
0.6001 0.8059 0.3333
0.6259 0.8081 0.3324
0.6537 0.8104 0.3310
0.6829 0.8130 0.3283
0.7142 0.8156 0.3250
0.7477 0.8181 0.3207
0.7833 0.8204 0.3153
0.8193 0.8230 0.3074
0.8564 0.8253 0.2973
0.8949 0.8262 0.2943
0.9325 0.8241 0.3184
0.9517 0.8238 0.4304
0.9648 0.8289 0.5074
0.9742 0.8374 0.5635
0.4951 0.8483 0.3579
0.4982 0.8483 0.3584
0.5023 0.8483 0.3590
0.5086 0.8483 0.3599
0.5170 0.8484 0.3611
0.5267 0.8488 0.3618
0.5373 0.8496 0.3617
0.5503 0.8507 0.3615
0.5654 0.8520 0.3611
0.5826 0.8535 0.3604
0.6018 0.8553 0.3593
0.6231 0.8573 0.3581
0.6475 0.8591 0.3580
0.6754 0.8605 0.3595
0.7040 0.8625 0.3593
0.7331 0.8648 0.3565
0.7645 0.8671 0.3529
0.7967 0.8698 0.3454
0.8310 0.8722 0.3346
0.8657 0.8744 0.3250
0.9011 0.8764 0.3133
0.9299 0.8741 0.3949
0.9500 0.8728 0.5037
0.9641 0.8761 0.5761
0.9743 0.8833 0.6323
0.6013 0.8769 0.4618
0.6040 0.8769 0.4627
0.6077 0.8769 0.4639
0.6133 0.8769 0.4657
0.6209 0.8769 0.4682
0.6298 0.8771 0.4709
0.6391 0.8778 0.4728
0.6500 0.8787 0.4752
0.6626 0.8798 0.4778
0.6767 0.8811 0.4806
0.6922 0.8827 0.4836
0.7091 0.8846 0.4867
0.7270 0.8868 0.4897
0.7474 0.8888 0.4942
0.7691 0.8910 0.4991
0.7911 0.8937 0.5033
0.8135 0.8968 0.5067
0.8374 0.8999 0.5110
0.8616 0.9034 0.5137
0.8864 0.9071 0.5152
0.9107 0.9115 0.5125
0.9354 0.9160 0.5056
0.9534 0.9160 0.5869
0.9674 0.9191 0.6566
0.9776 0.9256 0.7143
0.7087 0.9021 0.5609
0.7107 0.9022 0.5618
0.7133 0.9023 0.5629
0.7173 0.9024 0.5645
0.7228 0.9026 0.5668
0.7296 0.9029 0.5697
0.7365 0.9037 0.5721
0.7447 0.9048 0.5751
0.7542 0.9060 0.5785
0.7647 0.9075 0.5824
0.7764 0.9092 0.5868
0.7891 0.9113 0.5917
0.8026 0.9136 0.5970
0.8171 0.9162 0.6030
0.8333 0.9187 0.6108
0.8497 0.9217 0.6189
0.8663 0.9251 0.6274
0.8833 0.9288 0.6367
0.9005 0.9329 0.6471
0.9173 0.9372 0.6582
0.9337 0.9421 0.6700
0.9494 0.9476 0.6821
0.9651 0.9534 0.6955
0.9764 0.9576 0.7620
0.9853 0.9643 0.8260
0.0009 0.0010 0.0067
0.0197 0.0016 0.0109
0.0478 0.0003 0.0120
0.0750 0.0000 0.0118
0.1052 0.0000 0.0118
0.1404 0.0000 0.0125
0.1785 0.0000 0.0132
0.2179 0.0000 0.0138
0.2589 0.0000 0.0145
0.3014 0.0000 0.0154
0.3447 0.0000 0.0164
0.3891 0.0000 0.0175
0.4344 0.0000 0.0187
0.4799 0.0000 0.0199
0.5253 0.0000 0.0214
0.5734 0.0000 0.0230
0.6234 0.0000 0.0246
0.6745 0.0000 0.0265
0.7259 0.0000 0.0286
0.7771 0.0000 0.0306
0.8272 0.0000 0.0330
0.8757 0.0000 0.0354
0.9212 0.0000 0.0381
0.9627 0.0000 0.0409
1.0000 0.0174 0.0512
0.0053 0.0228 0.0134
0.0228 0.0245 0.0143
0.0503 0.0236 0.0119
0.0789 0.0219 0.0119
0.1122 0.0195 0.0109
0.1506 0.0164 0.0097
0.1907 0.0130 0.0084
0.2325 0.0089 0.0069
0.2760 0.0042 0.0051
0.3197 0.0000 0.0037
0.3613 0.0000 0.0048
0.4042 0.0000 0.0060
0.4481 0.0000 0.0074
0.4921 0.0000 0.0089
0.5368 0.0000 0.0105
0.5845 0.0000 0.0124
0.6339 0.0000 0.0144
0.6844 0.0000 0.0166
0.7351 0.0000 0.0188
0.7855 0.0000 0.0211
0.8349 0.0000 0.0235
0.8826 0.0000 0.0260
0.9271 0.0000 0.0286
0.9679 0.0000 0.0314
1.0000 0.0412 0.0539
0.0159 0.0464 0.0181
0.0258 0.0494 0.0155
0.0512 0.0489 0.0160
0.0811 0.0475 0.0142
0.1150 0.0452 0.0126
0.1541 0.0422 0.0108
0.1955 0.0386 0.0087
0.2386 0.0340 0.0062
0.2831 0.0281 0.0033
0.3285 0.0206 0.0000
0.3711 0.0180 0.0000
0.4148 0.0153 0.0000
0.4594 0.0125 0.0000
0.5037 0.0095 0.0000
0.5496 0.0063 0.0000
0.5982 0.0028 0.0000
0.6481 0.0000 0.0006
0.6976 0.0000 0.0030
0.7474 0.0000 0.0055
0.7967 0.0000 0.0082
0.8451 0.0000 0.0111
0.8918 0.0000 0.0142
0.9348 0.0000 0.0173
0.9749 0.0000 0.0205
1.0000 0.0634 0.0593
0.0303 0.0710 0.0251
0.0378 0.0732 0.0225
0.0564 0.0734 0.0234
0.0797 0.0739 0.0217
0.1139 0.0724 0.0184
0.1543 0.0702 0.0147
0.1969 0.0673 0.0118
0.2404 0.0642 0.0083
0.2854 0.0601 0.0052
0.3315 0.0553 0.0017
0.3764 0.0516 0.0000
0.4203 0.0494 0.0000
0.4649 0.0472 0.0000
0.5090 0.0448 0.0000
0.5552 0.0424 0.0000
0.6039 0.0397 0.0000
0.6541 0.0367 0.0000
0.7049 0.0334 0.0000
0.7557 0.0296 0.0000
0.8060 0.0250 0.0000
0.8549 0.0199 0.0000
0.9019 0.0144 0.0000
0.9447 0.0085 0.0000
0.9852 0.0021 0.0000
1.0000 0.0886 0.0674
0.0449 0.0963 0.0337
0.0513 0.0980 0.0312
0.0656 0.0986 0.0320
0.0851 0.0995 0.0316
0.1124 0.1001 0.0288
0.1525 0.0987 0.0245
0.1962 0.0965 0.0192
0.2407 0.0938 0.0143
0.2867 0.0906 0.0101
0.3328 0.0873 0.0046
0.3803 0.0833 0.0000
0.4252 0.0809 0.0000
0.4704 0.0786 0.0000
0.5152 0.0763 0.0000
0.5620 0.0740 0.0000
0.6110 0.0721 0.0000
0.6612 0.0701 0.0000
0.7118 0.0680 0.0000
0.7623 0.0657 0.0000
0.8122 0.0632 0.0000
0.8607 0.0605 0.0000
0.9071 0.0576 0.0000
0.9493 0.0542 0.0000
0.9893 0.0505 0.0000
1.0000 0.1161 0.0778
0.0600 0.1231 0.0449
0.0657 0.1245 0.0425
0.0786 0.1249 0.0437
0.0955 0.1259 0.0436
0.1181 0.1273 0.0413
0.1508 0.1278 0.0377
0.1939 0.1264 0.0324
0.2399 0.1242 0.0258
0.2862 0.1218 0.0187
0.3340 0.1188 0.0131
0.3824 0.1153 0.0073
0.4305 0.1120 0.0000
0.4752 0.1104 0.0000
0.5204 0.1083 0.0000
0.5683 0.1062 0.0000
0.6180 0.1041 0.0000
0.6686 0.1020 0.0000
0.7196 0.0997 0.0000
0.7701 0.0977 0.0000
0.8196 0.0958 0.0000
0.8676 0.0938 0.0000
0.9132 0.0917 0.0000
0.9547 0.0894 0.0000
0.9944 0.0869 0.0000
1.0000 0.1455 0.0901
0.0762 0.1513 0.0592
0.0815 0.1524 0.0571
0.0935 0.1527 0.0587
0.1093 0.1536 0.0591
0.1298 0.1551 0.0577
0.1567 0.1567 0.0535
0.1924 0.1572 0.0491
0.2375 0.1557 0.0426
0.2849 0.1538 0.0342
0.3337 0.1513 0.0259
0.3825 0.1487 0.0177
0.4325 0.1453 0.0109
0.4819 0.1417 0.0031
0.5275 0.1401 0.0000
0.5748 0.1390 0.0000
0.6249 0.1370 0.0000
0.6756 0.1351 0.0000
0.7267 0.1331 0.0000
0.7773 0.1311 0.0000
0.8269 0.1290 0.0000
0.8751 0.1268 0.0000
0.9202 0.1245 0.0000
0.9608 0.1226 0.0000
1.0000 0.1210 0.0010
1.0000 0.1767 0.1040
0.0939 0.1811 0.0753
0.0992 0.1819 0.0739
0.1106 0.1822 0.0754
0.1261 0.1830 0.0763
0.1446 0.1846 0.0750
0.1692 0.1861 0.0733
0.1983 0.1878 0.0680
0.2363 0.1883 0.0634
0.2832 0.1869 0.0557
0.3323 0.1850 0.0452
0.3827 0.1825 0.0352
0.4330 0.1802 0.0250
0.4833 0.1772 0.0162
0.5337 0.1737 0.0077
0.5853 0.1707 0.0000
0.6337 0.1700 0.0000
0.6830 0.1692 0.0000
0.7341 0.1674 0.0000
0.7847 0.1655 0.0000
0.8342 0.1636 0.0000
0.8819 0.1617 0.0000
0.9261 0.1596 0.0000
0.9665 0.1574 0.0000
1.0000 0.1630 0.0216
1.0000 0.2095 0.1187
0.1136 0.2126 0.0920
0.1191 0.2133 0.0913
0.1303 0.2135 0.0927
0.1455 0.2141 0.0939
0.1623 0.2156 0.0929
0.1841 0.2173 0.0917
0.2110 0.2190 0.0893
0.2424 0.2208 0.0832
0.2824 0.2213 0.0788
0.3313 0.2200 0.0710
0.3817 0.2183 0.0597
0.4336 0.2160 0.0472
0.4844 0.2136 0.0350
0.5346 0.2111 0.0228
0.5887 0.2077 0.0135
0.6438 0.2039 0.0031
0.6947 0.2022 0.0000
0.7438 0.2017 0.0000
0.7924 0.2012 0.0000
0.8417 0.1994 0.0000
0.8889 0.1975 0.0000
0.9321 0.1955 0.0000
0.9719 0.1934 0.0000
1.0000 0.2039 0.0393
1.0000 0.2439 0.1331
0.1358 0.2458 0.1093
0.1417 0.2464 0.1091
0.1522 0.2466 0.1105
0.1666 0.2472 0.1118
0.1822 0.2486 0.1113
0.2018 0.2503 0.1102
0.2264 0.2522 0.1087
0.2554 0.2542 0.1057
0.2890 0.2562 0.0989
0.3309 0.2567 0.0949
0.3811 0.2554 0.0871
0.4327 0.2537 0.0759
0.4844 0.2516 0.0623
0.5363 0.2489 0.0478
0.5903 0.2465 0.0335
0.6454 0.2436 0.0211
0.7014 0.2399 0.0096
0.7560 0.2364 0.0000
0.8045 0.2356 0.0000
0.8512 0.2351 0.0000
0.8957 0.2347 0.0000
0.9380 0.2327 0.0000
0.9774 0.2306 0.0000
1.0000 0.2447 0.0603
1.0000 0.2799 0.1485
0.1598 0.2814 0.1271
0.1660 0.2817 0.1275
0.1756 0.2820 0.1287
0.1894 0.2824 0.1302
0.2039 0.2837 0.1299
0.2220 0.2855 0.1290
0.2446 0.2873 0.1281
0.2714 0.2894 0.1263
0.3023 0.2916 0.1225
0.3376 0.2938 0.1149
0.3811 0.2942 0.1114
0.4324 0.2929 0.1037
0.4842 0.2912 0.0925
0.5361 0.2891 0.0789
0.5918 0.2865 0.0640
0.6475 0.2840 0.0470
0.7031 0.2814 0.0305
0.7589 0.2779 0.0182
0.8132 0.2738 0.0042
0.8623 0.2712 0.0000
0.9061 0.2702 0.0000
0.9456 0.2695 0.0000
0.9830 0.2689 0.0000
1.0000 0.2859 0.0821
1.0000 0.3178 0.1648
