EA 50 Cinematic Luts Pack/EA_Cinematic Lut (24).cube
TITLE "Generated by Resolve"
LUT_3D_SIZE 9
0.011429 0.00358587 0
0.0603647 0.0184024 0
0.182132 0.0127871 0
0.316442 0.0031281 0
0.44332 0 0
0.572961 0 0
0.694759 0 0
0.807843 0 0
0.919905 0 0
0.0543069 0.0849775 0
0.101534 0.0990616 0
0.178256 0.108629 0
0.311971 0.101366 0
0.439506 0.094377 0
0.570764 0.0879988 0
0.695735 0.0854047 0
0.812863 0.0870375 0
0.929519 0.0905776 0
0.0225071 0.195377 0
0.117571 0.196475 0
0.194049 0.20737 0
0.312291 0.208957 0
0.443641 0.206531 0
0.579049 0.204807 0
0.708003 0.206607 0
0.82826 0.211765 0
0.947326 0.218051 0
0 0.318578 0
0.0918441 0.324773 0
0.190173 0.333959 0
0.310094 0.338354 0
0.443992 0.33962 0
0.581384 0.340703 0
0.712032 0.344778 0
0.833753 0.351843 0
0.953704 0.359442 0
0 0.453483 0
0.082887 0.462028 0
0.184619 0.473518 0
0.306798 0.480156 0
0.441962 0.483558 0
0.580285 0.486519 0
0.711284 0.491691 0
0.832898 0.49926 0
0.952407 0.50692 0
0 0.59733 0
0.0803693 0.607263 0
0.183871 0.619532 0
0.307256 0.626749 0
0.442512 0.630426 0
0.580285 0.633524 0
0.710033 0.638254 0
0.829847 0.644694 0
0.947478 0.651072 0
0 0.741344 0
0.0883803 0.751385 0
0.192096 0.763043 0
0.31519 0.769162 0
0.449378 0.771435 0
0.585229 0.772854 0
0.712459 0.775631 0
0.829343 0.779828 0
0.94406 0.783886 0
0 0.879973 0
0.103059 0.888518 0
0.205432 0.898146 0
0.326589 0.901564 0
0.458885 0.901381 0
0.592203 0.900099 0
0.716747 0.90045 0
0.831083 0.902602 0
0.943542 0.904982 0
0.00643931 1 0
0.112978 1 0
0.213153 1 0
0.332372 1 0
0.463066 1 0
0.59498 1 0
0.718196 1 0
0.831418 1 0
0.942946 1 0
0 0.0122988 0.0194705
0.0714733 0.0175021 0.00910964
0.174212 0.0132753 0.0308385
0.322621 0 0.026566
0.449302 0 0.00717174
0.578882 0 0
0.701076 0 0
0.81445 0 0
0.926802 0 0
0.0340124 0.0908064 0.0443122
0.11107 0.0988174 0.0589151
0.155047 0.114061 0.0622416
0.297566 0.102434 0.0386816
0.444999 0.0899367 0.0142519
0.575906 0.0835279 0
0.701137 0.0814984 0
0.818631 0.0838331 0
0.935225 0.0876478 0
0.0280003 0.189761 0.0613565
0.152346 0.183642 0.103593
0.198367 0.201907 0.116106
0.300267 0.209873 0.0733959
0.451408 0.204059 0.0328679
0.586252 0.20174 0.0188144
0.715328 0.203662 0.00903334
0.835843 0.209094 0.00276188
0.954879 0.215412 0
0 0.317632 0.0399023
0.116777 0.316182 0.0714122
0.213748 0.324575 0.0977798
0.317205 0.335683 0.079408
0.452506 0.338354 0.0446937
0.589502 0.338888 0.0332952
0.719982 0.342748 0.0251926
0.841749 0.349859 0.0203708
0.961715 0.357473 0.0160678
0 0.453193 0.0336767
0.0899672 0.461662 0.0479896
0.193774 0.472984 0.0584421
0.316457 0.479744 0.0590066
0.451026 0.482841 0.0519112
0.588754 0.485267 0.0426184
0.719448 0.49012 0.0354162
0.840848 0.497429 0.0306096
0.96025 0.504997 0.0260166
0 0.597452 0.0343938
0.0872663 0.606928 0.0486915
0.19237 0.618753 0.0603647
0.316365 0.625727 0.0631876
0.451347 0.629206 0.0585794
0.588586 0.632029 0.0507668
0.717998 0.63653 0.0435187
0.837369 0.642603 0.0374304
0.954742 0.648722 0.031281
0 0.741527 0.0464332
0.09514 0.751003 0.0599374
0.2 0.761959 0.0712139
0.3234 0.767376 0.0737926
0.457664 0.769497 0.0696727
0.593118 0.770703 0.0617685
0.719768 0.773144 0.053315
0.836194 0.77705 0.0453803
0.950469 0.780743 0.0368811
0 0.879667 0.0660868
0.109133 0.887526 0.0773327
0.212421 0.896391 0.0868391
0.334051 0.899199 0.0876936
0.466377 0.898604 0.0822766
0.59939 0.897032 0.0731365
0.723278 0.896971 0.0633555
0.837415 0.899153 0.0544137
0.949584 0.901396 0.0447852
0.0100099 1 0.0814069
0.118135 1 0.0897231
0.219181 1 0.0968185
0.338979 1 0.0957809
0.469902 1 0.0892348
0.601755 1 0.0797131
0.724559 1 0.0699474
0.837736 1 0.0612497
0.949035 1 0.0518654
0 0.014435 0.18114
0.096025 0.00329595 0.155978
0.197696 0.00433356 0.13994
0.329656 0 0.13959
0.456168 0 0.120272
0.585626 0 0.100847
0.708003 0 0.0844282
0.821591 0 0.0713207
0.934142 0 0.059556
0 0.110231 0.119875
0.0806592 0.105089 0.126085
0.167132 0.114137 0.119585
0.291157 0.104433 0.135821
0.452995 0.0860304 0.129015
0.5841 0.0796979 0.111376
0.709895 0.0781415 0.098497
0.827955 0.0808881 0.0899519
0.944991 0.085008 0.0827802
0 0.191867 0.147601
0.131289 0.188708 0.151019
0.210864 0.204608 0.173526
0.280568 0.218814 0.175799
0.440345 0.208469 0.153536
0.595071 0.200595 0.13373
0.72343 0.202121 0.123323
0.843885 0.207813 0.117098
0.963104 0.214664 0.112016
0 0.313359 0.134005
0.124315 0.312612 0.167102
0.252476 0.315679 0.218524
0.325154 0.333837 0.230945
0.443702 0.342473 0.188891
0.6 0.339162 0.150866
0.729381 0.341863 0.141848
0.850797 0.348608 0.136873
0.971084 0.356603 0.133165
0 0.450278 0.129366
0.0881361 0.462715 0.153506
0.221592 0.467292 0.191043
0.342702 0.473045 0.214771
0.460716 0.482734 0.19498
0.599802 0.486519 0.161379
0.729229 0.489998 0.152926
0.849943 0.496544 0.147524
0.96936 0.504097 0.14313
0 0.596704 0.133745
0.0885939 0.608209 0.156268
0.20145 0.620371 0.174289
0.327169 0.626856 0.179873
0.46273 0.630518 0.177356
0.599176 0.632822 0.169467
0.727398 0.63624 0.161166
0.846235 0.641718 0.154574
0.963272 0.647456 0.148196
0 0.742031 0.148455
0.0982986 0.752316 0.168994
0.208042 0.762768 0.184268
0.332753 0.767437 0.188785
0.467536 0.769238 0.186435
0.602472 0.770016 0.179126
0.728344 0.771939 0.170413
0.844373 0.775555 0.162264
0.958206 0.778866 0.153429
0 0.880308 0.169451
0.113069 0.888289 0.187015
0.219532 0.896376 0.199145
0.342199 0.89839 0.201465
0.474983 0.8972 0.197436
0.607904 0.895323 0.189319
0.73138 0.895033 0.179934
0.845151 0.897093 0.171069
0.956954 0.899153 0.161318
0.00593576 1 0.185489
0.122164 1 0.199512
0.225269 1 0.20827
0.346288 1 0.208759
0.477836 1 0.203555
0.609781 1 0.195087
0.732555 1 0.186191
0.845457 1 0.17792
0.956542 1 0.168704
0 0.0144503 0.352605
0.0804761 0 0.353613
0.215885 0 0.31313
0.335058 0 0.277211
0.461433 0 0.253773
0.590982 0 0.234638
0.713497 0 0.218601
0.827344 0 0.206012
0.94023 0 0.194842
0 0.110094 0.287327
0.0356146 0.0967422 0.299382
0.186267 0.0945144 0.283131
0.312596 0.093431 0.264958
0.458549 0.0800336 0.262654
0.590158 0.0743877 0.245762
0.716518 0.073518 0.233722
0.834913 0.0767529 0.225818
0.95227 0.0813153 0.219242
0 0.200717 0.233982
0.0317693 0.199619 0.240162
0.176425 0.206867 0.258762
0.292592 0.21883 0.255177
0.434241 0.210788 0.273075
0.603403 0.197024 0.270924
0.731441 0.198123 0.2607
0.852064 0.203861 0.255131
0.97174 0.211032 0.250996
0 0.298817 0.252934
0.055436 0.307088 0.267811
0.228855 0.318181 0.285496
0.337926 0.336812 0.310719
0.424018 0.351446 0.31342
0.588846 0.343465 0.293523
0.737438 0.339956 0.27808
0.857725 0.345907 0.272099
0.977996 0.354192 0.268467
0 0.437079 0.239231
0.049546 0.452995 0.264256
0.227207 0.461784 0.306889
0.380682 0.463401 0.356863
0.468147 0.480385 0.368093
0.59028 0.489937 0.32697
0.738399 0.48893 0.291249
0.857633 0.49395 0.28455
0.976669 0.501122 0.280018
0 0.588159 0.24538
0.063798 0.60148 0.270237
0.197665 0.619486 0.299947
0.353841 0.619989 0.33341
0.487755 0.622614 0.353994
0.607462 0.631327 0.333227
0.73637 0.635401 0.299931
0.853681 0.639246 0.291844
0.969909 0.644114 0.284764
0 0.736492 0.263294
0.0821241 0.748226 0.287083
0.206989 0.7617 0.311574
0.339864 0.767102 0.322835
0.476539 0.768566 0.323415
0.611612 0.76907 0.317739
0.736278 0.770092 0.308553
0.851011 0.772503 0.299245
0.964218 0.775143 0.28983
0 0.876081 0.286595
0.10164 0.885359 0.307683
0.219699 0.894697 0.327291
0.347524 0.896468 0.333883
0.481651 0.894575 0.331838
0.615045 0.892332 0.325429
0.73814 0.891737 0.316762
0.851286 0.893431 0.30782
0.962753 0.895277 0.297902
0 1 0.304082
0.113207 1 0.321492
0.226261 1 0.337102
0.35082 1 0.340566
0.483558 1 0.33698
0.616083 1 0.330022
0.738964 1 0.322362
0.851667 1 0.314672
0.962402 1 0.305592
0 0.0153201 0.513359
0.0435035 0 0.51928
0.198093 0 0.489479
0.335927 0 0.441779
0.46598 0 0.405798
0.595529 0 0.381674
0.718242 0 0.365621
0.83212 0 0.353246
0.945602 0 0.342947
0 0.106249 0.44358
0 0.0869764 0.474769
0.162249 0.0752728 0.485969
0.327001 0.0733349 0.448096
0.462928 0.0718242 0.412955
0.595224 0.0677653 0.392782
0.722286 0.0677501 0.381628
0.840925 0.0713664 0.374197
0.95877 0.0765698 0.368399
0 0.197894 0.370398
0 0.190448 0.412284
0.123568 0.190692 0.437934
0.308614 0.196109 0.429313
0.455802 0.199908 0.416052
0.609537 0.191623 0.418845
0.73785 0.193149 0.40914
0.858534 0.199115 0.403922
0.978515 0.206714 0.400381
0 0.298177 0.346593
0 0.307668 0.359609
0.122271 0.322042 0.381277
0.300084 0.335668 0.406256
0.436027 0.351446 0.406485
0.582666 0.345724 0.426703
0.745327 0.335943 0.428534
0.865034 0.341192 0.422461
0.985382 0.349447 0.419409
0 0.420294 0.372152
0 0.428717 0.387167
0.150256 0.448188 0.41323
0.353964 0.462806 0.43444
0.480888 0.483314 0.46154
0.570275 0.498573 0.464881
0.726528 0.492531 0.446891
0.864591 0.490959 0.433402
0.982071 0.49688 0.427405
0 0.572152 0.369619
0.00357061 0.580545 0.386053
0.152956 0.603647 0.41828
0.357122 0.612177 0.460655
0.525185 0.612406 0.509239
0.614008 0.628077 0.519158
0.72575 0.637736 0.478126
0.861494 0.636835 0.442527
0.975464 0.639384 0.433356
0 0.723781 0.385916
0.0391241 0.734142 0.406867
0.177356 0.750118 0.434409
0.33373 0.763851 0.459846
0.501701 0.760189 0.489143
0.634867 0.75938 0.50631
0.74287 0.766888 0.484321
0.858335 0.770016 0.45008
0.969467 0.770459 0.43859
0 0.865873 0.410437
0.070161 0.875273 0.431708
0.199725 0.886824 0.455299
0.343908 0.892821 0.472328
0.486717 0.892195 0.477546
0.621897 0.889509 0.473976
0.74551 0.889052 0.467338
0.85771 0.890074 0.458152
0.967727 0.890562 0.446937
0 0.997314 0.429496
0.0888228 1 0.448447
0.211673 1 0.46833
0.348959 1 0.480385
0.487068 1 0.481285
0.621103 1 0.476493
0.744778 1 0.470863
0.857176 1 0.463981
0.967224 1 0.454719
0 0.0167086 0.676173
0.00735485 0 0.684993
0.169482 0 0.666056
0.326772 0 0.617792
0.468498 0 0.570687
0.600763 0 0.536736
0.723125 0 0.515023
0.837369 0 0.502098
0.951232 0 0.492348
0 0.107622 0.606714
0 0.0838178 0.632639
0.118837 0.067155 0.646387
0.304189 0.059556 0.620554
0.462486 0.0599527 0.577386
0.6009 0.0604715 0.547082
0.728222 0.0619669 0.531228
0.847242 0.0660258 0.523949
0.965347 0.0716106 0.518624
0 0.199527 0.531319
0 0.181689 0.564767
0.0702678 0.17409 0.607645
0.278462 0.170718 0.627192
0.468742 0.178317 0.598856
0.614649 0.184146 0.571038
0.743557 0.187198 0.557961
0.86508 0.19411 0.55375
0.985321 0.202121 0.550713
0 0.309468 0.462516
0 0.300038 0.492363
0.0378729 0.305303 0.54699
0.239948 0.31223 0.579324
0.449195 0.325856 0.578927
0.604227 0.334844 0.570825
0.751461 0.330541 0.577615
0.871489 0.336278 0.572106
0.991775 0.344625 0.569268
0 0.422904 0.479683
0 0.421454 0.475349
0.0342565 0.440146 0.497566
0.240085 0.459373 0.524086
0.43978 0.478904 0.554971
0.582208 0.498497 0.559014
0.720165 0.494591 0.581048
0.87216 0.486625 0.584695
0.988571 0.491371 0.578119
0 0.557244 0.507027
0 0.556069 0.512459
0.0721904 0.569482 0.532464
0.272099 0.590509 0.560067
0.495232 0.608576 0.584726
0.626276 0.630549 0.613291
0.705303 0.64593 0.616754
0.848997 0.639796 0.598688
0.981247 0.635218 0.582193
0 0.706722 0.513481
0 0.711147 0.525307
0.109255 0.721294 0.543496
0.283101 0.742092 0.573419
0.502602 0.749981 0.615152
0.671412 0.748302 0.66183
0.748623 0.762844 0.670619
0.84683 0.77145 0.628534
0.975998 0.766781 0.589151
0 0.850309 0.533578
0.0152743 0.856748 0.549661
0.151171 0.86717 0.570687
0.310155 0.877134 0.592203
0.478599 0.886961 0.613733
0.646113 0.880186 0.639918
0.768277 0.878874 0.656565
0.863813 0.886381 0.634592
0.974395 0.887419 0.59826
0 0.983597 0.55198
0.0450904 0.989181 0.568841
0.17641 0.998184 0.589715
0.326238 1 0.60679
0.481956 1 0.619394
0.625635 1 0.622827
0.751629 1 0.620554
0.86453 1 0.615686
0.973678 1 0.606241
0 0.0189517 0.828641
0 0 0.839261
0.137179 0 0.828519
0.308248 0 0.786404
0.464851 0 0.733867
0.60502 0 0.690349
0.729717 0 0.660685
0.843748 0 0.64239
0.95816 0 0.631434
0 0.110399 0.759976
0 0.0863355 0.78497
0.0820935 0.0670024 0.799863
0.273472 0.0527352 0.783398
0.452674 0.0494392 0.7411
0.604807 0.0518349 0.701732
0.735714 0.0560159 0.676905
0.854612 0.0615244 0.66421
0.973022 0.0674754 0.658228
0 0.204242 0.685527
0 0.184924 0.718135
0.029099 0.169619 0.75256
0.231357 0.158907 0.772259
0.443503 0.162142 0.757275
0.614435 0.172503 0.724056
0.750851 0.181491 0.702251
0.872602 0.189899 0.693294
0.993118 0.198245 0.690303
0 0.317327 0.608896
0 0.302983 0.642985
0 0.292592 0.683879
0.18024 0.289204 0.730968
0.413291 0.294728 0.759411
0.615473 0.311574 0.740322
0.757107 0.323598 0.718715
0.878279 0.33138 0.710369
0.999039 0.340337 0.708186
0 0.439734 0.565805
0 0.432135 0.579034
0 0.427054 0.613245
0.14789 0.434821 0.670359
0.372351 0.448157 0.709102
0.592187 0.469734 0.71664
0.741726 0.483696 0.713527
0.878553 0.481483 0.722408
0.994965 0.486381 0.71606
0 0.558587 0.609644
0 0.555535 0.605203
0 0.55555 0.602335
0.147616 0.573968 0.624292
0.373999 0.597787 0.655406
0.581476 0.622446 0.691402
0.717021 0.64564 0.699046
0.84242 0.641657 0.721004
0.988357 0.630426 0.721386
0 0.692897 0.641154
0 0.690654 0.645502
0.0298314 0.689052 0.650492
0.192584 0.698192 0.666209
0.409369 0.720119 0.694743
0.638209 0.741207 0.722423
0.760891 0.765316 0.753124
0.826322 0.779583 0.755459
0.963287 0.769528 0.733471
0 0.833265 0.65214
0 0.833814 0.659709
0.0769818 0.837324 0.670634
0.234348 0.840604 0.681956
0.422156 0.859403 0.709865
0.64538 0.868345 0.752667
0.805066 0.868025 0.800702
0.870008 0.88278 0.809689
0.963531 0.889509 0.765743
0 0.966583 0.664347
0 0.968826 0.675563
0.11693 0.975052 0.691447
0.27332 0.979202 0.706188
0.445243 0.98613 0.724666
0.617121 0.99675 0.746975
0.776577 0.992401 0.775601
0.888151 0.992966 0.794125
0.981018 1 0.77229
0 0.0221714 0.969055
0 0 0.980758
0.103944 0 0.975799
0.283162 0 0.941543
0.453834 0 0.88954
0.605188 0 0.83949
0.735607 0 0.801663
0.852033 0 0.777066
0.966415 0 0.761288
0 0.114031 0.900984
0 0.0898604 0.925277
0.0478981 0.0696117 0.941497
0.240986 0.0514534 0.93225
0.433997 0.042771 0.896132
0.602136 0.0435187 0.852461
0.741985 0.0491493 0.819104
0.863905 0.0570382 0.799161
0.981888 0.0642405 0.787594
0 0.209796 0.828107
0 0.190661 0.86096
0 0.175006 0.894331
0.195697 0.159823 0.913405
0.412055 0.154574 0.905943
0.604456 0.161822 0.874205
0.755764 0.173877 0.844495
0.881895 0.185763 0.827344
1 0.19527 0.818677
0 0.325032 0.751019
0 0.310643 0.786725
0 0.297993 0.826001
0.137545 0.283207 0.86096
0.361563 0.278294 0.886442
0.586313 0.291463 0.881392
0.756085 0.311147 0.857496
0.886336 0.326467 0.842008
1 0.336797 0.834974
0 0.452613 0.682246
0 0.441215 0.713207
0 0.430304 0.750744
0.0899977 0.41767 0.789395
0.305364 0.417884 0.84007
0.549523 0.431846 0.876951
0.750484 0.457954 0.867124
0.883879 0.47422 0.84976
1 0.481056 0.840482
0 0.576349 0.674632
0 0.571359 0.676905
0 0.564782 0.691157
0.0677195 0.554971 0.720623
0.273152 0.564584 0.779583
0.505882 0.583535 0.823957
0.723537 0.613413 0.839796
0.863066 0.629847 0.83917
0.993866 0.624399 0.844785
0 0.693202 0.73518
0 0.688624 0.731319
0 0.684489 0.72578
0.0928054 0.676753 0.71516
0.275257 0.69395 0.735912
0.508843 0.722301 0.771542
0.712062 0.753185 0.813794
0.837491 0.778744 0.823789
0.956451 0.771115 0.842115
0 0.819989 0.767391
0 0.81503 0.769009
0.00323491 0.810712 0.771282
0.146609 0.800046 0.767208
0.321355 0.805219 0.778973
0.544015 0.830335 0.810681
0.769039 0.858122 0.84506
0.882704 0.885695 0.879225
0.943755 0.898375 0.879973
0 0.949584 0.77171
0 0.946761 0.775692
0.0417334 0.946471 0.782422
0.19263 0.942855 0.786221
0.362463 0.942641 0.794049
0.556069 0.964569 0.825086
0.775113 0.979828 0.874189
0.925978 0.983169 0.925887
0.988663 0.998459 0.935424
0 0.0255894 1
0 0 1
0.0701305 0 1
0.254093 0 1
0.435859 0 1
0.59913 0 0.99089
0.738155 0 0.946624
0.859327 0 0.915312
0.975769 0 0.894087
0 0.117876 1
0 0.0936599 1
0.0142061 0.0728008 1
0.207736 0.0525826 1
0.408743 0.0395514 1
0.591257 0.03682 1
0.743038 0.041825 0.96556
0.871473 0.0510567 0.938216
0.991897 0.0602274 0.920424
0 0.215412 0.967773
0 0.196643 1
0 0.180774 1
0.163012 0.163958 1
0.379492 0.153216 1
0.584878 0.154253 1
0.752773 0.165255 0.991318
0.888563 0.179294 0.966384
1 0.191455 0.950713
0 0.332876 0.89134
0 0.318349 0.927855
0 0.305669 0.967178
0.107744 0.290105 1
0.325261 0.278569 1
0.552193 0.281224 1
0.744244 0.298589 1
0.890593 0.318181 0.980011
1 0.33257 0.965362
0 0.46215 0.817075
0 0.449851 0.852705
0 0.439063 0.891997
0.0567025 0.423484 0.928344
0.259236 0.408438 0.963027
0.491508 0.409125 0.994125
0.716197 0.432715 0.999496
0.880339 0.459251 0.982452
1 0.475212 0.967605
0 0.592645 0.768734
0 0.583902 0.789425
0 0.573754 0.821637
0.0231327 0.556771 0.853086
0.208469 0.540627 0.888243
0.429923 0.544259 0.942351
0.67245 0.567086 0.988083
0.867521 0.599802 0.984863
0.997253 0.615183 0.966613
0 0.708858 0.795773
0 0.704143 0.790494
0 0.698146 0.791745
0.0172122 0.682826 0.797253
0.18764 0.667231 0.820935
0.397803 0.678904 0.881971
0.626902 0.704723 0.933196
0.838819 0.741314 0.955749
0.975387 0.757595 0.954971
0 0.818311 0.859617
0 0.8112 0.855314
0 0.804181 0.849027
0.0646677 0.790188 0.833631
0.213062 0.775235 0.815808
0.400015 0.794293 0.838392
0.631144 0.830686 0.882063
0.829496 0.869169 0.931914
0.954421 0.897017 0.944198
0 0.935882 0.883162
0 0.928603 0.88246
0 0.922133 0.882597
0.112169 0.909545 0.876585
0.266316 0.893675 0.867308
0.445243 0.900359 0.880583
0.66569 0.933761 0.920577
0.88716 0.970474 0.963882
1 1 1
