EA 50 Cinematic Luts Pack/EA_Cinematic Lut (3).cube
TITLE "Generated by Resolve"
LUT_3D_SIZE 33
0.0565805 0.107637 0.254505
0.073579 0.108064 0.253803
0.0899825 0.108644 0.253239
0.107073 0.109041 0.252598
0.123308 0.109667 0.25214
0.138811 0.110384 0.251774
0.154177 0.111284 0.251499
0.169757 0.112413 0.251347
0.185626 0.113466 0.251164
0.20209 0.114458 0.25095
0.219059 0.115038 0.250553
0.237171 0.115145 0.249897
0.256977 0.114702 0.248966
0.278096 0.113863 0.247822
0.300984 0.11252 0.246403
0.324056 0.111131 0.244968
0.347982 0.10956 0.243458
0.371847 0.107866 0.241886
0.396216 0.10602 0.240269
0.420996 0.104128 0.238621
0.446036 0.102205 0.236973
0.471473 0.100237 0.235309
0.496941 0.0982528 0.233646
0.52285 0.0963149 0.231998
0.548775 0.0945449 0.230457
0.574914 0.0927596 0.228901
0.600931 0.0910964 0.22742
0.627008 0.0894789 0.225971
0.652918 0.0880751 0.224628
0.679026 0.0869306 0.223407
0.704936 0.0862745 0.222416
0.730968 0.0856031 0.221424
0.756207 0.0852064 0.2206
0.0666819 0.12253 0.256489
0.0834058 0.123018 0.255863
0.100053 0.123323 0.255268
0.117113 0.124041 0.25478
0.13312 0.125048 0.25449
0.14873 0.126162 0.254231
0.16408 0.127275 0.254047
0.179553 0.128298 0.253681
0.195254 0.129168 0.253498
0.21146 0.129732 0.253056
0.228717 0.129992 0.252522
0.247486 0.129778 0.251743
0.268193 0.129 0.25066
0.290486 0.127749 0.249348
0.313405 0.126314 0.247944
0.337331 0.124712 0.246433
0.361425 0.123125 0.244968
0.385824 0.121401 0.243412
0.410819 0.119554 0.241794
0.435752 0.117754 0.240208
0.461433 0.115831 0.238544
0.486992 0.114107 0.237003
0.513344 0.112474 0.235477
0.539467 0.110857 0.233997
0.56582 0.109194 0.232502
0.592218 0.107759 0.231113
0.618952 0.106554 0.229831
0.645579 0.105592 0.228672
0.672145 0.104707 0.227558
0.698528 0.104112 0.226612
0.725399 0.104128 0.225864
0.751888 0.104494 0.225315
0.77847 0.105089 0.224887
0.0764935 0.137819 0.258534
0.0931716 0.138643 0.258015
0.110384 0.1393 0.25745
0.126604 0.140124 0.257069
0.142199 0.140993 0.256641
0.157397 0.141863 0.256428
0.172625 0.142687 0.256229
0.188144 0.143526 0.256077
0.204318 0.144121 0.255726
0.220966 0.144472 0.255314
0.2392 0.14435 0.254627
0.259129 0.143771 0.253697
0.280903 0.142702 0.252476
0.303761 0.14139 0.251118
0.327657 0.139971 0.249729
0.351583 0.138476 0.248234
0.376104 0.136812 0.246693
0.40116 0.135134 0.245136
0.426337 0.133577 0.243641
0.452262 0.131945 0.242115
0.477974 0.130404 0.240635
0.504417 0.128786 0.239139
0.530968 0.127642 0.237812
0.557931 0.126482 0.2365
0.584833 0.125475 0.235248
0.611872 0.124514 0.234043
0.638911 0.123888 0.232975
0.666392 0.123644 0.23209
0.693965 0.123919 0.231479
0.721599 0.124468 0.23093
0.74876 0.125032 0.230457
0.775586 0.125963 0.230137
0.80235 0.127245 0.229984
0.0869154 0.153552 0.260792
0.103822 0.153994 0.260151
0.120226 0.154513 0.259678
0.135882 0.155215 0.259373
0.151186 0.156008 0.259144
0.166323 0.156802 0.258946
0.181781 0.157641 0.258793
0.197559 0.158236 0.258488
0.213794 0.158694 0.258137
0.231693 0.15874 0.257527
0.250675 0.158541 0.256779
0.272175 0.157671 0.25565
0.294697 0.156542 0.254353
0.318303 0.155184 0.252979
0.342611 0.153964 0.25156
0.367071 0.152682 0.250156
0.392279 0.151263 0.248676
0.417472 0.149905 0.247242
0.443442 0.148501 0.245777
0.469581 0.147372 0.24445
0.49659 0.146349 0.243198
0.523461 0.145541 0.241947
0.550729 0.144594 0.240711
0.578042 0.144076 0.239597
0.606012 0.143893 0.238651
0.633997 0.144076 0.237873
0.662013 0.14432 0.237125
0.689799 0.144793 0.236515
0.717922 0.145785 0.236118
0.745647 0.146914 0.235843
0.773144 0.148257 0.23563
0.800275 0.149722 0.235523
0.82681 0.151461 0.235538
0.0970321 0.168322 0.263081
0.113771 0.168704 0.262531
0.129625 0.169284 0.262165
0.145022 0.16997 0.261891
0.160128 0.170748 0.261677
0.175402 0.171511 0.261479
0.191089 0.172366 0.261265
0.207218 0.172992 0.26096
0.224552 0.173312 0.260441
0.242802 0.173388 0.259785
0.263737 0.172824 0.258762
0.285954 0.172076 0.257603
0.309636 0.17113 0.256352
0.333959 0.170108 0.255009
0.358404 0.169009 0.253712
0.383658 0.167926 0.252293
0.409155 0.167102 0.251026
0.435554 0.166232 0.249714
0.461814 0.165454 0.248447
0.488853 0.164706 0.247227
0.516365 0.164584 0.246204
0.544533 0.164523 0.245274
0.57261 0.164721 0.244404
0.600916 0.164935 0.24358
0.629252 0.165347 0.242832
0.657572 0.16611 0.242237
0.686061 0.167102 0.24181
0.714336 0.168521 0.241428
0.74229 0.169863 0.241123
0.769711 0.17142 0.240894
0.796994 0.173144 0.240757
0.823743 0.175113 0.240787
0.850126 0.177203 0.240833
0.106889 0.182849 0.26537
0.123049 0.183337 0.264912
0.138567 0.184039 0.264591
0.153826 0.184878 0.264347
0.169162 0.185824 0.26421
0.184695 0.186755 0.263951
0.200702 0.187503 0.263691
0.217472 0.188174 0.263249
0.235599 0.188647 0.262715
0.255604 0.188693 0.261921
0.277333 0.188296 0.260868
0.300664 0.187579 0.259632
0.325139 0.18706 0.258442
0.350011 0.186511 0.257313
0.375494 0.185931 0.256031
0.401038 0.185428 0.254841
0.427649 0.18497 0.25362
0.454459 0.18497 0.252598
0.482322 0.185107 0.251637
0.510246 0.185657 0.250797
0.538476 0.185992 0.249928
0.566644 0.186587 0.249088
0.595315 0.187381 0.248402
0.623987 0.188373 0.247822
0.652598 0.189441 0.247257
0.681193 0.190585 0.246769
0.709438 0.192309 0.246418
0.737423 0.193896 0.246067
0.764828 0.195712 0.245747
0.791882 0.197665 0.245502
0.818524 0.199802 0.245396
0.844846 0.202167 0.24538
0.870634 0.204776 0.245624
0.116045 0.197726 0.267567
0.131746 0.19852 0.26717
0.147066 0.19942 0.266865
0.162219 0.200443 0.266651
0.177905 0.201694 0.266438
0.193896 0.202808 0.266285
0.210483 0.203845 0.265949
0.228275 0.204578 0.265507
0.247318 0.205188 0.264897
0.269001 0.205341 0.263996
0.291997 0.205402 0.263066
0.316487 0.205356 0.261891
0.341283 0.205188 0.260792
0.366857 0.205203 0.259617
0.393103 0.20557 0.258671
0.420325 0.205982 0.257725
0.447395 0.206546 0.25684
0.475257 0.207019 0.255909
0.503304 0.208103 0.255177
0.531823 0.209049 0.254429
0.560143 0.210208 0.253651
0.58851 0.211383 0.252903
0.61706 0.212604 0.252216
0.645365 0.214038 0.251606
0.673915 0.215488 0.251072
0.701961 0.217288 0.250614
0.730236 0.21912 0.250309
0.757549 0.221134 0.249943
0.784787 0.223301 0.249699
0.811627 0.22565 0.249592
0.837934 0.228168 0.249546
0.863798 0.230869 0.249699
0.889464 0.233982 0.249897
0.123995 0.21355 0.269535
0.139574 0.214694 0.2692
0.154971 0.216052 0.269001
0.17052 0.217578 0.268803
0.18616 0.218997 0.26865
0.202655 0.220432 0.268345
0.220233 0.221866 0.268101
0.23917 0.223117 0.267674
0.260029 0.223911 0.266957
0.282612 0.22446 0.266117
0.307332 0.225208 0.265156
0.332616 0.226001 0.264302
0.358541 0.226856 0.263294
0.384588 0.227756 0.262364
0.411505 0.228641 0.261418
0.438636 0.229786 0.260578
0.466682 0.230945 0.259831
0.494652 0.23238 0.259068
0.523278 0.233692 0.258381
0.551598 0.235035 0.257557
0.579843 0.236545 0.256855
0.608515 0.23801 0.256153
0.636606 0.239673 0.255512
0.665064 0.241291 0.254902
0.693187 0.243397 0.25449
0.721492 0.24538 0.25417
0.748913 0.247593 0.253819
0.77644 0.24979 0.253605
0.803235 0.252277 0.253452
0.829862 0.254917 0.253422
0.856062 0.257755 0.253559
0.881697 0.260807 0.253712
0.907256 0.26421 0.2542
0.130694 0.231128 0.271229
0.146242 0.232639 0.270954
0.161883 0.234653 0.270832
0.17789 0.236652 0.270741
0.194049 0.238743 0.270527
0.211093 0.240681 0.270283
0.229572 0.242557 0.269917
0.249851 0.24448 0.269505
0.272801 0.246052 0.26894
0.29723 0.247517 0.268177
0.322606 0.248814 0.26743
0.348577 0.250095 0.266484
0.374853 0.251621 0.265721
0.402045 0.253086 0.264912
0.429099 0.254643 0.264118
0.456886 0.256046 0.263355
0.484855 0.257832 0.262608
0.513313 0.259388 0.261936
0.541512 0.261021 0.261143
0.570031 0.262577 0.260487
0.59852 0.26424 0.259739
0.626749 0.266102 0.259159
0.655421 0.267933 0.258686
0.683452 0.269993 0.258167
0.712032 0.272236 0.257923
0.739651 0.274556 0.257572
0.767437 0.276921 0.257404
0.794507 0.279545 0.257282
0.821378 0.282246 0.257237
0.84773 0.28513 0.257374
0.873777 0.288304 0.257588
0.899519 0.291798 0.258152
0.924407 0.295308 0.258564
0.135637 0.251255 0.272557
0.151324 0.253651 0.272389
0.167529 0.256016 0.272328
0.183825 0.258717 0.272251
0.201556 0.261524 0.272267
0.220188 0.264424 0.272221
0.240131 0.267033 0.271992
0.262364 0.269169 0.271534
0.286503 0.271351 0.270985
0.312062 0.273213 0.27039
0.338186 0.275029 0.269596
0.364614 0.276768 0.268956
0.391562 0.278492 0.268132
0.418677 0.280293 0.267399
0.446494 0.282002 0.266697
0.474342 0.283772 0.265904
0.502785 0.285679 0.265354
0.531167 0.287449 0.264561
0.55964 0.289281 0.264027
0.588266 0.291142 0.26334
0.616571 0.293126 0.262821
0.645319 0.295033 0.262348
0.673609 0.297322 0.261921
0.702373 0.299672 0.261692
0.730175 0.302113 0.261357
0.758038 0.30454 0.261173
0.78529 0.307225 0.261036
0.81236 0.310033 0.261051
0.839048 0.313024 0.261311
0.865248 0.316167 0.261479
0.891157 0.319585 0.262028
0.916442 0.323293 0.262516
0.941131 0.327001 0.263172
0.140169 0.274372 0.273808
0.157214 0.277562 0.273976
0.174182 0.28098 0.274098
0.192081 0.284199 0.274281
0.210361 0.287556 0.274342
0.230457 0.290745 0.274327
0.252186 0.293706 0.274281
0.276051 0.296223 0.273793
0.301457 0.298573 0.273381
0.327428 0.300618 0.272648
0.353964 0.302632 0.272068
0.38088 0.304631 0.271321
0.40795 0.3066 0.27068
0.435721 0.308431 0.269947
0.463752 0.310475 0.269291
0.492149 0.312581 0.268803
0.520546 0.314534 0.268086
0.548989 0.316487 0.267582
0.577615 0.318486 0.266926
0.606043 0.320653 0.266438
0.634974 0.322744 0.265995
0.663249 0.325048 0.265568
0.692103 0.327428 0.265339
0.720195 0.330083 0.265095
0.748348 0.332616 0.265003
0.775799 0.335409 0.264927
0.803006 0.338293 0.264973
0.830045 0.341238 0.265187
0.856275 0.344488 0.265431
0.882734 0.348028 0.265995
0.908049 0.351705 0.266453
0.93312 0.355367 0.267155
0.957168 0.35935 0.267857
0.147402 0.300465 0.275792
0.164691 0.304234 0.276005
0.182925 0.308049 0.276402
0.201572 0.31194 0.276661
0.221546 0.315511 0.276875
0.24242 0.318898 0.276936
0.265949 0.321843 0.276631
0.290806 0.324559 0.276356
0.316747 0.326848 0.275685
0.343191 0.329 0.275135
0.369879 0.331212 0.274434
0.397177 0.333364 0.273854
0.424781 0.3355 0.27332
0.452644 0.337621 0.272633
0.481041 0.339834 0.27219
0.50956 0.342046 0.27158
0.538155 0.344198 0.271138
0.566857 0.346395 0.270527
0.595331 0.348653 0.270054
0.624247 0.350835 0.269612
0.652659 0.353277 0.269261
0.681804 0.355871 0.269154
0.709941 0.358541 0.26894
0.738323 0.361089 0.26891
0.765835 0.363943 0.268849
0.793317 0.366873 0.26891
0.820478 0.369924 0.269139
0.846983 0.37319 0.269368
0.873442 0.376516 0.269841
0.899138 0.380407 0.270436
0.924498 0.384085 0.271199
0.948837 0.388052 0.271977
0.972763 0.392142 0.27303
0.156039 0.328771 0.278187
0.174289 0.33283 0.278645
0.192782 0.33695 0.278965
0.212375 0.340887 0.279347
0.233051 0.344625 0.2795
0.255482 0.347921 0.279377
0.279988 0.350881 0.27921
0.305791 0.353506 0.278676
0.332341 0.355901 0.278218
0.358953 0.358373 0.277638
0.386252 0.360647 0.277104
0.413581 0.362982 0.276616
0.44152 0.36527 0.27599
0.470024 0.367803 0.275669
0.498497 0.370108 0.275074
0.527062 0.372351 0.274662
0.555764 0.374655 0.274098
0.58436 0.37705 0.273732
0.613397 0.3794 0.273426
0.641886 0.381918 0.273075
0.670817 0.38439 0.272938
0.699428 0.387289 0.272816
0.727901 0.38996 0.272816
0.755779 0.392828 0.27274
0.783536 0.395743 0.272923
0.810742 0.39884 0.27306
0.837369 0.402136 0.273381
0.864134 0.40557 0.273991
0.889921 0.409384 0.274617
0.915526 0.413001 0.275441
0.940017 0.416968 0.276234
0.964279 0.420981 0.277302
0.987518 0.425299 0.278447
0.165698 0.358175 0.280903
0.184054 0.3626 0.281315
0.203433 0.366751 0.281758
0.223621 0.370748 0.282002
0.245228 0.374502 0.282109
0.269627 0.377859 0.282124
0.294774 0.380774 0.281743
0.321126 0.383337 0.281376
0.347784 0.385901 0.280827
0.375051 0.388418 0.2804
0.402457 0.390967 0.279942
0.430304 0.393423 0.279377
0.458457 0.39588 0.279026
0.48719 0.398505 0.278569
0.515785 0.400931 0.278264
0.544579 0.403372 0.277806
0.573404 0.405798 0.277577
0.602274 0.408255 0.277241
0.630854 0.410864 0.276951
0.66006 0.41352 0.27689
0.688609 0.416434 0.276753
0.717235 0.419104 0.276768
0.745388 0.421958 0.276707
0.77319 0.424933 0.276982
0.800626 0.428046 0.277272
0.827451 0.431327 0.277623
0.8542 0.434638 0.278233
0.8804 0.438499 0.278935
0.906188 0.4421 0.279774
0.930907 0.446021 0.280552
0.955505 0.449958 0.281575
0.978958 0.454215 0.282673
1 0.458701 0.283925
0.175174 0.388647 0.283619
0.194568 0.393027 0.284184
0.214374 0.397406 0.284642
0.235492 0.401434 0.284855
0.2589 0.404944 0.284962
0.283726 0.408362 0.284794
0.310155 0.411139 0.284504
0.336599 0.413977 0.284062
0.363943 0.416571 0.283711
0.391165 0.419272 0.283268
0.418936 0.421897 0.282826
0.447303 0.424613 0.282628
0.475868 0.427314 0.282231
0.504417 0.429831 0.282002
0.533211 0.432334 0.281575
0.562066 0.434882 0.281407
0.591043 0.437461 0.281102
0.619852 0.440085 0.280888
0.648814 0.442679 0.280781
0.677745 0.445716 0.280751
0.706416 0.448463 0.280888
0.734646 0.451362 0.280934
0.762646 0.454322 0.281285
0.790249 0.457389 0.281605
0.817212 0.46067 0.282002
0.84419 0.463935 0.282612
0.870573 0.46775 0.283284
0.896559 0.471321 0.284123
0.921553 0.475151 0.284901
0.946334 0.478996 0.285939
0.970031 0.483162 0.287114
0.993179 0.48748 0.288273
1 0.492119 0.289906
0.185702 0.419806 0.286687
0.205097 0.424384 0.287251
0.226017 0.428672 0.287587
0.248722 0.432731 0.287953
0.273106 0.436332 0.287861
0.299016 0.439353 0.287694
0.325338 0.442344 0.287327
0.352712 0.44509 0.287083
0.379858 0.44799 0.286809
0.407843 0.450675 0.286488
0.435721 0.453391 0.286229
0.464439 0.456352 0.285985
0.49308 0.458976 0.285817
0.521859 0.461631 0.285451
0.550744 0.464225 0.285313
0.579721 0.46685 0.285039
0.608743 0.469474 0.284916
0.637644 0.472206 0.284947
0.666804 0.475196 0.284993
0.695445 0.477974 0.285237
0.723827 0.480858 0.285328
0.751949 0.483803 0.28574
0.779721 0.486854 0.28603
0.806851 0.490089 0.286458
0.834028 0.493309 0.287037
0.860563 0.497093 0.287739
0.886748 0.500542 0.288579
0.911925 0.504295 0.289372
0.93695 0.508049 0.290471
0.960967 0.512078 0.2916
0.984344 0.516258 0.292744
1 0.520653 0.294286
1 0.525551 0.295842
0.196368 0.451743 0.289845
0.216968 0.45623 0.29044
0.238544 0.460502 0.290822
0.262592 0.464546 0.290974
0.288045 0.467872 0.291005
0.314321 0.471031 0.290776
0.341543 0.473915 0.290623
0.368582 0.476921 0.290425
0.396582 0.479698 0.290181
0.424445 0.482628 0.290028
0.453147 0.485649 0.289799
0.481727 0.48835 0.289693
0.51046 0.491051 0.289418
0.539406 0.493721 0.289387
0.568399 0.496406 0.289311
0.59736 0.499092 0.289265
0.626383 0.501762 0.289357
0.655665 0.504799 0.289479
0.684382 0.507576 0.289754
0.712901 0.510445 0.289845
0.741161 0.513344 0.290242
0.769055 0.516365 0.290532
0.796384 0.519524 0.291005
0.823682 0.522667 0.29163
0.850233 0.526223 0.292302
0.876829 0.529717 0.293233
0.902144 0.533394 0.294041
0.927398 0.536995 0.295094
0.951583 0.540902 0.296162
0.975464 0.544869 0.297368
0.998291 0.549096 0.298711
1 0.553933 0.300267
1 0.558679 0.302098
0.207858 0.484108 0.293309
0.229343 0.48867 0.293873
0.252384 0.49305 0.294316
0.277424 0.496574 0.294469
0.303349 0.499916 0.294347
0.33048 0.502953 0.294301
0.35758 0.506081 0.294148
0.385473 0.50898 0.293996
0.413199 0.511925 0.293889
0.441917 0.515053 0.293782
0.470512 0.51783 0.293797
0.499214 0.520607 0.29366
0.528267 0.523262 0.293736
0.557092 0.526009 0.293767
0.586282 0.528664 0.293782
0.615183 0.531411 0.293935
0.644388 0.53431 0.294011
0.67335 0.537194 0.294362
0.701976 0.540002 0.294484
0.730312 0.542855 0.294911
0.758343 0.5458 0.295308
0.786053 0.548821 0.295827
0.813275 0.551965 0.296422
0.840162 0.555489 0.297124
0.866758 0.55877 0.297993
0.892271 0.56231 0.298772
0.917784 0.565805 0.299794
0.942214 0.569574 0.300801
0.966323 0.573358 0.301991
0.989364 0.577371 0.303258
1 0.581781 0.304677
1 0.586526 0.306523
1 0.591394 0.308232
0.220249 0.516899 0.297063
0.242618 0.52163 0.297719
0.267262 0.525414 0.298024
0.292638 0.52903 0.29807
0.319722 0.532158 0.298085
0.3467 0.535348 0.297993
0.374517 0.538323 0.298009
0.402258 0.54136 0.298039
0.430732 0.544457 0.298024
0.459358 0.547387 0.298238
0.48809 0.550179 0.298177
0.51722 0.55285 0.298314
0.545968 0.555642 0.29836
0.575311 0.558267 0.298466
0.604089 0.561028 0.298619
0.633463 0.563989 0.298772
0.662364 0.56672 0.299138
0.691096 0.569482 0.299321
0.719539 0.572274 0.299825
0.747723 0.575143 0.300237
0.775509 0.578058 0.300771
0.802899 0.581064 0.30132
0.829786 0.584253 0.301946
0.856703 0.587686 0.302861
0.882582 0.591028 0.303563
0.908049 0.5944 0.304601
0.932784 0.59794 0.305608
0.957092 0.601587 0.306737
0.980468 0.605447 0.307973
1 0.609644 0.309331
1 0.614069 0.311055
1 0.618692 0.312688
1 0.623346 0.314626
0.233631 0.550179 0.301167
0.25742 0.554345 0.301717
0.282399 0.558129 0.301915
0.309239 0.561395 0.302098
0.336095 0.564691 0.302251
0.363912 0.567712 0.302342
0.391546 0.570794 0.302495
0.42002 0.574029 0.302632
0.448631 0.576883 0.302846
0.477195 0.579736 0.302861
0.506249 0.582422 0.303044
0.535058 0.585199 0.30312
0.56437 0.587793 0.303304
0.593164 0.590524 0.303517
0.622492 0.593179 0.303716
0.65153 0.596139 0.304173
0.680323 0.598825 0.304387
0.708858 0.601511 0.304891
0.737133 0.604257 0.305272
0.765072 0.607095 0.305821
0.79266 0.609979 0.306371
0.81976 0.613123 0.307027
0.846708 0.616281 0.307836
0.872633 0.619501 0.308553
0.89836 0.622721 0.309545
0.9234 0.626078 0.310521
0.947768 0.629541 0.311604
0.971389 0.633143 0.312779
0.994125 0.636973 0.314
1 0.641199 0.315663
1 0.64567 0.317266
1 0.650065 0.319127
1 0.654749 0.32105
0.248157 0.583276 0.305669
0.272816 0.587198 0.306065
0.299107 0.590646 0.306493
0.325856 0.593988 0.306737
0.353613 0.597055 0.306935
0.381262 0.600153 0.307149
0.409567 0.603174 0.307347
0.438254 0.606287 0.307591
0.466575 0.609186 0.307698
0.495689 0.611826 0.307942
0.524346 0.614603 0.308202
0.553704 0.617166 0.3084
0.582513 0.619852 0.30869
0.611978 0.622522 0.30898
0.640894 0.625299 0.309392
0.669734 0.627909 0.30959
0.69836 0.630518 0.310094
0.726726 0.633188 0.310445
0.754803 0.635843 0.310994
0.782437 0.63859 0.311543
0.809689 0.641413 0.312123
0.836759 0.644495 0.312963
0.863066 0.647608 0.31368
0.888823 0.650645 0.314641
0.91397 0.653803 0.315526
0.938506 0.657115 0.316594
0.962478 0.660517 0.317708
0.985412 0.664103 0.318883
1 0.66804 0.32047
1 0.67216 0.321981
1 0.676371 0.323827
1 0.680812 0.325704
1 0.685237 0.327596
0.263691 0.61619 0.310521
0.289464 0.619791 0.311116
0.316121 0.623194 0.311437
0.343709 0.626307 0.311727
0.371206 0.62945 0.312016
0.399649 0.632517 0.312322
0.428061 0.635554 0.312627
0.456413 0.638422 0.312825
0.485374 0.641077 0.313161
0.514 0.643824 0.313466
0.543313 0.646311 0.31371
0.572076 0.648936 0.314031
0.601419 0.651377 0.314275
0.630457 0.654154 0.314733
0.659449 0.656733 0.314977
0.688075 0.659205 0.315465
0.716503 0.661723 0.315877
0.744656 0.664286 0.316365
0.772442 0.666896 0.316915
0.800015 0.669505 0.317449
0.827054 0.67248 0.318303
0.853498 0.675303 0.318929
0.879454 0.678187 0.319875
0.904753 0.681193 0.320714
0.929458 0.68423 0.321752
0.953521 0.687388 0.322805
0.976852 0.6907 0.323995
0.999481 0.69424 0.325353
1 0.698299 0.326894
1 0.702159 0.328618
1 0.70631 0.330388
1 0.710552 0.332296
1 0.714931 0.334279
0.280644 0.648737 0.315892
0.306935 0.652216 0.316289
0.334249 0.65539 0.316732
0.361837 0.658457 0.317098
0.389792 0.661433 0.317464
0.418265 0.66453 0.317922
0.446662 0.667414 0.318227
0.475456 0.670039 0.318608
0.504036 0.672709 0.318898
0.533272 0.675181 0.319203
0.562051 0.677745 0.319539
0.591409 0.68011 0.319814
0.620462 0.682811 0.320302
0.649393 0.685176 0.320531
0.678126 0.687556 0.32105
0.706645 0.689921 0.321462
0.73489 0.692287 0.32192
0.762646 0.694728 0.322438
0.790311 0.697169 0.322972
0.817273 0.699855 0.323674
0.844144 0.702647 0.324346
0.870115 0.705287 0.325261
0.895582 0.708019 0.326116
0.920546 0.710872 0.327077
0.944793 0.713848 0.328145
0.968414 0.716884 0.329259
0.991302 0.72018 0.330526
1 0.723796 0.33196
1 0.727443 0.333577
1 0.731411 0.335271
1 0.735302 0.337118
1 0.739406 0.339055
1 0.743511 0.341009
0.298299 0.680995 0.321538
0.325383 0.684199 0.322042
0.35285 0.687282 0.322499
0.380667 0.690272 0.322972
0.40911 0.693324 0.323476
0.437278 0.696101 0.323827
0.466056 0.698695 0.324239
0.494575 0.701305 0.324544
0.52369 0.70367 0.324895
0.552377 0.706111 0.325246
0.581659 0.70837 0.325536
0.610498 0.710826 0.325978
0.639704 0.713252 0.326314
0.668559 0.715404 0.326772
0.696956 0.717647 0.327169
0.725475 0.719829 0.327626
0.753246 0.722164 0.328161
0.781033 0.724376 0.328649
0.808072 0.726909 0.329351
0.835096 0.729366 0.330022
0.861051 0.731914 0.330861
0.886732 0.734447 0.331685
0.911711 0.737041 0.332586
0.936141 0.739696 0.333562
0.959991 0.742504 0.33463
0.983001 0.745464 0.335836
1 0.748837 0.337194
1 0.752163 0.33872
1 0.755764 0.340383
1 0.759457 0.342123
1 0.763333 0.34403
1 0.767132 0.345922
1 0.770977 0.347875
0.317113 0.712703 0.327626
0.34432 0.71574 0.328161
0.372015 0.718654 0.328634
0.400122 0.721569 0.329137
0.428428 0.724468 0.329595
0.457069 0.72694 0.330037
0.485435 0.729458 0.330465
0.514549 0.731762 0.3308
0.543221 0.734127 0.331212
0.572396 0.736248 0.331502
0.601282 0.738613 0.33196
0.630533 0.740749 0.332311
0.659098 0.742916 0.332723
0.687648 0.744991 0.333074
0.716213 0.746929 0.333516
0.743954 0.749035 0.334035
0.771878 0.75108 0.334524
0.798932 0.753292 0.33518
0.826215 0.755673 0.335897
0.852262 0.757931 0.336645
0.877989 0.76022 0.337377
0.903166 0.762631 0.338277
0.92784 0.765087 0.339208
0.951766 0.76762 0.34023
0.975052 0.77023 0.341344
0.997742 0.773251 0.342657
1 0.776303 0.344152
1 0.779538 0.345724
1 0.782879 0.347372
1 0.786343 0.349157
1 0.789899 0.350988
1 0.793484 0.352926
1 0.797147 0.354849
0.336538 0.743847 0.33402
0.364034 0.7467 0.334539
0.39202 0.749615 0.335119
0.420233 0.752285 0.335637
0.448585 0.754788 0.33608
0.47686 0.757229 0.336553
0.505837 0.75938 0.336904
0.534401 0.761593 0.337316
0.563546 0.763607 0.337636
0.592325 0.765682 0.338018
0.621653 0.767865 0.338476
0.650278 0.769757 0.338827
0.678691 0.771679 0.339269
0.707271 0.77351 0.339635
0.735088 0.775464 0.340169
0.763088 0.777249 0.340627
0.790204 0.779232 0.341253
0.817609 0.781323 0.341924
0.8439 0.783398 0.342657
0.86978 0.785458 0.343343
0.895094 0.787549 0.344198
0.919814 0.7897 0.345098
0.943954 0.792004 0.34609
0.96759 0.794339 0.347189
0.990555 0.797024 0.348455
1 0.799558 0.349828
1 0.80238 0.351324
1 0.805386 0.352987
1 0.808438 0.354711
1 0.811475 0.356435
1 0.81442 0.35819
1 0.817517 0.360021
1 0.820615 0.361913
0.356573 0.774289 0.340673
0.384237 0.776959 0.341253
0.412528 0.779736 0.341878
0.44062 0.782116 0.342351
0.46891 0.784375 0.342824
0.497612 0.786511 0.343206
0.526101 0.788632 0.343648
0.555169 0.790478 0.343969
0.584085 0.792355 0.344366
0.613169 0.794339 0.344839
0.641947 0.796094 0.345251
0.670344 0.797833 0.345708
0.698863 0.799435 0.346059
0.726696 0.801129 0.346532
0.754803 0.802731 0.34699
0.782055 0.804486 0.347601
0.809735 0.806332 0.348272
0.836088 0.808072 0.349004
0.862272 0.809796 0.349767
0.887907 0.811643 0.350607
0.912917 0.813535 0.351537
0.937392 0.815396 0.352438
0.960937 0.81738 0.353491
0.984222 0.819562 0.354635
1 0.821897 0.355947
1 0.824262 0.35729
1 0.826627 0.35877
1 0.829084 0.360342
1 0.831708 0.36199
1 0.834363 0.363745
1 0.83714 0.365515
1 0.839689 0.367254
1 0.842206 0.369024
0.377371 0.803967 0.347677
0.405356 0.806592 0.348333
0.433448 0.808865 0.348867
0.461616 0.811048 0.349371
0.490105 0.813016 0.349783
0.518547 0.814923 0.350225
0.547448 0.816663 0.350607
0.576226 0.818387 0.351064
0.605509 0.820188 0.351583
