EA 50 Cinematic Luts Pack/EA_Cinematic Lut (19).CUBE
#Created by: Adobe Photoshop Export Color Lookup Plugin
#Copyright: (C) Copyright 2018 Navpreet Singh
TITLE "Orange and Teal 2"
#LUT size
LUT_3D_SIZE 8
#data domain
#LUT data points
DOMAIN_MIN 0.000000 0.000000 0.000000
DOMAIN_MAX 0.903226 0.903226 0.903226
0.000000 0.000000 0.000000
0.091858 0.010712 0.000000
0.210358 0.021881 0.000000
0.355530 0.033539 0.000000
0.526794 0.045654 0.000000
0.691833 0.058289 0.000000
0.829376 0.071350 0.000000
0.937744 0.084869 0.000000
0.000000 0.091858 0.091858
0.091858 0.091858 0.091858
0.355530 0.033539 0.000000
0.526764 0.045654 0.000000
0.691833 0.058289 0.000000
0.829376 0.071350 0.000000
0.937744 0.084869 0.000000
1.000000 0.118958 0.020477
0.000000 0.210358 0.210358
0.000000 0.355530 0.355530
0.210358 0.210358 0.210358
0.691803 0.058289 0.000000
0.829376 0.071350 0.000000
0.937744 0.084869 0.000000
1.000000 0.118958 0.020477
1.000000 0.225922 0.118988
0.000000 0.355530 0.355530
0.000000 0.526764 0.526764
0.000000 0.691803 0.691803
0.355530 0.355530 0.355530
0.851318 0.151703 0.073151
1.000000 0.118958 0.020477
1.000000 0.225922 0.118988
1.000000 0.352844 0.244141
0.000000 0.526794 0.526794
0.000000 0.691833 0.691833
0.000000 0.829376 0.829376
0.018250 0.916016 0.916016
0.526794 0.526794 0.526794
0.954285 0.284485 0.186890
1.000000 0.352905 0.244171
1.000000 0.499847 0.396027
0.000000 0.691833 0.691833
0.000000 0.829376 0.829376
0.000000 0.937744 0.937744
0.020477 1.000000 1.000000
0.119019 1.000000 1.000000
0.691833 0.691833 0.691833
1.000000 0.499847 0.396027
1.000000 0.647736 0.570496
0.000000 0.829376 0.829376
0.000000 0.937744 0.937744
0.020477 1.000000 1.000000
0.118988 1.000000 1.000000
0.244171 1.000000 1.000000
0.396027 1.000000 1.000000
0.829376 0.829376 0.829376
1.000000 0.775543 0.728912
0.000000 0.937744 0.937744
0.020477 1.000000 1.000000
0.118988 1.000000 1.000000
0.244141 1.000000 1.000000
0.396027 1.000000 1.000000
0.570496 1.000000 1.000000
0.728912 1.000000 1.000000
0.937744 0.937744 0.937744
0.000000 0.000000 0.000000
0.091858 0.010712 0.000000
0.210358 0.021881 0.000000
0.355530 0.033539 0.000000
0.526794 0.045654 0.000000
0.691833 0.058289 0.000000
0.829376 0.071350 0.000000
0.937744 0.084869 0.000000
0.000000 0.091858 0.091858
0.091858 0.091858 0.091858
0.355530 0.033539 0.000000
0.526764 0.045654 0.000000
0.691833 0.058289 0.000000
0.829376 0.071350 0.000000
0.937744 0.084869 0.000000
1.000000 0.118958 0.020477
0.000000 0.210358 0.210358
0.000000 0.355530 0.355530
0.210358 0.210358 0.210358
0.691803 0.058289 0.000000
0.829376 0.071350 0.000000
0.937744 0.084869 0.000000
1.000000 0.118958 0.020477
1.000000 0.225922 0.118988
0.000000 0.355530 0.355530
0.000000 0.526764 0.526764
0.000000 0.691803 0.691803
0.355530 0.355530 0.355530
0.851318 0.151703 0.073151
1.000000 0.118958 0.020477
1.000000 0.225922 0.118988
1.000000 0.352844 0.244141
0.000000 0.526794 0.526794
0.000000 0.691833 0.691833
0.000000 0.829376 0.829376
0.018250 0.916016 0.916016
0.526794 0.526794 0.526794
0.954285 0.284485 0.186890
1.000000 0.352905 0.244171
1.000000 0.499847 0.396027
0.000000 0.691833 0.691833
0.000000 0.829376 0.829376
0.000000 0.937744 0.937744
0.020477 1.000000 1.000000
0.119019 1.000000 1.000000
0.691833 0.691833 0.691833
1.000000 0.499847 0.396027
1.000000 0.647736 0.570496
0.000000 0.829376 0.829376
0.000000 0.937744 0.937744
0.020477 1.000000 1.000000
0.118988 1.000000 1.000000
0.244171 1.000000 1.000000
0.396027 1.000000 1.000000
0.829376 0.829376 0.829376
1.000000 0.775543 0.728912
0.000000 0.937744 0.937744
0.020477 1.000000 1.000000
0.118988 1.000000 1.000000
0.244141 1.000000 1.000000
0.396027 1.000000 1.000000
0.570496 1.000000 1.000000
0.728912 1.000000 1.000000
0.937744 0.937744 0.937744
0.000000 0.000000 0.000000
0.091858 0.010712 0.000000
0.210358 0.021881 0.000000
0.355530 0.033539 0.000000
0.526794 0.045654 0.000000
0.691833 0.058289 0.000000
0.829376 0.071350 0.000000
0.937744 0.084869 0.000000
0.000000 0.091858 0.091858
0.091858 0.091858 0.091858
0.355530 0.033539 0.000000
0.526764 0.045654 0.000000
0.691833 0.058289 0.000000
0.829376 0.071350 0.000000
0.937744 0.084869 0.000000
1.000000 0.118958 0.020477
0.000000 0.210358 0.210358
0.000000 0.355530 0.355530
0.210358 0.210358 0.210358
0.691803 0.058289 0.000000
0.829376 0.071350 0.000000
0.937744 0.084869 0.000000
1.000000 0.118958 0.020477
1.000000 0.225922 0.118988
0.000000 0.355530 0.355530
0.000000 0.526764 0.526764
0.000000 0.691803 0.691803
0.355530 0.355530 0.355530
0.851318 0.151703 0.073151
1.000000 0.118958 0.020477
1.000000 0.225922 0.118988
1.000000 0.352844 0.244141
0.000000 0.526794 0.526794
0.000000 0.691833 0.691833
0.000000 0.829376 0.829376
0.018250 0.916016 0.916016
0.526794 0.526794 0.526794
0.954285 0.284485 0.186890
1.000000 0.352905 0.244171
1.000000 0.499847 0.396027
0.000000 0.691833 0.691833
0.000000 0.829376 0.829376
0.000000 0.937744 0.937744
0.020477 1.000000 1.000000
0.119019 1.000000 1.000000
0.691833 0.691833 0.691833
1.000000 0.499847 0.396027
1.000000 0.647736 0.570496
0.000000 0.829376 0.829376
0.000000 0.937744 0.937744
0.020477 1.000000 1.000000
0.118988 1.000000 1.000000
0.244171 1.000000 1.000000
0.396027 1.000000 1.000000
0.829376 0.829376 0.829376
1.000000 0.775543 0.728912
0.000000 0.937744 0.937744
0.020477 1.000000 1.000000
0.118988 1.000000 1.000000
0.244141 1.000000 1.000000
0.396027 1.000000 1.000000
0.570496 1.000000 1.000000
0.728912 1.000000 1.000000
0.937744 0.937744 0.937744
0.000000 0.000000 0.000000
0.091858 0.010712 0.000000
0.210358 0.021881 0.000000
0.355530 0.033539 0.000000
0.526794 0.045654 0.000000
0.691833 0.058289 0.000000
0.829376 0.071350 0.000000
0.937744 0.084869 0.000000
0.000000 0.091858 0.091858
0.091858 0.091858 0.091858
0.355530 0.033539 0.000000
0.526764 0.045654 0.000000
0.691833 0.058289 0.000000
0.829376 0.071350 0.000000
0.937744 0.084869 0.000000
1.000000 0.118958 0.020477
0.000000 0.210358 0.210358
0.000000 0.355530 0.355530
0.210358 0.210358 0.210358
0.691803 0.058289 0.000000
0.829376 0.071350 0.000000
0.937744 0.084869 0.000000
1.000000 0.118958 0.020477
1.000000 0.225922 0.118988
0.000000 0.355530 0.355530
0.000000 0.526764 0.526764
0.000000 0.691803 0.691803
0.355530 0.355530 0.355530
0.851318 0.151703 0.073151
1.000000 0.118958 0.020477
1.000000 0.225922 0.118988
1.000000 0.352844 0.244141
0.000000 0.526794 0.526794
0.000000 0.691833 0.691833
0.000000 0.829376 0.829376
0.018250 0.916016 0.916016
0.526794 0.526794 0.526794
0.954285 0.284485 0.186890
1.000000 0.352905 0.244171
1.000000 0.499847 0.396027
0.000000 0.691833 0.691833
0.000000 0.829376 0.829376
0.000000 0.937744 0.937744
0.020477 1.000000 1.000000
0.119019 1.000000 1.000000
0.691833 0.691833 0.691833
1.000000 0.499847 0.396027
1.000000 0.647736 0.570496
0.000000 0.829376 0.829376
0.000000 0.937744 0.937744
0.020477 1.000000 1.000000
0.118988 1.000000 1.000000
0.244171 1.000000 1.000000
0.396027 1.000000 1.000000
0.829376 0.829376 0.829376
1.000000 0.775543 0.728912
0.000000 0.937744 0.937744
0.020477 1.000000 1.000000
0.118988 1.000000 1.000000
0.244141 1.000000 1.000000
0.396027 1.000000 1.000000
0.570496 1.000000 1.000000
0.728912 1.000000 1.000000
0.937744 0.937744 0.937744
0.000000 0.000000 0.000000
0.091858 0.010712 0.000000
0.210358 0.021881 0.000000
0.355530 0.033539 0.000000
0.526794 0.045654 0.000000
0.691833 0.058289 0.000000
0.829376 0.071350 0.000000
0.937744 0.084869 0.000000
0.000000 0.091858 0.091858
0.091858 0.091858 0.091858
0.355530 0.033539 0.000000
0.526764 0.045654 0.000000
0.691833 0.058289 0.000000
0.829376 0.071350 0.000000
0.937744 0.084869 0.000000
1.000000 0.118958 0.020477
0.000000 0.210358 0.210358
0.000000 0.355530 0.355530
0.210358 0.210358 0.210358
0.691803 0.058289 0.000000
0.829376 0.071350 0.000000
0.937744 0.084869 0.000000
1.000000 0.118958 0.020477
1.000000 0.225922 0.118988
0.000000 0.355530 0.355530
0.000000 0.526764 0.526764
0.000000 0.691803 0.691803
0.355530 0.355530 0.355530
0.851318 0.151703 0.073151
1.000000 0.118958 0.020477
1.000000 0.225922 0.118988
1.000000 0.352844 0.244141
0.000000 0.526794 0.526794
0.000000 0.691833 0.691833
0.000000 0.829376 0.829376
0.018250 0.916016 0.916016
0.526794 0.526794 0.526794
0.954285 0.284485 0.186890
1.000000 0.352905 0.244171
1.000000 0.499847 0.396027
0.000000 0.691833 0.691833
0.000000 0.829376 0.829376
0.000000 0.937744 0.937744
0.020477 1.000000 1.000000
0.119019 1.000000 1.000000
0.691833 0.691833 0.691833
1.000000 0.499847 0.396027
1.000000 0.647736 0.570496
0.000000 0.829376 0.829376
0.000000 0.937744 0.937744
0.020477 1.000000 1.000000
0.118988 1.000000 1.000000
0.244171 1.000000 1.000000
0.396027 1.000000 1.000000
0.829376 0.829376 0.829376
1.000000 0.775543 0.728912
0.000000 0.937744 0.937744
0.020477 1.000000 1.000000
0.118988 1.000000 1.000000
0.244141 1.000000 1.000000
0.396027 1.000000 1.000000
0.570496 1.000000 1.000000
0.728912 1.000000 1.000000
0.937744 0.937744 0.937744
0.000000 0.000000 0.000000
0.091858 0.010712 0.000000
0.210358 0.021881 0.000000
0.355530 0.033539 0.000000
0.526794 0.045654 0.000000
0.691833 0.058289 0.000000
0.829376 0.071350 0.000000
0.937744 0.084869 0.000000
0.000000 0.091858 0.091858
0.091858 0.091858 0.091858
0.355530 0.033539 0.000000
0.526764 0.045654 0.000000
0.691833 0.058289 0.000000
0.829376 0.071350 0.000000
0.937744 0.084869 0.000000
1.000000 0.118958 0.020477
0.000000 0.210358 0.210358
0.000000 0.355530 0.355530
0.210358 0.210358 0.210358
0.691803 0.058289 0.000000
0.829376 0.071350 0.000000
0.937744 0.084869 0.000000
1.000000 0.118958 0.020477
1.000000 0.225922 0.118988
0.000000 0.355530 0.355530
0.000000 0.526764 0.526764
0.000000 0.691803 0.691803
0.355530 0.355530 0.355530
0.851318 0.151703 0.073151
1.000000 0.118958 0.020477
1.000000 0.225922 0.118988
1.000000 0.352844 0.244141
0.000000 0.526794 0.526794
0.000000 0.691833 0.691833
0.000000 0.829376 0.829376
0.018250 0.916016 0.916016
0.526794 0.526794 0.526794
0.954285 0.284485 0.186890
1.000000 0.352905 0.244171
1.000000 0.499847 0.396027
0.000000 0.691833 0.691833
0.000000 0.829376 0.829376
0.000000 0.937744 0.937744
0.020477 1.000000 1.000000
0.119019 1.000000 1.000000
0.691833 0.691833 0.691833
1.000000 0.499847 0.396027
1.000000 0.647736 0.570496
0.000000 0.829376 0.829376
0.000000 0.937744 0.937744
0.020477 1.000000 1.000000
0.118988 1.000000 1.000000
0.244171 1.000000 1.000000
0.396027 1.000000 1.000000
0.829376 0.829376 0.829376
1.000000 0.775543 0.728912
0.000000 0.937744 0.937744
0.020477 1.000000 1.000000
0.118988 1.000000 1.000000
0.244141 1.000000 1.000000
0.396027 1.000000 1.000000
0.570496 1.000000 1.000000
0.728912 1.000000 1.000000
0.937744 0.937744 0.937744
0.000000 0.000000 0.000000
0.091858 0.010712 0.000000
0.210358 0.021881 0.000000
0.355530 0.033539 0.000000
0.526794 0.045654 0.000000
0.691833 0.058289 0.000000
0.829376 0.071350 0.000000
0.937744 0.084869 0.000000
0.000000 0.091858 0.091858
0.091858 0.091858 0.091858
0.355530 0.033539 0.000000
0.526764 0.045654 0.000000
0.691833 0.058289 0.000000
0.829376 0.071350 0.000000
0.937744 0.084869 0.000000
1.000000 0.118958 0.020477
0.000000 0.210358 0.210358
0.000000 0.355530 0.355530
0.210358 0.210358 0.210358
0.691803 0.058289 0.000000
0.829376 0.071350 0.000000
0.937744 0.084869 0.000000
1.000000 0.118958 0.020477
1.000000 0.225922 0.118988
0.000000 0.355530 0.355530
0.000000 0.526764 0.526764
0.000000 0.691803 0.691803
0.355530 0.355530 0.355530
0.851318 0.151703 0.073151
1.000000 0.118958 0.020477
1.000000 0.225922 0.118988
1.000000 0.352844 0.244141
0.000000 0.526794 0.526794
0.000000 0.691833 0.691833
0.000000 0.829376 0.829376
0.018250 0.916016 0.916016
0.526794 0.526794 0.526794
0.954285 0.284485 0.186890
1.000000 0.352905 0.244171
1.000000 0.499847 0.396027
0.000000 0.691833 0.691833
0.000000 0.829376 0.829376
0.000000 0.937744 0.937744
0.020477 1.000000 1.000000
0.119019 1.000000 1.000000
0.691833 0.691833 0.691833
1.000000 0.499847 0.396027
1.000000 0.647736 0.570496
0.000000 0.829376 0.829376
0.000000 0.937744 0.937744
0.020477 1.000000 1.000000
0.118988 1.000000 1.000000
0.244171 1.000000 1.000000
0.396027 1.000000 1.000000
0.829376 0.829376 0.829376
1.000000 0.775543 0.728912
0.000000 0.937744 0.937744
0.020477 1.000000 1.000000
0.118988 1.000000 1.000000
0.244141 1.000000 1.000000
0.396027 1.000000 1.000000
0.570496 1.000000 1.000000
0.728912 1.000000 1.000000
0.937744 0.937744 0.937744
0.000000 0.000000 0.000000
0.091858 0.010712 0.000000
0.210358 0.021881 0.000000
0.355530 0.033539 0.000000
0.526794 0.045654 0.000000
0.691833 0.058289 0.000000
0.829376 0.071350 0.000000
0.937744 0.084869 0.000000
0.000000 0.091858 0.091858
0.091858 0.091858 0.091858
0.355530 0.033539 0.000000
0.526764 0.045654 0.000000
0.691833 0.058289 0.000000
0.829376 0.071350 0.000000
0.937744 0.084869 0.000000
1.000000 0.118958 0.020477
0.000000 0.210358 0.210358
0.000000 0.355530 0.355530
0.210358 0.210358 0.210358
0.691803 0.058289 0.000000
0.829376 0.071350 0.000000
0.937744 0.084869 0.000000
1.000000 0.118958 0.020477
1.000000 0.225922 0.118988
0.000000 0.355530 0.355530
0.000000 0.526764 0.526764
0.000000 0.691803 0.691803
0.355530 0.355530 0.355530
0.851318 0.151703 0.073151
1.000000 0.118958 0.020477
1.000000 0.225922 0.118988
1.000000 0.352844 0.244141
0.000000 0.526794 0.526794
0.000000 0.691833 0.691833
0.000000 0.829376 0.829376
0.018250 0.916016 0.916016
0.526794 0.526794 0.526794
0.954285 0.284485 0.186890
1.000000 0.352905 0.244171
1.000000 0.499847 0.396027
0.000000 0.691833 0.691833
0.000000 0.829376 0.829376
0.000000 0.937744 0.937744
0.020477 1.000000 1.000000
0.119019 1.000000 1.000000
0.691833 0.691833 0.691833
1.000000 0.499847 0.396027
1.000000 0.647736 0.570496
0.000000 0.829376 0.829376
0.000000 0.937744 0.937744
0.020477 1.000000 1.000000
0.118988 1.000000 1.000000
0.244171 1.000000 1.000000
0.396027 1.000000 1.000000
0.829376 0.829376 0.829376
1.000000 0.775543 0.728912
0.000000 0.937744 0.937744
0.020477 1.000000 1.000000
0.118988 1.000000 1.000000
0.244141 1.000000 1.000000
0.396027 1.000000 1.000000
0.570496 1.000000 1.000000
0.728912 1.000000 1.000000
0.937744 0.937744 0.937744
