EA 50 Cinematic Luts Pack/EA_Cinematic Lut (48).cube
TITLE "A strong, cold, contrasting colorization that will enrich your footage with a pleasant, dreamlike look."
LUT_3D_SIZE 5
0.0000 0.0000 0.0000
0.2130 0.0000 0.0000
0.4753 0.0000 0.0000
0.7510 0.0366 0.0000
0.9404 0.0849 0.0000
0.0000 0.1780 0.0626
0.2623 0.1909 0.0352
0.5457 0.1218 0.0049
0.8076 0.1120 0.0000
0.9557 0.1430 0.0000
0.0000 0.4274 0.1691
0.0000 0.4414 0.1940
0.6094 0.4540 0.1077
0.8619 0.3830 0.0699
0.9768 0.3527 0.0674
0.0000 0.7343 0.3133
0.0000 0.7473 0.3399
0.0000 0.7878 0.4529
0.8757 0.7922 0.1976
0.9845 0.7289 0.1194
0.0000 0.9827 0.8447
0.0000 0.9859 0.8769
0.0000 0.9958 0.9507
0.6876 0.9998 0.9977
0.9911 0.9861 0.9740
0.0187 0.0000 0.0000
0.3547 0.0000 0.0371
0.6035 0.0000 0.0183
0.7604 0.0000 0.0000
0.9401 0.0104 0.0000
0.0000 0.1947 0.0280
0.2108 0.1942 0.0901
0.5430 0.1219 0.0469
0.8379 0.0869 0.0000
0.9654 0.1016 0.0000
0.0000 0.4363 0.1490
0.0000 0.4495 0.1801
0.2260 0.4827 0.2476
0.8301 0.3895 0.1470
0.9849 0.3132 0.0714
0.0000 0.7425 0.2959
0.0000 0.7552 0.3235
0.0000 0.7944 0.4226
0.4174 0.8399 0.7261
0.9875 0.7185 0.1225
0.0000 0.9847 0.8130
0.0000 0.9878 0.8596
0.0000 0.9974 0.9430
0.7140 0.9998 0.9972
0.9916 0.9868 0.9773
0.1411 0.0740 0.0387
0.2731 0.0999 0.0657
0.7511 0.0000 0.1105
0.9262 0.0000 0.0950
0.9782 0.0000 0.0747
0.2279 0.2012 0.0930
0.3438 0.2129 0.1078
0.8396 0.0000 0.1241
0.9295 0.0000 0.0744
0.9873 0.0000 0.0624
0.0000 0.4618 0.0928
0.1304 0.4678 0.1479
0.5162 0.4634 0.2356
0.8343 0.3886 0.1911
1.0000 0.2328 0.0737
0.0000 0.7694 0.2355
0.0000 0.7807 0.2642
0.0000 0.8139 0.3661
0.4776 0.8442 0.8036
0.9929 0.6838 0.1995
0.0000 0.9910 0.6451
0.0000 0.9941 0.7227
0.2843 1.0000 0.8989
0.7876 0.9998 0.9948
0.9931 0.9892 0.9864
0.2650 0.1498 0.0791
0.3461 0.1699 0.0958
0.6480 0.1793 0.1541
0.9571 0.0000 0.2021
1.0000 0.0890 0.1942
0.3640 0.2397 0.1211
0.4271 0.2546 0.1368
0.6729 0.2683 0.1819
0.9735 0.0000 0.2179
1.0000 0.2094 0.2138
0.3736 0.4596 0.2103
0.4266 0.4681 0.2269
0.6798 0.4742 0.2559
0.9545 0.4146 0.2744
1.0000 0.4152 0.2707
0.0000 0.8089 0.1709
0.0000 0.8176 0.2078
0.4203 0.8230 0.3401
0.7915 0.8183 0.7220
0.9999 0.6219 0.3352
0.2496 1.0000 0.3675
0.3973 1.0000 0.4056
0.6711 0.9996 0.6868
0.8922 0.9999 0.9690
0.9959 0.9935 0.9977
0.3965 0.2283 0.1226
0.4526 0.2448 0.1353
0.6312 0.2802 0.1816
0.9397 0.1925 0.2694
1.0000 0.2079 0.3115
0.4794 0.2989 0.1603
0.5278 0.3114 0.1729
0.6931 0.3374 0.2128
0.9533 0.2523 0.3090
1.0000 0.2980 0.3382
0.5785 0.4805 0.2482
0.6295 0.4868 0.2583
0.7774 0.4992 0.3030
0.9712 0.4381 0.4928
1.0000 0.4942 0.4697
0.5662 0.7921 0.3491
0.5842 0.8015 0.3703
0.6336 0.8269 0.5546
0.9453 0.7948 0.8245
0.9998 0.7947 0.8776
0.6772 1.0000 0.3626
0.7347 1.0000 0.3889
0.8625 0.9996 0.5950
0.9563 0.9999 0.9049
1.0000 0.9999 1.0000
