EA 50 Cinematic Luts Pack/EA_Cinematic Lut (39).cube
TITLE "A very natural grading that works perfect with outside, semi-lighted shots."
LUT_3D_SIZE 25
0.0000 0.0000 0.0000
0.0263 0.0014 0.0006
0.0564 0.0033 0.0015
0.0868 0.0062 0.0028
0.1178 0.0102 0.0047
0.1497 0.0156 0.0072
0.1828 0.0222 0.0103
0.2176 0.0293 0.0141
0.2547 0.0362 0.0182
0.2963 0.0432 0.0227
0.3412 0.0501 0.0272
0.3877 0.0572 0.0315
0.4340 0.0643 0.0357
0.4776 0.0715 0.0396
0.5167 0.0784 0.0429
0.5541 0.0847 0.0441
0.5916 0.0901 0.0428
0.6295 0.0942 0.0377
0.6691 0.0970 0.0267
0.7121 0.0979 0.0052
0.7531 0.1039 0.0000
0.7953 0.1118 0.0000
0.8385 0.1199 0.0000
0.8824 0.1282 0.0000
0.9266 0.1367 0.0000
0.0036 0.0208 0.0020
0.0345 0.0214 0.0009
0.0679 0.0216 0.0000
0.0984 0.0231 0.0001
0.1283 0.0261 0.0017
0.1592 0.0301 0.0038
0.1915 0.0349 0.0067
0.2255 0.0401 0.0102
0.2624 0.0459 0.0143
0.3036 0.0518 0.0188
0.3480 0.0580 0.0236
0.3940 0.0643 0.0282
0.4394 0.0709 0.0326
0.4820 0.0777 0.0368
0.5205 0.0842 0.0398
0.5577 0.0901 0.0406
0.5950 0.0952 0.0386
0.6328 0.0991 0.0324
0.6723 0.1016 0.0188
0.7143 0.1034 0.0000
0.7539 0.1108 0.0000
0.7961 0.1184 0.0000
0.8393 0.1263 0.0000
0.8831 0.1344 0.0000
0.9274 0.1427 0.0000
0.0085 0.0426 0.0049
0.0324 0.0441 0.0000
0.0686 0.0436 0.0021
0.1028 0.0436 0.0000
0.1354 0.0445 0.0000
0.1674 0.0465 0.0007
0.1999 0.0496 0.0029
0.2339 0.0535 0.0056
0.2710 0.0579 0.0094
0.3123 0.0628 0.0134
0.3565 0.0681 0.0177
0.4017 0.0737 0.0228
0.4462 0.0797 0.0277
0.4877 0.0860 0.0321
0.5255 0.0919 0.0348
0.5625 0.0974 0.0349
0.5995 0.1020 0.0317
0.6370 0.1057 0.0235
0.6765 0.1080 0.0076
0.7154 0.1128 0.0000
0.7551 0.1199 0.0000
0.7972 0.1273 0.0000
0.8403 0.1349 0.0000
0.8841 0.1428 0.0000
0.9283 0.1509 0.0000
0.0160 0.0658 0.0092
0.0393 0.0670 0.0036
0.0657 0.0680 0.0000
0.1033 0.0672 0.0040
0.1387 0.0673 0.0000
0.1737 0.0677 0.0000
0.2078 0.0693 0.0000
0.2430 0.0716 0.0005
0.2811 0.0747 0.0036
0.3229 0.0785 0.0064
0.3669 0.0828 0.0103
0.4116 0.0876 0.0147
0.4553 0.0928 0.0194
0.4955 0.0982 0.0232
0.5326 0.1034 0.0251
0.5693 0.1083 0.0239
0.6059 0.1125 0.0181
0.6433 0.1157 0.0071
0.6801 0.1202 0.0000
0.7170 0.1266 0.0000
0.7567 0.1334 0.0000
0.7987 0.1404 0.0000
0.8418 0.1476 0.0000
0.8855 0.1551 0.0000
0.9298 0.1628 0.0000
0.0263 0.0913 0.0151
0.0481 0.0922 0.0101
0.0685 0.0937 0.0006
0.1010 0.0939 0.0011
0.1389 0.0932 0.0066
0.1759 0.0931 0.0010
0.2126 0.0934 0.0000
0.2497 0.0944 0.0000
0.2898 0.0964 0.0000
0.3335 0.0989 0.0000
0.3783 0.1021 0.0022
0.4226 0.1060 0.0053
0.4655 0.1104 0.0081
0.5046 0.1149 0.0103
0.5412 0.1192 0.0099
0.5777 0.1233 0.0057
0.6133 0.1274 0.0000
0.6472 0.1329 0.0000
0.6823 0.1386 0.0000
0.7191 0.1446 0.0000
0.7589 0.1509 0.0000
0.8009 0.1575 0.0000
0.8439 0.1643 0.0000
0.8875 0.1714 0.0000
0.9316 0.1787 0.0000
0.0388 0.1197 0.0226
0.0577 0.1205 0.0175
0.0764 0.1217 0.0094
0.0998 0.1232 0.0000
0.1375 0.1226 0.0063
0.1755 0.1220 0.0094
0.2145 0.1218 0.0024
0.2537 0.1221 0.0000
0.2970 0.1227 0.0000
0.3412 0.1246 0.0000
0.3866 0.1270 0.0000
0.4319 0.1298 0.0000
0.4748 0.1330 0.0000
0.5130 0.1367 0.0000
0.5485 0.1410 0.0000
0.5831 0.1454 0.0000
0.6168 0.1502 0.0000
0.6507 0.1552 0.0000
0.6854 0.1606 0.0000
0.7221 0.1663 0.0000
0.7617 0.1723 0.0000
0.8036 0.1785 0.0000
0.8465 0.1848 0.0000
0.8900 0.1915 0.0000
0.9340 0.1983 0.0000
0.0513 0.1510 0.0305
0.0676 0.1517 0.0262
0.0847 0.1527 0.0192
0.1055 0.1544 0.0044
0.1327 0.1557 0.0000
0.1747 0.1543 0.0118
0.2137 0.1539 0.0124
0.2556 0.1536 0.0038
0.3003 0.1538 0.0000
0.3480 0.1543 0.0000
0.3946 0.1557 0.0000
0.4394 0.1580 0.0000
0.4813 0.1609 0.0000
0.5190 0.1640 0.0000
0.5543 0.1676 0.0000
0.5882 0.1717 0.0000
0.6213 0.1762 0.0000
0.6546 0.1811 0.0000
0.6893 0.1859 0.0000
0.7261 0.1911 0.0000
0.7659 0.1966 0.0000
0.8075 0.2024 0.0000
0.8500 0.2084 0.0000
0.8931 0.2148 0.0000
0.9369 0.2212 0.0000
0.0635 0.1848 0.0383
0.0778 0.1854 0.0348
0.0936 0.1862 0.0292
0.1133 0.1877 0.0168
0.1365 0.1896 0.0000
0.1687 0.1903 0.0000
0.2129 0.1886 0.0155
0.2545 0.1882 0.0154
0.3023 0.1878 0.0044
0.3506 0.1881 0.0000
0.3998 0.1886 0.0000
0.4472 0.1896 0.0000
0.4886 0.1918 0.0000
0.5253 0.1945 0.0000
0.5599 0.1977 0.0000
0.5937 0.2011 0.0000
0.6268 0.2049 0.0000
0.6600 0.2091 0.0000
0.6943 0.2138 0.0000
0.7308 0.2188 0.0000
0.7705 0.2238 0.0000
0.8121 0.2290 0.0000
0.8545 0.2346 0.0000
0.8976 0.2403 0.0000
0.9410 0.2463 0.0000
0.0753 0.2205 0.0458
0.0880 0.2210 0.0428
0.1026 0.2217 0.0379
0.1211 0.2230 0.0290
0.1428 0.2248 0.0083
0.1699 0.2264 0.0000
0.2064 0.2267 0.0000
0.2536 0.2249 0.0172
0.3010 0.2246 0.0154
0.3536 0.2241 0.0005
0.4032 0.2245 0.0000
0.4513 0.2250 0.0000
0.4952 0.2255 0.0000
0.5318 0.2274 0.0000
0.5663 0.2300 0.0000
0.5995 0.2330 0.0000
0.6321 0.2365 0.0000
0.6656 0.2399 0.0000
0.7003 0.2438 0.0000
0.7370 0.2482 0.0000
0.7766 0.2529 0.0000
0.8175 0.2579 0.0000
0.8594 0.2631 0.0000
0.9024 0.2683 0.0000
0.9456 0.2737 0.0000
0.0850 0.2578 0.0518
0.0966 0.2582 0.0490
0.1105 0.2589 0.0443
0.1282 0.2600 0.0367
0.1493 0.2616 0.0204
0.1748 0.2634 0.0000
0.2049 0.2648 0.0000
0.2478 0.2644 0.0000
0.3001 0.2629 0.0145
0.3520 0.2625 0.0104
0.4060 0.2618 0.0000
0.4546 0.2621 0.0000
0.4979 0.2625 0.0000
0.5363 0.2631 0.0000
0.5724 0.2644 0.0000
0.6056 0.2667 0.0000
0.6382 0.2695 0.0000
0.6715 0.2726 0.0000
0.7059 0.2762 0.0000
0.7435 0.2797 0.0000
0.7834 0.2836 0.0000
0.8243 0.2880 0.0000
0.8661 0.2927 0.0000
0.9083 0.2977 0.0000
0.9509 0.3030 0.0000
0.0922 0.2961 0.0557
0.1032 0.2965 0.0529
0.1166 0.2971 0.0486
0.1340 0.2981 0.0411
0.1546 0.2995 0.0279
0.1786 0.3013 0.0000
0.2102 0.3023 0.0000
0.2442 0.3034 0.0000
0.2947 0.3026 0.0000
0.3507 0.3014 0.0057
0.4044 0.3009 0.0000
0.4569 0.3001 0.0000
0.5006 0.3001 0.0000
0.5389 0.3005 0.0000
0.5756 0.3012 0.0000
0.6112 0.3019 0.0000
0.6443 0.3040 0.0000
0.6777 0.3066 0.0000
0.7126 0.3096 0.0000
0.7500 0.3129 0.0000
0.7898 0.3166 0.0000
0.8312 0.3203 0.0000
0.8731 0.3244 0.0000
0.9153 0.3289 0.0000
0.9578 0.3337 0.0000
0.0967 0.3361 0.0571
0.1074 0.3365 0.0543
0.1205 0.3370 0.0500
0.1381 0.3378 0.0423
0.1585 0.3391 0.0299
0.1820 0.3409 0.0037
0.2149 0.3415 0.0000
0.2475 0.3428 0.0000
0.2891 0.3436 0.0000
0.3462 0.3424 0.0000
0.4027 0.3413 0.0000
0.4550 0.3407 0.0000
0.5023 0.3397 0.0000
0.5415 0.3396 0.0000
0.5782 0.3401 0.0000
0.6136 0.3408 0.0000
0.6489 0.3414 0.0000
0.6838 0.3430 0.0000
0.7193 0.3455 0.0000
0.7573 0.3484 0.0000
0.7973 0.3517 0.0000
0.8381 0.3554 0.0000
0.8797 0.3593 0.0000
0.9224 0.3632 0.0000
0.9649 0.3677 0.0000
0.0981 0.3791 0.0557
0.1088 0.3794 0.0528
0.1220 0.3799 0.0484
0.1398 0.3807 0.0401
0.1605 0.3819 0.0270
0.1841 0.3835 0.0024
0.2186 0.3839 0.0000
0.2531 0.3848 0.0000
0.2892 0.3864 0.0000
0.3384 0.3866 0.0000
0.3994 0.3849 0.0000
0.4536 0.3840 0.0000
0.5006 0.3832 0.0000
0.5429 0.3820 0.0000
0.5806 0.3820 0.0000
0.6158 0.3826 0.0000
0.6512 0.3832 0.0000
0.6872 0.3840 0.0000
0.7255 0.3850 0.0000
0.7644 0.3874 0.0000
0.8047 0.3903 0.0000
0.8457 0.3936 0.0000
0.8874 0.3973 0.0000
0.9292 0.4015 0.0000
0.9715 0.4057 0.0000
0.0963 0.4264 0.0511
0.1073 0.4268 0.0480
0.1209 0.4272 0.0431
0.1391 0.4280 0.0340
0.1607 0.4291 0.0179
0.1864 0.4303 0.0000
0.2212 0.4306 0.0000
0.2580 0.4311 0.0000
0.2957 0.4325 0.0000
0.3359 0.4343 0.0000
0.3907 0.4339 0.0000
0.4510 0.4318 0.0000
0.4993 0.4307 0.0000
0.5411 0.4298 0.0000
0.5817 0.4286 0.0000
0.6183 0.4285 0.0000
0.6535 0.4291 0.0000
0.6900 0.4297 0.0000
0.7283 0.4306 0.0000
0.7704 0.4313 0.0000
0.8118 0.4335 0.0000
0.8534 0.4364 0.0000
0.8951 0.4399 0.0000
0.9369 0.4436 0.0000
0.9787 0.4476 0.0000
0.0911 0.4783 0.0426
0.1029 0.4786 0.0390
0.1171 0.4791 0.0333
0.1362 0.4797 0.0221
0.1588 0.4807 0.0030
0.1894 0.4811 0.0000
0.2236 0.4814 0.0000
0.2617 0.4817 0.0000
0.3018 0.4825 0.0000
0.3417 0.4842 0.0000
0.3872 0.4855 0.0000
0.4429 0.4847 0.0000
0.4969 0.4826 0.0000
0.5398 0.4814 0.0000
0.5798 0.4807 0.0000
0.6191 0.4794 0.0000
0.6557 0.4792 0.0000
0.6924 0.4796 0.0000
0.7312 0.4803 0.0000
0.7729 0.4811 0.0000
0.8164 0.4820 0.0000
0.8601 0.4833 0.0000
0.9022 0.4859 0.0000
0.9442 0.4890 0.0000
0.9859 0.4925 0.0000
0.0830 0.5315 0.0292
0.0958 0.5318 0.0243
0.1111 0.5322 0.0164
0.1313 0.5328 0.0038
0.1608 0.5328 0.0000
0.1926 0.5330 0.0000
0.2266 0.5332 0.0000
0.2644 0.5335 0.0000
0.3067 0.5340 0.0000
0.3483 0.5352 0.0000
0.3891 0.5372 0.0000
0.4378 0.5378 0.0000
0.4906 0.5365 0.0000
0.5374 0.5344 0.0000
0.5784 0.5334 0.0000
0.6169 0.5326 0.0000
0.6563 0.5313 0.0000
0.6944 0.5310 0.0000
0.7337 0.5313 0.0000
0.7755 0.5319 0.0000
0.8189 0.5325 0.0000
0.8628 0.5334 0.0000
0.9083 0.5338 0.0000
0.9508 0.5362 0.0000
0.9929 0.5391 0.0000
0.0726 0.5868 0.0090
0.0869 0.5870 0.0036
0.1062 0.5871 0.0000
0.1331 0.5870 0.0000
0.1637 0.5869 0.0000
0.1961 0.5869 0.0000
0.2299 0.5872 0.0000
0.2672 0.5875 0.0000
0.3105 0.5878 0.0000
0.3544 0.5886 0.0000
0.3960 0.5902 0.0000
0.4361 0.5923 0.0000
0.4849 0.5921 0.0000
0.5328 0.5902 0.0000
0.5763 0.5885 0.0000
0.6157 0.5875 0.0000
0.6541 0.5865 0.0000
0.6948 0.5849 0.0000
0.7355 0.5843 0.0000
0.7781 0.5845 0.0000
0.8210 0.5852 0.0000
0.8658 0.5856 0.0000
0.9103 0.5864 0.0000
0.9557 0.5871 0.0000
0.9994 0.5886 0.0000
0.0715 0.6410 0.0000
0.0897 0.6410 0.0000
0.1105 0.6409 0.0000
0.1366 0.6408 0.0000
0.1668 0.6407 0.0000
0.1998 0.6406 0.0000
0.2333 0.6408 0.0000
0.2707 0.6411 0.0000
0.3137 0.6414 0.0000
0.3597 0.6418 0.0000
0.4027 0.6429 0.0000
0.4429 0.6446 0.0000
0.4826 0.6461 0.0000
0.5261 0.6456 0.0000
0.5725 0.6433 0.0000
0.6135 0.6417 0.0000
0.6526 0.6406 0.0000
0.6922 0.6396 0.0000
0.7356 0.6380 0.0000
0.7798 0.6374 0.0000
0.8241 0.6375 0.0000
0.8681 0.6381 0.0000
0.9132 0.6385 0.0000
0.9581 0.6393 0.0000
0.9998 0.6411 0.0442
0.0779 0.6931 0.0000
0.0951 0.6931 0.0000
0.1148 0.6930 0.0000
0.1404 0.6929 0.0000
0.1699 0.6928 0.0000
0.2030 0.6926 0.0000
0.2367 0.6927 0.0000
0.2742 0.6929 0.0000
0.3165 0.6932 0.0000
0.3629 0.6933 0.0000
0.4080 0.6939 0.0000
0.4490 0.6951 0.0000
0.4858 0.6968 0.0000
0.5239 0.6975 0.0000
0.5658 0.6968 0.0000
0.6104 0.6945 0.0000
0.6505 0.6932 0.0000
0.6906 0.6922 0.0000
0.7327 0.6912 0.0000
0.7798 0.6896 0.0000
0.8257 0.6891 0.0000
0.8710 0.6891 0.0000
0.9157 0.6896 0.0000
0.9609 0.6900 0.0000
0.9998 0.6922 0.0780
0.0842 0.7437 0.0000
0.1004 0.7436 0.0000
0.1194 0.7435 0.0000
0.1442 0.7434 0.0000
0.1733 0.7433 0.0000
0.2058 0.7432 0.0000
0.2402 0.7432 0.0000
0.2778 0.7433 0.0000
0.3201 0.7435 0.0000
0.3658 0.7437 0.0000
0.4126 0.7440 0.0000
0.4547 0.7449 0.0000
0.4913 0.7462 0.0000
0.5238 0.7480 0.0000
0.5625 0.7481 0.0000
0.6038 0.7471 0.0000
0.6480 0.7448 0.0000
0.6885 0.7437 0.0000
0.7309 0.7427 0.0000
0.7766 0.7417 0.0000
0.8256 0.7401 0.0000
0.8725 0.7395 0.0000
0.9184 0.7394 0.0000
0.9635 0.7399 0.0000
0.9999 0.7421 0.1113
0.0906 0.7941 0.0000
0.1059 0.7940 0.0000
0.1241 0.7940 0.0000
0.1483 0.7939 0.0000
0.1768 0.7938 0.0000
0.2089 0.7936 0.0000
0.2440 0.7935 0.0000
0.2815 0.7937 0.0000
0.3237 0.7938 0.0000
0.3687 0.7941 0.0000
0.4157 0.7942 0.0000
0.4595 0.7947 0.0000
0.4967 0.7958 0.0000
0.5289 0.7972 0.0000
0.5603 0.7990 0.0000
0.5995 0.7988 0.0000
0.6414 0.7974 0.0000
0.6864 0.7950 0.0000
0.7289 0.7941 0.0000
0.7747 0.7931 0.0000
0.8222 0.7921 0.0000
0.8723 0.7905 0.0000
0.9199 0.7900 0.0000
0.9663 0.7900 0.0000
0.9999 0.7921 0.1560
0.1050 0.8440 0.0134
0.1163 0.8441 0.0089
0.1302 0.8443 0.0026
0.1525 0.8443 0.0000
0.1804 0.8442 0.0000
0.2122 0.8440 0.0000
0.2474 0.8439 0.0000
0.2855 0.8439 0.0000
0.3276 0.8441 0.0000
0.3724 0.8443 0.0000
0.4186 0.8445 0.0000
0.4635 0.8447 0.0000
0.5012 0.8455 0.0000
0.5338 0.8466 0.0000
0.5645 0.8484 0.0000
0.5974 0.8496 0.0000
0.6358 0.8493 0.0000
0.6798 0.8475 0.0000
0.7265 0.8455 0.0000
0.7729 0.8446 0.0000
0.8205 0.8438 0.0000
0.8691 0.8430 0.0000
0.9201 0.8414 0.0000
0.9680 0.8409 0.0000
1.0000 0.8416 0.2115
0.1381 0.8926 0.0542
0.1470 0.8927 0.0518
0.1585 0.8929 0.0483
0.1749 0.8931 0.0422
0.1955 0.8935 0.0324
0.2199 0.8939 0.0148
0.2506 0.8942 0.0000
0.2897 0.8942 0.0000
0.3316 0.8943 0.0000
0.3761 0.8945 0.0000
0.4213 0.8947 0.0000
0.4662 0.8949 0.0000
0.5053 0.8953 0.0000
0.5387 0.8962 0.0000
0.5695 0.8978 0.0000
0.5989 0.8999 0.0000
0.6340 0.9005 0.0000
0.6735 0.9002 0.0000
0.7207 0.8982 0.0000
0.7705 0.8964 0.0000
0.8190 0.8955 0.0000
0.8674 0.8948 0.0000
0.9168 0.8939 0.0000
0.9680 0.8923 0.0000
1.0000 0.8908 0.2744
0.1747 0.9408 0.0897
0.1820 0.9409 0.0881
0.1917 0.9411 0.0858
0.2058 0.9413 0.0821
0.2242 0.9417 0.0766
0.2464 0.9421 0.0686
0.2735 0.9427 0.0568
0.3048 0.9435 0.0386
0.3385 0.9446 0.0113
0.3802 0.9451 0.0000
0.4251 0.9454 0.0000
0.4691 0.9456 0.0000
0.5087 0.9459 0.0000
0.5428 0.9465 0.0000
0.5744 0.9478 0.0000
0.6039 0.9495 0.0000
0.6327 0.9517 0.0000
0.6712 0.9517 0.0000
0.7138 0.9510 0.0000
0.7651 0.9489 0.0000
0.8164 0.9474 0.0000
0.8662 0.9463 0.0051
0.9150 0.9455 0.0274
0.9644 0.9446 0.0279
0.9994 0.9391 0.3574
0.2836 0.9819 0.1971
0.2878 0.9822 0.1949
0.2934 0.9825 0.1916
0.3018 0.9831 0.1865
0.3129 0.9839 0.1787
0.3265 0.9851 0.1673
0.3423 0.9866 0.1513
0.3597 0.9887 0.1285
0.3804 0.9908 0.1035
0.4027 0.9935 0.0675
0.4356 0.9952 0.0372
0.4719 0.9965 0.0000
0.5114 0.9966 0.0000
0.5469 0.9969 0.0000
0.5790 0.9979 0.0000
0.6088 0.9995 0.0000
0.6418 0.9998 0.0615
0.6768 0.9998 0.1022
0.7166 0.9999 0.1041
0.7615 0.9999 0.0846
0.8119 0.9997 0.0000
0.8676 0.9944 0.1632
0.9171 0.9910 0.2523
0.9613 0.9898 0.3090
0.9929 0.9815 0.5880
0.0015 0.0015 0.0045
0.0264 0.0019 0.0177
0.0563 0.0038 0.0189
0.0896 0.0057 0.0197
0.1235 0.0081 0.0199
0.1582 0.0109 0.0199
0.1943 0.0146 0.0199
0.2317 0.0194 0.0198
0.2679 0.0281 0.0238
0.3087 0.0362 0.0278
0.3526 0.0440 0.0317
0.3980 0.0516 0.0356
0.4429 0.0591 0.0394
0.4847 0.0668 0.0431
0.5226 0.0740 0.0461
0.5594 0.0804 0.0472
0.5964 0.0858 0.0458
0.6341 0.0898 0.0409
0.6736 0.0923 0.0303
0.7167 0.0931 0.0092
0.7590 0.0980 0.0000
0.8010 0.1061 0.0000
0.8439 0.1144 0.0000
0.8876 0.1229 0.0000
0.9316 0.1316 0.0000
0.0028 0.0213 0.0212
0.0329 0.0222 0.0190
0.0679 0.0221 0.0170
0.0964 0.0243 0.0193
0.1266 0.0273 0.0207
0.1577 0.0312 0.0228
0.1902 0.0358 0.0256
0.2244 0.0411 0.0286
0.2613 0.0467 0.0318
0.3026 0.0526 0.0352
0.3471 0.0587 0.0386
0.3931 0.0650 0.0420
0.4387 0.0715 0.0454
0.4814 0.0783 0.0487
0.5201 0.0848 0.0513
0.5573 0.0906 0.0520
0.5947 0.0957 0.0505
0.6324 0.0996 0.0457
0.6720 0.1021 0.0360
0.7149 0.1029 0.0163
0.7592 0.1058 0.0000
0.8011 0.1136 0.0000
0.8441 0.1216 0.0000
0.8877 0.1299 0.0000
0.9322 0.1378 0.0000
0.0086 0.0427 0.0251
0.0284 0.0450 0.0150
0.0641 0.0449 0.0165
0.1047 0.0435 0.0166
0.1358 0.0446 0.0181
0.1664 0.0472 0.0205
0.1988 0.0503 0.0228
0.2329 0.0541 0.0256
0.2699 0.0585 0.0285
0.3113 0.0634 0.0316
0.3555 0.0687 0.0348
0.4009 0.0743 0.0384
0.4455 0.0803 0.0419
0.4871 0.0865 0.0453
0.5251 0.0925 0.0474
0.5621 0.0979 0.0476
0.5991 0.1025 0.0453
0.6367 0.1062 0.0392
0.6762 0.1084 0.0271
0.7193 0.1091 0.0040
0.7601 0.1153 0.0000
0.8021 0.1228 0.0000
0.8450 0.1305 0.0000
0.8886 0.1385 0.0000
0.9331 0.1462 0.0000
0.0172 0.0658 0.0298
0.0346 0.0679 0.0165
0.0595 0.0695 0.0086
0.0985 0.0686 0.0187
0.1392 0.0674 0.0183
0.1755 0.0674 0.0150
0.2083 0.0694 0.0175
0.2423 0.0720 0.0206
0.2802 0.0752 0.0230
0.3220 0.0790 0.0261
0.3660 0.0833 0.0296
0.4108 0.0881 0.0330
0.4546 0.0933 0.0363
0.4950 0.0987 0.0389
0.5321 0.1039 0.0402
0.5689 0.1088 0.0395
0.6056 0.1129 0.0356
0.6429 0.1161 0.0268
0.6824 0.1181 0.0096
0.7218 0.1223 0.0000
0.7616 0.1291 0.0000
0.8035 0.1362 0.0000
0.8464 0.1435 0.0000
0.8899 0.1511 0.0000
0.9344 0.1585 0.0000
0.0272 0.0913 0.0346
0.0434 0.0930 0.0224
0.0654 0.0945 0.0129
0.0911 0.0963 0.0044
0.1370 0.0939 0.0232
0.1755 0.0934 0.0195
0.2149 0.0930 0.0131
0.2521 0.0940 0.0123
0.2907 0.0963 0.0164
0.3333 0.0991 0.0192
0.3776 0.1025 0.0218
0.4220 0.1064 0.0245
0.4649 0.1108 0.0279
0.5041 0.1153 0.0298
0.5408 0.1197 0.0294
0.5774 0.1238 0.0258
0.6137 0.1272 0.0173
0.6510 0.1299 0.0033
0.6867 0.1348 0.0000
0.7237 0.1408 0.0000
0.7636 0.1472 0.0000
0.8054 0.1538 0.0000
0.8483 0.1607 0.0000
0.8918 0.1678 0.0000
0.9361 0.1747 0.0000
0.0385 0.1198 0.0397
0.0530 0.1213 0.0288
0.0734 0.1224 0.0205
0.0960 0.1243 0.0067
0.1293 0.1248 0.0086
0.1737 0.1226 0.0257
0.2137 0.1222 0.0209
0.2549 0.1220 0.0137
0.3015 0.1218 0.0046
0.3450 0.1237 0.0079
0.3887 0.1265 0.0127
0.4333 0.1294 0.0148
0.4757 0.1327 0.0154
0.5142 0.1362 0.0138
0.5508 0.1398 0.0096
0.5868 0.1430 0.0033
0.6211 0.1471 0.0000
0.6548 0.1521 0.0000
0.6895 0.1574 0.0000
0.7263 0.1631 0.0000
0.7660 0.1691 0.0000
0.8079 0.1752 0.0000
0.8506 0.1816 0.0000
0.8940 0.1882 0.0000
0.9383 0.1947 0.0000
0.0493 0.1513 0.0445
0.0631 0.1524 0.0355
0.0818 0.1534 0.0291
0.1034 0.1550 0.0166
0.1273 0.1573 0.0000
0.1690 0.1560 0.0167
0.2120 0.1545 0.0284
0.2548 0.1539 0.0224
0.3017 0.1537 0.0116
0.3530 0.1533 0.0007
0.3998 0.1545 0.0000
0.4445 0.1566 0.0000
0.4860 0.1592 0.0000
0.5233 0.1621 0.0000
0.5583 0.1656 0.0000
0.5919 0.1695 0.0000
0.6249 0.1739 0.0000
0.6583 0.1785 0.0000
0.6931 0.1833 0.0000
0.7300 0.1884 0.0000
0.7699 0.1938 0.0000
0.8114 0.1996 0.0000
0.8539 0.2056 0.0000
0.8969 0.2120 0.0000
0.9409 0.2181 0.0000
0.0601 0.1852 0.0497
0.0735 0.1861 0.0424
0.0906 0.1869 0.0374
0.1111 0.1883 0.0278
0.1338 0.1904 0.0087
0.1616 0.1922 0.0000
0.2094 0.1898 0.0251
0.2527 0.1888 0.0308
0.3015 0.1881 0.0230
0.3528 0.1879 0.0065
0.4037 0.1879 0.0000
0.4512 0.1887 0.0000
0.4923 0.1907 0.0000
0.5288 0.1931 0.0000
0.5634 0.1961 0.0000
0.5971 0.1993 0.0000
0.6299 0.2031 0.0000
0.6631 0.2072 0.0000
0.6976 0.2118 0.0000
0.7342 0.2167 0.0000
0.7742 0.2216 0.0000
0.8157 0.2267 0.0000
0.8581 0.2322 0.0000
0.9011 0.2379 0.0000
0.9446 0.2438 0.0000
0.0704 0.2211 0.0550
0.0840 0.2216 0.0494
0.0996 0.2223 0.0451
0.1190 0.2235 0.0371
0.1411 0.2253 0.0209
0.1658 0.2276 0.0000
0.2009 0.2283 0.0000
0.2519 0.2255 0.0307
0.2993 0.2251 0.0310
0.3523 0.2246 0.0193
0.4049 0.2245 0.0000
0.4542 0.2245 0.0000
0.4981 0.2248 0.0000
0.5346 0.2265 0.0000
0.5691 0.2289 0.0000
0.6023 0.2318 0.0000
0.6350 0.2350 0.0000
0.6685 0.2384 0.0000
0.7032 0.2423 0.0000
0.7401 0.2465 0.0000
0.7798 0.2512 0.0000
0.8207 0.2562 0.0000
0.8627 0.2612 0.0000
0.9056 0.2663 0.0000
0.9490 0.2715 0.0000
0.0786 0.2585 0.0589
0.0929 0.2588 0.0550
0.1074 0.2594 0.0511
0.1261 0.2605 0.0437
0.1475 0.2621 0.0309
0.1712 0.2643 0.0042
0.2016 0.2658 0.0000
0.2430 0.2658 0.0000
0.2984 0.2634 0.0287
0.3504 0.2630 0.0270
0.4055 0.2623 0.0090
0.4559 0.2621 0.0000
0.4999 0.2622 0.0000
0.5387 0.2625 0.0000
0.5746 0.2636 0.0000
0.6079 0.2658 0.0000
0.6406 0.2685 0.0000
0.6739 0.2715 0.0000
0.7087 0.2749 0.0000
0.7463 0.2783 0.0000
0.7862 0.2823 0.0000
0.8272 0.2866 0.0000
0.8690 0.2912 0.0000
0.9112 0.2962 0.0000
0.9539 0.3013 0.0000
0.0839 0.2970 0.0609
0.0996 0.2971 0.0587
0.1135 0.2976 0.0549
0.1319 0.2985 0.0477
0.1529 0.2999 0.0364
0.1766 0.3018 0.0122
0.2065 0.3033 0.0000
0.2389 0.3048 0.0000
0.2902 0.3039 0.0000
0.3491 0.3019 0.0207
0.4030 0.3014 0.0160
0.4569 0.3005 0.0000
0.5016 0.3002 0.0000
0.5406 0.3003 0.0000
0.5773 0.3008 0.0000
0.6131 0.3013 0.0000
0.6463 0.3033 0.0000
0.6798 0.3058 0.0000
0.7149 0.3087 0.0000
0.7525 0.3119 0.0000
0.7925 0.3154 0.0000
0.8339 0.3190 0.0000
0.8757 0.3232 0.0000
0.9179 0.3276 0.0000
0.9605 0.3323 0.0000
