EA 50 Cinematic Luts Pack/EA_Cinematic Lut (51).cube
TITLE "This sharp and contrasted colorization turns the edited material into a beautiful, well-balanced shot."
LUT_3D_SIZE 9
0.0000 0.0000 0.0000
0.0989 0.0135 0.0133
0.2050 0.0482 0.0462
0.3152 0.0902 0.0863
0.4312 0.1299 0.1216
0.5641 0.1670 0.1526
0.7199 0.2015 0.1788
0.8500 0.2133 0.1894
0.9683 0.1824 0.1869
0.0000 0.1193 0.1103
0.1144 0.1221 0.0853
0.2448 0.1208 0.0660
0.3513 0.1363 0.0953
0.4635 0.1609 0.1251
0.6011 0.1895 0.1532
0.7445 0.2164 0.1752
0.8691 0.2209 0.1841
0.9854 0.1823 0.1629
0.0000 0.2401 0.2249
0.0000 0.2505 0.2302
0.2315 0.2425 0.1786
0.3779 0.2395 0.1287
0.5062 0.2405 0.1429
0.6585 0.2529 0.1625
0.7895 0.2613 0.1706
0.9049 0.2530 0.1679
0.9994 0.2512 0.1795
0.0000 0.3602 0.3388
0.0000 0.3667 0.3428
0.1112 0.3750 0.3348
0.3543 0.3614 0.2661
0.5220 0.3578 0.1825
0.7073 0.3506 0.1740
0.8379 0.3422 0.1566
0.9453 0.3261 0.1255
1.0000 0.3686 0.2543
0.0000 0.4811 0.4538
0.0000 0.4855 0.4573
0.0000 0.4968 0.4628
0.2325 0.4961 0.4304
0.4847 0.4796 0.3441
0.7121 0.4753 0.2033
0.8555 0.4637 0.1612
0.9708 0.4425 0.0969
1.0000 0.4910 0.3418
0.0000 0.6007 0.5665
0.0000 0.6041 0.5692
0.0000 0.6128 0.5735
0.0000 0.6284 0.5780
0.3490 0.6151 0.5151
0.6505 0.5951 0.4116
0.8468 0.5936 0.2216
0.9559 0.5884 0.2314
0.9965 0.6152 0.4392
0.0000 0.7220 0.6813
0.0000 0.7246 0.6833
0.0000 0.7314 0.6877
0.0000 0.7435 0.6933
0.0000 0.7623 0.6903
0.4856 0.7290 0.5939
0.7895 0.7085 0.4821
0.9433 0.7218 0.3211
0.9829 0.7403 0.5422
0.0000 0.8419 0.7931
0.0000 0.8441 0.7947
0.0000 0.8496 0.7988
0.0000 0.8596 0.8024
0.0000 0.8744 0.8083
0.2708 0.8717 0.7577
0.7208 0.8234 0.6642
0.8953 0.8277 0.6455
0.9768 0.8571 0.6861
0.0000 0.9625 0.9032
0.0000 0.9644 0.9047
0.0000 0.9691 0.9087
0.0000 0.9775 0.9135
0.0000 0.9901 0.9203
0.2675 0.9936 0.9035
0.8263 0.9314 0.8389
0.9420 0.9312 0.8678
0.9807 0.9625 0.9296
0.0008 0.0144 0.0416
0.0809 0.0340 0.0839
0.2040 0.0583 0.0971
0.3154 0.0958 0.1214
0.4318 0.1332 0.1477
0.5650 0.1694 0.1729
0.7209 0.2031 0.1955
0.8511 0.2144 0.2057
0.9688 0.1836 0.2110
0.0000 0.1250 0.1317
0.0946 0.1288 0.1540
0.2416 0.1257 0.1196
0.3466 0.1431 0.1352
0.4585 0.1680 0.1558
0.5944 0.1965 0.1781
0.7402 0.2233 0.1970
0.8658 0.2294 0.2069
0.9906 0.1689 0.1777
0.0000 0.2433 0.2312
0.0000 0.2523 0.2493
0.2215 0.2449 0.2183
0.3829 0.2380 0.1626
0.5049 0.2424 0.1716
0.6568 0.2554 0.1865
0.7880 0.2645 0.1923
0.9032 0.2573 0.1968
0.9993 0.2531 0.2070
0.0000 0.3623 0.3423
0.0000 0.3681 0.3532
0.1099 0.3761 0.3479
0.3497 0.3618 0.2946
0.5227 0.3571 0.2158
0.7079 0.3508 0.1976
0.8377 0.3433 0.1842
0.9450 0.3281 0.1677
1.0000 0.3696 0.2736
0.0000 0.4825 0.4561
0.0000 0.4865 0.4636
0.0000 0.4976 0.4705
0.2296 0.4972 0.4409
0.4820 0.4795 0.3642
0.7122 0.4742 0.2349
0.8582 0.4620 0.1913
0.9712 0.4429 0.1510
1.0000 0.4917 0.3551
0.0000 0.6017 0.5683
0.0000 0.6049 0.5739
0.0000 0.6134 0.5801
0.0000 0.6291 0.5834
0.3495 0.6155 0.5220
0.6486 0.5946 0.4259
0.8438 0.5923 0.2636
0.9571 0.5879 0.2583
0.9970 0.6154 0.4487
0.0000 0.7228 0.6826
0.0000 0.7252 0.6870
0.0000 0.7319 0.6923
0.0000 0.7441 0.6973
0.0000 0.7628 0.6947
0.4867 0.7292 0.5994
0.7885 0.7081 0.4931
0.9406 0.7217 0.3548
0.9833 0.7407 0.5487
0.0000 0.8426 0.7942
0.0000 0.8446 0.7975
0.0000 0.8501 0.8016
0.0000 0.8600 0.8063
0.0000 0.8748 0.8119
0.2693 0.8723 0.7628
0.7218 0.8234 0.6686
0.8953 0.8272 0.6553
0.9771 0.8575 0.6892
0.0000 0.9631 0.9042
0.0000 0.9650 0.9057
0.0000 0.9696 0.9096
0.0000 0.9780 0.9152
0.0000 0.9907 0.9214
0.2755 0.9935 0.9054
0.8222 0.9335 0.8418
0.9421 0.9318 0.8688
0.9811 0.9630 0.9308
0.0032 0.0501 0.1084
0.0433 0.0658 0.1845
0.1740 0.0952 0.1783
0.3082 0.1143 0.1849
0.4303 0.1442 0.1993
0.5643 0.1771 0.2160
0.7220 0.2087 0.2321
0.8529 0.2182 0.2417
0.9692 0.1878 0.2631
0.0000 0.1362 0.1918
0.0788 0.1425 0.2069
0.2025 0.1504 0.2100
0.3418 0.1537 0.1988
0.4569 0.1760 0.2086
0.5936 0.2029 0.2217
0.7417 0.2276 0.2349
0.8676 0.2325 0.2457
0.9908 0.1736 0.2436
0.0000 0.2496 0.2609
0.0000 0.2579 0.2808
0.1979 0.2531 0.2917
0.3862 0.2391 0.2239
0.4986 0.2494 0.2286
0.6488 0.2634 0.2353
0.7826 0.2737 0.2392
0.8986 0.2704 0.2513
0.9988 0.2581 0.2645
0.0000 0.3671 0.3542
0.0000 0.3728 0.3641
0.1030 0.3786 0.3846
0.3300 0.3669 0.3531
0.5325 0.3548 0.2682
0.7115 0.3503 0.2483
0.8367 0.3462 0.2384
0.9416 0.3349 0.2452
1.0000 0.3721 0.3168
0.0000 0.4859 0.4632
0.0000 0.4899 0.4700
0.0000 0.4995 0.4900
0.2074 0.5010 0.4722
0.4697 0.4815 0.4113
0.7164 0.4716 0.2906
0.8628 0.4593 0.2494
0.9718 0.4432 0.2426
1.0000 0.4935 0.3872
0.0000 0.6044 0.5732
0.0000 0.6075 0.5786
0.0000 0.6152 0.5936
0.0000 0.6305 0.6007
0.3365 0.6184 0.5478
0.6363 0.5942 0.4683
0.8420 0.5901 0.3280
0.9616 0.5855 0.3089
0.9984 0.6160 0.4703
0.0000 0.7249 0.6863
0.0000 0.7274 0.6906
0.0000 0.7334 0.7022
0.0000 0.7452 0.7106
0.0000 0.7636 0.7108
0.4801 0.7310 0.6206
0.7832 0.7071 0.5250
0.9353 0.7218 0.4231
0.9843 0.7414 0.5654
0.0000 0.8444 0.7969
0.0000 0.8464 0.8002
0.0000 0.8514 0.8090
0.0000 0.8610 0.8164
0.0000 0.8759 0.8209
0.2766 0.8725 0.7718
0.7208 0.8247 0.6827
0.8955 0.8254 0.6773
0.9779 0.8587 0.6974
0.0000 0.9646 0.9068
0.0000 0.9665 0.9083
0.0000 0.9711 0.9121
0.0000 0.9794 0.9193
0.0000 0.9921 0.9243
0.2949 0.9933 0.9104
0.8099 0.9393 0.8500
0.9423 0.9333 0.8714
0.9819 0.9645 0.9340
0.0081 0.0932 0.1747
0.0332 0.1073 0.2210
0.1433 0.1213 0.2958
0.2700 0.1551 0.2681
0.4033 0.1783 0.2736
0.5592 0.1932 0.2771
0.7219 0.2199 0.2862
0.8541 0.2272 0.2959
0.9691 0.2001 0.3315
0.0000 0.1573 0.2466
0.0675 0.1641 0.2585
0.1599 0.1696 0.3335
0.2914 0.1914 0.2904
0.4256 0.2066 0.2873
0.5874 0.2165 0.2843
0.7417 0.2374 0.2904
0.8682 0.2412 0.3028
0.9898 0.1873 0.3262
0.0000 0.2579 0.3264
0.0000 0.2655 0.3449
0.1834 0.2650 0.3423
0.3248 0.2664 0.3287
0.4771 0.2662 0.3082
0.6472 0.2704 0.2970
0.7843 0.2796 0.2970
0.8989 0.2769 0.3161
0.9977 0.2662 0.3454
0.0000 0.3738 0.3897
0.0000 0.3792 0.4014
0.0420 0.3894 0.4315
0.3045 0.3761 0.4255
0.5436 0.3542 0.3277
0.7077 0.3554 0.3147
0.8305 0.3551 0.3101
0.9353 0.3482 0.3304
1.0000 0.3765 0.3807
0.0000 0.4914 0.4796
0.0000 0.4954 0.4862
0.0000 0.5050 0.5039
0.1791 0.5060 0.5245
0.4457 0.4869 0.4793
0.7257 0.4680 0.3578
0.8687 0.4563 0.3292
0.9684 0.4490 0.3434
1.0000 0.4964 0.4389
0.0000 0.6090 0.5838
0.0000 0.6121 0.5889
0.0000 0.6198 0.6027
0.0000 0.6326 0.6328
0.2755 0.6283 0.6055
0.6115 0.5955 0.5267
0.8456 0.5867 0.3992
0.9610 0.5857 0.4028
0.9997 0.6168 0.5070
0.0000 0.7286 0.6938
0.0000 0.7310 0.6979
0.0000 0.7371 0.7088
0.0000 0.7475 0.7308
0.0000 0.7648 0.7420
0.4541 0.7360 0.6606
0.7709 0.7077 0.5742
0.9296 0.7204 0.5031
0.9867 0.7426 0.5931
0.0000 0.8474 0.8024
0.0000 0.8494 0.8056
0.0000 0.8544 0.8140
0.0000 0.8631 0.8304
0.0000 0.8773 0.8403
0.2509 0.8775 0.8014
0.7076 0.8297 0.7107
0.8948 0.8236 0.7078
0.9794 0.8608 0.7121
0.0000 0.9672 0.9120
0.0000 0.9690 0.9134
0.0000 0.9737 0.9170
0.0000 0.9820 0.9238
0.0000 0.9944 0.9323
0.3284 0.9934 0.9185
0.7777 0.9524 0.8682
0.9424 0.9360 0.8759
0.9833 0.9670 0.9396
0.0155 0.1364 0.2412
0.0352 0.1472 0.2738
0.1039 0.1628 0.3534
0.2422 0.1822 0.3750
0.3699 0.2135 0.3551
0.5070 0.2386 0.3573
0.7176 0.2384 0.3505
0.8536 0.2431 0.3613
0.9666 0.2191 0.4153
0.0056 0.1853 0.3007
0.0660 0.1915 0.3086
0.1281 0.2031 0.3710
0.2587 0.2135 0.4040
0.3870 0.2395 0.3707
0.5271 0.2594 0.3678
0.7365 0.2549 0.3561
0.8675 0.2563 0.3705
0.9864 0.2094 0.4199
0.0000 0.2737 0.3775
0.0192 0.2790 0.3946
0.1644 0.2823 0.3985
0.2824 0.2813 0.4617
0.4204 0.2982 0.4022
0.5792 0.3066 0.3888
0.7787 0.2940 0.3674
0.8967 0.2910 0.3929
0.9953 0.2796 0.4360
0.0000 0.3815 0.4553
0.0000 0.3864 0.4675
0.0000 0.3979 0.4999
0.2875 0.3878 0.4757
0.4575 0.3833 0.4447
0.6578 0.3783 0.4124
0.8327 0.3598 0.3828
0.9361 0.3540 0.4165
1.0000 0.3836 0.4629
0.0000 0.4980 0.5179
0.0000 0.5017 0.5257
0.0000 0.5106 0.5475
0.1018 0.5188 0.5812
0.4074 0.4973 0.5589
0.6985 0.4771 0.4473
0.8696 0.4589 0.4066
0.9494 0.4696 0.4481
0.9999 0.5007 0.5035
0.0000 0.6153 0.6048
0.0000 0.6183 0.6099
0.0000 0.6259 0.6231
0.0000 0.6389 0.6492
0.2397 0.6346 0.6694
0.5707 0.6039 0.6027
0.8594 0.5819 0.4570
0.9477 0.5935 0.5012
0.9995 0.6192 0.5584
0.0000 0.7338 0.7076
0.0000 0.7362 0.7115
0.0000 0.7423 0.7218
0.0000 0.7527 0.7417
0.0000 0.7668 0.7820
0.3778 0.7497 0.7316
0.7472 0.7100 0.6409
0.9169 0.7209 0.5932
0.9920 0.7436 0.6312
0.0000 0.8518 0.8118
0.0000 0.8538 0.8149
0.0000 0.8588 0.8229
0.0000 0.8675 0.8382
0.0000 0.8799 0.8653
0.1699 0.8893 0.8621
0.6590 0.8425 0.7595
0.8922 0.8239 0.7330
0.9816 0.8637 0.7347
0.0000 0.9710 0.9209
0.0000 0.9729 0.9222
0.0000 0.9775 0.9258
0.0000 0.9858 0.9321
0.0000 0.9981 0.9417
0.3779 0.9933 0.9253
0.6902 0.9752 0.8952
0.9409 0.9416 0.8856
0.9854 0.9708 0.9480
0.0245 0.1793 0.3075
0.0420 0.1876 0.3313
0.0930 0.2032 0.3898
0.1913 0.2103 0.4977
0.3416 0.2420 0.4556
0.4770 0.2711 0.4388
0.6512 0.2940 0.4360
0.8311 0.2853 0.4380
0.9615 0.2493 0.4973
0.0154 0.2176 0.3554
0.0682 0.2228 0.3610
0.1136 0.2356 0.4127
0.2076 0.2431 0.5012
0.3560 0.2648 0.4742
0.4911 0.2908 0.4502
0.6697 0.3100 0.4448
0.8464 0.2962 0.4442
0.9790 0.2443 0.5104
0.0000 0.2942 0.4330
0.0259 0.2987 0.4462
0.1504 0.3038 0.4505
0.2409 0.3099 0.5103
0.3843 0.3170 0.5162
0.5239 0.3361 0.4763
0.7099 0.3470 0.4643
0.8792 0.3246 0.4669
0.9911 0.2987 0.5281
0.0000 0.3938 0.5126
0.0000 0.3985 0.5230
0.0000 0.4093 0.5541
0.2660 0.4028 0.5327
0.4105 0.3956 0.5851
0.5728 0.4068 0.5115
0.7597 0.4071 0.4895
0.9209 0.3787 0.5040
0.9970 0.3964 0.5529
0.0000 0.5049 0.5835
0.0000 0.5083 0.5925
0.0000 0.5167 0.6151
0.0000 0.5305 0.6588
0.3812 0.5098 0.6136
0.6186 0.4958 0.5537
0.8098 0.4880 0.5161
0.9469 0.4759 0.5344
0.9996 0.5067 0.5850
0.0000 0.6222 0.6469
0.0000 0.6251 0.6529
0.0000 0.6322 0.6688
0.0000 0.6440 0.7009
0.1362 0.6507 0.7357
0.5129 0.6168 0.6894
0.8116 0.5957 0.5628
0.9419 0.6004 0.5732
0.9995 0.6239 0.6257
0.0000 0.7403 0.7317
0.0000 0.7427 0.7357
0.0000 0.7486 0.7461
0.0000 0.7590 0.7649
0.0000 0.7734 0.7987
0.3446 0.7581 0.8004
0.7286 0.7183 0.7106
0.9272 0.7224 0.6354
0.9968 0.7456 0.6858
0.0000 0.8575 0.8274
0.0000 0.8595 0.8304
0.0000 0.8644 0.8383
0.0000 0.8731 0.8529
0.0000 0.8856 0.8775
0.0000 0.9023 0.9138
0.4941 0.8835 0.8682
0.8915 0.8275 0.7561
0.9848 0.8673 0.7661
0.0000 0.9760 0.9354
0.0000 0.9779 0.9368
0.0000 0.9825 0.9402
0.0000 0.9908 0.9462
0.1653 0.9979 0.9466
0.4341 0.9941 0.9398
0.6613 0.9898 0.9318
0.9342 0.9521 0.9032
0.9882 0.9760 0.9595
0.0339 0.2218 0.3733
0.0491 0.2284 0.3922
0.0889 0.2428 0.4400
0.1624 0.2571 0.5214
0.3009 0.2629 0.5950
0.4460 0.3002 0.5347
0.6131 0.3243 0.5185
0.7815 0.3411 0.5158
0.9244 0.3282 0.5746
0.0243 0.2531 0.4137
0.0708 0.2577 0.4185
0.1068 0.2698 0.4618
0.1786 0.2823 0.5334
0.3092 0.2846 0.6168
0.4592 0.3175 0.5495
0.6299 0.3393 0.5277
0.7927 0.3538 0.5241
0.9400 0.3291 0.5938
0.0000 0.3194 0.4872
0.0330 0.3231 0.4959
0.1414 0.3288 0.5004
0.2123 0.3387 0.5573
0.3263 0.3385 0.6465
0.4874 0.3578 0.5854
0.6669 0.3754 0.5496
0.8165 0.3860 0.5450
0.9758 0.3340 0.6347
0.0000 0.4114 0.5627
0.0000 0.4153 0.5758
0.0816 0.4208 0.5932
0.2412 0.4222 0.5921
0.3548 0.4223 0.6545
0.5237 0.4219 0.6411
0.7112 0.4353 0.5811
0.8521 0.4392 0.5741
0.9851 0.4190 0.6506
0.0000 0.5150 0.6481
0.0000 0.5183 0.6556
0.0000 0.5266 0.6750
0.0000 0.5401 0.7139
0.3539 0.5234 0.6778
0.5462 0.5079 0.7132
0.7463 0.5143 0.6161
0.8830 0.5170 0.6192
0.9936 0.5195 0.6725
0.0000 0.6292 0.7128
0.0000 0.6318 0.7194
0.0000 0.6384 0.7370
0.0000 0.6497 0.7682
0.0000 0.6651 0.8190
0.4740 0.6329 0.7517
0.7712 0.6077 0.6583
0.9132 0.6139 0.6646
0.9967 0.6324 0.7072
0.0000 0.7471 0.7754
0.0000 0.7493 0.7798
0.0000 0.7549 0.7915
0.0000 0.7645 0.8135
0.0000 0.7778 0.8526
0.2602 0.7793 0.8817
0.7035 0.7357 0.7913
0.9372 0.7250 0.6953
0.9991 0.7497 0.7502
0.0000 0.8642 0.8529
0.0000 0.8661 0.8560
0.0000 0.8710 0.8642
0.0000 0.8795 0.8793
0.0000 0.8919 0.9046
0.0000 0.9090 0.9377
0.4076 0.9079 0.9547
0.8915 0.8370 0.7889
0.9909 0.8714 0.8097
0.0000 0.9822 0.9587
0.0000 0.9840 0.9601
0.0000 0.9886 0.9636
0.0000 0.9968 0.9696
0.2932 0.9978 0.9643
0.4981 0.9951 0.9567
0.7089 0.9921 0.9518
0.9030 0.9737 0.9343
0.9919 0.9826 0.9742
0.0423 0.2645 0.4401
0.0553 0.2700 0.4558
0.0868 0.2822 0.4944
0.1485 0.2978 0.5597
0.2453 0.3058 0.6655
0.4126 0.3193 0.6740
0.5708 0.3527 0.6195
0.7552 0.3719 0.6016
0.8841 0.3882 0.6294
0.0309 0.2905 0.4741
0.0733 0.2945 0.4780
0.1032 0.3051 0.5132
0.1619 0.3194 0.5753
0.2568 0.3272 0.6719
0.4213 0.3347 0.6942
0.5861 0.3657 0.6313
0.7652 0.3842 0.6093
0.8963 0.3945 0.6506
0.0000 0.3485 0.5423
0.0439 0.3515 0.5467
0.1368 0.3574 0.5518
0.1913 0.3688 0.6061
0.2799 0.3755 0.6899
0.4374 0.3731 0.7431
0.6207 0.3977 0.6592
0.7873 0.4146 0.6274
0.9255 0.4096 0.7009
0.0000 0.4322 0.6184
0.0000 0.4357 0.6306
0.0313 0.4430 0.6566
0.2117 0.4449 0.6528
0.3068 0.4489 0.7165
0.4437 0.4418 0.8317
0.6656 0.4524 0.7050
0.8164 0.4671 0.6574
0.9579 0.4527 0.7568
0.0000 0.5301 0.6977
0.0000 0.5332 0.7049
0.0000 0.5409 0.7254
0.0000 0.5523 0.7733
0.3070 0.5430 0.7499
0.4690 0.5373 0.8133
0.6996 0.5302 0.7725
0.8435 0.5394 0.6899
0.9655 0.5447 0.7735
0.0000 0.6386 0.7772
0.0000 0.6411 0.7834
0.0000 0.6474 0.7993
0.0000 0.6587 0.8252
0.0000 0.6741 0.8699
0.4185 0.6569 0.8722
0.7237 0.6323 0.8044
0.8700 0.6275 0.7185
0.9755 0.6487 0.7949
0.0000 0.7537 0.8372
0.0000 0.7558 0.8420
0.0000 0.7611 0.8547
0.0000 0.7700 0.8799
0.0000 0.7830 0.9204
0.0000 0.7993 0.9907
0.6974 0.7550 0.8671
0.8891 0.7324 0.7555
0.9895 0.7586 0.8233
0.0000 0.8710 0.8983
0.0000 0.8728 0.9023
0.0000 0.8774 0.9131
0.0000 0.8854 0.9344
0.0000 0.8969 0.9712
0.1351 0.9107 1.0000
0.5460 0.9032 0.9994
0.8828 0.8599 0.8744
0.9979 0.8754 0.8686
0.0000 0.9891 0.9947
0.0000 0.9909 0.9962
0.0000 0.9954 1.0000
0.1780 1.0000 1.0000
0.3890 1.0000 0.9991
0.5737 0.9988 0.9924
0.7534 0.9973 0.9839
0.8768 0.9965 0.9808
0.9965 0.9908 0.9920
0.0470 0.3069 0.5062
0.0583 0.3116 0.5191
0.0860 0.3224 0.5520
0.1379 0.3378 0.6090
0.2152 0.3511 0.6976
0.3325 0.3445 0.8550
0.5316 0.3690 0.7733
0.7232 0.4005 0.7086
0.8648 0.4182 0.6948
0.0342 0.3292 0.5358
0.0478 0.3334 0.5479
0.0794 0.3430 0.5796
0.1334 0.3566 0.6355
0.2123 0.3677 0.7244
0.3295 0.3588 0.9014
0.5425 0.3787 0.8208
0.7380 0.4075 0.7266
0.8758 0.4252 0.7125
0.0000 0.3806 0.6002
0.0000 0.3845 0.6145
0.0268 0.3925 0.6465
0.0920 0.4025 0.7036
0.1865 0.4090 0.7928
0.3329 0.4014 0.9634
0.5638 0.4101 0.9169
0.7676 0.4286 0.7978
0.8997 0.4439 0.7638
0.0000 0.4565 0.6735
0.0000 0.4597 0.6854
0.0000 0.4669 0.7178
0.0000 0.4768 0.7847
0.0000 0.4815 0.9159
0.3535 0.4751 0.9924
0.5910 0.4796 0.9470
0.7908 0.4841 0.8729
0.9302 0.4824 0.8390
0.0000 0.5482 0.7499
0.0000 0.5508 0.7592
0.0000 0.5572 0.7838
0.0000 0.5669 0.8327
0.0000 0.5747 0.9421
0.3755 0.5672 0.9999
0.6278 0.5665 0.9808
0.8068 0.5686 0.9000
0.9381 0.5670 0.8571
0.0000 0.6516 0.8311
0.0000 0.6540 0.8368
0.0000 0.6601 0.8518
0.0000 0.6704 0.8812
0.0000 0.6815 0.9578
0.3827 0.6762 1.0000
0.6665 0.6668 0.9995
0.8265 0.6664 0.9316
0.9483 0.6649 0.8802
0.0000 0.7624 0.9007
0.0000 0.7645 0.9061
0.0000 0.7695 0.9208
0.0000 0.7780 0.9511
0.0000 0.7898 0.9999
0.3704 0.7918 1.0000
0.6826 0.7795 0.9996
0.8502 0.7729 0.9733
0.9614 0.7709 0.9111
0.0000 0.8775 0.9748
0.0000 0.8793 0.9786
0.0000 0.8840 0.9884
0.0000 0.8921 0.9999
0.2983 0.8950 1.0000
0.4947 0.8954 0.9999
0.7118 0.8941 0.9997
0.8684 0.8881 0.9998
0.9790 0.8834 0.9544
0.4987 0.9712 1.0000
0.5131 0.9715 0.9999
0.5520 0.9724 0.9997
0.6214 0.9744 0.9997
0.7033 0.9773 0.9998
0.7803 0.9812 0.9998
0.8569 0.9863 0.9999
0.9295 0.9925 0.9999
1.0000 0.9999 0.9999
