EA 50 Cinematic Luts Pack/EA_Cinematic Lut (13).cube
TITLE "Generated by Resolve"
LUT_3D_SIZE 9
0 0.0272679 0.0341344
0 0 0.0228733
0.252674 0 0.00730907
0.482994 0 0.0111543
0.669566 0 0.026978
0.842802 0 0.0475471
1 0 0.0708019
1 0 0.0960708
1 0 0.122972
0 0.124285 0.0767071
0 0.0977646 0.0645151
0.232944 0.0622416 0.00111391
0.467018 0.0276188 0
0.654582 0.00296025 0
0.828809 0 0.0125582
0.992905 0 0.035935
1 0 0.0614328
1 0 0.0886397
0 0.255451 0.0370794
0.00666819 0.220295 0.0622263
0.224537 0.197467 0.00781262
0.423529 0.175753 0
0.612497 0.150164 0
0.790066 0.129274 0
0.956985 0.112612 0
1 0.0986343 0.0136568
1 0.086717 0.039765
0 0.386969 3.0518e-05
0.0220645 0.353857 0.0214389
0.230259 0.330663 0.000488289
0.401358 0.316365 0
0.568643 0.299657 0
0.739116 0.280964 0
0.906523 0.263218 0
1 0.247578 0
1 0.234195 0
0 0.512749 0
0.0551156 0.480308 0.00686656
0.244877 0.460609 0.00534066
0.400076 0.45098 0
0.548608 0.44152 0
0.699168 0.43003 0
0.854734 0.416052 0
1 0.40116 0
1 0.387045 0
0 0.639124 0
0.0867933 0.607065 0
0.265538 0.589517 0
0.404807 0.584268 0
0.543526 0.578515 0
0.679057 0.572442 0
0.817807 0.564279 0
0.961852 0.553719 0
1 0.541619 0
0 0.766552 0
0.116747 0.7346 0
0.28835 0.718242 0
0.415946 0.715831 0
0.542702 0.713909 0
0.670481 0.710826 0
0.796872 0.707118 0
0.926818 0.701442 0
1 0.693523 0
0 0.894911 0
0.144579 0.86305 0
0.311833 0.847364 0
0.430686 0.846738 0
0.546334 0.847929 0
0.666178 0.847623 0
0.785443 0.846632 0
0.904891 0.844739 0
1 0.841016 0
0 1 0
0.171084 0.992172 0
0.335088 0.976974 0
0.447272 0.977569 0
0.554314 0.98088 0
0.663996 0.983658 0
0.77818 0.984619 0
0.89102 0.985214 0
1 0.984771 0
0 0.0387427 0.0679789
0 0 0.0504616
0.2177 0 0.111742
0.463539 0 0.137575
0.650767 0 0.154788
0.82475 0 0.176394
0.988769 0 0.200641
1 0 0.226841
1 0 0.254582
0 0.152285 0.0297856
0 0.105562 0.106188
0.207523 0.0731975 0.111513
0.444083 0.0353857 0.111406
0.647318 0.00488289 0.118608
0.817914 0 0.136934
0.980896 0 0.160281
1 0 0.185641
1 0 0.212619
0 0.261021 0.0354467
0.067689 0.20795 0.136446
0.223423 0.198871 0.141726
0.413993 0.179889 0.0948501
0.621042 0.148699 0.0762341
0.79173 0.125628 0.091249
0.955154 0.10959 0.113558
1 0.0965591 0.138842
1 0.0853437 0.165957
0 0.390265 0.0101167
0.0836347 0.342077 0.0917983
0.253407 0.324254 0.134279
0.401419 0.318929 0.0973678
0.574197 0.301472 0.0527962
0.746166 0.277333 0.0520333
0.9122 0.257969 0.0664988
1 0.242847 0.0882429
1 0.230198 0.113329
0 0.513695 0
0.104036 0.475837 0.051606
0.265568 0.459968 0.0902571
0.404181 0.454551 0.0870832
0.549889 0.445319 0.0641337
0.700694 0.43061 0.0431983
0.859373 0.413169 0.0381628
1 0.396521 0.047837
1 0.381888 0.0661784
0 0.638636 0
0.139101 0.603082 0.0260777
0.296178 0.588083 0.0732738
0.416495 0.586313 0.0896468
0.546761 0.582193 0.076997
0.679438 0.575341 0.0557259
0.818372 0.565255 0.0370947
0.964904 0.552209 0.0292515
1 0.538064 0.0337377
0 0.765164 0
0.170489 0.730404 0
0.325643 0.715953 0.0491188
0.435111 0.716487 0.0803235
0.549767 0.717067 0.0816968
0.673045 0.714351 0.067216
0.797238 0.709987 0.048188
0.927062 0.702846 0.0311742
1 0.692958 0.0220035
0 0.892927 0
0.199588 0.858656 0
0.353658 0.844358 0.0206912
0.456077 0.846189 0.0624094
0.559243 0.84979 0.0773632
0.670817 0.851179 0.07187
0.787549 0.850065 0.0576333
0.905211 0.847578 0.0403906
1 0.84268 0.0247501
0.00460822 1 0
0.226642 0.987701 0
0.379797 0.973556 0
0.477928 0.97612 0.0386206
0.572457 0.981613 0.0647288
0.673075 0.986267 0.0697185
0.782086 0.988128 0.0615702
0.892805 0.988556 0.0479438
1 0.987579 0.032166
0 0.0417945 0.21323
0 0 0.154101
0.186679 0 0.174197
0.434256 0 0.25594
0.624765 0 0.288548
0.798489 0 0.315221
0.963302 0 0.342412
1 0 0.370367
1 0 0.399268
0 0.186954 0.131701
0 0.116213 0.160388
0.177844 0.0917067 0.159533
0.408118 0.047425 0.236011
0.626719 0.00968948 0.265064
0.797162 0 0.283986
0.960723 0 0.308186
1 0 0.334646
1 0 0.36257
0 0.303944 0.0555734
0.0341955 0.234714 0.109468
0.227436 0.205386 0.203281
0.387915 0.190173 0.225757
0.597375 0.155703 0.228992
0.782925 0.126009 0.237003
0.941848 0.108003 0.256687
1 0.0957504 0.282139
1 0.0851148 0.309209
0 0.418387 0.0298466
0.110903 0.346365 0.110048
0.312886 0.310369 0.228138
0.399283 0.31931 0.251438
0.563806 0.304738 0.208988
0.753292 0.274449 0.191257
0.91136 0.25182 0.206714
1 0.237369 0.230594
1 0.225834 0.257404
0 0.532753 0.0102388
0.136767 0.477913 0.0816358
0.325689 0.446723 0.180346
0.425971 0.446799 0.240711
0.548943 0.446876 0.209186
0.704952 0.431113 0.166339
0.864179 0.407279 0.165866
1 0.388785 0.181201
1 0.374792 0.204074
0 0.651316 0
0.181765 0.602975 0.0602274
0.343847 0.582345 0.137896
0.435813 0.584283 0.194369
0.549661 0.584543 0.196872
0.679423 0.577844 0.176455
0.818036 0.563989 0.156359
0.967361 0.547127 0.151919
1 0.531167 0.162264
0 0.773312 0
0.21799 0.728817 0.0333104
0.376852 0.710857 0.110307
0.464561 0.713863 0.175494
0.56025 0.717906 0.197696
0.674998 0.716747 0.188006
0.796078 0.711345 0.1682
0.925826 0.702022 0.150317
1 0.689479 0.142977
0.00376898 0.897993 0
0.249393 0.856062 0.00343328
0.406226 0.838987 0.0790875
0.492149 0.84268 0.149493
0.577157 0.84921 0.186679
0.676631 0.853071 0.191348
0.788739 0.852232 0.178744
0.904036 0.84892 0.160769
1 0.842374 0.14435
0.0379034 1 0
0.277852 0.984466 0
0.433585 0.967926 0.0458381
0.518517 0.971847 0.119402
0.596551 0.979767 0.167193
0.684718 0.986847 0.185626
0.785397 0.990372 0.182284
0.893492 0.990585 0.16936
1 0.988891 0.152911
0 0.0451209 0.357824
0 0 0.316823
0.195148 0 0.284245
0.380514 0 0.316991
0.586877 0 0.393011
0.770245 0 0.444617
0.936416 0 0.481865
1 0 0.514565
1 0 0.546609
0 0.197208 0.306554
0 0.120119 0.31574
0.206958 0.0892653 0.274159
0.378363 0.0660563 0.308995
0.596994 0.0187839 0.392233
0.770459 0 0.426261
0.933486 0 0.455283
1 0 0.484672
1 0 0.514382
0 0.34165 0.16556
0 0.269856 0.221088
0.221485 0.216068 0.266743
0.358328 0.208774 0.283116
0.561257 0.16762 0.362707
0.762066 0.130541 0.392432
0.920012 0.109483 0.411887
1 0.0962081 0.438056
1 0.0854047 0.466285
0 0.457221 0.0842298
0.0103914 0.389364 0.139498
0.279026 0.336767 0.21004
0.402853 0.325399 0.321798
0.537942 0.315221 0.34934
0.729717 0.281575 0.353384
0.901884 0.25153 0.361028
1 0.234211 0.381415
1 0.223651 0.40856
0 0.567834 0.0450752
0.086656 0.505913 0.110491
0.352529 0.450584 0.207401
0.484764 0.432212 0.34313
0.546639 0.447105 0.372366
0.694575 0.434394 0.331762
0.870741 0.40383 0.313787
1 0.380987 0.329015
1 0.367697 0.35407
0 0.679911 0.0166323
0.163592 0.621866 0.0883803
0.376226 0.584054 0.176822
0.495338 0.570443 0.293095
0.570977 0.576318 0.359258
0.678309 0.579248 0.330587
0.821836 0.564034 0.288289
0.970748 0.539834 0.287465
1 0.521782 0.303258
0 0.795666 0
0.221241 0.741283 0.0644694
0.419303 0.710536 0.153506
0.511803 0.707713 0.248966
0.579034 0.715358 0.311147
0.677546 0.718761 0.316793
0.795636 0.71342 0.297734
0.924483 0.699748 0.277821
1 0.68307 0.273564
0 0.915129 0
0.266651 0.863935 0.0373388
0.453468 0.83714 0.124529
0.543114 0.837354 0.219684
0.606271 0.846235 0.290776
0.686763 0.853559 0.316243
0.79028 0.854215 0.308354
0.90222 0.849622 0.289357
1 0.84062 0.271809
0.0376287 1 0
0.304402 0.989197 0.00747692
0.483055 0.965011 0.0928206
0.570764 0.966171 0.186725
0.632288 0.975906 0.263172
0.702266 0.985885 0.303807
0.790814 0.991882 0.310597
0.894194 0.992264 0.299229
1 0.989563 0.28188
0 0.0498054 0.484794
0 0 0.447837
0.201602 0 0.413046
0.364782 0 0.4065
0.531914 0 0.454078
0.724468 0 0.537453
0.902617 0 0.602899
1 0 0.650919
1 0 0.690562
0 0.201114 0.449912
0 0.124529 0.46772
0.223728 0.0836194 0.444221
0.390753 0.0733501 0.429252
0.546334 0.0485084 0.462669
0.733059 0.00885023 0.53753
0.904799 0 0.590555
1 0 0.629816
1 0 0.664256
0 0.359045 0.316564
0 0.281132 0.403281
0.209842 0.221057 0.42948
0.38941 0.208301 0.405997
0.532982 0.187716 0.443473
0.732097 0.139406 0.525673
0.892805 0.114763 0.55996
1 0.100008 0.590677
1 0.0885634 0.621836
0 0.491432 0.185092
0 0.427771 0.256458
0.178378 0.37258 0.328634
0.397131 0.336309 0.391806
0.508659 0.334157 0.413321
0.693675 0.293553 0.493446
0.880964 0.256001 0.522698
1 0.234821 0.542046
1 0.223087 0.569741
0 0.605997 0.109316
0 0.545083 0.171527
0.252308 0.493874 0.243442
0.450767 0.458488 0.331197
0.549981 0.452949 0.448798
0.669108 0.445289 0.478843
0.847517 0.411292 0.482536
1 0.38024 0.489174
1 0.363195 0.509834
0 0.716747 0.0633097
0.0878309 0.657053 0.12961
0.326207 0.612161 0.21207
0.521965 0.57409 0.326253
0.629297 0.561257 0.467506
0.676066 0.579522 0.500114
0.811673 0.567529 0.460243
0.976989 0.536049 0.441337
1 0.512566 0.455924
0 0.828702 0.0282902
0.169375 0.769894 0.0986038
0.401175 0.729473 0.187991
0.544045 0.70927 0.294041
0.638178 0.701137 0.415778
0.698589 0.710246 0.485206
0.794583 0.71487 0.458228
0.928054 0.69955 0.415824
1 0.674571 0.414221
0 0.943435 0
0.236072 0.886229 0.0705425
0.456733 0.849622 0.16199
0.58558 0.837034 0.269184
0.65333 0.839902 0.370352
0.705242 0.850706 0.435691
0.792691 0.856092 0.443305
0.901549 0.851469 0.424964
1 0.837568 0.404822
0.000717174 1 0
0.290837 1 0.0419623
0.500237 0.972793 0.132952
0.61796 0.964279 0.238422
0.683207 0.97055 0.339635
0.731243 0.982788 0.414069
0.800809 0.992218 0.441657
0.895537 0.994034 0.434928
0.999878 0.989822 0.416297
0 0.0539712 0.61648
0 0 0.582422
0.203449 0 0.54844
0.370459 0 0.534005
0.511803 0 0.54316
0.669276 0 0.600458
0.851026 0 0.687678
1 0 0.763073
1 0 0.820996
0 0.20412 0.590265
0 0.129564 0.599863
0.219577 0.0869306 0.580789
0.398749 0.0753796 0.564431
0.535485 0.0687419 0.561898
0.6822 0.0426032 0.607538
0.860487 0.00607309 0.689677
1 0 0.755795
1 0 0.805097
0 0.366064 0.478126
0 0.285771 0.552209
0.19881 0.226642 0.587472
0.40734 0.203815 0.582086
0.549401 0.199039 0.57261
0.684642 0.172335 0.604135
0.856016 0.130358 0.676692
1 0.106981 0.73048
1 0.093431 0.771344
0 0.51429 0.325505
0 0.445838 0.41297
0.138582 0.385016 0.516823
0.386679 0.342473 0.560586
0.541802 0.335744 0.543099
0.667002 0.315251 0.580667
0.850858 0.264729 0.660639
1 0.239719 0.694575
1 0.226215 0.726543
0 0.639796 0.208499
0 0.57969 0.277623
0.143877 0.533074 0.366049
0.350896 0.495064 0.45539
0.544625 0.46421 0.523995
0.640253 0.464637 0.548089
0.811643 0.423438 0.627619
0.987839 0.384741 0.655741
1 0.363027 0.67454
0 0.754192 0.134554
0 0.695308 0.198795
0.232486 0.651789 0.278401
0.422141 0.617777 0.367529
0.595254 0.587488 0.460365
0.679301 0.58526 0.581277
0.786725 0.578943 0.612665
0.954177 0.543938 0.615351
1 0.511452 0.620584
0 0.866072 0.0842145
0.0822919 0.806745 0.150149
0.325628 0.764874 0.234287
0.494209 0.737575 0.334325
0.664698 0.704677 0.453666
0.756542 0.69482 0.597925
0.792508 0.715312 0.632761
0.918212 0.70338 0.592935
1 0.670573 0.572702
0 0.978576 0.0441749
0.165743 0.919264 0.112871
0.404974 0.878325 0.201068
0.567605 0.856107 0.308659
0.685527 0.841413 0.420218
0.764096 0.836194 0.544884
0.813565 0.84741 0.616388
0.900649 0.853071 0.590463
1 0.837232 0.547524
0 1 0.00910964
0.237964 1 0.080415
0.469703 0.995148 0.171038
0.621332 0.976867 0.280827
0.72578 0.970336 0.39408
0.77821 0.976349 0.498405
0.819104 0.989166 0.565744
0.897917 0.99588 0.574685
0.999084 0.991547 0.556649
0 0.0578012 0.752209
0 0 0.720287
0.201038 0 0.688273
0.375387 0 0.67187
0.51397 0 0.666575
0.645533 0 0.689601
0.796368 0 0.753552
0.969589 0 0.843214
1 0 0.925734
0 0.207004 0.731273
0 0.13344 0.735225
0.211215 0.0894484 0.719188
0.40058 0.0751812 0.703777
0.542992 0.0724804 0.695201
0.666667 0.0653391 0.705165
0.809003 0.0402686 0.760342
0.979446 0.00607309 0.846235
1 0 0.921706
0 0.369238 0.63772
0 0.288624 0.696361
0.18764 0.23209 0.723995
0.403967 0.207904 0.723384
0.558999 0.20267 0.713344
0.678721 0.197513 0.712276
0.809293 0.168261 0.754803
0.975753 0.129854 0.835065
1 0.104692 0.901411
0 0.527337 0.487327
0 0.452796 0.578485
0.129107 0.390433 0.670481
0.376898 0.349325 0.723766
0.560967 0.332479 0.724361
0.687495 0.330663 0.71783
0.806668 0.300908 0.746334
0.965133 0.255985 0.81593
1 0.232944 0.870054
0 0.666102 0.341238
0 0.602472 0.421927
0.0894484 0.551858 0.527245
0.312306 0.508705 0.648753
0.535424 0.471626 0.697963
0.675517 0.46836 0.68394
0.786618 0.446784 0.720439
0.957656 0.393408 0.797559
1 0.367605 0.830686
0 0.788357 0.234409
0 0.729015 0.301823
0.138354 0.686839 0.388907
0.31458 0.657847 0.494942
0.496223 0.624903 0.589364
0.674342 0.596933 0.660838
0.758373 0.598779 0.686351
0.918547 0.556329 0.764645
1 0.516075 0.791196
0 0.903151 0.161181
0 0.844175 0.22533
0.228214 0.803296 0.307576
0.401022 0.777722 0.405142
0.565316 0.748806 0.499367
0.722515 0.721065 0.594766
0.795666 0.720989 0.717815
0.893858 0.715373 0.749905
1 0.678935 0.751171
0 1 0.107378
0.0733043 0.956634 0.172763
0.317983 0.915282 0.256672
0.492332 0.891798 0.359197
0.635966 0.869978 0.464714
0.790585 0.839704 0.586694
0.871214 0.831678 0.732769
0.898802 0.853727 0.769177
1 0.841443 0.729
0 1 0.0632334
0.157168 1 0.13077
0.399451 1 0.217395
0.569741 1 0.324041
0.708019 0.989639 0.43772
0.810422 0.977905 0.552254
0.877729 0.974441 0.678691
0.918685 0.987091 0.751629
0.998413 0.993378 0.726314
0 0.0613718 0.891432
0 0 0.861128
0.195789 0 0.831342
0.377401 0 0.814328
0.520241 0 0.806302
0.643809 0 0.809644
0.769894 0 0.843336
0.915679 0 0.912169
1 0 1
0 0.209888 0.873976
0 0.137041 0.874067
0.201053 0.0919661 0.860151
0.39794 0.0752728 0.846723
0.548241 0.0718853 0.836728
0.671 0.0720684 0.834104
0.789136 0.0636912 0.856733
0.928023 0.0396887 0.918669
1 0.00755322 1
0 0.371313 0.794598
0 0.291264 0.840497
0.17464 0.235721 0.86247
0.395483 0.2103 0.865003
0.560876 0.202518 0.856077
0.688136 0.203128 0.850828
0.798413 0.195636 0.860426
0.928023 0.167788 0.91284
1 0.131838 0.996963
0 0.534264 0.656474
0 0.455741 0.741207
0.117891 0.393164 0.817868
0.366171 0.355215 0.864103
0.558419 0.337392 0.869841
0.698741 0.335927 0.863569
0.805753 0.33109 0.862821
0.922606 0.29807 0.901579
1 0.257359 0.979538
0 0.684291 0.497871
0 0.615351 0.586892
0.0591897 0.558831 0.696117
0.303655 0.514961 0.806592
0.526925 0.479759 0.865797
0.695949 0.466361 0.869841
0.811246 0.466331 0.865095
0.916777 0.432898 0.889921
1 0.384588 0.956115
0 0.816815 0.362417
0 0.755184 0.437797
0.0623178 0.709606 0.536553
0.260914 0.677394 0.660273
0.458885 0.639796 0.787335
0.666423 0.605631 0.83946
0.795804 0.604654 0.827741
0.895216 0.581369 0.862516
1 0.524712 0.936355
0 0.937484 0.262196
0 0.878264 0.32845
0.129641 0.836957 0.413916
0.307393 0.813275 0.519509
0.458671 0.789776 0.631052
0.624369 0.75938 0.727993
0.79118 0.73312 0.80119
0.866011 0.735744 0.827482
1 0.691615 0.904097
0 1 0.188998
0 0.993698 0.253056
0.218647 0.952728 0.33521
0.395117 0.930419 0.436042
0.543343 0.910689 0.539452
0.691707 0.884337 0.63624
0.837263 0.858 0.733028
0.901961 0.859403 0.857572
0.992432 0.854078 0.889937
0 1 0.132296
0.0617533 1 0.19733
0.307057 1 0.28069
0.482872 1 0.383124
0.633082 1 0.491936
0.761166 1 0.600412
0.904219 0.977951 0.723842
0.976074 0.971115 0.871092
0.996826 0.994308 0.908644
0 0.0647135 1
0 0.000259403 1
0.188556 0 0.97705
0.376287 0 0.96051
0.524514 0 0.95079
0.649454 0 0.948333
0.764553 0 0.960937
0.887098 0 1
1 0 1
0 0.212696 1
0 0.140398 1
0.189853 0.0945602 1
0.392477 0.0759289 0.992508
0.550103 0.0706035 0.981949
0.678004 0.072221 0.977478
0.789654 0.0729839 0.981933
0.90486 0.0634928 1
1 0.0404669 1
0 0.373068 0.94992
0 0.293935 0.985885
0.161395 0.239109 1
0.385107 0.212619 1
0.558022 0.202396 1
0.693706 0.202884 0.995605
0.804929 0.204547 0.994476
0.912062 0.195132 1
1 0.168704 1
0 0.538033 0.825727
0 0.457633 0.900771
0.106111 0.39559 0.964721
0.352972 0.358633 1
0.549844 0.339696 1
0.700694 0.335836 1
0.817075 0.338613 1
0.916396 0.330114 1
1 0.299092 1
0 0.695918 0.667292
0 0.62208 0.758801
0.040238 0.561593 0.861555
0.292363 0.517601 0.956817
0.516686 0.486137 1
0.694255 0.472129 1
0.82417 0.473289 1
0.920882 0.468086 1
1 0.430884 1
0 0.838636 0.513329
0 0.773205 0.597208
0.00981155 0.722301 0.704265
0.230701 0.684398 0.83209
0.451087 0.646906 0.948959
0.659251 0.615091 1
0.817533 0.603983 1
0.92401 0.605081 1
1 0.567544 1
0 0.967269 0.387289
0 0.9066 0.459281
0.0435187 0.863005 0.552697
0.231357 0.836042 0.670069
0.405814 0.810147 0.800092
0.588312 0.775555 0.930175
0.784573 0.743145 0.984054
0.905653 0.743816 0.973983
0.994934 0.718395 1
0 1 0.291386
0 1 0.356924
0.118822 0.986755 0.441215
0.296529 0.964065 0.545281
0.450233 0.946777 0.657267
0.585992 0.926238 0.771771
0.740032 0.897215 0.8701
0.897948 0.872023 0.944366
0.965148 0.874998 0.970993
0 1 0.217853
0 1 0.281834
0.20679 1 0.363912
0.383597 1 0.464652
0.536095 1 0.571954
0.669139 1 0.67866
0.805875 1 0.776837
0.942214 0.997513 0.874372
1 1 1
