EA 50 Cinematic Luts Pack/EA_Cinematic Lut (36).cube
TITLE "Distinct color contrast and sharpness of shadows and highlights will create an image full of drama and tension."
LUT_3D_SIZE 9
0.0000 0.0000 0.0000
0.0631 0.0032 0.0037
0.2278 0.0136 0.0159
0.4277 0.0247 0.0290
0.5940 0.0355 0.0421
0.7418 0.0457 0.0554
0.8735 0.0556 0.0725
0.9807 0.0650 0.0917
0.9997 0.0911 0.1245
0.0000 0.0694 0.0002
0.0727 0.0677 0.0008
0.2307 0.0661 0.0096
0.4371 0.0669 0.0198
0.6174 0.0652 0.0282
0.7824 0.0567 0.0357
0.9052 0.0594 0.0536
0.9906 0.0679 0.0741
0.9997 0.1067 0.1215
0.0002 0.1604 0.0006
0.0593 0.1510 0.0022
0.1930 0.1459 0.0013
0.3899 0.1554 0.0098
0.5603 0.1681 0.0252
0.7230 0.1677 0.0382
0.8764 0.1450 0.0472
0.9924 0.1077 0.0543
0.9997 0.1527 0.1156
0.0002 0.2961 0.0010
0.0492 0.2830 0.0011
0.1543 0.2642 0.0115
0.3534 0.2622 0.0010
0.5257 0.2856 0.0071
0.6748 0.3130 0.0234
0.8168 0.3227 0.0409
0.9584 0.3045 0.0567
0.9995 0.2876 0.1100
0.0003 0.4387 0.0015
0.0414 0.4251 0.0007
0.1284 0.3988 0.0060
0.3096 0.3747 0.0192
0.4953 0.3745 0.0004
0.6463 0.4046 0.0068
0.7875 0.4523 0.0239
0.9353 0.4899 0.0413
0.9995 0.5041 0.0960
0.0004 0.5871 0.0022
0.0342 0.5739 0.0007
0.1069 0.5440 0.0034
0.2627 0.5067 0.0181
0.4560 0.4778 0.0176
0.6250 0.4805 0.0000
0.7779 0.5329 0.0088
0.9314 0.6179 0.0230
0.9997 0.6851 0.0641
0.0007 0.7758 0.0036
0.0296 0.7625 0.0008
0.0950 0.7286 0.0023
0.2316 0.6803 0.0098
0.4152 0.6312 0.0284
0.5990 0.6005 0.0174
0.7719 0.6153 0.0000
0.9306 0.6957 0.0101
0.9999 0.7871 0.0379
0.0009 0.9416 0.0053
0.0274 0.9421 0.0010
0.0916 0.9420 0.0020
0.2195 0.9022 0.0076
0.3987 0.8457 0.0218
0.5775 0.7916 0.0400
0.7615 0.7609 0.0160
0.9296 0.7805 0.0001
0.9999 0.8595 0.0151
0.0013 1.0000 0.0075
0.0256 1.0000 0.0013
0.0901 1.0000 0.0022
0.2316 1.0000 0.0190
0.3957 0.9987 0.0153
0.5680 0.9837 0.0380
0.7475 0.9528 0.0546
0.9258 0.9280 0.0193
0.9999 0.9359 0.0000
0.0000 0.0000 0.0482
0.0720 0.0000 0.0491
0.2566 0.0027 0.0522
0.4475 0.0157 0.0555
0.6046 0.0301 0.0653
0.7479 0.0423 0.0784
0.8780 0.0529 0.0933
0.9824 0.0628 0.1097
0.9997 0.0904 0.1385
0.0000 0.0688 0.0507
0.0723 0.0672 0.0493
0.2100 0.0669 0.0556
0.4043 0.0678 0.0626
0.5711 0.0708 0.0737
0.7225 0.0747 0.0862
0.8591 0.0800 0.1006
0.9731 0.0863 0.1159
0.9997 0.1062 0.1367
0.0000 0.1682 0.0419
0.0602 0.1638 0.0436
0.1792 0.1546 0.0569
0.3829 0.1478 0.0573
0.5656 0.1441 0.0597
0.7342 0.1357 0.0655
0.8885 0.1166 0.0713
0.9931 0.1015 0.0780
0.9997 0.1520 0.1301
0.0000 0.3192 0.0347
0.0505 0.3060 0.0375
0.1470 0.2872 0.0415
0.3395 0.2757 0.0510
0.5177 0.2848 0.0519
0.6735 0.2989 0.0593
0.8199 0.3015 0.0689
0.9621 0.2812 0.0807
0.9995 0.2705 0.1260
0.0001 0.4549 0.0304
0.0435 0.4411 0.0335
0.1243 0.4173 0.0338
0.2993 0.3924 0.0470
0.4846 0.3869 0.0436
0.6399 0.4079 0.0443
0.7848 0.4455 0.0534
0.9331 0.4776 0.0705
0.9995 0.4918 0.1137
0.0002 0.5968 0.0271
0.0376 0.5829 0.0303
0.1053 0.5554 0.0285
0.2580 0.5192 0.0384
0.4469 0.4909 0.0491
0.6174 0.4926 0.0378
0.7736 0.5383 0.0421
0.9285 0.6157 0.0516
0.9997 0.6796 0.0816
0.0004 0.7757 0.0261
0.0347 0.7668 0.0292
0.0946 0.7350 0.0257
0.2300 0.6878 0.0308
0.4121 0.6401 0.0470
0.5949 0.6103 0.0460
0.7680 0.6224 0.0360
0.9277 0.6978 0.0424
0.9999 0.7889 0.0522
0.0007 0.9416 0.0269
0.0344 0.9412 0.0300
0.0906 0.9421 0.0255
0.2193 0.9033 0.0287
0.3981 0.8478 0.0392
0.5764 0.7945 0.0565
0.7595 0.7641 0.0420
0.9272 0.7822 0.0336
0.9999 0.8610 0.0323
0.0010 1.0000 0.0283
0.0200 1.0000 0.0202
0.0891 1.0000 0.0236
0.2293 1.0000 0.0346
0.3946 0.9985 0.0349
0.5676 0.9828 0.0526
0.7469 0.9512 0.0727
0.9246 0.9258 0.0418
0.9999 0.9357 0.0065
0.0000 0.0001 0.1619
0.0761 0.0001 0.1731
0.2566 0.0000 0.1632
0.4676 0.0010 0.1452
0.6312 0.0125 0.1350
0.7703 0.0282 0.1340
0.8944 0.0425 0.1395
0.9870 0.0559 0.1501
0.9998 0.0885 0.1741
0.0000 0.0674 0.1642
0.0705 0.0659 0.1595
0.2296 0.0625 0.1486
0.4345 0.0598 0.1386
0.6000 0.0613 0.1345
0.7461 0.0655 0.1358
0.8749 0.0723 0.1437
0.9791 0.0801 0.1543
0.9998 0.1041 0.1722
0.0000 0.1649 0.1335
0.0588 0.1613 0.1313
0.1852 0.1532 0.1260
0.3685 0.1472 0.1333
0.5373 0.1429 0.1383
0.6929 0.1413 0.1447
0.8312 0.1424 0.1538
0.9514 0.1456 0.1650
0.9997 0.1504 0.1675
0.0000 0.3175 0.1080
0.0486 0.3141 0.1069
0.1496 0.3049 0.1099
0.3270 0.2922 0.1311
0.5080 0.2800 0.1377
0.6771 0.2702 0.1344
0.8316 0.2550 0.1342
0.9720 0.2259 0.1376
0.9997 0.2500 0.1594
0.0000 0.4661 0.0888
0.0412 0.4632 0.0895
0.1255 0.4483 0.0947
0.2846 0.4252 0.1020
0.4650 0.4094 0.1292
0.6248 0.4141 0.1315
0.7789 0.4315 0.1312
0.9304 0.4479 0.1392
0.9995 0.4585 0.1583
0.0000 0.6095 0.0750
0.0357 0.6076 0.0760
0.1092 0.5809 0.0829
0.2488 0.5498 0.0850
0.4304 0.5228 0.1130
0.5996 0.5200 0.1254
0.7631 0.5541 0.1233
0.9214 0.6119 0.1313
0.9997 0.6646 0.1341
0.0000 0.7756 0.0692
0.0335 0.7749 0.0711
0.1012 0.7526 0.0774
0.2265 0.7114 0.0756
0.4073 0.6678 0.0940
0.5850 0.6406 0.1192
0.7573 0.6526 0.1209
0.9205 0.7102 0.1226
0.9999 0.7936 0.1028
0.0002 0.9416 0.0691
0.0334 0.9414 0.0717
0.0996 0.9406 0.0782
0.2185 0.9109 0.0721
0.3972 0.8590 0.0829
0.5717 0.8095 0.1134
0.7525 0.7813 0.1219
0.9197 0.7935 0.1201
0.9999 0.8676 0.0785
0.0005 1.0000 0.0702
0.0182 1.0000 0.0624
0.0873 1.0000 0.0645
0.2241 1.0000 0.0709
0.3943 0.9983 0.0784
0.5669 0.9830 0.1001
0.7446 0.9528 0.1288
0.9200 0.9282 0.1196
1.0000 0.9408 0.0556
0.0000 0.0002 0.3803
0.0742 0.0000 0.3667
0.2432 0.0000 0.3372
0.4568 0.0000 0.2997
0.6378 0.0001 0.2643
0.7899 0.0070 0.2379
0.9157 0.0237 0.2256
0.9937 0.0397 0.2216
0.9999 0.0844 0.2325
0.0000 0.0651 0.3393
0.0677 0.0638 0.3292
0.2194 0.0608 0.3088
0.4321 0.0568 0.2800
0.6147 0.0530 0.2526
0.7674 0.0541 0.2337
0.8974 0.0598 0.2251
0.9891 0.0669 0.2218
0.9999 0.0997 0.2318
0.0000 0.1594 0.2775
0.0573 0.1562 0.2727
0.1799 0.1490 0.2620
0.3864 0.1387 0.2457
0.5661 0.1294 0.2339
0.7214 0.1260 0.2266
0.8565 0.1260 0.2238
0.9702 0.1288 0.2254
0.9999 0.1457 0.2309
0.0000 0.3123 0.2264
0.0477 0.3092 0.2242
0.1461 0.3014 0.2190
0.3354 0.2891 0.2108
0.4997 0.2795 0.2202
0.6526 0.2701 0.2245
0.7939 0.2627 0.2288
0.9240 0.2595 0.2361
0.9998 0.2469 0.2253
0.0000 0.4620 0.1896
0.0407 0.4592 0.1885
0.1214 0.4526 0.1857
0.2894 0.4401 0.1886
0.4584 0.4259 0.2113
0.6187 0.4123 0.2255
0.7803 0.4046 0.2258
0.9356 0.3966 0.2261
0.9996 0.3970 0.2239
0.0000 0.6068 0.1637
0.0352 0.6052 0.1631
0.1051 0.6011 0.1625
0.2540 0.5882 0.1702
0.4208 0.5652 0.1796
0.5858 0.5535 0.2251
0.7513 0.5700 0.2343
0.9139 0.6014 0.2377
0.9996 0.6341 0.2165
0.0000 0.7749 0.1526
0.0329 0.7744 0.1533
0.0990 0.7731 0.1556
0.2401 0.7493 0.1638
0.4034 0.7151 0.1661
0.5756 0.6906 0.2046
0.7455 0.6965 0.2363
0.9089 0.7372 0.2477
0.9999 0.7962 0.1856
0.0000 0.9416 0.1496
0.0323 0.9415 0.1504
0.0974 0.9411 0.1531
0.2358 0.9290 0.1627
0.3954 0.8865 0.1598
0.5689 0.8444 0.1851
0.7440 0.8206 0.2274
0.9082 0.8333 0.2533
1.0000 0.8848 0.1592
0.0000 1.0000 0.1494
0.0167 1.0000 0.1426
0.0853 1.0000 0.1441
0.2196 1.0000 0.1472
0.4108 0.9988 0.1656
0.5668 0.9877 0.1730
0.7387 0.9649 0.2182
0.9121 0.9460 0.2452
1.0000 0.9544 0.1398
0.0000 0.0004 0.7406
0.0692 0.0001 0.7210
0.2258 0.0001 0.6671
0.4388 0.0000 0.5833
0.6227 0.0000 0.4934
0.7861 0.0000 0.4177
0.9253 0.0047 0.3705
0.9971 0.0186 0.3430
1.0000 0.0797 0.3272
0.0000 0.0622 0.6707
0.0641 0.0611 0.6497
0.2054 0.0587 0.6024
0.4184 0.0547 0.5370
0.6034 0.0513 0.4615
0.7694 0.0477 0.4005
0.9101 0.0480 0.3630
0.9942 0.0531 0.3397
1.0000 0.0945 0.3263
0.0000 0.1522 0.5282
0.0554 0.1494 0.5162
0.1725 0.1432 0.4890
0.3766 0.1344 0.4482
0.5643 0.1243 0.4037
0.7333 0.1158 0.3710
0.8738 0.1118 0.3484
0.9827 0.1116 0.3327
1.0000 0.1386 0.3235
0.0000 0.3049 0.4022
0.0470 0.3020 0.3972
0.1424 0.2949 0.3862
0.3298 0.2835 0.3704
0.5159 0.2680 0.3519
0.6798 0.2520 0.3406
0.8207 0.2425 0.3320
0.9480 0.2391 0.3293
0.9999 0.2393 0.3195
0.0000 0.4557 0.3336
0.0396 0.4532 0.3316
0.1196 0.4468 0.3266
0.2841 0.4362 0.3184
0.4662 0.4224 0.3076
0.6147 0.4122 0.3185
0.7609 0.4059 0.3269
0.9014 0.4055 0.3398
0.9998 0.3915 0.3213
0.0001 0.6031 0.2879
0.0352 0.6016 0.2870
0.1044 0.5979 0.2850
0.2485 0.5920 0.2816
0.4308 0.5828 0.2877
0.5898 0.5755 0.3178
0.7530 0.5721 0.3416
0.9128 0.5763 0.3557
0.9996 0.5836 0.3251
0.0000 0.7740 0.2692
0.0327 0.7736 0.2689
0.0983 0.7727 0.2685
0.2348 0.7711 0.2680
0.4177 0.7642 0.2817
0.5753 0.7443 0.2962
0.7432 0.7390 0.3528
0.8958 0.7600 0.4128
0.9999 0.7913 0.3023
0.0000 0.9414 0.2636
0.0320 0.9414 0.2635
0.0965 0.9412 0.2639
0.2313 0.9409 0.2670
0.4137 0.9239 0.2811
0.5687 0.8934 0.2850
0.7412 0.8735 0.3366
0.8987 0.8793 0.4485
1.0000 0.9149 0.2720
0.0000 1.0000 0.2629
0.0169 1.0000 0.2570
0.0852 1.0000 0.2571
0.2169 1.0000 0.2573
0.4042 1.0000 0.2635
0.5893 0.9948 0.2971
0.7686 0.9798 0.3876
0.9163 0.9679 0.5975
1.0000 0.9802 0.2562
0.0000 0.0005 0.9182
0.0639 0.0001 0.9090
0.2062 0.0002 0.8833
0.4187 0.0000 0.8444
0.6041 0.0000 0.7966
0.7705 0.0000 0.7418
0.9174 0.0000 0.6715
0.9973 0.0016 0.5934
1.0000 0.0750 0.4969
0.0000 0.0589 0.8849
0.0602 0.0582 0.8752
0.1904 0.0562 0.8539
0.4006 0.0530 0.8202
0.5876 0.0494 0.7774
0.7560 0.0465 0.7220
0.9050 0.0432 0.6525
0.9952 0.0423 0.5801
1.0000 0.0894 0.4950
0.0000 0.1440 0.8165
0.0530 0.1418 0.8100
0.1642 0.1368 0.7931
0.3641 0.1293 0.7676
0.5524 0.1204 0.7279
0.7242 0.1124 0.6726
0.8750 0.1042 0.6084
0.9866 0.1002 0.5519
1.0000 0.1319 0.4912
0.0000 0.2957 0.7248
0.0457 0.2930 0.7192
0.1385 0.2865 0.7045
0.3218 0.2758 0.6798
0.5072 0.2613 0.6394
0.6780 0.2440 0.5916
0.8318 0.2278 0.5484
0.9645 0.2198 0.5191
1.0000 0.2316 0.4867
0.0001 0.4473 0.5977
0.0396 0.4448 0.5930
0.1175 0.4389 0.5810
0.2783 0.4292 0.5617
0.4608 0.4163 0.5346
0.6303 0.4020 0.5063
0.7880 0.3902 0.5003
0.9302 0.3878 0.5049
1.0000 0.3846 0.4871
0.0000 0.5982 0.4895
0.0340 0.5969 0.4877
0.1030 0.5935 0.4827
0.2470 0.5881 0.4750
0.4271 0.5815 0.4658
0.6002 0.5747 0.4567
0.7518 0.5746 0.4925
0.9090 0.5737 0.5170
0.9996 0.5685 0.4969
0.0000 0.7727 0.4469
0.0329 0.7723 0.4464
0.0984 0.7714 0.4451
0.2343 0.7703 0.4434
0.4139 0.7684 0.4414
0.5906 0.7640 0.4584
0.7504 0.7624 0.5229
0.8984 0.7662 0.5981
0.9997 0.7712 0.5025
0.0000 0.9412 0.4346
0.0321 0.9411 0.4346
0.0965 0.9409 0.4345
0.2306 0.9407 0.4342
0.4093 0.9409 0.4332
0.5849 0.9382 0.4568
0.7551 0.9184 0.5328
0.9055 0.9173 0.6744
1.0000 0.9360 0.4503
0.0000 1.0000 0.4337
0.0168 1.0000 0.4272
0.0852 1.0000 0.4271
0.2172 1.0000 0.4271
0.4020 1.0000 0.4274
0.5829 0.9998 0.4381
0.7675 0.9960 0.5141
0.9319 0.9909 0.7097
1.0000 0.9952 0.4447
0.0110 0.0149 1.0000
0.0632 0.0109 1.0000
0.1871 0.0004 0.9986
0.3966 0.0000 0.9769
0.5835 0.0000 0.9461
0.7528 0.0000 0.9106
0.9022 0.0000 0.8710
0.9955 0.0000 0.8280
0.9999 0.0707 0.7523
0.0000 0.0558 0.9992
0.0571 0.0559 0.9924
0.1755 0.0536 0.9824
0.3813 0.0511 0.9614
0.5696 0.0476 0.9336
0.7405 0.0450 0.8998
0.8904 0.0424 0.8607
0.9932 0.0395 0.8198
0.9999 0.0848 0.7511
0.0000 0.1356 0.9597
0.0505 0.1338 0.9554
0.1553 0.1300 0.9440
0.3503 0.1241 0.9260
0.5387 0.1164 0.9026
0.7111 0.1088 0.8723
0.8631 0.1018 0.8362
0.9854 0.0952 0.8007
0.9999 0.1265 0.7482
0.0000 0.2851 0.9009
0.0443 0.2828 0.8979
0.1338 0.2768 0.8896
0.3126 0.2669 0.8755
0.4970 0.2534 0.8546
0.6676 0.2376 0.8283
0.8254 0.2222 0.8005
0.9676 0.2095 0.7766
1.0000 0.2262 0.7443
0.0000 0.4377 0.8313
0.0384 0.4355 0.8289
0.1148 0.4301 0.8226
0.2728 0.4212 0.8124
0.4544 0.4095 0.7982
0.6242 0.3968 0.7805
0.7898 0.3846 0.7649
0.9456 0.3763 0.7580
1.0000 0.3799 0.7424
0.0000 0.5924 0.7705
0.0345 0.5911 0.7692
0.1027 0.5881 0.7662
0.2444 0.5835 0.7614
0.4242 0.5780 0.7549
0.5982 0.5723 0.7474
0.7699 0.5675 0.7414
0.9275 0.5656 0.7495
0.9995 0.5622 0.7433
0.0000 0.7709 0.7400
0.0317 0.7707 0.7398
0.0971 0.7699 0.7388
0.2335 0.7685 0.7372
0.4136 0.7668 0.7351
0.5880 0.7645 0.7325
0.7618 0.7628 0.7304
0.9147 0.7648 0.7578
0.9997 0.7632 0.7532
0.0001 0.9407 0.7289
0.0323 0.9407 0.7287
0.0967 0.9405 0.7284
0.2304 0.9404 0.7278
0.4089 0.9402 0.7274
0.5812 0.9400 0.7258
0.7600 0.9389 0.7399
0.9171 0.9377 0.8033
0.9998 0.9414 0.7517
0.0000 0.9998 0.7276
0.0170 0.9998 0.7250
0.0854 0.9999 0.7251
0.2173 0.9999 0.7253
0.4020 1.0000 0.7256
0.5810 0.9995 0.7256
0.7593 0.9997 0.7289
0.9402 0.9992 0.8038
0.9998 0.9995 0.7583
0.0592 0.0576 1.0000
0.0905 0.0575 1.0000
0.1830 0.0569 0.9999
0.3525 0.0537 1.0000
0.5332 0.0449 0.9997
0.7193 0.0241 0.9998
0.8844 0.0000 0.9868
0.9918 0.0000 0.9581
1.0000 0.0660 0.8992
0.0584 0.0807 1.0000
0.0917 0.0821 0.9948
0.1816 0.0810 0.9948
0.3474 0.0776 0.9948
0.5262 0.0701 0.9946
0.7107 0.0548 0.9948
0.8737 0.0412 0.9802
0.9888 0.0389 0.9525
1.0000 0.0801 0.8989
0.0495 0.1441 1.0000
0.0841 0.1447 0.9948
0.1772 0.1471 0.9813
0.3351 0.1418 0.9812
0.5093 0.1310 0.9810
0.6885 0.1112 0.9809
0.8494 0.0989 0.9641
0.9798 0.0937 0.9393
1.0000 0.1215 0.8980
0.0101 0.2745 1.0000
0.0551 0.2733 0.9947
0.1471 0.2711 0.9810
0.3159 0.2701 0.9562
0.4812 0.2566 0.9554
0.6530 0.2338 0.9548
0.8158 0.2167 0.9395
0.9627 0.2059 0.9211
1.0000 0.2226 0.8969
0.0000 0.4269 0.9605
0.0374 0.4249 0.9589
0.1119 0.4201 0.9545
0.2666 0.4122 0.9472
0.4522 0.4073 0.9171
0.6141 0.3959 0.9153
0.7844 0.3815 0.9139
0.9452 0.3737 0.9067
1.0000 0.3777 0.8957
0.0000 0.5865 0.9183
0.0338 0.5854 0.9174
0.1013 0.5830 0.9152
0.2422 0.5792 0.9120
0.4219 0.5748 0.9089
0.5975 0.5715 0.8961
0.7658 0.5682 0.8954
0.9307 0.5642 0.8951
0.9997 0.5602 0.8943
0.0001 0.7693 0.8997
0.0327 0.7690 0.8995
0.0979 0.7683 0.8990
0.2335 0.7671 0.8984
0.4123 0.7657 0.8973
0.5884 0.7637 0.8944
0.7615 0.7623 0.8940
0.9288 0.7609 0.8936
0.9998 0.7594 0.8941
0.0000 0.9405 0.8934
0.0308 0.9405 0.8935
0.0951 0.9405 0.8934
0.2292 0.9402 0.8932
0.4094 0.9399 0.8929
0.5818 0.9400 0.8930
0.7588 0.9399 0.8929
0.9282 0.9400 0.8930
0.9999 0.9413 0.9002
0.0000 0.9999 0.8933
0.0169 0.9999 0.8931
0.0854 1.0000 0.8931
0.2175 1.0000 0.8931
0.4025 1.0000 0.8931
0.5816 0.9997 0.8929
0.7589 0.9998 0.8932
0.9290 0.9999 0.8942
0.9999 0.9999 0.9222
0.1014 0.0894 1.0000
0.1275 0.0904 1.0000
0.2035 0.0925 1.0000
0.3319 0.0952 1.0000
0.4784 0.0975 1.0000
0.6294 0.0968 0.9998
0.7838 0.0903 0.9999
0.9373 0.0771 1.0000
1.0000 0.0603 0.9999
0.1054 0.1112 1.0000
0.1314 0.1119 1.0000
0.2070 0.1137 1.0000
0.3335 0.1159 1.0000
0.4787 0.1174 1.0000
0.6287 0.1147 0.9998
0.7830 0.1060 0.9999
0.9369 0.0916 1.0000
1.0000 0.0749 0.9999
0.1115 0.1740 1.0000
0.1374 0.1745 1.0000
0.2123 0.1754 1.0000
0.3351 0.1759 1.0000
0.4771 0.1733 1.0000
0.6259 0.1655 0.9998
0.7807 0.1521 0.9999
0.9357 0.1342 1.0000
1.0000 0.1162 0.9999
0.1107 0.2871 1.0000
0.1355 0.2865 1.0000
0.2070 0.2849 1.0000
0.3272 0.2815 1.0000
0.4687 0.2750 1.0000
0.6185 0.2640 0.9999
0.7762 0.2492 1.0000
0.9339 0.2324 1.0000
1.0000 0.2188 0.9999
0.0870 0.4189 1.0000
0.1096 0.4180 1.0000
0.1757 0.4157 1.0000
0.3016 0.4116 1.0000
0.4504 0.4057 1.0000
0.6062 0.3976 1.0000
0.7702 0.3893 1.0000
0.9321 0.3826 1.0000
1.0000 0.3754 0.9999
0.0493 0.5781 0.9997
0.0728 0.5777 0.9997
0.1338 0.5766 0.9998
0.2670 0.5749 0.9999
0.4308 0.5727 1.0000
0.5958 0.5698 0.9994
0.7653 0.5665 0.9996
0.9302 0.5629 0.9997
0.9998 0.5591 0.9997
0.0206 0.7661 0.9999
0.0488 0.7659 0.9999
0.1096 0.7656 0.9999
0.2428 0.7651 1.0000
0.4156 0.7643 1.0000
0.5875 0.7630 0.9996
0.7608 0.7618 0.9997
0.9288 0.7603 0.9998
0.9998 0.7592 0.9998
0.0000 0.9402 0.9993
0.0243 0.9407 1.0000
0.0898 0.9406 1.0000
0.2213 0.9404 1.0000
0.4039 0.9403 1.0000
0.5817 0.9400 0.9997
0.7584 0.9400 0.9998
0.9282 0.9401 0.9999
0.9999 0.9402 0.9999
0.0000 1.0000 0.9995
0.0172 1.0000 1.0000
0.0856 1.0000 1.0000
0.2179 1.0000 1.0000
0.4027 1.0000 1.0000
0.5816 0.9998 0.9998
0.7591 0.9998 0.9998
0.9288 0.9999 0.9999
1.0000 1.0000 1.0000
