EA 50 Cinematic Luts Pack/EA_Cinematic Lut (29).cube
TITLE "This spectacular grade will extract the saturation of the warm hues and turn your shot into a fantasy tale."
LUT_3D_SIZE 5
0.0000 0.0000 0.0000
0.2226 0.0000 0.0070
0.5515 0.0000 0.0293
0.8902 0.0000 0.0635
0.9998 0.0000 0.0973
0.1181 0.1735 0.0935
0.2481 0.1853 0.0186
0.5920 0.1729 0.0000
0.9104 0.1591 0.0000
1.0000 0.1888 0.1275
0.3103 0.4486 0.1955
0.3807 0.4579 0.1762
0.6178 0.4732 0.0675
0.9262 0.4590 0.0000
1.0000 0.4837 0.2037
0.5416 0.7167 0.2994
0.5948 0.7215 0.2872
0.7498 0.7343 0.2409
0.9321 0.7458 0.1173
1.0000 0.7534 0.3526
0.8582 0.9194 0.5001
0.8760 0.9228 0.4972
0.9192 0.9333 0.4853
0.9733 0.9520 0.4369
0.9995 0.9643 0.7777
0.0381 0.0071 0.1327
0.2237 0.0000 0.2002
0.5536 0.0000 0.1978
0.8912 0.0000 0.2022
0.9999 0.0000 0.2133
0.1085 0.1797 0.1938
0.2482 0.1858 0.1998
0.6329 0.1540 0.1767
0.9413 0.0831 0.1403
1.0000 0.1914 0.2190
0.2532 0.4635 0.2189
0.3909 0.4563 0.2562
0.6175 0.4736 0.2094
0.9414 0.4457 0.1195
1.0000 0.4854 0.2623
0.5034 0.7243 0.3160
0.6043 0.7205 0.3434
0.7525 0.7343 0.3019
0.9320 0.7460 0.2262
1.0000 0.7546 0.3840
0.8585 0.9199 0.5245
0.8759 0.9231 0.5238
0.9188 0.9338 0.5136
0.9726 0.9527 0.4726
0.9995 0.9657 0.7924
0.1173 0.0325 0.2630
0.2423 0.0189 0.3454
0.5529 0.0000 0.4009
0.8919 0.0000 0.4002
1.0000 0.0034 0.3976
0.1629 0.1643 0.4078
0.2853 0.1882 0.3505
0.5749 0.1814 0.4038
0.9156 0.1479 0.4035
1.0000 0.1958 0.3985
0.2880 0.4617 0.3886
0.3770 0.4656 0.3934
0.6182 0.4744 0.4017
0.9381 0.4491 0.3813
1.0000 0.4891 0.4114
0.4721 0.7328 0.4171
0.5290 0.7357 0.4169
0.7683 0.7318 0.4569
0.9318 0.7465 0.4103
1.0000 0.7583 0.4725
0.8625 0.9222 0.5876
0.8785 0.9253 0.5922
0.9185 0.9355 0.5975
0.9704 0.9546 0.5712
0.9996 0.9703 0.8384
0.2161 0.0767 0.4089
0.3001 0.0702 0.4664
0.5770 0.0063 0.5872
0.8920 0.0000 0.6249
0.9998 0.0033 0.6254
0.2731 0.1655 0.5520
0.3530 0.2034 0.4928
0.5966 0.1885 0.5857
0.9011 0.1756 0.6310
0.9999 0.1957 0.6254
0.3509 0.4515 0.6103
0.4263 0.4542 0.6242
0.6545 0.4761 0.5714
0.9131 0.4723 0.6274
0.9998 0.4904 0.6249
0.5023 0.7318 0.6032
0.5695 0.7335 0.6062
0.7551 0.7391 0.6150
0.9251 0.7500 0.6254
0.9996 0.7629 0.6293
0.8980 0.9202 0.7206
0.9069 0.9241 0.7261
0.9314 0.9368 0.7415
0.9691 0.9582 0.7617
0.9998 0.9789 0.9152
0.3280 0.1321 0.5589
0.3910 0.1296 0.6056
0.6090 0.0924 0.7803
0.9030 0.0000 0.9646
1.0000 0.0057 0.9966
0.3850 0.2006 0.7015
0.4497 0.1930 0.7752
0.6883 0.1399 0.9587
0.9172 0.1453 1.0000
1.0000 0.1974 0.9968
0.4617 0.4404 0.9355
0.5146 0.4466 0.9443
0.7034 0.4595 0.9686
0.9179 0.4687 0.9980
1.0000 0.4903 0.9974
0.6584 0.7223 0.8877
0.6942 0.7266 0.8979
0.7909 0.7393 0.9297
0.9182 0.7554 0.9810
0.9998 0.7635 0.9982
0.9257 0.9240 0.9091
0.9332 0.9276 0.9149
0.9540 0.9392 0.9323
0.9812 0.9604 0.9609
1.0000 0.9918 0.9999
