EA 50 Cinematic Luts Pack/EA_Cinematic Lut (48).cube
TITLE "A strong, cold, contrasting colorization that will enrich your footage with a pleasant, dreamlike look."
LUT_3D_SIZE 9
0.0000 0.0000 0.0000
0.0687 0.0000 0.0000
0.2130 0.0000 0.0000
0.3379 0.0000 0.0000
0.4753 0.0000 0.0000
0.6161 0.0150 0.0000
0.7510 0.0366 0.0000
0.8666 0.0599 0.0000
0.9404 0.0849 0.0000
0.0000 0.0660 0.0165
0.1007 0.0734 0.0006
0.2367 0.0394 0.0000
0.3769 0.0199 0.0000
0.5042 0.0294 0.0000
0.6410 0.0422 0.0000
0.7701 0.0591 0.0000
0.8789 0.0791 0.0000
0.9455 0.1018 0.0000
0.0000 0.1780 0.0626
0.0000 0.1861 0.0747
0.2623 0.1909 0.0352
0.3994 0.1469 0.0130
0.5457 0.1218 0.0049
0.7075 0.0950 0.0000
0.8076 0.1120 0.0000
0.9029 0.1255 0.0000
0.9557 0.1430 0.0000
0.0000 0.2982 0.1109
0.0000 0.3037 0.1204
0.0000 0.3178 0.1407
0.4374 0.3187 0.0703
0.5927 0.2695 0.0294
0.7129 0.2426 0.0404
0.8435 0.2238 0.0332
0.9347 0.2018 0.0193
0.9705 0.2095 0.0000
0.0000 0.4274 0.1691
0.0000 0.4314 0.1765
0.0000 0.4414 0.1940
0.0000 0.4596 0.2175
0.6094 0.4540 0.1077
0.7733 0.4111 0.0394
0.8619 0.3830 0.0699
0.9387 0.3652 0.0643
0.9768 0.3527 0.0674
0.0000 0.5631 0.2301
0.0000 0.5665 0.2361
0.0000 0.5749 0.2529
0.0000 0.5902 0.2816
0.0000 0.6139 0.3158
0.7597 0.5998 0.1512
0.9011 0.5622 0.0494
0.9470 0.5355 0.0961
0.9789 0.5228 0.1122
0.0000 0.7343 0.3133
0.0000 0.7380 0.3204
0.0000 0.7473 0.3399
0.0000 0.7638 0.3732
0.0000 0.7878 0.4529
0.0000 0.8199 0.5528
0.8757 0.7922 0.1976
0.9606 0.7565 0.0568
0.9845 0.7289 0.1194
0.0000 0.8931 0.4714
0.0000 0.8948 0.4914
0.0000 0.8987 0.5491
0.0000 0.9060 0.6574
0.0000 0.9164 0.7897
0.0000 0.9299 0.8819
0.0000 0.9478 0.9105
0.9445 0.9266 0.2622
0.9907 0.9181 0.0643
0.0000 0.9827 0.8447
0.0000 0.9837 0.8552
0.0000 0.9859 0.8769
0.0000 0.9899 0.9117
0.0000 0.9958 0.9507
0.3274 1.0000 0.9827
0.6876 0.9998 0.9977
0.8942 0.9999 0.9984
0.9911 0.9861 0.9740
0.0000 0.0000 0.0000
0.1509 0.0000 0.0019
0.2863 0.0000 0.0000
0.3608 0.0000 0.0000
0.4667 0.0000 0.0000
0.6073 0.0000 0.0000
0.7466 0.0109 0.0000
0.8651 0.0394 0.0000
0.9404 0.0680 0.0000
0.0000 0.0755 0.0000
0.0715 0.0759 0.0326
0.2275 0.0403 0.0126
0.4006 0.0055 0.0000
0.5235 0.0168 0.0000
0.6545 0.0320 0.0000
0.7794 0.0506 0.0000
0.8841 0.0718 0.0000
0.9484 0.0897 0.0000
0.0000 0.1832 0.0521
0.0000 0.1906 0.0680
0.0707 0.2047 0.0952
0.3581 0.1493 0.0556
0.5201 0.1283 0.0431
0.7179 0.0881 0.0000
0.8165 0.1055 0.0000
0.9075 0.1195 0.0000
0.9585 0.1329 0.0000
0.0000 0.3017 0.1044
0.0000 0.3070 0.1146
0.0000 0.3208 0.1367
0.1441 0.3387 0.1629
0.5805 0.2697 0.0619
0.7004 0.2449 0.0658
0.8329 0.2292 0.0634
0.9372 0.1977 0.0192
0.9711 0.2061 0.0000
0.0000 0.4299 0.1640
0.0000 0.4338 0.1719
0.0000 0.4437 0.1900
0.0000 0.4617 0.2152
0.4348 0.4682 0.2028
0.7619 0.4107 0.0786
0.8594 0.3829 0.0852
0.9343 0.3692 0.0923
0.9789 0.3431 0.0683
0.0000 0.5652 0.2261
0.0000 0.5685 0.2325
0.0000 0.5770 0.2488
0.0000 0.5920 0.2783
0.0000 0.6151 0.3175
0.6450 0.6144 0.2240
0.8950 0.5622 0.0934
0.9456 0.5363 0.1177
0.9805 0.5180 0.1110
0.0000 0.7365 0.3087
0.0000 0.7402 0.3162
0.0000 0.7496 0.3348
0.0000 0.7658 0.3689
0.0000 0.7897 0.4436
0.0000 0.8208 0.5623
0.8003 0.8110 0.2569
0.9587 0.7567 0.0998
0.9853 0.7261 0.1189
0.0000 0.8942 0.4590
0.0000 0.8958 0.4795
0.0000 0.8997 0.5337
0.0000 0.9069 0.6442
0.0000 0.9172 0.7816
0.0000 0.9307 0.8782
0.0000 0.9481 0.9141
0.9377 0.9232 0.4124
0.9911 0.9178 0.0657
0.0000 0.9833 0.8374
0.0000 0.9842 0.8493
0.0000 0.9865 0.8720
0.0000 0.9904 0.9080
0.0000 0.9962 0.9487
0.3486 1.0000 0.9819
0.6952 0.9998 0.9975
0.8966 0.9999 0.9986
0.9913 0.9863 0.9749
0.0187 0.0000 0.0000
0.1049 0.0136 0.0161
0.3547 0.0000 0.0371
0.5084 0.0000 0.0301
0.6035 0.0000 0.0183
0.6771 0.0000 0.0048
0.7604 0.0000 0.0000
0.8667 0.0000 0.0000
0.9401 0.0104 0.0000
0.0650 0.0774 0.0320
0.1388 0.0832 0.0400
0.4016 0.0131 0.0465
0.4937 0.0000 0.0146
0.5901 0.0000 0.0002
0.6543 0.0000 0.0000
0.7685 0.0000 0.0000
0.8810 0.0124 0.0000
0.9484 0.0393 0.0000
0.0000 0.1947 0.0280
0.0283 0.1978 0.0575
0.2108 0.1942 0.0901
0.3651 0.1455 0.0658
0.5430 0.1219 0.0469
0.7395 0.0733 0.0000
0.8379 0.0869 0.0000
0.9183 0.1028 0.0000
0.9654 0.1016 0.0000
0.0000 0.3107 0.0842
0.0000 0.3157 0.0970
0.0000 0.3282 0.1270
0.1851 0.3404 0.1687
0.5029 0.2729 0.1274
0.6675 0.2513 0.1080
0.8325 0.2293 0.0830
0.9427 0.1879 0.0199
0.9767 0.1822 0.0000
0.0000 0.4363 0.1490
0.0000 0.4401 0.1580
0.0000 0.4495 0.1801
0.0000 0.4668 0.2091
0.2260 0.4827 0.2476
0.7117 0.4139 0.1609
0.8301 0.3895 0.1470
0.9231 0.3781 0.1429
0.9849 0.3132 0.0714
0.0000 0.5705 0.2156
0.0000 0.5738 0.2220
0.0000 0.5820 0.2388
0.0000 0.5968 0.2692
0.0000 0.6193 0.3110
0.3053 0.6383 0.3621
0.8835 0.5616 0.1544
0.9433 0.5368 0.1538
0.9853 0.5031 0.1025
0.0000 0.7425 0.2959
0.0000 0.7462 0.3032
0.0000 0.7552 0.3235
0.0000 0.7712 0.3577
0.0000 0.7944 0.4226
0.0000 0.8234 0.5742
0.4174 0.8399 0.7261
0.9538 0.7571 0.1754
0.9875 0.7185 0.1225
0.0000 0.8968 0.4268
0.0000 0.8984 0.4450
0.0000 0.9024 0.4995
0.0000 0.9092 0.6076
0.0000 0.9194 0.7543
0.0000 0.9325 0.8702
0.0000 0.9489 0.9248
0.8716 0.9338 0.8543
0.9922 0.9172 0.0696
0.0000 0.9847 0.8130
0.0000 0.9856 0.8282
0.0000 0.9878 0.8596
0.0000 0.9917 0.8974
0.0000 0.9974 0.9430
0.3987 1.0000 0.9797
0.7140 0.9998 0.9972
0.9024 0.9999 0.9989
0.9916 0.9868 0.9773
0.0797 0.0362 0.0188
0.1322 0.0488 0.0301
0.2950 0.0473 0.0559
0.5653 0.0000 0.0729
0.7162 0.0000 0.0676
0.8002 0.0000 0.0556
0.8684 0.0000 0.0446
0.9193 0.0000 0.0325
0.9530 0.0000 0.0203
0.1369 0.0927 0.0438
0.1764 0.1008 0.0516
0.3063 0.1045 0.0693
0.6164 0.0000 0.0796
0.7152 0.0000 0.0604
0.8000 0.0000 0.0479
0.8694 0.0000 0.0355
0.9176 0.0000 0.0218
0.9559 0.0000 0.0120
0.1360 0.1925 0.0770
0.1597 0.1979 0.0871
0.2986 0.1993 0.0971
0.5348 0.1724 0.1001
0.7064 0.0000 0.0269
0.8033 0.0000 0.0128
0.8751 0.0000 0.0000
0.9256 0.0000 0.0000
0.9675 0.0000 0.0000
0.0000 0.3242 0.0598
0.0000 0.3285 0.0790
0.1616 0.3306 0.1218
0.3598 0.3245 0.1585
0.5300 0.2664 0.1268
0.6923 0.2461 0.1116
0.8495 0.2228 0.0889
0.9484 0.1777 0.0360
0.9861 0.1216 0.0000
0.0000 0.4478 0.1174
0.0000 0.4513 0.1293
0.0000 0.4603 0.1569
0.1085 0.4718 0.2002
0.3277 0.4811 0.2483
0.6706 0.4123 0.2048
0.8124 0.3926 0.1870
0.9233 0.3785 0.1676
0.9961 0.2521 0.0000
0.0000 0.5804 0.1931
0.0000 0.5835 0.2007
0.0000 0.5913 0.2195
0.0000 0.6052 0.2535
0.0000 0.6269 0.2994
0.3491 0.6404 0.3721
0.8037 0.5711 0.3006
0.9111 0.5509 0.2660
0.9951 0.4679 0.0868
0.0000 0.7533 0.2721
0.0000 0.7568 0.2796
0.0000 0.7654 0.3004
0.0000 0.7805 0.3383
0.0000 0.8025 0.3918
0.0000 0.8297 0.5408
0.3955 0.8436 0.7909
0.9428 0.7616 0.2743
0.9912 0.7026 0.1381
0.0000 0.9015 0.3839
0.0000 0.9030 0.3955
0.0000 0.9069 0.4381
0.0000 0.9133 0.5402
0.0000 0.9231 0.7021
0.0000 0.9357 0.8522
0.0000 0.9513 0.9231
0.4789 0.9590 0.9801
0.9942 0.9155 0.0776
0.0000 0.9872 0.7568
0.0000 0.9881 0.7758
0.0000 0.9903 0.8200
0.0000 0.9941 0.8747
0.0000 0.9996 0.9298
0.4760 1.0000 0.9751
0.7451 0.9998 0.9965
0.9118 0.9999 0.9995
0.9922 0.9877 0.9812
0.1411 0.0740 0.0387
0.1766 0.0841 0.0461
0.2731 0.0999 0.0657
0.5354 0.0385 0.0976
0.7511 0.0000 0.1105
0.8728 0.0000 0.1068
0.9262 0.0000 0.0950
0.9566 0.0000 0.0848
0.9782 0.0000 0.0747
0.1903 0.1168 0.0584
0.2180 0.1243 0.0650
0.3065 0.1357 0.0797
0.5269 0.1105 0.1062
0.7836 0.0000 0.1174
0.8755 0.0000 0.1022
0.9280 0.0000 0.0906
0.9581 0.0000 0.0797
0.9809 0.0000 0.0721
0.2279 0.2012 0.0930
0.2626 0.2049 0.0971
0.3438 0.2129 0.1078
0.5094 0.2099 0.1276
0.8396 0.0000 0.1241
0.8715 0.0000 0.0849
0.9295 0.0000 0.0744
0.9611 0.0000 0.0625
0.9873 0.0000 0.0624
0.2203 0.3184 0.1178
0.2341 0.3221 0.1287
0.2604 0.3321 0.1540
0.4673 0.3297 0.1673
0.6767 0.3058 0.1670
0.8869 0.0720 0.0502
0.9506 0.0000 0.0106
0.9766 0.0000 0.0000
0.9929 0.0000 0.0299
0.0000 0.4618 0.0928
0.0000 0.4650 0.1075
0.1304 0.4678 0.1479
0.2863 0.4723 0.2013
0.5162 0.4634 0.2356
0.6965 0.4063 0.2041
0.8343 0.3886 0.1911
0.9334 0.3740 0.1751
1.0000 0.2328 0.0737
0.0000 0.5947 0.1551
0.0000 0.5977 0.1651
0.0000 0.6052 0.1891
0.0000 0.6182 0.2266
0.2838 0.6257 0.2896
0.5120 0.6307 0.3590
0.8165 0.5649 0.3049
0.9170 0.5483 0.2841
0.9965 0.4458 0.1671
0.0000 0.7694 0.2355
0.0000 0.7726 0.2432
0.0000 0.7807 0.2642
0.0000 0.7946 0.3041
0.0000 0.8139 0.3661
0.0174 0.8378 0.4946
0.4776 0.8442 0.8036
0.8941 0.7777 0.6002
0.9929 0.6838 0.1995
0.0000 0.9085 0.3432
0.0000 0.9100 0.3519
0.0000 0.9135 0.3747
0.0000 0.9198 0.4426
0.0000 0.9285 0.6150
0.0000 0.9405 0.8123
0.0000 0.9553 0.9092
0.5242 0.9597 0.9854
0.9956 0.9117 0.1596
0.0000 0.9910 0.6451
0.0000 0.9919 0.6670
0.0000 0.9941 0.7227
0.0000 0.9979 0.8121
0.2843 1.0000 0.8989
0.5747 0.9997 0.9636
0.7876 0.9998 0.9948
0.9241 0.9999 0.9999
0.9931 0.9892 0.9864
0.2026 0.1118 0.0588
0.2292 0.1198 0.0641
0.3028 0.1347 0.0799
0.4526 0.1446 0.1053
0.7665 0.0000 0.1481
0.8893 0.0000 0.1547
0.9524 0.0000 0.1525
0.9762 0.0000 0.1402
0.9931 0.0000 0.1283
0.2434 0.1455 0.0750
0.2655 0.1523 0.0800
0.3350 0.1647 0.0922
0.4716 0.1739 0.1159
0.7589 0.0632 0.1528
0.9048 0.0000 0.1610
0.9569 0.0000 0.1526
0.9774 0.0000 0.1369
0.9963 0.0000 0.1290
0.3030 0.2170 0.1057
0.3270 0.2213 0.1096
0.3841 0.2314 0.1210
0.5042 0.2384 0.1402
0.7298 0.2073 0.1702
0.9313 0.0000 0.1715
0.9572 0.0000 0.1398
0.9796 0.0000 0.1270
1.0000 0.0648 0.1367
0.2955 0.3264 0.1513
0.3254 0.3289 0.1552
0.3978 0.3345 0.1645
0.5185 0.3392 0.1774
0.6914 0.3342 0.1988
0.9144 0.2427 0.1941
0.9567 0.0000 0.1066
0.9828 0.0000 0.0983
1.0000 0.1989 0.1576
0.2930 0.4541 0.1622
0.3095 0.4562 0.1722
0.3415 0.4623 0.1955
0.3804 0.4741 0.2305
0.6268 0.4682 0.2458
0.8072 0.4443 0.2421
0.9349 0.2947 0.1535
0.9950 0.1439 0.0609
1.0000 0.2923 0.1691
0.0000 0.6104 0.1298
0.0000 0.6131 0.1425
0.0573 0.6179 0.1761
0.2744 0.6198 0.2275
0.4129 0.6273 0.3003
0.6641 0.6153 0.3496
0.8390 0.5598 0.3049
0.9474 0.5180 0.2667
1.0000 0.4300 0.1970
0.0000 0.7896 0.1937
0.0000 0.7925 0.2025
0.0000 0.8000 0.2223
0.0000 0.8123 0.2613
0.0000 0.8291 0.3268
0.4222 0.8310 0.4944
0.6830 0.8296 0.7146
0.9226 0.7576 0.5502
0.9966 0.6502 0.2601
0.0000 0.9177 0.2876
0.0000 0.9191 0.2961
0.0000 0.9224 0.3192
0.0000 0.9281 0.3625
0.0000 0.9362 0.4788
0.0000 0.9468 0.7261
0.0134 0.9600 0.8948
0.6469 0.9582 0.9857
0.9953 0.9055 0.2865
0.0000 0.9964 0.4717
0.0000 0.9973 0.4885
0.0000 0.9992 0.5364
0.2757 0.9999 0.6675
0.5039 0.9998 0.8353
0.6876 0.9998 0.9342
0.8384 0.9999 0.9896
0.9375 0.9999 0.9999
0.9943 0.9911 0.9923
0.2650 0.1498 0.0791
0.2866 0.1563 0.0831
0.3461 0.1699 0.0958
0.4546 0.1869 0.1184
0.6480 0.1793 0.1541
0.8979 0.0000 0.1959
0.9571 0.0000 0.2021
0.9869 0.0000 0.2002
1.0000 0.0890 0.1942
0.3000 0.1774 0.0931
0.3187 0.1835 0.0968
0.3740 0.1959 0.1069
0.4783 0.2104 0.1293
0.6580 0.2069 0.1628
0.9137 0.0000 0.2054
0.9626 0.0000 0.2074
0.9895 0.0000 0.2011
1.0000 0.1315 0.2001
0.3640 0.2397 0.1211
0.3824 0.2441 0.1250
0.4271 0.2546 0.1368
0.5238 0.2656 0.1542
0.6729 0.2683 0.1819
0.9029 0.1544 0.2153
0.9735 0.0000 0.2179
0.9949 0.0000 0.2005
1.0000 0.2094 0.2138
0.4027 0.3373 0.1661
0.4247 0.3400 0.1692
0.4777 0.3463 0.1771
0.5603 0.3564 0.1913
0.6909 0.3596 0.2127
0.8720 0.3293 0.2403
0.9857 0.0000 0.2257
0.9991 0.0000 0.1849
1.0000 0.3086 0.2363
0.3736 0.4596 0.2103
0.3780 0.4629 0.2163
0.4266 0.4681 0.2269
0.5358 0.4730 0.2405
0.6798 0.4742 0.2559
0.8357 0.4678 0.2839
0.9545 0.4146 0.2744
1.0000 0.1165 0.1503
1.0000 0.4152 0.2707
0.3563 0.6012 0.2058
0.3736 0.6026 0.2147
0.4111 0.6066 0.2359
0.4568 0.6151 0.2777
0.5108 0.6287 0.3411
0.7650 0.6194 0.3647
0.9052 0.5937 0.3568
0.9869 0.4187 0.2232
1.0000 0.5162 0.3091
0.0000 0.8089 0.1709
0.0000 0.8115 0.1815
0.0000 0.8176 0.2078
0.2378 0.8194 0.2597
0.4203 0.8230 0.3401
0.5356 0.8319 0.5476
0.7915 0.8183 0.7220
0.9538 0.7105 0.4611
0.9999 0.6219 0.3352
0.0000 0.9282 0.2337
0.0000 0.9294 0.2420
0.0000 0.9324 0.2634
0.0000 0.9376 0.3062
0.0000 0.9451 0.3751
0.0000 0.9553 0.5393
0.3137 0.9627 0.8542
0.8083 0.9522 0.9786
0.9950 0.8950 0.5180
0.2496 1.0000 0.3675
0.2968 1.0000 0.3760
0.3973 1.0000 0.4056
0.5315 0.9997 0.4984
0.6711 0.9996 0.6868
0.7971 0.9998 0.8711
0.8922 0.9999 0.9690
0.9513 0.9999 0.9999
0.9959 0.9935 0.9977
0.3298 0.1884 0.0998
0.3481 0.1940 0.1033
0.3964 0.2065 0.1141
0.4850 0.2233 0.1354
0.6203 0.2373 0.1655
0.8249 0.1975 0.2069
0.9606 0.0000 0.2466
0.9896 0.0000 0.2531
1.0000 0.1814 0.2521
0.3602 0.2119 0.1132
0.3763 0.2174 0.1161
0.4219 0.2291 0.1250
0.5087 0.2441 0.1463
0.6353 0.2579 0.1745
0.8280 0.2260 0.2131
0.9662 0.0000 0.2561
0.9927 0.0000 0.2592
1.0000 0.2121 0.2589
0.4219 0.2675 0.1395
0.4370 0.2718 0.1435
0.4738 0.2820 0.1540
0.5504 0.2957 0.1686
0.6658 0.3070 0.1946
0.8348 0.2912 0.2296
0.9773 0.0000 0.2811
0.9998 0.0000 0.2741
1.0000 0.2786 0.2768
0.4815 0.3546 0.1814
0.4972 0.3575 0.1844
0.5357 0.3645 0.1917
0.5987 0.3764 0.2060
0.7038 0.3840 0.2257
0.8361 0.3814 0.2570
0.9631 0.2836 0.2995
1.0000 0.1630 0.2879
1.0000 0.3729 0.3098
0.4850 0.4678 0.2311
0.5020 0.4697 0.2340
0.5444 0.4743 0.2413
0.6233 0.4810 0.2538
0.7190 0.4888 0.2724
0.8400 0.4894 0.3066
0.9460 0.4638 0.3450
0.9936 0.3679 0.3217
1.0000 0.4813 0.3604
0.4762 0.6019 0.2700
0.4819 0.6044 0.2774
0.4936 0.6109 0.2971
0.5304 0.6207 0.3294
0.6676 0.6254 0.3548
0.8250 0.6202 0.3793
0.9388 0.6020 0.4598
0.9817 0.5705 0.4065
0.9999 0.6015 0.4738
0.4103 0.7971 0.2521
0.4275 0.7982 0.2622
0.4669 0.8013 0.2878
0.5193 0.8073 0.3352
0.5718 0.8185 0.4264
0.6176 0.8355 0.6794
0.8988 0.8076 0.7571
0.9724 0.7657 0.7074
0.9996 0.7539 0.7073
0.0000 0.9379 0.2127
0.0000 0.9390 0.2211
0.0000 0.9416 0.2450
0.1751 0.9437 0.3003
0.3924 0.9449 0.3967
0.5104 0.9504 0.5940
0.6485 0.9569 0.8538
0.9454 0.9317 0.9493
0.9998 0.8689 0.8277
0.5230 1.0000 0.3422
0.5487 0.9999 0.3496
0.6080 0.9999 0.3685
0.6936 1.0000 0.4147
0.7898 0.9996 0.5524
0.8765 0.9998 0.7715
0.9358 0.9999 0.9136
0.9671 0.9999 0.9947
0.9978 0.9964 1.0000
0.3965 0.2283 0.1226
0.4122 0.2333 0.1259
0.4526 0.2448 0.1353
0.5270 0.2607 0.1553
0.6312 0.2802 0.1816
0.7798 0.2844 0.2170
0.9397 0.1925 0.2694
0.9918 0.0000 0.3167
1.0000 0.2079 0.3115
0.4231 0.2491 0.1351
0.4383 0.2538 0.1379
0.4770 0.2647 0.1461
0.5486 0.2795 0.1649
0.6510 0.2969 0.1911
0.7943 0.2999 0.2254
0.9443 0.2092 0.2804
0.9955 0.0000 0.3300
1.0000 0.2359 0.3190
0.4794 0.2989 0.1603
0.4928 0.3025 0.1645
0.5278 0.3114 0.1729
0.5943 0.3247 0.1872
0.6931 0.3374 0.2128
0.8243 0.3384 0.2477
0.9533 0.2523 0.3090
1.0000 0.0801 0.3572
1.0000 0.2980 0.3382
0.5441 0.3773 0.1983
0.5578 0.3800 0.2013
0.5918 0.3866 0.2093
0.6505 0.3965 0.2238
0.7454 0.4044 0.2482
0.8597 0.4035 0.2896
0.9641 0.3285 0.3606
1.0000 0.2395 0.3966
1.0000 0.3882 0.3731
0.5785 0.4805 0.2482
0.5930 0.4824 0.2509
0.6295 0.4868 0.2583
0.6922 0.4932 0.2729
0.7774 0.4992 0.3030
0.8867 0.4936 0.3517
0.9712 0.4381 0.4928
1.0000 0.3832 0.5305
1.0000 0.4942 0.4697
0.5412 0.6127 0.3209
0.5570 0.6144 0.3243
0.5962 0.6183 0.3330
0.6624 0.6243 0.3494
0.7668 0.6276 0.3743
0.8835 0.6211 0.4667
0.9664 0.5814 0.7081
0.9996 0.5223 0.7585
0.9995 0.6192 0.6877
0.5662 0.7921 0.3491
0.5713 0.7948 0.3548
0.5842 0.8015 0.3703
0.6067 0.8125 0.4100
0.6336 0.8269 0.5546
0.7839 0.8279 0.7109
0.9453 0.7948 0.8245
0.9907 0.7407 0.8952
0.9998 0.7947 0.8776
0.4568 0.9321 0.3119
0.4637 0.9333 0.3157
0.4816 0.9361 0.3256
0.5147 0.9408 0.3452
0.5687 0.9471 0.3806
0.6847 0.9506 0.5598
0.8532 0.9471 0.8847
0.9772 0.9216 0.9582
0.9999 0.9216 0.9704
0.6772 1.0000 0.3626
0.6945 1.0000 0.3696
0.7347 1.0000 0.3889
0.7952 1.0000 0.4541
0.8625 0.9996 0.5950
0.9201 0.9998 0.7849
0.9563 0.9999 0.9049
0.9805 0.9999 0.9779
1.0000 0.9999 1.0000
