EA 50 Cinematic Luts Pack/EA_Cinematic Lut (5).cube
TITLE "Generated by Resolve"
LUT_3D_SIZE 9
0.196597 0.0667277 0.247471
0.229191 0.0781109 0.252811
0.262181 0.0899825 0.258289
0.303151 0.0995193 0.26331
0.359991 0.103624 0.266926
0.424933 0.10518 0.269642
0.496208 0.105974 0.271916
0.571206 0.107378 0.274144
0.647532 0.111818 0.277073
0.203464 0.137911 0.25095
0.236606 0.148486 0.257038
0.272786 0.158724 0.262821
0.3243 0.165652 0.267506
0.388266 0.171237 0.27155
0.460472 0.178225 0.275776
0.539528 0.18819 0.280873
0.621454 0.20119 0.286625
0.702007 0.216007 0.292622
0.21117 0.208774 0.255604
0.245243 0.224414 0.261692
0.290639 0.240848 0.267948
0.353704 0.257053 0.274113
0.425635 0.273671 0.280095
0.503777 0.289784 0.285679
0.585077 0.306584 0.291493
0.666117 0.324346 0.297368
0.744564 0.344152 0.304372
0.212787 0.31426 0.25481
0.255222 0.339559 0.264347
0.314717 0.361685 0.272816
0.384573 0.381765 0.280262
0.461692 0.401266 0.287556
0.543008 0.420172 0.294835
0.625727 0.439689 0.302327
0.706233 0.460365 0.310597
0.781964 0.4822 0.320195
0.223835 0.446403 0.26183
0.277073 0.472969 0.272877
0.344884 0.495827 0.282612
0.420325 0.517601 0.291875
0.501015 0.537835 0.301213
0.584268 0.557931 0.310643
0.666133 0.578134 0.320165
0.744381 0.599008 0.330648
0.814557 0.621836 0.342229
0.244617 0.587228 0.277028
0.308965 0.61207 0.289708
0.382345 0.634852 0.301457
0.461799 0.655329 0.312764
0.544778 0.674815 0.323568
0.627558 0.693355 0.333867
0.707515 0.712245 0.344564
0.781292 0.731823 0.355825
0.843763 0.753155 0.368277
0.279438 0.726299 0.303761
0.3505 0.748852 0.31751
0.428 0.76849 0.330083
0.510002 0.786328 0.341634
0.593042 0.802441 0.352361
0.673793 0.818326 0.363043
0.749691 0.833951 0.373846
0.815976 0.850996 0.385702
0.872511 0.868696 0.398199
0.326497 0.85594 0.34023
0.402045 0.873564 0.353964
0.482856 0.888792 0.366445
0.56582 0.90164 0.37789
0.647776 0.91342 0.388937
0.724758 0.923766 0.3991
0.793667 0.933791 0.409308
0.850568 0.944732 0.420172
0.901396 0.955642 0.431357
0.386908 0.967224 0.386984
0.464897 0.979263 0.399359
0.544976 0.987488 0.409567
0.624338 0.993515 0.41854
0.699886 0.998383 0.42652
0.769879 1 0.434745
0.829084 1 0.443961
0.880201 1 0.454475
0.929015 1 0.46482
0.19942 0.0717937 0.271183
0.232105 0.0830396 0.2766
0.265507 0.0953689 0.282307
0.307362 0.104173 0.286946
0.364828 0.107805 0.290043
0.430671 0.109575 0.292653
0.502525 0.110674 0.295079
0.578378 0.113069 0.297856
0.655482 0.118669 0.301778
0.206714 0.142718 0.274861
0.239796 0.153353 0.280674
0.276753 0.163668 0.286412
0.329702 0.170809 0.291279
0.394965 0.177432 0.296056
0.46865 0.185779 0.301427
0.548562 0.197086 0.307851
0.630488 0.210407 0.314885
0.711101 0.225895 0.322652
0.214282 0.215091 0.279347
0.248859 0.231632 0.286107
0.29662 0.249683 0.293889
0.361181 0.266835 0.301305
0.433738 0.283482 0.308629
0.512352 0.300053 0.316228
0.5935 0.316777 0.324056
0.674861 0.334905 0.332677
0.752789 0.354559 0.342214
0.217517 0.324575 0.28246
0.26125 0.350271 0.293782
0.321828 0.37229 0.304021
0.392645 0.392508 0.314031
0.470268 0.411963 0.323949
0.551751 0.430808 0.333639
0.634287 0.450416 0.343481
0.714443 0.470726 0.353796
0.78999 0.492912 0.365225
0.229603 0.457786 0.296696
0.284047 0.483772 0.310048
0.352697 0.506844 0.322362
0.428748 0.528313 0.334157
0.509728 0.548424 0.345174
0.592874 0.568429 0.355871
0.674662 0.588251 0.366705
0.752514 0.609171 0.378286
0.821103 0.631678 0.390677
0.251301 0.598047 0.320089
0.316625 0.622919 0.33434
0.390494 0.645014 0.34757
0.470466 0.665461 0.35993
0.553552 0.684642 0.371481
0.635981 0.702922 0.38265
0.715389 0.721508 0.394278
0.787945 0.740566 0.40618
0.849454 0.761868 0.419364
0.287175 0.736568 0.35169
0.358572 0.758282 0.366155
0.436652 0.777722 0.379538
0.518547 0.794965 0.391699
0.601114 0.81091 0.403113
0.681437 0.826215 0.414511
0.756634 0.841459 0.425956
0.821622 0.858061 0.438346
0.876814 0.874479 0.451164
0.334401 0.864271 0.391241
0.410407 0.881575 0.405707
0.491112 0.895933 0.418631
0.57409 0.908507 0.430732
0.655116 0.919432 0.441932
0.731212 0.928969 0.452384
0.798672 0.938293 0.46273
0.854368 0.948669 0.47393
0.904891 0.959274 0.485283
0.394614 0.973785 0.440452
0.472297 0.984634 0.452888
0.551995 0.992157 0.463233
0.630396 0.997299 0.472053
0.705486 1 0.480293
0.774563 1 0.488563
0.832578 1 0.498344
0.883177 1 0.508827
0.932067 1 0.519356
0.202274 0.0768902 0.294499
0.235187 0.0884565 0.300175
0.268849 0.100435 0.306264
0.311452 0.108537 0.311086
0.36994 0.111971 0.315068
0.436469 0.113542 0.318898
0.508995 0.115221 0.32285
0.585458 0.118578 0.328206
0.663447 0.125734 0.334966
0.209888 0.147265 0.299718
0.242985 0.158145 0.30663
0.280613 0.168429 0.313603
0.335454 0.17586 0.320363
0.401602 0.183078 0.32752
0.476707 0.193164 0.335943
0.557092 0.20531 0.345174
0.639353 0.219135 0.354849
0.719539 0.23505 0.364874
0.217441 0.22153 0.308965
0.252964 0.2392 0.318441
0.302541 0.258137 0.328969
0.367941 0.275547 0.339101
0.441352 0.292607 0.34905
0.520012 0.309178 0.358618
0.601846 0.32639 0.368338
0.683024 0.344686 0.378424
0.760891 0.364645 0.389227
0.222171 0.334462 0.32134
0.266743 0.360159 0.335042
0.328634 0.381872 0.34725
0.400229 0.402335 0.358892
0.478111 0.421622 0.370031
0.559991 0.44094 0.380804
0.642588 0.460212 0.391577
0.722759 0.480903 0.403052
0.797162 0.503334 0.415366
0.234958 0.468376 0.342229
0.290852 0.494133 0.356725
0.360296 0.517143 0.370138
0.436728 0.538231 0.382757
0.518166 0.558572 0.394629
0.601099 0.578088 0.406119
0.682765 0.598123 0.417945
0.759747 0.618738 0.430121
0.827527 0.641428 0.443412
0.257877 0.608713 0.369299
0.324132 0.633127 0.384451
0.398779 0.654948 0.39855
0.478981 0.675135 0.411566
0.561532 0.693736 0.42356
0.643992 0.712001 0.435569
0.722606 0.730007 0.447578
0.794278 0.749218 0.46009
0.854826 0.769894 0.473716
0.294469 0.746105 0.403754
0.366567 0.76762 0.419181
0.444816 0.786572 0.43299
0.526421 0.80322 0.445396
0.608942 0.818799 0.457374
0.68864 0.833539 0.469032
0.763226 0.848569 0.480858
0.826734 0.8645 0.493233
0.881209 0.880095 0.506233
0.342306 0.872496 0.446113
0.418326 0.888945 0.460685
0.49929 0.902846 0.473991
0.581781 0.914855 0.486107
0.662287 0.92488 0.497276
0.737453 0.933654 0.50753
0.803235 0.942351 0.517601
0.858091 0.952514 0.528939
0.907988 0.96257 0.540017
0.401953 0.97966 0.496406
0.479362 0.989548 0.508568
0.558434 0.996139 0.518471
0.63653 1 0.527092
0.710842 1 0.535149
0.778912 1 0.543221
0.835889 1 0.55288
0.886046 1 0.563149
0.935164 1 0.573541
0.205081 0.081651 0.321309
0.238254 0.0935531 0.328771
0.271717 0.104677 0.33666
0.315587 0.112154 0.343801
0.375021 0.115282 0.350271
0.441978 0.116991 0.356512
0.51519 0.119081 0.363027
0.592218 0.123186 0.370382
0.671214 0.132235 0.379309
0.212848 0.15111 0.333593
0.245808 0.161868 0.342947
0.284611 0.172488 0.352712
0.340902 0.180407 0.361761
0.408362 0.188907 0.370977
0.484367 0.200137 0.38114
0.565347 0.212955 0.39173
0.647745 0.227314 0.402472
0.72726 0.243565 0.413123
0.220066 0.227039 0.350439
0.256886 0.246677 0.362325
0.308278 0.266026 0.374365
0.374701 0.284047 0.385763
0.448569 0.301381 0.396612
0.527825 0.31812 0.407263
0.610086 0.335546 0.417945
0.691005 0.353979 0.428901
0.768551 0.374502 0.440787
0.226459 0.343847 0.368444
0.272221 0.369284 0.383078
0.335424 0.391318 0.396384
0.407507 0.411643 0.40882
0.486061 0.43125 0.420798
0.568231 0.450431 0.43241
0.65069 0.470085 0.444129
0.730434 0.490883 0.456336
0.803922 0.513069 0.46923
0.240024 0.47837 0.392538
0.297673 0.504189 0.408118
0.367712 0.526741 0.422156
0.444663 0.54815 0.435477
0.526101 0.568063 0.447913
0.609262 0.587793 0.460212
0.690517 0.60763 0.472602
0.766766 0.628122 0.485039
0.833707 0.650767 0.498894
0.264652 0.618936 0.422721
0.331609 0.642802 0.438407
0.406699 0.664607 0.453086
0.486686 0.684276 0.466178
0.56965 0.702815 0.478828
0.651484 0.720455 0.49099
0.729595 0.738506 0.503136
0.800519 0.757397 0.515908
0.860197 0.777798 0.529763
0.301823 0.755535 0.459358
0.37435 0.776623 0.474983
0.452415 0.794888 0.488655
0.534401 0.811307 0.501411
0.616342 0.826139 0.513298
0.695918 0.84065 0.524941
0.769314 0.855131 0.53637
0.831601 0.870527 0.548898
0.885176 0.885405 0.561364
0.350027 0.880385 0.502907
0.426291 0.896193 0.517433
0.507301 0.909606 0.53051
0.589426 0.920607 0.542306
0.669047 0.92987 0.552865
0.742855 0.937789 0.562371
0.807614 0.946334 0.572351
0.861646 0.956191 0.583124
0.911254 0.966064 0.593759
0.409277 0.985458 0.55314
0.486412 0.994247 0.564385
0.564797 0.999863 0.573617
0.642283 1 0.581582
0.715816 1 0.588952
0.783078 1 0.596735
0.839185 1 0.605798
0.889204 1 0.615686
0.938293 1 0.625315
0.207691 0.0852979 0.359655
0.241138 0.097261 0.369604
0.274449 0.10782 0.378775
0.319524 0.114748 0.387289
0.379553 0.117678 0.394751
0.44744 0.119951 0.402152
0.52137 0.122744 0.409949
0.599481 0.128496 0.418647
0.678981 0.138766 0.42884
0.215488 0.154147 0.377707
0.248493 0.165118 0.388281
0.288396 0.176028 0.399207
0.346197 0.184619 0.409293
0.415213 0.195026 0.420081
0.492027 0.207019 0.431464
0.573648 0.220569 0.442969
0.655695 0.235126 0.454185
0.735149 0.25211 0.465782
0.22266 0.232822 0.397894
0.260792 0.253742 0.41146
0.314122 0.274006 0.424643
0.381247 0.292378 0.436866
0.455833 0.30959 0.448569
0.53579 0.326879 0.460014
0.617685 0.344335 0.47126
0.69865 0.363394 0.482948
0.775769 0.383825 0.495521
0.230488 0.352636 0.419806
0.277867 0.378393 0.435431
0.342168 0.400458 0.44947
0.414816 0.420935 0.462577
0.493904 0.440711 0.475181
0.57612 0.459861 0.487236
0.658473 0.479789 0.499336
0.737728 0.500343 0.511925
0.810803 0.522942 0.525368
0.245472 0.488334 0.446738
0.304326 0.513664 0.462669
0.374899 0.536583 0.477348
0.452461 0.557839 0.491051
0.534157 0.577646 0.503761
0.617243 0.597284 0.516243
0.697749 0.616861 0.528542
0.773938 0.637385 0.541283
0.839597 0.659632 0.554986
0.27097 0.628656 0.478569
0.338979 0.652522 0.494789
0.41413 0.67393 0.509163
0.494713 0.693416 0.522545
0.577615 0.711696 0.535119
0.659144 0.729076 0.547036
0.736858 0.746807 0.559075
0.806378 0.765225 0.571466
0.865354 0.78558 0.585275
0.309102 0.764721 0.51635
0.381674 0.785077 0.531426
0.460365 0.803159 0.545083
0.542367 0.819074 0.557443
0.62414 0.833585 0.569055
0.702785 0.847822 0.580118
0.775402 0.861692 0.591119
0.83624 0.876265 0.603021
0.88867 0.890257 0.614374
0.357412 0.887739 0.559503
0.434302 0.903227 0.573648
0.515114 0.915816 0.586053
0.596979 0.926436 0.597345
0.67541 0.934691 0.606729
0.74844 0.942107 0.615488
0.811933 0.950301 0.624811
0.865125 0.959808 0.634699
0.914672 0.969635 0.644572
0.416342 0.990738 0.608133
0.492912 0.99852 0.61828
0.57113 1 0.626719
0.647913 1 0.6336
0.720897 1 0.640177
0.787274 1 0.647257
0.842847 1 0.65565
0.892561 1 0.664652
0.941909 1 0.673533
0.210376 0.088777 0.405829
0.24332 0.100069 0.416358
0.276936 0.11046 0.426337
0.323278 0.116869 0.435554
0.384222 0.119982 0.443946
0.452766 0.122545 0.452171
0.527718 0.126467 0.461097
0.60705 0.134096 0.471046
0.686915 0.145342 0.482292
0.217838 0.15671 0.426581
0.251194 0.168292 0.438193
0.292332 0.179492 0.449973
0.351644 0.189212 0.461082
0.42211 0.200717 0.472984
0.499977 0.214023 0.48539
0.58175 0.227955 0.497383
0.663554 0.243244 0.509087
0.742885 0.260685 0.521233
0.225803 0.239231 0.449897
0.264897 0.261097 0.464469
0.319936 0.281865 0.478294
0.387732 0.30016 0.49099
0.463035 0.317998 0.503441
0.543221 0.335302 0.51519
0.62533 0.35346 0.526848
0.706386 0.372702 0.539025
0.783123 0.393439 0.551827
0.234867 0.361624 0.474464
0.28368 0.387366 0.490562
0.348501 0.409354 0.504707
0.42211 0.430182 0.518425
0.501427 0.449775 0.53109
0.583871 0.469444 0.543282
0.666102 0.489143 0.555474
0.745342 0.510002 0.56817
0.817731 0.532723 0.581582
0.250813 0.498238 0.502907
0.310826 0.523461 0.518807
0.382254 0.546288 0.53373
0.460029 0.567163 0.547219
0.542168 0.587182 0.559991
0.62475 0.606455 0.571969
0.705501 0.626123 0.584237
0.78088 0.646448 0.596613
0.845335 0.66891 0.609964
0.277577 0.63859 0.535271
0.346151 0.662226 0.551125
0.42182 0.683207 0.565316
0.502922 0.702449 0.578332
0.585397 0.72015 0.590234
0.666697 0.737606 0.601846
0.743648 0.754818 0.613153
0.81236 0.773404 0.625208
0.870176 0.793271 0.638041
0.316167 0.773663 0.572305
0.389395 0.793835 0.586984
0.468406 0.811368 0.600061
0.550011 0.826673 0.611643
0.631525 0.841062 0.622492
0.70956 0.854627 0.632731
0.78143 0.868223 0.643107
0.840681 0.88191 0.653773
0.892653 0.895369 0.664195
0.365179 0.89543 0.614298
0.442191 0.910155 0.627634
0.522972 0.922225 0.639231
0.604135 0.93196 0.649149
0.681819 0.939498 0.657404
0.754086 0.946471 0.665125
0.816342 0.954284 0.673304
0.868971 0.963836 0.682109
0.918227 0.973342 0.690532
0.423087 0.995758 0.659937
0.499519 1 0.668986
0.577401 1 0.676036
0.653681 1 0.681712
0.726452 1 0.687053
0.791928 1 0.692668
0.846738 1 0.699611
0.896239 1 0.706981
0.946136 1 0.714549
0.212802 0.0915847 0.456352
0.245411 0.102602 0.467185
0.279286 0.112612 0.477867
0.32723 0.118837 0.487541
0.388968 0.122316 0.496544
0.458564 0.12546 0.505455
0.53434 0.130617 0.515053
0.614343 0.139528 0.525872
0.694881 0.152178 0.537942
0.220142 0.159213 0.47895
0.253742 0.171176 0.491417
0.296635 0.183383 0.503746
0.357855 0.194522 0.515923
0.429191 0.207141 0.528511
0.507652 0.221134 0.541176
0.589456 0.235386 0.553216
0.67129 0.251377 0.565057
0.750271 0.269017 0.577386
0.228916 0.24567 0.504555
0.269261 0.268925 0.519661
0.325673 0.289601 0.533715
0.394354 0.3084 0.546822
0.470283 0.326482 0.559335
0.550683 0.344137 0.570962
0.633127 0.362554 0.582757
0.714 0.381781 0.594858
0.790539 0.403189 0.607401
0.239216 0.370718 0.530404
0.289052 0.396262 0.546334
0.35523 0.418585 0.560815
0.429358 0.439384 0.574289
0.509041 0.459327 0.586679
0.591836 0.478935 0.598703
0.674159 0.498741 0.610742
0.752972 0.519814 0.62295
0.823987 0.542412 0.635676
0.256016 0.507958 0.558877
0.317632 0.533303 0.574762
0.389441 0.555749 0.58912
0.468116 0.576822 0.602335
0.550011 0.596536 0.614252
0.632883 0.615961 0.626154
0.713115 0.635569 0.637705
0.78764 0.655619 0.649287
0.851286 0.678157 0.662211
0.284215 0.648646 0.59057
0.353521 0.671656 0.605753
0.429938 0.692638 0.619455
0.510719 0.711391 0.63154
0.593301 0.729122 0.642924
0.674174 0.746044 0.653529
0.750683 0.763165 0.664088
0.818128 0.781659 0.675242
0.87541 0.801175 0.687068
0.323583 0.782864 0.625879
0.397284 0.80264 0.639841
0.476219 0.819501 0.65182
0.557855 0.834714 0.662577
0.638972 0.848371 0.672175
0.716625 0.861708 0.681392
0.787213 0.874464 0.690105
0.845487 0.887724 0.699031
0.896925 0.900725 0.707744
0.373098 0.903166 0.665736
0.450248 0.91725 0.677821
0.530953 0.928847 0.68809
0.611276 0.937362 0.695781
0.688457 0.944427 0.702266
0.759899 0.950835 0.708034
0.821088 0.958892 0.714458
0.873289 0.968368 0.721691
0.922484 0.977829 0.728725
0.430213 1 0.70663
0.506416 1 0.713649
0.583978 1 0.718273
0.660121 1 0.722255
0.732036 1 0.725902
0.796963 1 0.730312
0.851041 1 0.736049
0.900618 1 0.742672
0.950698 1 0.74966
0.215091 0.0940871 0.509483
0.247318 0.104891 0.520516
0.281743 0.114565 0.531411
0.331365 0.120653 0.541375
0.393835 0.124437 0.550591
0.464317 0.128862 0.560082
0.541283 0.13547 0.570169
0.622126 0.14583 0.58146
0.702892 0.159243 0.593683
0.222492 0.161807 0.533165
0.256474 0.174426 0.545861
0.301091 0.187427 0.558663
0.363928 0.200031 0.571435
0.436393 0.214084 0.584405
0.515267 0.22826 0.596796
0.59733 0.24332 0.608606
0.679011 0.259571 0.620096
0.757885 0.277943 0.632059
0.232151 0.252735 0.559594
0.273625 0.276783 0.575006
0.331594 0.297658 0.589029
0.401114 0.316854 0.602075
0.477317 0.335027 0.613962
0.558556 0.353201 0.625513
0.641062 0.371542 0.636774
0.721721 0.391501 0.648478
0.797742 0.412848 0.660548
0.24329 0.379705 0.585275
0.294957 0.40557 0.601251
0.362112 0.428046 0.615473
0.436774 0.448829 0.628321
0.51722 0.469001 0.640208
0.599954 0.488518 0.651576
0.68217 0.508705 0.663096
0.76022 0.52961 0.674311
0.830839 0.552621 0.686702
0.261509 0.518242 0.61297
0.324605 0.543099 0.628321
0.397238 0.565728 0.642069
0.47599 0.586831 0.654398
0.558236 0.606363 0.665721
0.641016 0.625727 0.676707
0.720607 0.644968 0.687099
0.794553 0.665324 0.697658
0.857237 0.687404 0.709163
0.291157 0.658488 0.642832
0.361181 0.68159 0.657282
0.437858 0.70222 0.669841
0.518868 0.720821 0.680903
0.601526 0.738293 0.690974
0.682033 0.75494 0.700008
0.758007 0.771984 0.708782
0.824384 0.790005 0.718212
0.881102 0.809384 0.728298
0.331136 0.792294 0.675441
0.405081 0.811353 0.687633
0.484276 0.828199 0.698009
0.566155 0.843015 0.707073
0.647074 0.856367 0.714824
0.724254 0.869245 0.722133
0.793286 0.881071 0.729046
0.850523 0.893858 0.736507
0.90132 0.906172 0.743847
0.381094 0.910933 0.710262
0.45864 0.924743 0.720546
0.539254 0.935393 0.728573
0.61915 0.943343 0.7346
0.69546 0.949706 0.739406
0.765942 0.955932 0.743969
0.826169 0.963821 0.749523
0.877714 0.973053 0.755901
0.927047 0.982605 0.762448
0.437629 1 0.745205
0.513542 1 0.750362
0.590921 1 0.754009
0.666514 1 0.756802
0.738048 1 0.759838
0.802045 1 0.763638
0.85565 1 0.769162
0.905303 1 0.775662
0.955139 1 0.782208
0.217227 0.0963302 0.56347
0.249165 0.106859 0.574533
0.284428 0.11667 0.585336
0.335393 0.122698 0.595148
0.398733 0.127169 0.604227
0.470268 0.132494 0.61384
0.548608 0.141054 0.624292
0.630167 0.152712 0.635615
0.711086 0.166384 0.647639
0.224781 0.164599 0.587228
0.25951 0.178332 0.599985
0.305898 0.192203 0.612863
0.37026 0.206317 0.625681
0.443549 0.221027 0.638407
0.523217 0.23595 0.650446
0.605447 0.251545 0.66157
0.687022 0.268315 0.672618
0.765637 0.287327 0.683955
0.235752 0.260624 0.613489
0.278157 0.284916 0.628641
0.337743 0.306111 0.642206
0.407675 0.325368 0.654475
0.485115 0.34406 0.666072
0.566476 0.36231 0.67689
0.649256 0.381277 0.687861
0.729747 0.401572 0.698589
0.805432 0.423194 0.70988
0.247959 0.389364 0.638056
0.301305 0.415183 0.65333
0.369146 0.437476 0.666697
0.444556 0.458808 0.678813
0.525185 0.478782 0.68986
0.608347 0.498726 0.700511
0.690074 0.518959 0.710231
0.7682 0.540078 0.720317
0.837949 0.563302 0.731136
0.267674 0.52874 0.663661
0.331807 0.553399 0.678035
0.404944 0.576196 0.690455
0.484108 0.596857 0.701289
0.566796 0.616632 0.71133
0.649149 0.63566 0.72018
0.728634 0.655161 0.729015
0.802075 0.675364 0.738094
0.864027 0.697444 0.748348
0.298543 0.669093 0.689845
0.3691 0.692042 0.702495
0.446082 0.712215 0.713146
0.52752 0.730709 0.722698
0.609964 0.7476 0.730831
0.690288 0.76434 0.738506
0.765499 0.78088 0.74609
0.831022 0.799008 0.754757
0.886671 0.817777 0.763607
0.339055 0.802121 0.717021
0.413397 0.820981 0.727626
0.492943 0.837278 0.736751
0.574746 0.851316 0.744228
0.655421 0.864485 0.751064
0.731548 0.876478 0.757229
0.799573 0.887907 0.763424
0.855573 0.899947 0.770077
0.905913 0.911986 0.776898
0.389853 0.919371 0.74815
0.467353 0.932433 0.757137
0.547417 0.942016 0.763851
0.626764 0.949264 0.768872
0.702251 0.955108 0.772839
0.772168 0.961089 0.77705
0.831159 0.968719 0.782269
0.882383 0.977981 0.788632
0.931517 0.987243 0.795071
0.444724 1 0.779461
0.520729 1 0.783871
0.597864 1 0.786969
0.673045 1 0.789441
0.74403 1 0.792294
0.807218 1 0.796185
0.860426 1 0.80209
0.91014 1 0.808789
0.959823 1 0.815259
