EA 50 Cinematic Luts Pack/EA_Cinematic Lut (5).cube
TITLE "Generated by Resolve"
LUT_3D_SIZE 33
0.196597 0.0667277 0.247471
0.204501 0.0696422 0.248814
0.21239 0.0725719 0.250156
0.220935 0.0753033 0.251484
0.229191 0.0781109 0.252811
0.237232 0.0808881 0.254108
0.245304 0.0838026 0.255451
0.253574 0.0869459 0.256886
0.262181 0.0899825 0.258289
0.27126 0.093019 0.259724
0.280873 0.095613 0.261021
0.291371 0.0977951 0.262226
0.303151 0.0995193 0.26331
0.315984 0.100938 0.264332
0.33019 0.10193 0.265232
0.344701 0.102861 0.266102
0.359991 0.103624 0.266926
0.375479 0.104173 0.267674
0.391516 0.104585 0.26836
0.408042 0.104906 0.269017
0.424933 0.10518 0.269642
0.442298 0.105379 0.270222
0.459892 0.105516 0.270787
0.477974 0.105684 0.271336
0.496208 0.105974 0.271916
0.514794 0.106233 0.27248
0.533455 0.106554 0.27303
0.552316 0.106874 0.273579
0.571206 0.107378 0.274144
0.590341 0.10811 0.274784
0.6094 0.1093 0.275547
0.628702 0.11046 0.276295
0.647532 0.111818 0.277073
0.197665 0.0844739 0.24773
0.205661 0.0873579 0.249134
0.213947 0.0899367 0.250523
0.222568 0.0929732 0.251987
0.230793 0.0961166 0.253452
0.238956 0.0992905 0.254826
0.247105 0.102373 0.256275
0.255467 0.105348 0.25745
0.264149 0.108141 0.258915
0.273289 0.110643 0.260136
0.283238 0.112886 0.261387
0.294301 0.114778 0.262562
0.306798 0.116213 0.26363
0.320516 0.117281 0.264607
0.334874 0.118151 0.265538
0.350072 0.118914 0.266407
0.365591 0.119631 0.267277
0.381537 0.120195 0.268055
0.398077 0.120623 0.268772
0.414786 0.121035 0.269459
0.432227 0.121324 0.270085
0.449729 0.121782 0.270756
0.467964 0.122332 0.271458
0.486229 0.122835 0.272129
0.50486 0.123247 0.27277
0.523674 0.123873 0.273442
0.54284 0.124697 0.274174
0.562097 0.125734 0.274952
0.581476 0.126802 0.275731
0.600824 0.128099 0.2766
0.620584 0.130068 0.277592
0.640162 0.132311 0.278691
0.659937 0.134783 0.279866
0.199039 0.102419 0.248295
0.207156 0.105592 0.24976
0.215824 0.108583 0.251209
0.224155 0.111574 0.252674
0.232319 0.114473 0.253971
0.240421 0.117281 0.255436
0.248676 0.120012 0.256901
0.257221 0.122744 0.258427
0.266316 0.125277 0.2598
0.275853 0.127565 0.261158
0.286534 0.129503 0.262394
0.298466 0.131075 0.263554
0.311757 0.132296 0.264591
0.325963 0.133318 0.265568
0.341024 0.134295 0.266575
0.356329 0.135134 0.267414
0.372244 0.13579 0.268223
0.388724 0.136416 0.269001
0.405463 0.137148 0.26981
0.422919 0.137789 0.270588
0.440421 0.13846 0.271351
0.458625 0.139071 0.272084
0.477028 0.140139 0.272938
0.495918 0.141146 0.273762
0.514946 0.142275 0.274601
0.534249 0.143404 0.27541
0.553689 0.144839 0.276326
0.573556 0.146685 0.277363
0.593591 0.148989 0.278599
0.613809 0.151568 0.27985
0.63386 0.15407 0.281086
0.653773 0.156893 0.282399
0.673747 0.160037 0.283803
0.201053 0.12076 0.249439
0.209552 0.123507 0.250843
0.21799 0.126192 0.252323
0.226184 0.128939 0.253849
0.234318 0.13167 0.25536
0.242512 0.134371 0.256855
0.250996 0.137102 0.258412
0.259815 0.13959 0.259831
0.269062 0.141955 0.261234
0.279484 0.14403 0.262531
0.29073 0.145922 0.263783
0.303746 0.147356 0.264897
0.317632 0.148562 0.265919
0.332418 0.149584 0.266911
0.347829 0.150759 0.267857
0.363561 0.151827 0.268788
0.380011 0.152789 0.269673
0.396643 0.153735 0.270527
0.414008 0.154665 0.271382
0.431647 0.15584 0.272297
0.45008 0.157122 0.273335
0.468574 0.158587 0.27425
0.487587 0.159884 0.275196
0.506767 0.161578 0.276173
0.526543 0.163622 0.277302
0.546487 0.165972 0.278523
0.566644 0.168368 0.279713
0.586801 0.170916 0.28098
0.607309 0.173999 0.282399
0.62768 0.177127 0.283879
0.648035 0.180423 0.285344
0.668269 0.18378 0.286839
0.688182 0.187335 0.28838
0.203464 0.137911 0.25095
0.212024 0.140505 0.252461
0.22031 0.14316 0.254002
0.228473 0.145815 0.255512
0.236606 0.148486 0.257038
0.244968 0.151141 0.258549
0.253666 0.153887 0.26006
0.262791 0.15642 0.261494
0.272786 0.158724 0.262821
0.283482 0.160861 0.264103
0.296056 0.16257 0.265248
0.309621 0.164157 0.266377
0.3243 0.165652 0.267506
0.33962 0.167056 0.268544
0.355245 0.168338 0.269596
0.371588 0.16968 0.270512
0.388266 0.171237 0.27155
0.405753 0.172778 0.272572
0.423346 0.174365 0.273548
0.441688 0.175967 0.274601
0.460472 0.178225 0.275776
0.479912 0.180514 0.277073
0.499458 0.183047 0.278325
0.519402 0.185534 0.279591
0.539528 0.18819 0.280873
0.559823 0.191135 0.282246
0.580392 0.194278 0.283726
0.600931 0.197818 0.285176
0.621454 0.20119 0.286625
0.641718 0.2047 0.28806
0.662043 0.208331 0.28954
0.682094 0.212146 0.291096
0.702007 0.216007 0.292622
0.206027 0.154665 0.252644
0.21442 0.157259 0.254154
0.222599 0.15996 0.255665
0.230762 0.162722 0.257176
0.239094 0.165591 0.258793
0.247654 0.168429 0.260227
0.256657 0.171069 0.261738
0.266209 0.173709 0.26305
0.276738 0.176242 0.264424
0.288609 0.1785 0.265705
0.301747 0.180423 0.26688
0.316106 0.182147 0.267994
0.33135 0.184131 0.269184
0.347097 0.186053 0.27042
0.363424 0.187961 0.271489
0.380026 0.189883 0.272602
0.397528 0.191882 0.273732
0.41532 0.194339 0.274983
0.434028 0.196979 0.276326
0.452934 0.199969 0.277684
0.472328 0.202716 0.279026
0.491859 0.205676 0.280308
0.511925 0.208804 0.281712
0.532189 0.2121 0.283177
0.552621 0.215396 0.284596
0.573236 0.218708 0.286046
0.593713 0.222568 0.287495
0.614206 0.2262 0.288884
0.634424 0.229984 0.290211
0.654521 0.233845 0.291539
0.674479 0.237827 0.292943
0.694301 0.241978 0.294377
0.713832 0.246296 0.29601
0.208392 0.171633 0.254185
0.216602 0.174456 0.25565
0.22475 0.177325 0.257099
0.232914 0.18024 0.258625
0.241474 0.183429 0.260121
0.25037 0.186481 0.261723
0.259724 0.189487 0.263142
0.269978 0.192279 0.264576
0.281117 0.195026 0.265919
0.294087 0.197559 0.267216
0.308049 0.200076 0.268589
0.323171 0.202579 0.269764
0.33872 0.204913 0.271015
0.354971 0.207477 0.272175
0.371817 0.210391 0.273579
0.389548 0.213397 0.274998
0.407385 0.216464 0.276387
0.425986 0.219471 0.27776
0.444877 0.223056 0.27924
0.464317 0.226459 0.28069
0.483848 0.230015 0.282002
0.503624 0.233539 0.283314
0.523735 0.237064 0.284627
0.543847 0.240742 0.285939
0.56437 0.244404 0.287327
0.584649 0.248325 0.288655
0.60531 0.252232 0.290135
0.625422 0.256229 0.291402
0.645624 0.260319 0.29276
0.66566 0.26453 0.294194
0.68545 0.268849 0.295598
0.705028 0.273274 0.297154
0.724544 0.27808 0.29868
0.210163 0.18938 0.255222
0.218341 0.192538 0.256672
0.226551 0.195865 0.258213
0.234943 0.199344 0.259709
0.243549 0.20267 0.261265
0.25275 0.206104 0.262684
0.26273 0.209613 0.264271
0.273671 0.213062 0.265782
0.285985 0.216175 0.26717
0.299565 0.219181 0.268574
0.314626 0.222553 0.269963
0.330297 0.225956 0.271489
0.346563 0.229465 0.272801
0.363165 0.232929 0.274144
0.38056 0.236423 0.275502
0.398291 0.240131 0.276936
0.416876 0.24387 0.278508
0.435599 0.247837 0.279927
0.455039 0.251637 0.281468
0.474479 0.255421 0.282734
0.494072 0.259297 0.284077
0.514214 0.263096 0.285389
0.534096 0.267002 0.286656
0.554482 0.270832 0.287968
0.574746 0.275074 0.289357
0.595376 0.279179 0.290852
0.615503 0.283375 0.292149
0.635889 0.287526 0.293599
0.655879 0.29189 0.295003
0.675868 0.296345 0.296468
0.695674 0.300954 0.298085
0.71516 0.305684 0.29958
0.734691 0.310735 0.301442
0.21117 0.208774 0.255604
0.219364 0.212314 0.257069
0.22768 0.216327 0.25864
0.236362 0.220325 0.260273
0.245243 0.224414 0.261692
0.25478 0.228397 0.263203
0.265293 0.232471 0.264668
0.277043 0.236713 0.26627
0.290639 0.240848 0.267948
0.305364 0.244968 0.269505
0.320928 0.248936 0.271153
0.337102 0.252888 0.272557
0.353704 0.257053 0.274113
0.37113 0.261189 0.275639
0.388693 0.265339 0.277119
0.407004 0.269337 0.27863
0.425635 0.273671 0.280095
0.444862 0.277745 0.281651
0.464134 0.281819 0.282948
0.483864 0.285771 0.284413
0.503777 0.289784 0.285679
0.523705 0.293919 0.287053
0.544167 0.297993 0.288548
0.564324 0.302205 0.28986
0.585077 0.306584 0.291493
0.60531 0.310933 0.292851
0.625834 0.315282 0.294377
0.64596 0.319799 0.295857
0.666117 0.324346 0.297368
0.686 0.329 0.299016
0.705791 0.333898 0.300664
0.725444 0.339055 0.302663
0.744564 0.344152 0.304372
0.211032 0.23061 0.255009
0.219257 0.23505 0.256519
0.227909 0.23949 0.258213
0.236728 0.244251 0.2598
0.246494 0.249241 0.261646
0.256931 0.254398 0.263447
0.26833 0.259342 0.265187
0.281346 0.263981 0.266926
0.29572 0.268833 0.268681
0.311254 0.273442 0.270527
0.327382 0.277989 0.272114
0.343984 0.282414 0.273854
0.361151 0.286809 0.275349
0.378653 0.291234 0.276921
0.396872 0.295552 0.278538
0.415366 0.299886 0.279988
0.43447 0.304341 0.281697
0.453788 0.308583 0.283055
0.473396 0.312825 0.284672
0.493324 0.317082 0.286061
0.513237 0.321355 0.287541
0.533684 0.325521 0.289082
0.553964 0.329992 0.290532
0.574792 0.334524 0.292226
0.595102 0.33901 0.293645
0.615641 0.343435 0.295216
0.635874 0.348043 0.296727
0.656123 0.352712 0.298344
0.676234 0.357488 0.300191
0.696101 0.362371 0.301854
0.715877 0.367468 0.303883
0.735271 0.372778 0.305745
0.754345 0.378027 0.307744
0.210468 0.255482 0.254017
0.219409 0.260884 0.256046
0.228458 0.266484 0.257939
0.238224 0.271931 0.259998
0.248341 0.277516 0.261906
0.259709 0.283101 0.26392
0.272251 0.288563 0.266072
0.286351 0.293751 0.267887
0.301656 0.298863 0.269932
0.317586 0.303655 0.271595
0.334142 0.308385 0.273472
0.351171 0.313069 0.275074
0.368566 0.317693 0.276783
0.386664 0.322164 0.278401
0.405173 0.326802 0.280034
0.424155 0.331472 0.281865
0.443397 0.335927 0.283345
0.462898 0.340322 0.285039
0.48275 0.344717 0.286473
0.502678 0.349187 0.288045
0.523171 0.353597 0.289662
0.543389 0.358099 0.291157
0.564233 0.362661 0.292897
0.58468 0.367391 0.294469
0.605386 0.371969 0.296193
0.625711 0.376699 0.297826
0.646036 0.38146 0.299535
0.666377 0.386221 0.301411
0.686229 0.391226 0.303166
0.706386 0.396475 0.305287
0.725795 0.40177 0.307164
0.745144 0.406989 0.309285
0.76379 0.412451 0.311284
0.211231 0.28368 0.254093
0.220356 0.289693 0.256153
0.230182 0.295796 0.258534
0.240406 0.302007 0.260731
0.251606 0.307973 0.263035
0.263554 0.313802 0.265202
0.277333 0.319402 0.267231
0.29218 0.324849 0.269398
0.307973 0.3299 0.271153
0.324376 0.334813 0.273091
0.341161 0.339712 0.274784
0.358602 0.344549 0.276616
0.376486 0.34934 0.278462
0.394797 0.354055 0.280095
0.413703 0.358862 0.282032
0.432929 0.363607 0.283665
0.452445 0.368231 0.285466
0.472251 0.372854 0.286992
0.492134 0.377462 0.28864
0.512566 0.381964 0.290272
0.532799 0.386618 0.291905
0.55378 0.39144 0.293858
0.574212 0.396216 0.295506
0.595026 0.400809 0.297368
0.615366 0.405631 0.299046
0.635828 0.410468 0.300832
0.656229 0.415366 0.302754
0.676265 0.420386 0.304555
0.696406 0.425422 0.30663
0.71606 0.430976 0.308705
0.735607 0.43621 0.310964
0.754467 0.441688 0.3131
0.773114 0.447211 0.315541
0.212787 0.31426 0.25481
0.222538 0.320638 0.257313
0.232609 0.327062 0.259586
0.243488 0.333379 0.262043
0.255222 0.339559 0.264347
0.268238 0.345434 0.266484
0.282765 0.35111 0.268772
0.298375 0.356512 0.270726
0.314717 0.361685 0.272816
0.33135 0.366873 0.274662
0.348699 0.371862 0.2766
0.366308 0.376852 0.278508
0.384573 0.381765 0.280262
0.403433 0.386923 0.282353
0.422538 0.391791 0.284047
0.441947 0.396521 0.285924
0.461692 0.401266 0.287556
0.48159 0.406027 0.289357
0.502007 0.410712 0.291218
0.522225 0.415488 0.292897
0.543008 0.420172 0.294835
0.563714 0.425223 0.296666
0.584527 0.429969 0.298619
0.605081 0.434836 0.300343
0.625727 0.439689 0.302327
0.646113 0.444633 0.304173
0.666178 0.449714 0.306142
0.686534 0.454887 0.308415
0.706233 0.460365 0.310597
0.725948 0.465568 0.312978
0.7449 0.471031 0.315206
0.76379 0.476493 0.317693
0.781964 0.4822 0.320195
0.215061 0.346014 0.256138
0.224964 0.352743 0.258549
0.235645 0.359258 0.261112
0.247013 0.365667 0.263462
0.259434 0.371923 0.265812
0.273777 0.378027 0.268345
0.288853 0.383673 0.270436
0.304982 0.389013 0.272648
0.321553 0.394339 0.274586
0.338766 0.399588 0.276661
0.356329 0.404807 0.27866
0.374426 0.409918 0.280522
0.392981 0.414984 0.282597
0.412161 0.420218 0.284504
0.431495 0.425147 0.286564
0.451225 0.43006 0.28835
0.471183 0.434882 0.290394
0.491417 0.439704 0.292241
0.511635 0.444587 0.294041
0.532525 0.449485 0.296117
0.553124 0.454566 0.297978
0.573999 0.459342 0.299977
0.594705 0.464225 0.301778
0.61532 0.469139 0.303944
0.635843 0.474128 0.30602
0.656031 0.47921 0.30808
0.676326 0.48426 0.310414
0.696315 0.489815 0.312734
0.716136 0.495018 0.31519
0.735241 0.500465 0.317433
0.754376 0.505867 0.319951
0.772702 0.511513 0.322423
0.790417 0.517311 0.325002
0.21738 0.378744 0.257527
0.228 0.385519 0.260258
0.239048 0.392264 0.262867
0.251087 0.398779 0.265293
0.264744 0.404944 0.267857
0.2795 0.411093 0.270191
0.295567 0.416678 0.272541
0.311879 0.422293 0.274632
0.329046 0.427634 0.276875
0.34638 0.433021 0.278889
0.36434 0.438315 0.280934
0.38294 0.443687 0.283238
0.401907 0.448997 0.285252
0.421134 0.454032 0.287434
0.440772 0.459037 0.289326
0.460685 0.464012 0.291478
0.480903 0.468956 0.2934
0.501213 0.473899 0.295354
0.521859 0.478737 0.297398
0.542672 0.483986 0.299443
0.563516 0.488853 0.30164
0.584207 0.493797 0.303624
0.604929 0.498711 0.305943
0.625513 0.503685 0.30811
0.645777 0.508782 0.310277
0.666194 0.513817 0.312657
0.68629 0.519326 0.315007
0.706233 0.524529 0.31751
0.725536 0.5299 0.319799
0.744793 0.535241 0.322377
0.763287 0.540795 0.325017
0.781445 0.546441 0.327535
0.798611 0.552346 0.330556
0.220478 0.412207 0.259556
0.231205 0.41915 0.262272
0.243046 0.425895 0.264866
0.256168 0.432563 0.267689
0.270558 0.43888 0.270115
0.286183 0.444694 0.272572
0.302312 0.450446 0.274784
0.319402 0.456001 0.277195
0.336599 0.461601 0.279484
0.354589 0.466972 0.281712
0.372778 0.472328 0.28397
0.39176 0.477928 0.286198
0.410956 0.483116 0.288502
0.430488 0.488273 0.290501
0.450324 0.493324 0.292729
0.470466 0.498344 0.294728
0.490867 0.503319 0.296864
0.511391 0.508293 0.299107
0.532296 0.513527 0.30132
0.553063 0.518441 0.3037
0.573816 0.523384 0.305791
0.594553 0.528313 0.308202
0.615213 0.533303 0.310399
0.635554 0.538369 0.312642
0.656092 0.543374 0.315053
0.676265 0.548867 0.317479
0.69633 0.553964 0.320043
0.71574 0.559274 0.322408
0.735164 0.564538 0.325124
0.753902 0.569986 0.327749
0.772229 0.575509 0.330312
0.789822 0.581186 0.333272
0.806653 0.587274 0.336126
0.223835 0.446403 0.26183
0.235401 0.453346 0.264729
0.247761 0.460121 0.26746
0.261845 0.466865 0.270176
0.277073 0.472969 0.272877
0.293065 0.47892 0.275257
0.309957 0.484596 0.277836
0.326986 0.490318 0.280232
0.344884 0.495827 0.282612
0.362966 0.501411 0.285008
0.381842 0.507088 0.287327
0.4009 0.512367 0.289738
0.420325 0.517601 0.291875
0.440116 0.522728 0.294301
0.460182 0.527825 0.296574
0.480476 0.532876 0.298848
0.501015 0.537835 0.301213
0.521935 0.54313 0.303563
0.542672 0.548058 0.30602
0.56347 0.553002 0.308186
0.584268 0.557931 0.310643
0.604959 0.56289 0.312871
0.625406 0.567895 0.315221
0.645991 0.572854 0.317739
0.666133 0.578134 0.320165
0.686488 0.583307 0.322896
0.705959 0.58854 0.325338
0.725536 0.593668 0.328054
0.744381 0.599008 0.330648
0.763088 0.604349 0.333379
0.781064 0.609888 0.336141
0.798062 0.615946 0.339055
0.814557 0.621836 0.342229
0.227863 0.481056 0.264668
0.240085 0.488121 0.267643
0.253452 0.495125 0.270604
0.26833 0.501396 0.273457
0.284001 0.507515 0.276005
0.30074 0.513375 0.278721
0.317693 0.519234 0.281224
0.335439 0.52488 0.283757
0.353338 0.530495 0.286244
0.372122 0.536309 0.288746
0.391104 0.54168 0.291356
0.410422 0.547005 0.293706
0.430213 0.552163 0.296315
0.45008 0.557321 0.298756
0.470451 0.562356 0.301152
0.490822 0.567407 0.303624
0.51162 0.572564 0.305974
0.532464 0.57763 0.308568
0.553292 0.582559 0.310796
0.574075 0.587442 0.313359
0.594827 0.59234 0.31577
0.615503 0.597269 0.318257
0.635981 0.602213 0.320745
0.656336 0.607492 0.323293
0.676646 0.612467 0.325994
0.696254 0.617578 0.328435
0.715999 0.622614 0.331167
0.734997 0.627848 0.33373
0.753872 0.633021 0.336492
0.772015 0.638361 0.339239
0.789197 0.643992 0.342031
0.80621 0.649912 0.345296
0.821851 0.655848 0.348272
0.232624 0.516136 0.268101
0.245487 0.523445 0.27129
0.260029 0.529961 0.274296
0.275257 0.536309 0.277012
0.291859 0.542275 0.27985
0.308644 0.548226 0.28246
0.326253 0.553964 0.285237
0.344045 0.559686 0.287938
0.3626 0.565469 0.290593
0.381506 0.571008 0.293477
0.400748 0.576364 0.295964
0.420523 0.581552 0.298695
0.440238 0.586786 0.301213
0.460639 0.591806 0.303777
0.480858 0.596887 0.306279
0.501701 0.602136 0.308766
0.522438 0.607065 0.311437
0.543267 0.611963 0.313787
0.56408 0.616815 0.316472
0.584894 0.621653 0.318959
0.60557 0.626474 0.321508
0.626123 0.631327 0.324025
0.646464 0.636271 0.326513
0.666957 0.641428 0.32929
0.686824 0.646372 0.331731
0.706493 0.651286 0.334493
0.725719 0.656306 0.337148
0.744717 0.661372 0.339849
0.763088 0.66656 0.342626
0.780743 0.672023 0.345418
0.797833 0.677623 0.348577
0.813672 0.683345 0.351492
0.829374 0.689052 0.354757
0.238148 0.551751 0.272175
0.252064 0.558587 0.275425
0.266972 0.565087 0.278325
0.283314 0.571191 0.281392
0.299916 0.577249 0.284337
0.317418 0.583062 0.287251
0.335073 0.58883 0.290135
0.353521 0.594766 0.293019
0.372351 0.600244 0.295949
0.391379 0.605676 0.298558
0.411017 0.610895 0.301381
0.430716 0.616129 0.30396
0.450996 0.621149 0.306661
0.471168 0.626215 0.3093
0.49192 0.631174 0.311894
0.512673 0.636347 0.314702
0.533471 0.641184 0.317143
0.554284 0.645945 0.319875
0.575113 0.65069 0.322377
0.59585 0.655451 0.325002
0.61651 0.660212 0.32755
0.636957 0.665125 0.330129
0.65745 0.670008 0.332845
0.677302 0.674861 0.335317
0.697139 0.679652 0.338094
0.716579 0.684504 0.340749
0.735592 0.689387 0.343465
0.754147 0.694347 0.346197
0.772076 0.699458 0.348898
0.789425 0.70489 0.352041
0.805737 0.710475 0.354971
0.821485 0.715923 0.35819
0.836347 0.721569 0.361379
0.244617 0.587228 0.277028
0.25922 0.593851 0.280186
0.27512 0.600092 0.283513
0.291585 0.60621 0.286625
0.308965 0.61207 0.289708
0.326528 0.617884 0.292714
0.344793 0.623606 0.29572
0.363561 0.629374 0.298726
0.382345 0.634852 0.301457
0.401938 0.640055 0.304417
0.421454 0.645289 0.307225
0.441703 0.650294 0.310002
0.461799 0.655329 0.312764
0.482582 0.660334 0.315526
0.503182 0.665339 0.318318
0.523949 0.670115 0.32079
0.544778 0.674815 0.323568
0.565606 0.6795 0.32607
0.586404 0.684108 0.32874
0.60705 0.688716 0.331334
0.627558 0.693355 0.333867
0.648096 0.698177 0.336675
0.668208 0.702953 0.339208
0.688045 0.707561 0.341985
0.707515 0.712245 0.344564
0.72665 0.716991 0.347311
0.745449 0.721767 0.350027
0.763531 0.72665 0.352712
0.781292 0.731823 0.355825
0.797772 0.737072 0.358694
0.813748 0.742336 0.361944
0.828885 0.747784 0.365118
0.843763 0.753155 0.368277
0.251911 0.622507 0.282567
0.267399 0.628885 0.286091
0.283696 0.635065 0.289296
0.300877 0.64097 0.292531
0.318257 0.646845 0.295659
0.336538 0.652644 0.298833
0.355047 0.658335 0.301946
0.37377 0.663783 0.30486
0.393179 0.669017 0.307927
0.412589 0.67422 0.310857
0.432731 0.679179 0.313726
0.45272 0.684153 0.316564
0.47335 0.688945 0.319295
0.493965 0.693965 0.322194
0.514794 0.698741 0.324773
0.535561 0.703334 0.327565
0.556359 0.707881 0.33019
0.577173 0.712413 0.332845
0.597864 0.716915 0.33547
0.618601 0.721355 0.338018
0.639063 0.726101 0.340856
0.659236 0.730587 0.343343
0.679179 0.735073 0.346136
0.698741 0.739605 0.348714
0.717983 0.744091 0.351446
0.736828 0.748638 0.354147
0.755199 0.753277 0.356909
0.773098 0.758053 0.359792
0.789929 0.763272 0.362753
0.806165 0.7682 0.365911
0.821424 0.773358 0.368994
0.836454 0.778561 0.372198
0.850858 0.783841 0.375418
0.260319 0.657496 0.289021
0.27631 0.663737 0.292332
0.293233 0.669703 0.29575
0.310597 0.675517 0.299031
0.328466 0.681193 0.302296
0.346929 0.686976 0.305623
0.365606 0.69247 0.308721
0.384817 0.697658 0.311864
0.404135 0.702831 0.314809
0.42414 0.707759 0.317784
0.444068 0.712703 0.320684
0.464637 0.717418 0.323491
0.485206 0.722393 0.326467
0.505928 0.726955 0.329061
0.526696 0.731472 0.331945
0.547524 0.735897 0.334615
0.568338 0.740246 0.33727
0.588983 0.744595 0.339895
0.60972 0.748882 0.342489
0.630091 0.753323 0.34519
0.650538 0.757824 0.347784
0.670466 0.762081 0.350561
0.690135 0.766354 0.353216
0.709529 0.770687 0.355917
0.728496 0.775067 0.358648
0.747082 0.779431 0.361364
0.765179 0.783993 0.364202
0.782315 0.7888 0.367102
0.79881 0.793545 0.370153
0.814206 0.798505 0.37319
0.829389 0.803372 0.376349
0.843763 0.808377 0.379553
0.858061 0.813367 0.382757
0.269398 0.692164 0.29601
0.286076 0.698161 0.299504
0.303288 0.70399 0.302937
0.320989 0.709697 0.306355
0.339361 0.715434 0.309789
0.357824 0.720821 0.312932
0.376944 0.725994 0.316152
0.396139 0.731106 0.319158
0.415991 0.735958 0.32221
0.435798 0.74078 0.325154
0.456245 0.745403 0.328038
0.4766 0.750134 0.330968
0.497444 0.754803 0.333745
0.518242 0.759091 0.336614
0.538933 0.763409 0.339284
0.559899 0.767605 0.341985
0.580484 0.771862 0.344671
0.601282 0.775937 0.347265
0.621653 0.78024 0.349996
0.642191 0.784421 0.352636
0.662058 0.788586 0.355352
0.681865 0.792691 0.358022
0.701259 0.796765 0.360678
0.720333 0.800839 0.363363
0.739071 0.80499 0.366064
0.757259 0.809247 0.368841
0.774975 0.81384 0.37174
0.791547 0.818265 0.374716
0.807187 0.822889 0.377752
0.822553 0.827558 0.380835
0.837095 0.832349 0.384039
0.851377 0.837018 0.387182
0.865171 0.841703 0.390356
0.279438 0.726299 0.303761
0.296422 0.732097 0.307286
0.31397 0.737728 0.310719
0.332052 0.743313 0.314168
0.3505 0.748852 0.31751
0.369482 0.753902 0.32079
0.388495 0.758938 0.323964
0.408286 0.763729 0.327031
0.428 0.76849 0.330083
0.44831 0.772976 0.332998
0.468635 0.77763 0.335988
0.489448 0.782025 0.338842
0.510002 0.786328 0.341634
0.530724 0.790494 0.344289
0.551675 0.794476 0.347036
0.572198 0.79852 0.349737
0.593042 0.802441 0.352361
0.613397 0.806439 0.355062
0.634089 0.810575 0.357824
0.653986 0.814466 0.360479
0.673793 0.818326 0.363043
0.693294 0.822232 0.365743
0.712535 0.826139 0.368429
0.731319 0.83003 0.371099
0.749691 0.833951 0.373846
0.767681 0.838193 0.37673
0.784604 0.84239 0.379705
0.800702 0.846662 0.382696
0.815976 0.850996 0.385702
0.830655 0.855375 0.388785
0.844999 0.8598 0.391897
0.858854 0.864225 0.395071
0.872511 0.868696 0.398199
0.290135 0.759869 0.312047
0.307485 0.765423 0.315557
0.325414 0.771023 0.319112
0.343755 0.776349 0.322545
0.362463 0.78143 0.325856
0.381353 0.786374 0.329107
0.400992 0.791028 0.332219
0.420554 0.795636 0.335302
0.440787 0.800046 0.338262
0.46099 0.804395 0.341207
0.481788 0.808865 0.344213
0.502312 0.812924 0.34699
0.522896 0.816922 0.349798
0.543801 0.820798 0.352468
0.56434 0.824704 0.355215
0.585184 0.828397 0.357855
0.605554 0.832181 0.360555
0.626291 0.836042 0.363287
0.646342 0.839765 0.365988
0.666224 0.843427 0.368551
0.685817 0.847028 0.371237
0.705074 0.850629 0.373892
0.723995 0.854307 0.376577
0.742611 0.857969 0.379355
0.760815 0.861906 0.382223
0.778103 0.865583 0.385122
0.794415 0.869474 0.388083
0.810086 0.873487 0.39115
0.82504 0.877485 0.394232
0.839261 0.881376 0.397208
0.852979 0.885145 0.400183
0.866529 0.889036 0.403235
0.879789 0.892882 0.406317
0.301457 0.792676 0.320806
0.319112 0.798016 0.324361
0.337438 0.803464 0.327977
0.355901 0.808408 0.331319
0.374746 0.813199 0.33463
0.394125 0.817823 0.337758
0.413581 0.822354 0.340917
0.433707 0.826581 0.343908
0.453941 0.830777 0.346914
0.47451 0.835035 0.349966
0.495094 0.838972 0.35285
0.515618 0.842817 0.355718
0.536431 0.846479 0.358373
0.556924 0.850126 0.361105
0.577813 0.853651 0.36376
0.59823 0.857221 0.366506
0.61915 0.860868 0.369299
0.639216 0.864271 0.37203
0.659312 0.867613 0.374746
0.679118 0.871 0.377447
0.698589 0.874357 0.380194
0.717739 0.877623 0.382849
0.736294 0.880919 0.385565
0.754742 0.884382 0.388357
0.772366 0.887892 0.391241
0.788861 0.89134 0.394034
0.804532 0.894697 0.396933
0.819394 0.898085 0.399832
0.833722 0.901579 0.402777
0.847623 0.905058 0.405768
0.861173 0.908629 0.408774
0.87422 0.91191 0.411673
0.886961 0.915145 0.414572
0.313512 0.82472 0.330159
0.331579 0.829984 0.333806
0.349981 0.834852 0.337255
0.368704 0.839551 0.340597
0.387869 0.844007 0.343801
0.407248 0.848325 0.34699
0.427192 0.852461 0.350072
