EA 50 Cinematic Luts Pack/EA_Cinematic Lut (34).cube
TITLE "A heated grading that will bring out the natural lighting and stabilize shadows and midtones of the shot."
LUT_3D_SIZE 9
0.0000 0.0000 0.0000
0.0741 0.0000 0.0006
0.1781 0.0000 0.0020
0.3011 0.0000 0.0044
0.4342 0.0000 0.0079
0.5730 0.0000 0.0129
0.7258 0.0000 0.0193
0.8755 0.0000 0.0264
1.0000 0.0164 0.0416
0.0306 0.0705 0.0177
0.0805 0.0732 0.0140
0.1984 0.0664 0.0000
0.3216 0.0622 0.0000
0.4564 0.0562 0.0000
0.5969 0.0499 0.0000
0.7500 0.0422 0.0000
0.8977 0.0306 0.0000
1.0000 0.0882 0.0597
0.0773 0.1508 0.0530
0.1097 0.1533 0.0528
0.1929 0.1568 0.0425
0.3347 0.1507 0.0172
0.4783 0.1433 0.0000
0.6187 0.1408 0.0000
0.7719 0.1356 0.0000
0.9161 0.1296 0.0000
1.0000 0.1764 0.0985
0.1385 0.2452 0.1066
0.1667 0.2469 0.1077
0.2268 0.2519 0.1045
0.3312 0.2564 0.0898
0.4850 0.2512 0.0542
0.6459 0.2432 0.0090
0.8011 0.2373 0.0000
0.9349 0.2352 0.0000
1.0000 0.2798 0.1444
0.2152 0.3582 0.1632
0.2389 0.3595 0.1649
0.2866 0.3642 0.1634
0.3675 0.3709 0.1583
0.4847 0.3760 0.1417
0.6485 0.3705 0.1085
0.8156 0.3617 0.0533
0.9582 0.3503 0.0000
1.0000 0.3967 0.2025
0.2991 0.4823 0.2203
0.3198 0.4830 0.2224
0.3597 0.4864 0.2220
0.4256 0.4919 0.2195
0.5166 0.4981 0.2108
0.6440 0.5019 0.1928
0.8106 0.4954 0.1614
0.9568 0.4854 0.1118
0.9974 0.5168 0.2696
0.3844 0.6134 0.2759
0.4019 0.6137 0.2778
0.4361 0.6164 0.2781
0.4893 0.6214 0.2759
0.5666 0.6277 0.2719
0.6702 0.6352 0.2600
0.8005 0.6381 0.2416
0.9470 0.6281 0.2115
0.9846 0.6574 0.3888
0.4682 0.7943 0.3344
0.4825 0.7944 0.3364
0.5119 0.7963 0.3377
0.5583 0.8012 0.3362
0.6259 0.8081 0.3324
0.7142 0.8156 0.3250
0.8193 0.8230 0.3074
0.9325 0.8241 0.3184
0.9742 0.8374 0.5635
0.7087 0.9021 0.5609
0.7173 0.9024 0.5645
0.7365 0.9037 0.5721
0.7647 0.9075 0.5824
0.8026 0.9136 0.5970
0.8497 0.9217 0.6189
0.9005 0.9329 0.6471
0.9494 0.9476 0.6821
0.9853 0.9643 0.8260
0.0038 0.0046 0.0268
0.0664 0.0073 0.0415
0.1801 0.0000 0.0447
0.3027 0.0000 0.0448
0.4353 0.0000 0.0486
0.5741 0.0000 0.0532
0.7266 0.0000 0.0595
0.8762 0.0000 0.0670
1.0000 0.0198 0.0818
0.0233 0.0732 0.0504
0.0731 0.0764 0.0531
0.1876 0.0723 0.0456
0.3211 0.0640 0.0402
0.4623 0.0518 0.0338
0.6099 0.0308 0.0253
0.7667 0.0000 0.0168
0.9060 0.0000 0.0243
1.0000 0.0899 0.0911
0.0765 0.1520 0.0812
0.0960 0.1575 0.0719
0.1904 0.1585 0.0715
0.3305 0.1531 0.0550
0.4778 0.1445 0.0405
0.6328 0.1323 0.0259
0.7946 0.1156 0.0029
0.9326 0.1074 0.0000
1.0000 0.1774 0.1218
0.1372 0.2462 0.1254
0.1547 0.2502 0.1188
0.2247 0.2533 0.1223
0.3297 0.2577 0.1112
0.4830 0.2527 0.0867
0.6433 0.2449 0.0556
0.8077 0.2344 0.0261
0.9489 0.2234 0.0000
1.0000 0.2804 0.1622
0.2124 0.3594 0.1757
0.2274 0.3625 0.1716
0.2862 0.3650 0.1764
0.3664 0.3719 0.1721
0.4837 0.3770 0.1574
0.6462 0.3719 0.1299
0.8135 0.3632 0.0892
0.9577 0.3511 0.0463
1.0000 0.3973 0.2135
0.2946 0.4837 0.2285
0.3084 0.4857 0.2264
0.3587 0.4871 0.2312
0.4238 0.4929 0.2287
0.5150 0.4991 0.2211
0.6432 0.5027 0.2048
0.8090 0.4964 0.1768
0.9556 0.4864 0.1350
0.9980 0.5170 0.2766
0.3781 0.6152 0.2810
0.3916 0.6164 0.2806
0.4341 0.6173 0.2849
0.4891 0.6219 0.2840
0.5653 0.6286 0.2796
0.6688 0.6362 0.2684
0.7999 0.6389 0.2510
0.9460 0.6290 0.2231
0.9853 0.6577 0.3944
0.4606 0.7970 0.3378
0.4740 0.7974 0.3394
0.5089 0.7978 0.3441
0.5581 0.8017 0.3446
0.6245 0.8090 0.3400
0.7135 0.8163 0.3333
0.8182 0.8238 0.3153
0.9306 0.8245 0.3381
0.9747 0.8379 0.5662
0.7070 0.9031 0.5638
0.7148 0.9037 0.5667
0.7358 0.9045 0.5755
0.7642 0.9082 0.5858
0.8024 0.9142 0.6005
0.8495 0.9223 0.6221
0.9004 0.9334 0.6503
0.9494 0.9481 0.6853
0.9855 0.9648 0.8284
0.0133 0.0164 0.0816
0.0610 0.0248 0.0958
0.1588 0.0259 0.1185
0.3008 0.0064 0.1261
0.4382 0.0000 0.1256
0.5771 0.0000 0.1257
0.7292 0.0000 0.1311
0.8781 0.0000 0.1378
1.0000 0.0268 0.1490
0.0164 0.0760 0.1280
0.0741 0.0791 0.1223
0.1695 0.0816 0.1272
0.3126 0.0716 0.1263
0.4569 0.0597 0.1249
0.6063 0.0404 0.1220
0.7670 0.0030 0.1168
0.9072 0.0000 0.1196
1.0000 0.0927 0.1548
0.0636 0.1563 0.1363
0.0908 0.1599 0.1376
0.1755 0.1631 0.1420
0.3166 0.1602 0.1258
0.4615 0.1547 0.1275
0.6144 0.1468 0.1221
0.7763 0.1356 0.1146
0.9249 0.1221 0.1064
1.0000 0.1799 0.1687
0.1337 0.2488 0.1656
0.1509 0.2526 0.1639
0.1911 0.2627 0.1499
0.3253 0.2611 0.1537
0.4774 0.2566 0.1443
0.6352 0.2499 0.1355
0.7994 0.2407 0.1258
0.9450 0.2283 0.1112
1.0000 0.2821 0.2010
0.2138 0.3609 0.2086
0.2266 0.3644 0.2046
0.2573 0.3731 0.1938
0.3593 0.3756 0.2005
0.4807 0.3798 0.1918
0.6421 0.3749 0.1745
0.8086 0.3668 0.1533
0.9532 0.3552 0.1355
1.0000 0.3989 0.2392
0.2971 0.4845 0.2560
0.3066 0.4873 0.2519
0.3349 0.4933 0.2434
0.4128 0.4968 0.2475
0.5118 0.5012 0.2461
0.6407 0.5046 0.2326
0.8050 0.4990 0.2107
0.9524 0.4890 0.1816
0.9994 0.5176 0.2952
0.3807 0.6157 0.3043
0.3882 0.6183 0.3003
0.4129 0.6235 0.2940
0.4799 0.6258 0.2987
0.5625 0.6307 0.2988
0.6659 0.6384 0.2894
0.7979 0.6408 0.2740
0.9436 0.6315 0.2502
0.9871 0.6586 0.4082
0.4630 0.7974 0.3642
0.4688 0.8000 0.3595
0.4905 0.8045 0.3536
0.5484 0.8058 0.3600
0.6234 0.8105 0.3619
0.7117 0.8179 0.3553
0.8154 0.8258 0.3366
0.9259 0.8258 0.3869
0.9758 0.8392 0.5731
0.7108 0.9033 0.5775
0.7154 0.9048 0.5780
0.7299 0.9076 0.5813
0.7626 0.9101 0.5944
0.8016 0.9158 0.6093
0.8488 0.9240 0.6303
0.9002 0.9349 0.6584
0.9495 0.9494 0.6936
0.9860 0.9661 0.8347
0.0299 0.0360 0.1465
0.0674 0.0412 0.1602
0.1434 0.0542 0.1709
0.2721 0.0508 0.1973
0.4241 0.0336 0.2088
0.5811 0.0000 0.2080
0.7331 0.0000 0.2111
0.8818 0.0000 0.2122
1.0000 0.0396 0.2215
0.0346 0.0815 0.1893
0.0799 0.0855 0.1857
0.1609 0.0919 0.1905
0.2819 0.0936 0.2043
0.4350 0.0831 0.2105
0.5953 0.0623 0.2103
0.7601 0.0332 0.2097
0.9097 0.0000 0.2080
1.0000 0.0982 0.2261
0.0573 0.1589 0.2154
0.0884 0.1620 0.2163
0.1769 0.1656 0.2132
0.2961 0.1684 0.2147
0.4576 0.1591 0.2109
0.6112 0.1510 0.2119
0.7711 0.1423 0.2124
0.9220 0.1287 0.2096
1.0000 0.1828 0.2375
0.1132 0.2546 0.2251
0.1366 0.2574 0.2261
0.1964 0.2630 0.2289
0.3045 0.2672 0.2344
0.4632 0.2652 0.2104
0.6155 0.2612 0.2162
0.7786 0.2553 0.2158
0.9281 0.2463 0.2105
1.0000 0.2851 0.2537
0.2043 0.3655 0.2547
0.2205 0.3681 0.2550
0.2552 0.3756 0.2530
0.3249 0.3869 0.2378
0.4748 0.3850 0.2382
0.6349 0.3801 0.2336
0.7986 0.3735 0.2272
0.9440 0.3635 0.2220
1.0000 0.4012 0.2847
0.2951 0.4871 0.2961
0.3052 0.4895 0.2948
0.3305 0.4958 0.2903
0.3749 0.5072 0.2724
0.4949 0.5081 0.2796
0.6360 0.5082 0.2746
0.8001 0.5026 0.2613
0.9471 0.4933 0.2452
1.0000 0.5193 0.3322
0.3818 0.6173 0.3469
0.3903 0.6197 0.3434
0.4105 0.6260 0.3336
0.4459 0.6373 0.3193
0.5464 0.6379 0.3278
0.6580 0.6433 0.3242
0.7941 0.6446 0.3112
0.9310 0.6387 0.3119
0.9904 0.6601 0.4327
0.4652 0.7986 0.4099
0.4716 0.8010 0.4059
0.4871 0.8073 0.3949
0.5208 0.8159 0.3807
0.6010 0.8192 0.3863
0.7055 0.8218 0.3920
0.8105 0.8293 0.3759
0.9188 0.8282 0.4594
0.9780 0.8413 0.5856
0.7165 0.9040 0.6006
0.7214 0.9054 0.6013
0.7333 0.9089 0.6029
0.7558 0.9145 0.6069
0.7997 0.9189 0.6247
0.8470 0.9270 0.6445
0.8996 0.9376 0.6728
0.9497 0.9517 0.7084
0.9870 0.9685 0.8461
0.0483 0.0566 0.2095
0.0778 0.0590 0.2244
0.1469 0.0714 0.2321
0.2511 0.0834 0.2477
0.3963 0.0768 0.2772
0.5557 0.0608 0.2913
0.7332 0.0143 0.2963
0.8856 0.0000 0.2978
1.0000 0.0523 0.3018
0.0543 0.0921 0.2461
0.0896 0.0962 0.2450
0.1624 0.1024 0.2546
0.2661 0.1127 0.2615
0.4051 0.1114 0.2830
0.5627 0.1017 0.2948
0.7419 0.0756 0.2969
0.9039 0.0386 0.2994
1.0000 0.1055 0.3041
0.0503 0.1640 0.2896
0.0963 0.1657 0.2866
0.1798 0.1710 0.2794
0.2896 0.1760 0.2836
0.4215 0.1792 0.2943
0.5823 0.1719 0.2996
0.7593 0.1565 0.2991
0.9138 0.1433 0.3019
1.0000 0.1880 0.3099
0.1078 0.2576 0.3057
0.1330 0.2600 0.3077
0.1918 0.2660 0.3101
0.3067 0.2700 0.3082
0.4399 0.2738 0.3074
0.6142 0.2646 0.3005
0.7836 0.2556 0.2994
0.9268 0.2495 0.3030
1.0000 0.2885 0.3264
0.1786 0.3727 0.3205
0.1977 0.3750 0.3214
0.2419 0.3809 0.3237
0.3261 0.3878 0.3286
0.4490 0.3923 0.3365
0.6204 0.3894 0.2975
0.7787 0.3857 0.3033
0.9201 0.3821 0.3118
1.0000 0.4045 0.3497
0.2789 0.4928 0.3565
0.2924 0.4947 0.3568
0.3251 0.4994 0.3576
0.3707 0.5096 0.3511
0.4770 0.5157 0.3365
0.6275 0.5144 0.3246
0.7917 0.5083 0.3243
0.9210 0.5076 0.3364
1.0000 0.5226 0.3917
0.3749 0.6215 0.4108
0.3837 0.6237 0.4096
0.4052 0.6295 0.4062
0.4410 0.6403 0.3984
0.4923 0.6585 0.3630
0.6370 0.6543 0.3749
0.7885 0.6503 0.3713
0.9126 0.6493 0.4073
0.9954 0.6620 0.4700
0.4637 0.8017 0.4710
0.4702 0.8039 0.4695
0.4866 0.8095 0.4646
0.5154 0.8192 0.4509
0.5794 0.8272 0.4429
0.6971 0.8257 0.4657
0.8089 0.8297 0.4709
0.9102 0.8320 0.5326
0.9814 0.8443 0.6051
0.7230 0.9058 0.6323
0.7281 0.9070 0.6334
0.7407 0.9102 0.6359
0.7618 0.9161 0.6397
0.7925 0.9247 0.6449
0.8452 0.9312 0.6676
0.8988 0.9415 0.6950
0.9498 0.9553 0.7307
0.9885 0.9721 0.8633
0.0678 0.0777 0.2727
0.0918 0.0782 0.2896
0.1564 0.0887 0.2964
0.2501 0.1034 0.3078
0.3720 0.1138 0.3322
0.5272 0.1049 0.3759
0.7009 0.0891 0.4011
0.8745 0.0566 0.4142
1.0000 0.0668 0.4111
0.0740 0.1067 0.3040
0.1037 0.1106 0.3042
0.1693 0.1155 0.3207
0.2640 0.1284 0.3257
0.3843 0.1383 0.3451
0.5350 0.1340 0.3834
0.7074 0.1228 0.4060
0.8812 0.0982 0.4161
1.0000 0.1142 0.4140
0.0767 0.1704 0.3629
0.1136 0.1726 0.3602
0.1894 0.1784 0.3538
0.2878 0.1855 0.3635
0.4087 0.1940 0.3737
0.5515 0.1952 0.3996
0.7215 0.1889 0.4170
0.8960 0.1696 0.4190
1.0000 0.1932 0.4225
0.0943 0.2629 0.4147
0.1216 0.2654 0.4154
0.1919 0.2706 0.4130
0.3095 0.2753 0.4028
0.4356 0.2806 0.4079
0.5727 0.2849 0.4208
0.7477 0.2780 0.4256
0.9148 0.2631 0.4220
1.0000 0.2925 0.4374
0.1751 0.3761 0.4364
0.1955 0.3781 0.4387
0.2431 0.3832 0.4440
0.3248 0.3904 0.4505
0.4517 0.3952 0.4463
0.5919 0.3986 0.4402
0.7775 0.3881 0.4264
0.9203 0.3857 0.4185
1.0000 0.4079 0.4534
0.2504 0.4998 0.4575
0.2660 0.5015 0.4583
0.3031 0.5058 0.4602
0.3658 0.5127 0.4637
0.4645 0.5189 0.4698
0.5948 0.5213 0.4781
0.7760 0.5174 0.4177
0.9068 0.5172 0.4421
0.9999 0.5260 0.4807
0.3537 0.6290 0.4921
0.3650 0.6308 0.4924
0.3929 0.6353 0.4931
0.4386 0.6437 0.4934
0.4895 0.6603 0.4823
0.6184 0.6634 0.4724
0.7786 0.6604 0.4417
0.9061 0.6570 0.4892
0.9996 0.6645 0.5269
0.4517 0.8076 0.5394
0.4593 0.8095 0.5386
0.4779 0.8143 0.5365
0.5092 0.8226 0.5323
0.5749 0.8293 0.5335
0.6613 0.8389 0.5208
0.7933 0.8372 0.5405
0.9067 0.8379 0.5834
0.9868 0.8479 0.6339
0.7279 0.9093 0.6720
0.7333 0.9104 0.6733
0.7467 0.9134 0.6767
0.7693 0.9186 0.6823
0.8003 0.9268 0.6898
0.8383 0.9384 0.6971
0.8965 0.9473 0.7254
0.9496 0.9602 0.7616
0.9904 0.9769 0.8873
0.0893 0.0998 0.3437
0.1090 0.0987 0.3695
0.1698 0.1078 0.3789
0.2571 0.1222 0.3923
0.3663 0.1381 0.4148
0.5016 0.1461 0.4550
0.6706 0.1353 0.5058
0.8453 0.1196 0.5328
0.9921 0.0950 0.5486
0.0956 0.1243 0.3809
0.1220 0.1278 0.3824
0.1804 0.1313 0.4101
0.2696 0.1440 0.4175
0.3786 0.1592 0.4333
0.5118 0.1674 0.4672
0.6778 0.1604 0.5122
0.8504 0.1480 0.5371
0.9928 0.1331 0.5496
0.1023 0.1809 0.4526
0.1340 0.1833 0.4511
0.2011 0.1896 0.4476
0.2924 0.1963 0.4666
0.4036 0.2089 0.4716
0.5336 0.2172 0.4930
0.6934 0.2161 0.5266
0.8615 0.2078 0.5465
0.9942 0.2051 0.5534
0.0968 0.2696 0.5242
0.1362 0.2710 0.5219
0.2156 0.2748 0.5162
0.3140 0.2831 0.5057
0.4329 0.2893 0.5169
0.5621 0.2973 0.5254
0.7139 0.3003 0.5458
0.8763 0.2944 0.5593
0.9964 0.3001 0.5608
0.1588 0.3814 0.5622
0.1815 0.3834 0.5632
0.2328 0.3884 0.5652
0.3130 0.3969 0.5649
0.4534 0.3998 0.5556
0.5883 0.4039 0.5566
0.7327 0.4082 0.5648
0.8968 0.4004 0.5654
0.9996 0.4113 0.5709
0.2482 0.5022 0.5791
0.2648 0.5037 0.5807
0.3042 0.5074 0.5846
0.3682 0.5136 0.5905
0.4642 0.5200 0.5971
0.5966 0.5233 0.5911
0.7460 0.5256 0.5782
0.8961 0.5237 0.5649
0.9995 0.5287 0.5878
0.3233 0.6374 0.5955
0.3361 0.6391 0.5960
0.3672 0.6435 0.5973
0.4179 0.6513 0.5995
0.4971 0.6596 0.6033
0.6031 0.6674 0.6089
0.7433 0.6691 0.6157
0.9051 0.6629 0.5755
0.9995 0.6703 0.6117
0.4289 0.8164 0.6271
0.4384 0.8178 0.6274
0.4620 0.8216 0.6279
0.5008 0.8277 0.6286
0.5796 0.8314 0.6290
0.6601 0.8412 0.6266
0.7658 0.8500 0.6145
0.9041 0.8461 0.6319
0.9948 0.8512 0.6784
0.7291 0.9152 0.7216
0.7347 0.9163 0.7230
0.7487 0.9190 0.7266
0.7717 0.9241 0.7321
0.8056 0.9312 0.7420
0.8467 0.9413 0.7545
0.8908 0.9555 0.7659
0.9487 0.9669 0.8061
0.9930 0.9831 0.9183
0.1136 0.1230 0.4397
0.1299 0.1205 0.4717
0.1864 0.1284 0.4809
0.2686 0.1417 0.4937
0.3712 0.1588 0.5118
0.4920 0.1753 0.5392
0.6417 0.1806 0.5846
0.8169 0.1679 0.6413
0.9694 0.1514 0.6722
0.1200 0.1443 0.4750
0.1444 0.1475 0.4771
0.1952 0.1493 0.5088
0.2795 0.1614 0.5175
0.3824 0.1777 0.5300
0.5023 0.1934 0.5535
0.6510 0.1995 0.5948
0.8224 0.1900 0.6473
0.9825 0.1593 0.6863
0.1295 0.1950 0.5411
0.1573 0.1976 0.5409
0.2167 0.2040 0.5401
0.3003 0.2096 0.5662
0.4063 0.2231 0.5715
0.5250 0.2375 0.5854
0.6715 0.2448 0.6180
0.8345 0.2405 0.6610
0.9837 0.2244 0.6908
0.1313 0.2778 0.6226
0.1646 0.2795 0.6208
0.2332 0.2839 0.6163
0.3264 0.2921 0.6089
0.4343 0.2999 0.6260
0.5557 0.3115 0.6299
0.6986 0.3188 0.6507
0.8507 0.3192 0.6806
0.9858 0.3150 0.6987
0.1426 0.3889 0.6943
0.1671 0.3909 0.6947
0.2289 0.3952 0.6930
0.3350 0.4003 0.6820
0.4567 0.4069 0.6695
0.5846 0.4119 0.6774
0.7248 0.4178 0.6857
0.8666 0.4208 0.7009
0.9888 0.4224 0.7101
0.2320 0.5069 0.7239
0.2498 0.5084 0.7250
0.2920 0.5120 0.7274
0.3586 0.5184 0.7303
0.4490 0.5267 0.7323
0.5974 0.5259 0.7311
0.7459 0.5277 0.7237
0.8719 0.5356 0.7139
0.9924 0.5354 0.7250
0.3217 0.6404 0.7369
0.3353 0.6419 0.7382
0.3684 0.6456 0.7417
0.4226 0.6522 0.7475
0.4986 0.6609 0.7533
0.6132 0.6669 0.7514
0.7478 0.6713 0.7468
0.8800 0.6765 0.7327
0.9979 0.6753 0.7413
0.3959 0.8256 0.7512
0.4066 0.8269 0.7517
0.4329 0.8302 0.7528
0.4761 0.8358 0.7547
0.5638 0.8384 0.7509
0.6739 0.8410 0.7526
0.7698 0.8500 0.7617
0.8852 0.8549 0.7702
0.9998 0.8549 0.7673
0.7260 0.9233 0.7891
0.7316 0.9244 0.7905
0.7457 0.9271 0.7940
0.7698 0.9319 0.8004
0.8038 0.9390 0.8102
0.8475 0.9482 0.8260
0.8970 0.9602 0.8470
0.9447 0.9761 0.8693
0.9961 0.9908 0.9562
0.1416 0.1474 0.5384
0.1540 0.1437 0.5731
0.2058 0.1506 0.5826
0.2837 0.1630 0.5961
0.3813 0.1800 0.6137
0.4945 0.1985 0.6395
0.6285 0.2144 0.6777
0.7877 0.2170 0.7364
0.9453 0.2017 0.8108
0.1480 0.1664 0.5690
0.1601 0.1633 0.6024
0.2081 0.1623 0.6430
0.2932 0.1738 0.6490
0.3958 0.1899 0.6583
0.5109 0.2076 0.6762
0.6469 0.2224 0.7082
0.8054 0.2234 0.7631
0.9593 0.2060 0.8393
0.1590 0.2126 0.6372
0.1701 0.2107 0.6684
0.2030 0.2001 0.7690
0.3040 0.2002 0.8092
0.4251 0.2141 0.7874
0.5491 0.2300 0.7789
0.6903 0.2424 0.7932
0.8470 0.2395 0.8436
0.9708 0.2486 0.8663
0.1659 0.2897 0.7328
0.1755 0.2890 0.7624
0.2032 0.2842 0.8693
0.3076 0.2817 0.9358
0.4437 0.2872 0.9245
0.5812 0.2949 0.9090
0.7278 0.3030 0.8994
0.8727 0.3070 0.9070
0.9729 0.3341 0.8763
0.1586 0.3969 0.8507
0.1663 0.3974 0.8831
0.2020 0.3976 0.9532
0.3237 0.3999 0.9497
0.4562 0.4032 0.9439
0.5909 0.4089 0.9279
0.7337 0.4157 0.9137
0.8746 0.4192 0.9164
0.9761 0.4370 0.8910
0.2134 0.5130 0.9296
0.2251 0.5143 0.9427
0.2758 0.5168 0.9501
0.3526 0.5211 0.9631
0.4710 0.5240 0.9619
0.6028 0.5269 0.9535
0.7414 0.5319 0.9345
0.8771 0.5355 0.9292
0.9801 0.5472 0.9107
0.3650 0.6403 0.9046
0.3778 0.6415 0.9074
0.4093 0.6447 0.9145
0.4608 0.6504 0.9267
0.5294 0.6581 0.9459
0.6187 0.6679 0.9724
0.7513 0.6726 0.9666
0.8809 0.6784 0.9482
0.9856 0.6890 0.9359
0.5280 0.8084 0.8778
0.5360 0.8097 0.8797
0.5564 0.8130 0.8849
0.5921 0.8189 0.8943
0.6431 0.8271 0.9089
0.7085 0.8371 0.9311
0.7867 0.8483 0.9624
0.8883 0.8561 0.9823
0.9923 0.8615 0.9661
0.7380 0.9293 0.8921
0.7434 0.9303 0.8937
0.7566 0.9331 0.8978
0.7794 0.9380 0.9052
0.8118 0.9452 0.9162
0.8527 0.9550 0.9312
0.8999 0.9673 0.9502
0.9487 0.9823 0.9733
0.9999 0.9999 0.9999
