EA 50 Cinematic Luts Pack/EA_Cinematic Lut (37).cube
TITLE "A classic “film noir” look with a modern twist that will give your editing material a comic look that cannot go unnoticed. "
LUT_3D_SIZE 25
0.0000 0.0000 0.0000
0.0089 0.0089 0.0088
0.0212 0.0212 0.0209
0.0398 0.0397 0.0391
0.0620 0.0616 0.0607
0.0860 0.0830 0.0814
0.1116 0.1041 0.1014
0.1398 0.1245 0.1202
0.1643 0.1458 0.1405
0.1886 0.1670 0.1608
0.2138 0.1878 0.1804
0.2398 0.2085 0.1995
0.2664 0.2289 0.2182
0.2936 0.2491 0.2365
0.3211 0.2691 0.2544
0.3493 0.2889 0.2721
0.3786 0.3086 0.2896
0.4083 0.3282 0.3069
0.4389 0.3475 0.3237
0.4864 0.3602 0.3302
0.5383 0.3700 0.3332
0.5914 0.3789 0.3359
0.6443 0.3870 0.3386
0.6965 0.3943 0.3412
0.7479 0.4011 0.3440
0.0301 0.0300 0.0296
0.0391 0.0389 0.0384
0.0504 0.0502 0.0495
0.0650 0.0648 0.0639
0.0819 0.0815 0.0804
0.1006 0.0997 0.0982
0.1231 0.1182 0.1157
0.1464 0.1373 0.1337
0.1688 0.1572 0.1528
0.1917 0.1771 0.1719
0.2155 0.1971 0.1907
0.2401 0.2170 0.2093
0.2655 0.2369 0.2276
0.2917 0.2567 0.2456
0.3185 0.2764 0.2633
0.3462 0.2959 0.2806
0.3750 0.3154 0.2979
0.4045 0.3347 0.3149
0.4342 0.3540 0.3318
0.4829 0.3663 0.3376
0.5343 0.3763 0.3407
0.5872 0.3853 0.3434
0.6401 0.3934 0.3458
0.6923 0.4009 0.3483
0.7436 0.4079 0.3511
0.0659 0.0657 0.0647
0.0720 0.0718 0.0708
0.0798 0.0795 0.0784
0.0906 0.0902 0.0889
0.1040 0.1034 0.1020
0.1194 0.1187 0.1169
0.1363 0.1354 0.1333
0.1547 0.1531 0.1507
0.1747 0.1713 0.1682
0.1956 0.1900 0.1861
0.2176 0.2089 0.2041
0.2405 0.2281 0.2221
0.2644 0.2474 0.2400
0.2892 0.2667 0.2577
0.3151 0.2860 0.2751
0.3418 0.3052 0.2922
0.3699 0.3244 0.3092
0.3990 0.3434 0.3258
0.4288 0.3623 0.3422
0.4781 0.3744 0.3475
0.5289 0.3846 0.3507
0.5814 0.3939 0.3534
0.6342 0.4021 0.3557
0.6866 0.4096 0.3580
0.7380 0.4166 0.3605
0.1025 0.1020 0.1006
0.1068 0.1063 0.1048
0.1125 0.1120 0.1103
0.1208 0.1200 0.1183
0.1314 0.1305 0.1285
0.1440 0.1429 0.1407
0.1584 0.1570 0.1546
0.1741 0.1724 0.1697
0.1909 0.1889 0.1857
0.2086 0.2061 0.2026
0.2272 0.2241 0.2201
0.2464 0.2426 0.2381
0.2662 0.2616 0.2564
0.2871 0.2808 0.2747
0.3111 0.2995 0.2918
0.3365 0.3184 0.3088
0.3634 0.3372 0.3253
0.3916 0.3558 0.3416
0.4225 0.3738 0.3566
0.4709 0.3862 0.3621
0.5209 0.3968 0.3656
0.5728 0.4062 0.3682
0.6256 0.4147 0.3704
0.6779 0.4224 0.3724
0.7295 0.4296 0.3748
0.1393 0.1385 0.1364
0.1426 0.1417 0.1396
0.1469 0.1460 0.1438
0.1534 0.1523 0.1500
0.1619 0.1606 0.1582
0.1723 0.1707 0.1680
0.1845 0.1824 0.1794
0.1980 0.1956 0.1923
0.2129 0.2100 0.2063
0.2290 0.2255 0.2214
0.2459 0.2418 0.2372
0.2637 0.2589 0.2537
0.2822 0.2766 0.2708
0.3012 0.2947 0.2884
0.3207 0.3134 0.3064
0.3407 0.3326 0.3249
0.3610 0.3522 0.3437
0.3838 0.3714 0.3616
0.4154 0.3886 0.3752
0.4615 0.4016 0.3815
0.5101 0.4126 0.3854
0.5612 0.4223 0.3880
0.6137 0.4311 0.3900
0.6662 0.4390 0.3917
0.7180 0.4464 0.3937
0.1760 0.1747 0.1721
0.1785 0.1773 0.1745
0.1820 0.1806 0.1778
0.1872 0.1856 0.1827
0.1941 0.1923 0.1893
0.2028 0.2007 0.1975
0.2132 0.2106 0.2071
0.2253 0.2218 0.2178
0.2385 0.2344 0.2299
0.2529 0.2481 0.2432
0.2683 0.2628 0.2574
0.2846 0.2784 0.2725
0.3016 0.2947 0.2882
0.3193 0.3117 0.3046
0.3378 0.3294 0.3216
0.3567 0.3475 0.3392
0.3759 0.3661 0.3571
0.3954 0.3851 0.3754
0.4217 0.4027 0.3906
0.4573 0.4180 0.4015
0.4975 0.4315 0.4094
0.5471 0.4417 0.4122
0.5991 0.4508 0.4142
0.6515 0.4591 0.4157
0.7035 0.4665 0.4172
0.2126 0.2107 0.2073
0.2147 0.2127 0.2093
0.2176 0.2155 0.2120
0.2219 0.2196 0.2160
0.2278 0.2252 0.2214
0.2351 0.2322 0.2283
0.2440 0.2406 0.2365
0.2544 0.2503 0.2459
0.2666 0.2613 0.2562
0.2797 0.2733 0.2675
0.2937 0.2865 0.2802
0.3086 0.3006 0.2937
0.3242 0.3157 0.3082
0.3407 0.3315 0.3235
0.3579 0.3480 0.3395
0.3755 0.3651 0.3560
0.3936 0.3827 0.3730
0.4122 0.4007 0.3904
0.4416 0.4163 0.4027
0.4736 0.4314 0.4141
0.5098 0.4451 0.4231
0.5509 0.4573 0.4298
0.5938 0.4691 0.4360
0.6371 0.4803 0.4421
0.6862 0.4891 0.4448
0.2494 0.2466 0.2424
0.2511 0.2483 0.2441
0.2536 0.2506 0.2463
0.2573 0.2540 0.2497
0.2623 0.2587 0.2542
0.2687 0.2647 0.2601
0.2764 0.2720 0.2671
0.2854 0.2805 0.2754
0.2958 0.2901 0.2847
0.3080 0.3008 0.2946
0.3211 0.3126 0.3055
0.3351 0.3254 0.3174
0.3496 0.3392 0.3307
0.3648 0.3538 0.3447
0.3805 0.3691 0.3596
0.3969 0.3851 0.3751
0.4137 0.4017 0.3911
0.4363 0.4174 0.4050
0.4656 0.4317 0.4160
0.4966 0.4456 0.4263
0.5287 0.4594 0.4364
0.5650 0.4721 0.4450
0.6070 0.4832 0.4507
0.6490 0.4941 0.4566
0.6914 0.5047 0.4623
0.2863 0.2824 0.2774
0.2878 0.2839 0.2788
0.2899 0.2858 0.2807
0.2931 0.2888 0.2836
0.2974 0.2929 0.2875
0.3030 0.2980 0.2925
0.3098 0.3044 0.2987
0.3178 0.3119 0.3059
0.3271 0.3205 0.3143
0.3376 0.3302 0.3237
0.3497 0.3408 0.3336
0.3627 0.3523 0.3441
0.3765 0.3648 0.3556
0.3909 0.3781 0.3680
0.4054 0.3923 0.3818
0.4204 0.4073 0.3963
0.4380 0.4223 0.4104
0.4647 0.4356 0.4206
0.4928 0.4486 0.4304
0.5229 0.4615 0.4398
0.5543 0.4742 0.4493
0.5876 0.4868 0.4585
0.6220 0.4992 0.4674
0.6633 0.5095 0.4725
0.7050 0.5195 0.4775
0.3233 0.3184 0.3125
0.3247 0.3197 0.3137
0.3265 0.3214 0.3154
0.3293 0.3240 0.3179
0.3332 0.3276 0.3214
0.3381 0.3322 0.3259
0.3441 0.3378 0.3313
0.3513 0.3445 0.3377
0.3596 0.3522 0.3452
0.3690 0.3609 0.3536
0.3794 0.3705 0.3630
0.3911 0.3810 0.3731
0.4041 0.3923 0.3831
0.4174 0.4045 0.3943
0.4314 0.4175 0.4064
0.4469 0.4310 0.4188
0.4707 0.4430 0.4281
0.4962 0.4549 0.4370
0.5235 0.4667 0.4458
0.5525 0.4785 0.4546
0.5832 0.4904 0.4634
0.6150 0.5022 0.4719
0.6470 0.5144 0.4808
0.6800 0.5264 0.4896
0.7198 0.5363 0.4947
0.3606 0.3547 0.3479
0.3618 0.3558 0.3490
0.3634 0.3573 0.3504
0.3659 0.3596 0.3527
0.3693 0.3628 0.3558
0.3736 0.3669 0.3597
0.3790 0.3719 0.3646
0.3853 0.3778 0.3703
0.3927 0.3847 0.3770
0.4011 0.3926 0.3846
0.4105 0.4013 0.3931
0.4207 0.4110 0.4025
0.4320 0.4214 0.4127
0.4448 0.4325 0.4226
0.4600 0.4439 0.4324
0.4817 0.4543 0.4397
0.5057 0.4646 0.4467
0.5310 0.4750 0.4541
0.5578 0.4857 0.4621
0.5859 0.4967 0.4701
0.6151 0.5077 0.4781
0.6451 0.5190 0.4863
0.6760 0.5304 0.4946
0.7075 0.5420 0.5031
0.7395 0.5540 0.5118
0.3976 0.3910 0.3834
0.3987 0.3920 0.3844
0.4001 0.3934 0.3857
0.4023 0.3954 0.3877
0.4053 0.3983 0.3904
0.4092 0.4019 0.3940
0.4140 0.4064 0.3984
0.4197 0.4118 0.4036
0.4263 0.4180 0.4096
0.4338 0.4251 0.4166
0.4422 0.4331 0.4243
0.4515 0.4419 0.4329
0.4616 0.4515 0.4424
0.4725 0.4618 0.4523
0.4977 0.4689 0.4555
0.5193 0.4777 0.4612
0.5428 0.4868 0.4668
0.5680 0.4962 0.4729
0.5944 0.5060 0.4794
0.6218 0.5159 0.4863
0.6496 0.5263 0.4938
0.6779 0.5369 0.5016
0.7076 0.5479 0.5095
0.7380 0.5590 0.5174
0.7692 0.5703 0.5255
0.4344 0.4274 0.4191
0.4353 0.4283 0.4200
0.4366 0.4296 0.4212
0.4386 0.4314 0.4230
0.4413 0.4340 0.4255
0.4447 0.4372 0.4287
0.4490 0.4413 0.4326
0.4541 0.4462 0.4374
0.4601 0.4519 0.4429
0.4667 0.4583 0.4492
0.4742 0.4655 0.4563
0.4824 0.4733 0.4640
0.4914 0.4818 0.4722
0.5011 0.4910 0.4812
0.5116 0.5009 0.4908
0.5594 0.5017 0.4832
0.5826 0.5099 0.4879
0.6068 0.5185 0.4931
0.6324 0.5273 0.4983
0.6587 0.5365 0.5043
0.6857 0.5462 0.5108
0.7138 0.5562 0.5176
0.7420 0.5665 0.5250
0.7713 0.5769 0.5324
0.8018 0.5873 0.5397
0.4707 0.4638 0.4549
0.4715 0.4646 0.4557
0.4726 0.4657 0.4568
0.4743 0.4673 0.4584
0.4766 0.4695 0.4606
0.4797 0.4724 0.4635
0.4834 0.4760 0.4669
0.4878 0.4802 0.4711
0.4931 0.4852 0.4759
0.4991 0.4909 0.4815
0.5058 0.4974 0.4877
0.5133 0.5045 0.4947
0.5215 0.5124 0.5023
0.5305 0.5209 0.5105
0.5403 0.5301 0.5195
0.5510 0.5401 0.5292
0.6007 0.5406 0.5212
0.6473 0.5417 0.5143
0.6717 0.5500 0.5189
0.6972 0.5586 0.5238
0.7233 0.5676 0.5293
0.7503 0.5768 0.5354
0.7786 0.5861 0.5415
0.8077 0.5954 0.5477
0.8378 0.6047 0.5540
0.5057 0.4990 0.4897
0.5065 0.4997 0.4903
0.5075 0.5007 0.4913
0.5090 0.5021 0.4927
0.5111 0.5042 0.4947
0.5139 0.5068 0.4973
0.5173 0.5100 0.5004
0.5214 0.5139 0.5042
0.5262 0.5185 0.5086
0.5316 0.5237 0.5137
0.5378 0.5297 0.5195
0.5449 0.5363 0.5260
0.5527 0.5438 0.5331
0.5613 0.5520 0.5411
0.5707 0.5609 0.5496
0.5807 0.5705 0.5589
0.5914 0.5806 0.5687
0.6095 0.5897 0.5759
0.7132 0.5736 0.5403
0.7377 0.5815 0.5445
0.7633 0.5897 0.5491
0.7899 0.5979 0.5536
0.8174 0.6062 0.5588
0.8464 0.6144 0.5638
0.8764 0.6226 0.5687
0.5408 0.5341 0.5242
0.5415 0.5348 0.5248
0.5424 0.5357 0.5257
0.5439 0.5370 0.5271
0.5458 0.5389 0.5289
0.5484 0.5414 0.5313
0.5516 0.5445 0.5343
0.5555 0.5482 0.5378
0.5601 0.5526 0.5420
0.5654 0.5576 0.5469
0.5713 0.5633 0.5524
0.5779 0.5697 0.5586
0.5852 0.5767 0.5654
0.5932 0.5844 0.5728
0.6018 0.5927 0.5808
0.6112 0.6016 0.5893
0.6213 0.6111 0.5983
0.6320 0.6213 0.6079
0.6434 0.6319 0.6180
0.7634 0.6107 0.5749
0.8057 0.6118 0.5690
0.8318 0.6190 0.5725
0.8596 0.6262 0.5757
0.8879 0.6336 0.5798
0.9172 0.6411 0.5840
0.5770 0.5705 0.5598
0.5776 0.5711 0.5604
0.5785 0.5720 0.5612
0.5799 0.5732 0.5625
0.5817 0.5750 0.5642
0.5841 0.5773 0.5665
0.5871 0.5802 0.5693
0.5907 0.5837 0.5726
0.5949 0.5877 0.5765
0.5998 0.5924 0.5809
0.6053 0.5976 0.5859
0.6115 0.6035 0.5916
0.6183 0.6101 0.5978
0.6257 0.6172 0.6046
0.6338 0.6250 0.6120
0.6425 0.6334 0.6199
0.6518 0.6422 0.6282
0.6618 0.6516 0.6369
0.6724 0.6615 0.6460
0.6836 0.6719 0.6557
0.7828 0.6578 0.6238
0.8768 0.6401 0.5910
0.9038 0.6466 0.5935
0.9315 0.6533 0.5963
0.9600 0.6601 0.5995
0.6134 0.6070 0.5953
0.6140 0.6076 0.5959
0.6148 0.6084 0.5966
0.6160 0.6096 0.5978
0.6177 0.6112 0.5993
0.6199 0.6134 0.6014
0.6227 0.6160 0.6039
0.6260 0.6192 0.6070
0.6299 0.6230 0.6106
0.6344 0.6273 0.6147
0.6396 0.6322 0.6193
0.6453 0.6377 0.6244
0.6516 0.6437 0.6300
0.6585 0.6503 0.6362
0.6660 0.6575 0.6429
0.6741 0.6652 0.6501
0.6828 0.6735 0.6578
0.6921 0.6824 0.6660
0.7021 0.6917 0.6745
0.7128 0.7016 0.6834
0.7238 0.7120 0.6928
0.8010 0.7047 0.6720
0.9216 0.6787 0.6269
0.9765 0.6735 0.6138
0.9995 0.6795 0.6159
0.6497 0.6434 0.6301
0.6502 0.6439 0.6306
0.6510 0.6447 0.6313
0.6521 0.6457 0.6323
0.6537 0.6473 0.6338
0.6557 0.6492 0.6356
0.6582 0.6517 0.6379
0.6613 0.6546 0.6407
0.6649 0.6581 0.6439
0.6690 0.6621 0.6477
0.6737 0.6666 0.6519
0.6791 0.6717 0.6566
0.6850 0.6773 0.6617
0.6915 0.6835 0.6674
0.6986 0.6902 0.6735
0.7063 0.6975 0.6802
0.7144 0.7053 0.6874
0.7232 0.7136 0.6950
0.7325 0.7225 0.7031
0.7425 0.7318 0.7114
0.7530 0.7417 0.7202
0.7642 0.7520 0.7293
0.8170 0.7517 0.7200
0.9439 0.7259 0.6739
0.9996 0.7182 0.6589
0.6857 0.6795 0.6641
0.6862 0.6800 0.6645
0.6869 0.6806 0.6652
0.6880 0.6816 0.6661
0.6895 0.6831 0.6674
0.6914 0.6849 0.6691
0.6938 0.6872 0.6712
0.6966 0.6899 0.6738
0.7000 0.6932 0.6768
0.7038 0.6969 0.6802
0.7082 0.7011 0.6841
0.7132 0.7059 0.6885
0.7187 0.7112 0.6933
0.7248 0.7170 0.6985
0.7315 0.7233 0.7042
0.7388 0.7301 0.7104
0.7465 0.7375 0.7170
0.7548 0.7454 0.7241
0.7635 0.7538 0.7317
0.7728 0.7626 0.7396
0.7828 0.7720 0.7473
0.7933 0.7818 0.7548
0.8044 0.7920 0.7621
0.8283 0.7995 0.7650
0.9651 0.7729 0.7202
0.7218 0.7155 0.6975
0.7223 0.7160 0.6979
0.7229 0.7166 0.6985
0.7239 0.7175 0.6994
0.7253 0.7189 0.7006
0.7271 0.7206 0.7021
0.7293 0.7227 0.7041
0.7320 0.7253 0.7064
0.7351 0.7283 0.7092
0.7388 0.7318 0.7124
0.7429 0.7358 0.7160
0.7475 0.7403 0.7201
0.7527 0.7452 0.7246
0.7584 0.7507 0.7295
0.7647 0.7567 0.7348
0.7715 0.7631 0.7404
0.7789 0.7701 0.7462
0.7867 0.7775 0.7521
0.7951 0.7854 0.7580
0.8039 0.7939 0.7640
0.8132 0.8028 0.7698
0.8231 0.8121 0.7754
0.8338 0.8220 0.7808
0.8449 0.8323 0.7859
0.8567 0.8430 0.7907
0.7578 0.7516 0.7306
0.7582 0.7520 0.7310
0.7589 0.7526 0.7315
0.7598 0.7535 0.7323
0.7611 0.7547 0.7334
0.7628 0.7563 0.7348
0.7649 0.7583 0.7366
0.7674 0.7607 0.7387
0.7704 0.7636 0.7412
0.7738 0.7669 0.7440
0.7777 0.7706 0.7471
0.7821 0.7748 0.7505
0.7869 0.7795 0.7541
0.7923 0.7847 0.7580
0.7982 0.7903 0.7620
0.8046 0.7964 0.7661
0.8116 0.8030 0.7703
0.8190 0.8100 0.7745
0.8270 0.8176 0.7788
0.8356 0.8257 0.7830
0.8445 0.8343 0.7872
0.8540 0.8433 0.7912
0.8640 0.8527 0.7950
0.8745 0.8625 0.7986
0.8856 0.8728 0.8018
0.7938 0.7877 0.7604
0.7942 0.7880 0.7607
0.7948 0.7886 0.7611
0.7957 0.7894 0.7617
0.7969 0.7906 0.7625
0.7985 0.7921 0.7635
0.8005 0.7940 0.7648
0.8028 0.7963 0.7663
0.8057 0.7989 0.7680
0.8089 0.8020 0.7700
0.8126 0.8056 0.7721
0.8168 0.8095 0.7745
0.8214 0.8140 0.7771
0.8265 0.8189 0.7799
0.8321 0.8243 0.7827
0.8382 0.8302 0.7856
0.8448 0.8365 0.7886
0.8520 0.8433 0.7915
0.8596 0.8505 0.7944
0.8677 0.8582 0.7973
0.8763 0.8663 0.8001
0.8854 0.8749 0.8027
0.8948 0.8839 0.8052
0.9048 0.8933 0.8075
0.9154 0.9031 0.8096
0.8299 0.8238 0.7827
0.8303 0.8242 0.7829
0.8308 0.8247 0.7832
0.8317 0.8256 0.7836
0.8329 0.8267 0.7841
0.8344 0.8281 0.7848
0.8363 0.8299 0.7857
0.8385 0.8321 0.7867
0.8412 0.8346 0.7879
0.8444 0.8376 0.7893
0.8479 0.8410 0.7907
0.8519 0.8448 0.7923
0.8563 0.8490 0.7940
0.8612 0.8537 0.7959
0.8665 0.8588 0.7977
0.8723 0.8643 0.7997
0.8785 0.8703 0.8016
0.8853 0.8768 0.8035
0.8925 0.8836 0.8053
0.9003 0.8910 0.8071
0.9084 0.8987 0.8088
0.9171 0.9069 0.8104
0.9262 0.9155 0.8119
0.9357 0.9245 0.8132
0.9457 0.9339 0.8143
0.8663 0.8603 0.7985
0.8667 0.8607 0.7986
0.8672 0.8612 0.7988
0.8680 0.8619 0.7990
0.8691 0.8630 0.7994
0.8706 0.8644 0.7998
0.8723 0.8661 0.8004
0.8745 0.8681 0.8010
0.8770 0.8705 0.8018
0.8800 0.8733 0.8026
0.8834 0.8765 0.8036
0.8871 0.8801 0.8045
0.8913 0.8841 0.8056
0.8960 0.8886 0.8067
0.9011 0.8934 0.8078
0.9066 0.8987 0.8089
0.9125 0.9044 0.8101
0.9189 0.9105 0.8112
0.9258 0.9171 0.8122
0.9331 0.9241 0.8132
0.9409 0.9314 0.8141
0.9492 0.9392 0.8149
0.9579 0.9475 0.8155
0.9670 0.9561 0.8157
0.9766 0.9651 0.8155
0.0030 0.0030 0.0030
0.0120 0.0120 0.0118
0.0242 0.0242 0.0238
0.0429 0.0428 0.0422
0.0646 0.0639 0.0629
0.0881 0.0847 0.0829
0.1136 0.1054 0.1025
0.1419 0.1254 0.1208
0.1730 0.1445 0.1376
0.1989 0.1651 0.1569
0.2260 0.1851 0.1752
0.2544 0.2047 0.1928
0.2838 0.2240 0.2098
0.3139 0.2431 0.2263
0.3448 0.2618 0.2423
0.3762 0.2803 0.2579
0.4080 0.2988 0.2738
0.4394 0.3176 0.2899
0.4698 0.3365 0.3064
0.4984 0.3559 0.3238
0.5340 0.3723 0.3368
0.5871 0.3814 0.3396
0.6401 0.3895 0.3421
0.6925 0.3969 0.3447
0.7439 0.4039 0.3476
0.0331 0.0330 0.0326
0.0421 0.0419 0.0413
0.0530 0.0528 0.0520
0.0672 0.0669 0.0660
0.0837 0.0833 0.0821
0.1024 0.1011 0.0995
0.1249 0.1193 0.1167
0.1509 0.1374 0.1332
0.1773 0.1560 0.1501
0.2018 0.1753 0.1681
0.2276 0.1945 0.1857
0.2547 0.2135 0.2028
0.2828 0.2324 0.2195
0.3120 0.2511 0.2357
0.3419 0.2695 0.2515
0.3726 0.2878 0.2669
0.4037 0.3062 0.2827
0.4346 0.3248 0.2987
0.4647 0.3437 0.3152
0.4930 0.3628 0.3323
0.5302 0.3784 0.3441
0.5830 0.3876 0.3469
0.6360 0.3959 0.3493
0.6884 0.4033 0.3517
0.7399 0.4104 0.3544
0.0680 0.0678 0.0668
0.0740 0.0737 0.0727
0.0816 0.0813 0.0801
0.0923 0.0918 0.0905
0.1054 0.1049 0.1034
0.1207 0.1199 0.1182
0.1379 0.1364 0.1342
0.1606 0.1528 0.1493
0.1820 0.1705 0.1660
0.2047 0.1885 0.1828
0.2288 0.2068 0.1996
0.2542 0.2251 0.2162
0.2809 0.2434 0.2325
0.3088 0.2617 0.2484
0.3377 0.2798 0.2639
0.3674 0.2978 0.2793
0.3977 0.3161 0.2948
0.4278 0.3345 0.3107
0.4575 0.3531 0.3270
0.4856 0.3720 0.3438
0.5250 0.3866 0.3540
0.5774 0.3960 0.3567
0.6303 0.4043 0.3590
0.6827 0.4119 0.3613
0.7343 0.4191 0.3638
0.1040 0.1035 0.1021
0.1083 0.1078 0.1062
0.1139 0.1133 0.1117
0.1221 0.1213 0.1195
0.1326 0.1316 0.1297
0.1451 0.1440 0.1418
0.1593 0.1580 0.1556
0.1749 0.1733 0.1706
0.1916 0.1896 0.1866
0.2093 0.2069 0.2034
0.2304 0.2241 0.2195
0.2532 0.2416 0.2356
0.2777 0.2593 0.2515
0.3037 0.2769 0.2670
0.3309 0.2946 0.2823
0.3593 0.3125 0.2976
0.3882 0.3305 0.3129
0.4175 0.3486 0.3284
0.4465 0.3668 0.3443
0.4746 0.3854 0.3608
0.5171 0.3986 0.3686
0.5690 0.4081 0.3713
0.6217 0.4167 0.3735
0.6742 0.4245 0.3755
0.7260 0.4318 0.3778
0.1404 0.1396 0.1375
0.1437 0.1428 0.1407
0.1480 0.1470 0.1448
0.1544 0.1533 0.1510
0.1629 0.1616 0.1591
0.1733 0.1716 0.1689
0.1852 0.1833 0.1803
0.1987 0.1964 0.1931
0.2136 0.2108 0.2071
0.2295 0.2262 0.2221
0.2464 0.2425 0.2379
0.2641 0.2595 0.2544
0.2825 0.2771 0.2715
0.3015 0.2953 0.2890
0.3236 0.3133 0.3056
0.3494 0.3309 0.3210
0.3765 0.3486 0.3362
0.4042 0.3663 0.3514
0.4323 0.3842 0.3669
0.4603 0.4024 0.3829
0.5068 0.4142 0.3881
0.5577 0.4240 0.3908
0.6102 0.4329 0.3929
0.6627 0.4409 0.3946
0.7147 0.4484 0.3965
0.1769 0.1756 0.1729
0.1794 0.1781 0.1754
0.1829 0.1814 0.1786
0.1880 0.1864 0.1835
0.1949 0.1931 0.1900
0.2036 0.2014 0.1982
0.2140 0.2112 0.2077
0.2260 0.2225 0.2185
0.2391 0.2350 0.2307
0.2534 0.2487 0.2439
0.2687 0.2634 0.2581
0.2849 0.2789 0.2731
0.3019 0.2952 0.2889
0.3196 0.3122 0.3052
0.3380 0.3298 0.3223
0.3569 0.3480 0.3398
0.3761 0.3665 0.3577
0.3956 0.3855 0.3760
0.4186 0.4039 0.3929
0.4487 0.4208 0.4065
0.4946 0.4328 0.4116
0.5439 0.4431 0.4146
0.5959 0.4524 0.4167
0.6483 0.4607 0.4183
0.7004 0.4682 0.4197
0.2133 0.2114 0.2080
0.2154 0.2134 0.2100
0.2183 0.2162 0.2126
0.2226 0.2203 0.2167
0.2285 0.2258 0.2220
0.2358 0.2328 0.2289
0.2447 0.2412 0.2370
0.2551 0.2509 0.2465
0.2672 0.2618 0.2566
0.2802 0.2739 0.2682
0.2940 0.2870 0.2808
0.3088 0.3011 0.2944
0.3245 0.3162 0.3089
0.3409 0.3320 0.3242
0.3580 0.3485 0.3401
0.3756 0.3655 0.3566
0.3937 0.3831 0.3736
0.4121 0.4011 0.3910
0.4308 0.4196 0.4090
0.4568 0.4365 0.4235
0.4915 0.4510 0.4335
0.5311 0.4639 0.4409
0.5794 0.4741 0.4444
0.6313 0.4827 0.4459
0.6834 0.4905 0.4471
0.2500 0.2471 0.2429
0.2518 0.2488 0.2446
0.2542 0.2511 0.2468
0.2579 0.2546 0.2502
0.2629 0.2593 0.2548
0.2693 0.2653 0.2606
0.2770 0.2725 0.2676
0.2860 0.2810 0.2758
0.2964 0.2906 0.2851
0.3086 0.3012 0.2950
0.3216 0.3130 0.3058
0.3354 0.3258 0.3181
0.3498 0.3396 0.3313
0.3650 0.3542 0.3454
0.3807 0.3695 0.3602
0.3970 0.3855 0.3757
0.4138 0.4020 0.3917
0.4310 0.4191 0.4084
0.4503 0.4362 0.4246
0.4797 0.4509 0.4358
0.5111 0.4651 0.4464
0.5464 0.4781 0.4553
0.5879 0.4897 0.4616
0.6302 0.5009 0.4673
0.6731 0.5117 0.4728
0.2868 0.2829 0.2779
0.2883 0.2844 0.2793
0.2904 0.2863 0.2812
0.2936 0.2893 0.2841
0.2979 0.2933 0.2880
0.3035 0.2985 0.2930
0.3103 0.3048 0.2991
0.3184 0.3123 0.3063
0.3276 0.3209 0.3147
0.3381 0.3306 0.3241
0.3503 0.3411 0.3339
0.3633 0.3527 0.3444
0.3770 0.3652 0.3559
0.3911 0.3785 0.3686
0.4056 0.3927 0.3823
0.4206 0.4076 0.3969
0.4361 0.4232 0.4120
0.4521 0.4393 0.4278
0.4773 0.4534 0.4392
0.5061 0.4667 0.4493
0.5367 0.4797 0.4589
0.5695 0.4926 0.4683
0.6042 0.5052 0.4771
0.6455 0.5158 0.4824
0.6874 0.5262 0.4875
0.3238 0.3188 0.3129
0.3251 0.3201 0.3141
0.3270 0.3218 0.3158
0.3298 0.3244 0.3183
0.3336 0.3280 0.3218
0.3385 0.3326 0.3263
0.3446 0.3382 0.3317
0.3518 0.3449 0.3381
0.3601 0.3526 0.3456
0.3694 0.3612 0.3540
0.3798 0.3709 0.3633
0.3917 0.3813 0.3733
0.4045 0.3926 0.3833
0.4179 0.4048 0.3946
0.4319 0.4178 0.4066
0.4459 0.4316 0.4200
0.4602 0.4462 0.4343
0.4816 0.4594 0.4454
0.5079 0.4716 0.4546
0.5360 0.4836 0.4636
0.5663 0.4957 0.4724
0.5978 0.5079 0.4812
0.6302 0.5201 0.4900
0.6633 0.5323 0.4989
0.7036 0.5425 0.5039
0.3610 0.3550 0.3482
0.3622 0.3562 0.3493
0.3638 0.3577 0.3508
0.3663 0.3600 0.3530
0.3697 0.3632 0.3561
0.3740 0.3672 0.3601
0.3794 0.3722 0.3649
0.3857 0.3782 0.3707
0.3931 0.3851 0.3773
0.4015 0.3929 0.3849
0.4108 0.4016 0.3934
0.4211 0.4113 0.4028
0.4324 0.4217 0.4130
0.4452 0.4328 0.4228
0.4582 0.4448 0.4338
0.4715 0.4575 0.4457
0.4923 0.4687 0.4542
0.5163 0.4796 0.4624
0.5419 0.4905 0.4705
0.5697 0.5017 0.4787
0.5988 0.5130 0.4869
0.6290 0.5244 0.4951
0.6599 0.5360 0.5034
0.6918 0.5478 0.5119
0.7244 0.5598 0.5204
