EA 50 Cinematic Luts Pack/EA_Cinematic Lut (12).cube
TITLE "Generated by Resolve"
LUT_3D_SIZE 5
0 0.0101472 0
0.30927 0 0
0.614328 0 0
0.902968 0 0
1 0 0
0 0.219486 0
0.251881 0.225223 0
0.590112 0.246525 0
0.90277 0.255467 0
1 0.270756 0
0 0.476661 0
0.261997 0.514977 0
0.612482 0.581704 0.00247196
0.945876 0.619196 0.0131685
1 0.644556 0.0267796
0.0717784 0.794675 0
0.324468 0.832334 0
0.634974 0.893492 0.0435798
0.967269 0.950545 0.0783703
1 0.979324 0.078233
0.135729 1 0
0.360983 1 0
0.607553 1 0.0077821
0.896025 1 0.0273442
1 1 0.0273899
0 0.0455024 0.1738
0.273579 0 0.246204
0.576364 0 0.236957
0.873137 0 0.230579
1 0 0.225116
0 0.244785 0.0235142
0.233234 0.202502 0.19292
0.571847 0.224643 0.212787
0.903685 0.255787 0.241749
1 0.272923 0.256764
0.00526436 0.488731 0
0.271992 0.494347 0.189853
0.592416 0.559426 0.255924
0.961257 0.626993 0.305089
1 0.650187 0.323842
0.111376 0.800412 0
0.35433 0.815412 0.197742
0.623194 0.874968 0.297826
0.973739 0.955001 0.358618
1 0.983642 0.360372
0.17911 1 0
0.390768 1 0.15819
0.599283 1 0.241367
0.875898 1 0.278294
1 1 0.29575
0 0.078706 0.381369
0.196262 0 0.529442
0.533425 0 0.514427
0.820417 0 0.502312
1 0 0.505806
0 0.28983 0.203662
0.134447 0.230335 0.427604
0.518822 0.20708 0.485618
0.856458 0.246891 0.526894
1 0.271778 0.557763
0 0.538964 0.120714
0.244236 0.51838 0.340795
0.556634 0.51902 0.509972
0.925155 0.586679 0.575479
1 0.648142 0.634836
0.05832 0.836042 0.116548
0.38352 0.817472 0.34313
0.613565 0.835187 0.529168
0.93048 0.909545 0.604334
1 0.979843 0.655268
0.162417 1 0.0966049
0.427863 1 0.30135
0.608438 1 0.44947
0.842039 1 0.523766
1 1 0.578271
0 0.111818 0.592309
0.0768139 0.0176242 0.773404
0.464973 0 0.811002
0.780636 0 0.794217
1 0 0.786007
0 0.331304 0.409659
0.0199435 0.265843 0.641108
0.440391 0.216175 0.775006
0.799832 0.223835 0.798642
1 0.260502 0.827955
0 0.596185 0.306798
0.102647 0.570275 0.534691
0.461326 0.550805 0.757794
0.85391 0.551476 0.837598
1 0.620432 0.906157
0 0.892134 0.274846
0.273182 0.864973 0.488334
0.579599 0.8533 0.678721
0.8663 0.841428 0.83592
1 0.900633 0.893034
0.0623178 1 0.226993
0.37258 1 0.418814
0.623209 1 0.583124
0.812634 1 0.731563
1 1 0.798688
0 0.145251 0.805875
0 0.0510414 1
0.359045 0 1
0.71516 0 1
1 0 1
0 0.370886 0.62443
0 0.305104 0.860685
0.326375 0.252644 1
0.728099 0.22945 1
1 0.24564 1
0 0.650492 0.51342
0 0.619074 0.754513
0.348592 0.590768 0.97821
0.764218 0.558434 1
1 0.575509 1
0 0.950286 0.459831
0.125231 0.920623 0.676127
0.429236 0.898833 0.869078
0.753857 0.866697 1
1 0.835676 1
0 1 0.382666
0.228641 1 0.565087
0.496208 1 0.716609
0.757824 1 0.866651
1 1 1
