EA 50 Cinematic Luts Pack/EA_Cinematic Lut (36).cube
TITLE "Distinct color contrast and sharpness of shadows and highlights will create an image full of drama and tension."
LUT_3D_SIZE 5
0.0000 0.0000 0.0000
0.2278 0.0136 0.0159
0.5940 0.0355 0.0421
0.8735 0.0556 0.0725
0.9997 0.0911 0.1245
0.0002 0.1604 0.0006
0.1930 0.1459 0.0013
0.5603 0.1681 0.0252
0.8764 0.1450 0.0472
0.9997 0.1527 0.1156
0.0003 0.4387 0.0015
0.1284 0.3988 0.0060
0.4953 0.3745 0.0004
0.7875 0.4523 0.0239
0.9995 0.5041 0.0960
0.0007 0.7758 0.0036
0.0950 0.7286 0.0023
0.4152 0.6312 0.0284
0.7719 0.6153 0.0000
0.9999 0.7871 0.0379
0.0013 1.0000 0.0075
0.0901 1.0000 0.0022
0.3957 0.9987 0.0153
0.7475 0.9528 0.0546
0.9999 0.9359 0.0000
0.0000 0.0001 0.1619
0.2566 0.0000 0.1632
0.6312 0.0125 0.1350
0.8944 0.0425 0.1395
0.9998 0.0885 0.1741
0.0000 0.1649 0.1335
0.1852 0.1532 0.1260
0.5373 0.1429 0.1383
0.8312 0.1424 0.1538
0.9997 0.1504 0.1675
0.0000 0.4661 0.0888
0.1255 0.4483 0.0947
0.4650 0.4094 0.1292
0.7789 0.4315 0.1312
0.9995 0.4585 0.1583
0.0000 0.7756 0.0692
0.1012 0.7526 0.0774
0.4073 0.6678 0.0940
0.7573 0.6526 0.1209
0.9999 0.7936 0.1028
0.0005 1.0000 0.0702
0.0873 1.0000 0.0645
0.3943 0.9983 0.0784
0.7446 0.9528 0.1288
1.0000 0.9408 0.0556
0.0000 0.0004 0.7406
0.2258 0.0001 0.6671
0.6227 0.0000 0.4934
0.9253 0.0047 0.3705
1.0000 0.0797 0.3272
0.0000 0.1522 0.5282
0.1725 0.1432 0.4890
0.5643 0.1243 0.4037
0.8738 0.1118 0.3484
1.0000 0.1386 0.3235
0.0000 0.4557 0.3336
0.1196 0.4468 0.3266
0.4662 0.4224 0.3076
0.7609 0.4059 0.3269
0.9998 0.3915 0.3213
0.0000 0.7740 0.2692
0.0983 0.7727 0.2685
0.4177 0.7642 0.2817
0.7432 0.7390 0.3528
0.9999 0.7913 0.3023
0.0000 1.0000 0.2629
0.0852 1.0000 0.2571
0.4042 1.0000 0.2635
0.7686 0.9798 0.3876
1.0000 0.9802 0.2562
0.0110 0.0149 1.0000
0.1871 0.0004 0.9986
0.5835 0.0000 0.9461
0.9022 0.0000 0.8710
0.9999 0.0707 0.7523
0.0000 0.1356 0.9597
0.1553 0.1300 0.9440
0.5387 0.1164 0.9026
0.8631 0.1018 0.8362
0.9999 0.1265 0.7482
0.0000 0.4377 0.8313
0.1148 0.4301 0.8226
0.4544 0.4095 0.7982
0.7898 0.3846 0.7649
1.0000 0.3799 0.7424
0.0000 0.7709 0.7400
0.0971 0.7699 0.7388
0.4136 0.7668 0.7351
0.7618 0.7628 0.7304
0.9997 0.7632 0.7532
0.0000 0.9998 0.7276
0.0854 0.9999 0.7251
0.4020 1.0000 0.7256
0.7593 0.9997 0.7289
0.9998 0.9995 0.7583
0.1014 0.0894 1.0000
0.2035 0.0925 1.0000
0.4784 0.0975 1.0000
0.7838 0.0903 0.9999
1.0000 0.0603 0.9999
0.1115 0.1740 1.0000
0.2123 0.1754 1.0000
0.4771 0.1733 1.0000
0.7807 0.1521 0.9999
1.0000 0.1162 0.9999
0.0870 0.4189 1.0000
0.1757 0.4157 1.0000
0.4504 0.4057 1.0000
0.7702 0.3893 1.0000
1.0000 0.3754 0.9999
0.0206 0.7661 0.9999
0.1096 0.7656 0.9999
0.4156 0.7643 1.0000
0.7608 0.7618 0.9997
0.9998 0.7592 0.9998
0.0000 1.0000 0.9995
0.0856 1.0000 1.0000
0.4027 1.0000 1.0000
0.7591 0.9998 0.9998
1.0000 1.0000 1.0000
