EA 50 Cinematic Luts Pack/EA_Cinematic Lut (15).cube
TITLE "Generated by Resolve"
LUT_3D_SIZE 33
0 0 0
0 0 0
0 0 0
0 0 0
0.0110628 0 0
0.0761883 0 0
0.134188 0 0
0.192065 0 0
0.249683 0 0
0.30634 0 0
0.360998 0 0
0.407111 0 0
0.452033 0 0
0.496757 0 0
0.541375 0 0
0.585992 0 0
0.630686 0 0
0.675425 0 0
0.72015 0 0
0.764889 0 0
0.809644 0 0
0.854444 0 0
0.899275 0 0
0.944152 0 0
0.98909 0 0
1 0 0
1 0 0
1 0 0
1 0 0
1 0 0
1 0 0
1 0 0
1 0 0
0 0.00337224 0
0 0.01149 0
0 0.0134737 0
0 0.0115969 0
0.00973526 0.00526436 0
0.0714733 0 0
0.126635 0 0
0.182376 0 0
0.238636 0 0
0.294697 0 0
0.349477 0 0
0.399252 0 0
0.444114 0 0
0.488777 0 0
0.533349 0 0
0.57792 0 0
0.622553 0 0
0.667308 0 0
0.712093 0 0
0.756863 0 0
0.801663 0 0
0.846494 0 0
0.891371 0 0
0.936294 0 0
0.981262 0 0
1 0 0
1 0 0
1 0 0
1 0 0
1 0 0
1 0 0
1 0 0
1 0 0
0 0.0282597 0
0 0.0366369 0
0 0.0419623 0
0 0.0429999 0
0.00914015 0.038056 0
0.0682994 0.0303655 0
0.120912 0.0241855 0
0.174426 0.0175174 0
0.229007 0.0103304 0
0.28397 0.00280766 0
0.33843 0 0
0.391104 0 0
0.436042 0 0
0.480735 0 0
0.525292 0 0
0.569818 0 0
0.61442 0 0
0.659159 0 0
0.703975 0 0
0.748791 0 0
0.793622 0 0
0.838483 0 0
0.883375 0 0
0.928313 0 0
0.973312 0 0
1 0 0
1 0 0
1 0 0
1 0 0
1 0 0
1 0 0
1 0 0
1 0 0
0 0.0558938 0
0 0.0632486 0
0 0.0690929 0
0 0.0721752 0
0.00999466 0.0700389 0
0.0646525 0.0642252 0
0.114504 0.059205 0
0.165911 0.0533913 0
0.218784 0.0468605 0
0.27248 0.0398108 0
0.326268 0.0324712 0
0.37911 0.0251621 0
0.426047 0.019089 0
0.470893 0.0135042 0
0.515572 0.00799573 0
0.560174 0.00262455 0
0.604807 0 0
0.649561 0 0
0.694469 0 0
0.739376 0 0
0.784283 0 0
0.829206 0 0
0.874144 0 0
0.919127 0 0
0.964157 0 0
1 0 0
1 0 0
1 0 0
1 0 0
1 0 0
1 0 0
1 0 0
1 0 0
0 0.0858625 0
0 0.0919814 0
0 0.0974746 0
0 0.100816 0
0.0168154 0.10016 0
0.0648966 0.0966354 0
0.109621 0.0935988 0
0.157702 0.0891432 0
0.208377 0.0835126 0
0.260639 0.0770428 0
0.313497 0.0700847 0
0.365927 0.0629282 0
0.414466 0.0564279 0
0.459648 0.0506142 0
0.504555 0.0449073 0
0.54934 0.0393225 0
0.59411 0.0339055 0
0.638972 0.0287175 0
0.683986 0.0237888 0
0.72903 0.0189364 0
0.77406 0.0140841 0
0.819089 0.00926223 0
0.864118 0.00444038 0
0.909209 0 0
0.954314 0 0
0.999466 0 0
1 0 0
1 0 0
1 0 0
1 0 0
1 0 0
1 0 0
1 0 0
0 0.117861 0
0 0.122835 0
0 0.127535 0
0 0.130755 0
0.0256046 0.13019 0
0.0697185 0.127794 0
0.10901 0.126589 0
0.152132 0.123949 0
0.199191 0.119722 0
0.249058 0.114229 0
0.30045 0.107851 0
0.352132 0.101015 0
0.401434 0.094377 0
0.447013 0.088365 0
0.492256 0.0824445 0
0.537331 0.0766461 0
0.58233 0.0710155 0
0.627375 0.0656138 0
0.672557 0.0604868 0
0.717784 0.0555123 0
0.762997 0.0505684 0
0.808164 0.045655 0
0.853346 0.0407416 0
0.898543 0.0358434 0
0.943755 0.0309453 0
0.988998 0.0260471 0
1 0.021149 0
1 0.0162356 0
1 0.0113222 0
1 0.00639353 0
1 0.00144961 0
1 0 0
1 0 0
0 0.151431 0
0 0.155428 0
0 0.159289 0
0 0.162005 0
0.0326848 0.161349 0
0.0757916 0.159045 0
0.111803 0.158755 0
0.150423 0.15758 0
0.193042 0.154925 0
0.239307 0.150774 0
0.288212 0.145373 0
0.338369 0.139162 0
0.38732 0.132708 0
0.433204 0.126604 0
0.478843 0.1205 0
0.524239 0.114519 0
0.569543 0.108675 0
0.614771 0.103059 0
0.660166 0.0977188 0
0.705653 0.092607 0
0.751064 0.087541 0
0.796445 0.0825055 0
0.841794 0.0774853 0
0.887144 0.0724956 0
0.932509 0.0675059 0
0.977874 0.0625315 0
1 0.0575723 0
1 0.0525978 0
1 0.0476234 0
1 0.0426337 0
1 0.0376593 0
1 0.0326543 0
1 0.0276493 0
0 0.186038 0
0 0.189364 0
0 0.192447 0
0.00242618 0.194583 0
0.0378576 0.193652 0
0.0806134 0.19118 0
0.115511 0.191028 0
0.151339 0.190616 0
0.190173 0.189166 0
0.232578 0.186343 0
0.278096 0.182177 0
0.325811 0.176883 0
0.373236 0.170993 0
0.418952 0.165026 0
0.464637 0.158923 0
0.510246 0.152834 0
0.555795 0.146838 0
0.601328 0.141024 0
0.646937 0.13547 0
0.692683 0.130175 0
0.738277 0.124971 0
0.783886 0.119814 0
0.82945 0.114672 0
0.874983 0.109575 0
0.920531 0.104479 0
0.966064 0.0994125 0
1 0.0943618 0
1 0.0892958 0
1 0.0842603 0
1 0.0792096 0
1 0.0741588 0
1 0.0691081 0
1 0.0640421 0
0 0.22121 0
0 0.224079 0
0 0.226627 0
0.00576791 0.228229 0
0.041413 0.226886 0
0.0835431 0.224308 0
0.118395 0.223941 0
0.153048 0.223713 0
0.189456 0.222919 0
0.228672 0.221103 0
0.270848 0.218051 0
0.315541 0.21384 0
0.360449 0.208759 0
0.40528 0.203204 0
0.450507 0.197345 0
0.495949 0.191333 0
0.541512 0.185306 0
0.587182 0.179385 0
0.63299 0.173678 0
0.678935 0.168231 0
0.724804 0.162875 0
0.770642 0.157549 0
0.816388 0.152285 0
0.862104 0.147051 0
0.907851 0.141848 0
0.953567 0.136675 0
0.999298 0.131518 0
1 0.12636 0
1 0.121233 0
1 0.116106 0
1 0.110979 0
1 0.105852 0
1 0.100725 0
0 0.256458 0
0 0.259174 0
0 0.261357 0
0.00769055 0.262562 0
0.0436103 0.260868 0
0.0855268 0.258061 0
0.119783 0.257633 0
0.15433 0.257237 0
0.189532 0.256672 0
0.226581 0.255421 0
0.266026 0.253223 0
0.307774 0.249943 0
0.34995 0.24567 0
0.393194 0.240787 0
0.437369 0.235401 0
0.482155 0.229679 0
0.527337 0.223835 0
0.572854 0.217945 0
0.618616 0.212192 0
0.664637 0.206638 0
0.710674 0.201144 0
0.756725 0.195682 0
0.80267 0.190295 0
0.848646 0.184924 0
0.894591 0.179583 0
0.940414 0.174304 0
0.986313 0.169024 0
1 0.163775 0
1 0.158556 0
1 0.153338 0
1 0.148119 0
1 0.142916 0
1 0.137713 0
0 0.291295 0
0 0.294087 0
0 0.296193 0
0.0090486 0.2972 0
0.0450446 0.295262 0
0.0868238 0.292241 0
0.120485 0.291752 0
0.154681 0.291264 0
0.189563 0.290608 0
0.225391 0.289601 0
0.262913 0.287922 0
0.301823 0.285191 0
0.341985 0.281697 0
0.383444 0.277531 0
0.426047 0.272801 0
0.469612 0.267613 0
0.513985 0.262089 0
0.558953 0.256428 0
0.604379 0.250782 0
0.650248 0.245228 0
0.696254 0.239689 0
0.742336 0.23415 0
0.788449 0.228626 0
0.834577 0.223148 0
0.88072 0.21767 0
0.926757 0.212284 0
0.972839 0.206897 0
1 0.201526 0
1 0.196201 0
1 0.190875 0
1 0.18558 0
1 0.180285 0
1 0.175006 0
0 0.323262 0
0 0.327382 0
0 0.330587 0
0.0108644 0.331685 0
0.0466011 0.329656 0
0.0880751 0.326528 0
0.121218 0.325963 0
0.154528 0.325536 0
0.189212 0.324773 0
0.224537 0.323751 0
0.260822 0.321996 0
0.298009 0.319768 0
0.33637 0.316945 0
0.375998 0.313497 0
0.416907 0.309438 0
0.458961 0.30486 0
0.502052 0.299901 0
0.54609 0.294606 0
0.59086 0.289204 0
0.63624 0.283787 0
0.681987 0.278294 0
0.727886 0.272755 0
0.773968 0.267201 0
0.820127 0.261646 0
0.866331 0.256092 0
0.912566 0.250568 0
0.958831 0.24506 0
1 0.239612 0
1 0.234165 0
1 0.228733 0
1 0.223316 0
1 0.21796 0
1 0.212589 0
0 0.354955 0
0 0.35906 0
0 0.362264 0
0.0174258 0.364111 0
0.0512245 0.362692 0
0.091249 0.359915 0
0.123369 0.359503 0
0.155779 0.359121 0
0.189578 0.358343 0
0.224582 0.357122 0
0.259876 0.355688 0
0.295811 0.353887 0
0.332677 0.351598 0
0.370687 0.348775 0
0.409918 0.345373 0
0.450401 0.341436 0
0.492058 0.337026 0
0.534737 0.332296 0
0.578531 0.327276 0
0.623102 0.322118 0
0.668254 0.316793 0
0.713787 0.311345 0
0.759609 0.305837 0
0.805631 0.300267 0
0.851789 0.294697 0
0.89807 0.289097 0
0.944381 0.283528 0
0.990753 0.277958 0
1 0.272404 0
1 0.26688 0
1 0.261402 0
1 0.255909 0
1 0.250431 0
0 0.386679 0
0 0.390753 0
0.00584421 0.393973 0
0.0256809 0.395865 0
0.0586099 0.394537 0
0.0974899 0.391943 0
0.128298 0.39176 0
0.159213 0.391684 0
0.191348 0.391318 0
0.225162 0.390417 0
0.25977 0.389181 0
0.294759 0.387686 0
0.330465 0.385824 0
0.367117 0.383505 0
0.404868 0.380667 0
0.443809 0.37734 0
0.48397 0.373526 0
0.525322 0.369314 0
0.567803 0.364828 0
0.611246 0.360052 0
0.655528 0.355001 0
0.700404 0.349767 0
0.745724 0.344381 0
0.791424 0.338903 0
0.837369 0.333349 0
0.883528 0.327749 0
0.929793 0.322148 0
0.976181 0.316533 0
1 0.310903 0
1 0.305303 0
1 0.299702 0
1 0.294118 0
1 0.288594 0
0 0.418372 0
0.0010071 0.422461 0
0.014435 0.425742 0
0.0340429 0.427619 0
0.0662547 0.426383 0
0.104158 0.423926 0
0.133806 0.423941 0
0.163439 0.424125 0
0.194156 0.424079 0
0.226383 0.423606 0
0.260212 0.422583 0
0.29453 0.421317 0
0.329335 0.41976 0
0.364889 0.417838 0
0.401389 0.415488 0
0.438972 0.41268 0
0.477729 0.40943 0
0.517678 0.405783 0
0.558831 0.401785 0
0.601007 0.397436 0
0.644114 0.392798 0
0.68809 0.387839 0
0.732692 0.382696 0
0.777829 0.377371 0
0.823377 0.371923 0
0.869169 0.36643 0
0.915312 0.360815 0
0.961593 0.3552 0
1 0.349554 0
1 0.343893 0
1 0.338231 0
1 0.332586 0
1 0.32694 0
0.000228885 0.450034 0
0.00987259 0.454154 0
0.0231937 0.45745 0
0.0424659 0.459373 0
0.0740978 0.458228 0
0.111162 0.455879 0
0.139788 0.456077 0
0.168276 0.456474 0
0.197726 0.456703 0
0.228595 0.456565 0
0.261067 0.455924 0
0.294835 0.454826 0
0.328984 0.453498 0
0.363699 0.451881 0
0.399176 0.449928 0
0.435599 0.447578 0
0.473091 0.444816 0
0.511727 0.441688 0
0.551522 0.438163 0
0.592416 0.434272 0
0.634348 0.430014 0
0.67718 0.425467 0
0.72079 0.420645 0
0.765164 0.415564 0
0.810071 0.410315 0
0.855467 0.404929 0
0.901213 0.399435 0
0.947204 0.393866 0
0.993469 0.388251 0
1 0.382574 0
1 0.376898 0
1 0.371206 0
1 0.365499 0
0.00891127 0.481621 0
0.018616 0.485771 0
0.0318761 0.489113 0
0.0508736 0.491096 0
0.0820325 0.490013 0
0.118379 0.487785 0
0.14612 0.488121 0
0.173617 0.488716 0
0.201953 0.489189 0
0.231586 0.489342 0
0.26273 0.489067 0
0.295506 0.488258 0
0.329168 0.487114 0
0.363226 0.48574 0
0.39791 0.484077 0
0.433387 0.482109 0
0.469795 0.479774 0
0.50724 0.477089 0
0.545785 0.474006 0
0.585397 0.470558 0
0.626062 0.466743 0
0.667735 0.462577 0
0.710277 0.458122 0
0.753643 0.453407 0
0.797787 0.448402 0
0.842496 0.443229 0
0.887724 0.437888 0
0.933318 0.432425 0
0.979278 0.426886 0
1 0.421271 0
1 0.41561 0
1 0.409903 0
1 0.404181 0
0.0175021 0.513161 0
0.0272221 0.517311 0
0.0404517 0.520684 0
0.0592508 0.522728 0
0.090013 0.521752 0
0.12578 0.519631 0
0.152728 0.520088 0
0.179309 0.520867 0
0.206683 0.521553 0
0.235233 0.521965 0
0.265202 0.521996 0
0.296696 0.521569 0
0.329717 0.520623 0
0.363302 0.519448 0
0.397345 0.518029 0
0.432059 0.516365 0
0.467552 0.514382 0
0.503975 0.512062 0
0.541375 0.509392 0
0.579812 0.506355 0
0.619287 0.502953 0
0.65977 0.499199 0
0.701213 0.495125 0
0.743557 0.49073 0
0.786648 0.486107 0
0.830549 0.481209 0
0.875074 0.476081 0
0.920119 0.470802 0
0.965591 0.4654 0
1 0.459861 0
1 0.454261 0
1 0.4486 0
1 0.442908 0
0.0260471 0.544717 0
0.0357671 0.548867 0
0.0489662 0.552224 0
0.0675669 0.554314 0
0.0979782 0.553399 0
0.133257 0.551369 0
0.159548 0.55198 0
0.185306 0.552911 0
0.211795 0.55378 0
0.239384 0.554437 0
0.268299 0.554742 0
0.29865 0.55465 0
0.330571 0.554055 0
0.363729 0.553033 0
0.397299 0.551812 0
0.431388 0.550393 0
0.466148 0.548684 0
0.501671 0.5467 0
0.538094 0.544381 0
0.575479 0.541711 0
0.613825 0.538705 0
0.653193 0.535348 0
0.693523 0.531655 0
0.734798 0.527626 0
0.776928 0.523323 0
0.819867 0.518761 0
0.863462 0.513954 0
0.90782 0.508904 0
0.952697 0.503685 0
0.998047 0.498314 0
1 0.492821 0
1 0.487251 0
1 0.481621 0
0.0345464 0.576272 0
0.0442969 0.580423 0
0.057435 0.583795 0
0.0758831 0.585885 0
0.105989 0.585016 0
0.14081 0.583062 0
0.166491 0.58378 0
0.191546 0.584848 0
0.217227 0.585901 0
0.243946 0.586755 0
0.271916 0.58732 0
0.301259 0.587503 0
0.332067 0.587259 0
0.364385 0.586526 0
0.397589 0.585473 0
0.431205 0.584222 0
0.465354 0.582757 0
0.500175 0.581033 0
0.53576 0.579019 0
0.572198 0.576699 0
0.609567 0.574044 0
0.647868 0.571054 0
0.687129 0.567727 0
0.727321 0.564095 0
0.768429 0.560128 0
0.810391 0.555886 0
0.853117 0.551369 0
0.896544 0.546654 0
0.940703 0.54168 0
0.985428 0.536507 0
1 0.531182 0
1 0.52575 0
1 0.520195 0
0.0430152 0.607858 0
0.052781 0.612009 0
0.0658885 0.615366 0
0.0841535 0.617487 0
0.114046 0.616648 0
0.148455 0.614755 0
0.173617 0.615549 0
0.198016 0.616739 0
0.22295 0.617945 0
0.248875 0.618997 0
0.27599 0.61976 0
0.304417 0.620203 0
0.334234 0.620249 0
0.365484 0.619867 0
0.398138 0.619013 0
0.431373 0.617929 0
0.465049 0.616648 0
0.499275 0.615152 0
0.534157 0.613397 0
0.569818 0.611353 0
0.606287 0.609018 0
0.643641 0.606378 0
0.68191 0.603403 0
0.721096 0.600107 0
0.761181 0.596506 0
0.802152 0.592599 0
0.843961 0.588418 0
0.886564 0.583963 0
0.929839 0.579293 0
0.973724 0.574411 0
1 0.569284 0
1 0.564019 0
1 0.558618 0
0.0514534 0.63946 0
0.0612192 0.643595 0
0.0743114 0.646952 0
0.0922103 0.649149 0
0.122118 0.64828 0
0.156191 0.646448 0
0.18088 0.647318 0
0.2047 0.6486 0
0.228931 0.649943 0
0.254139 0.651148 0
0.280476 0.652125 0
0.308049 0.652781 0
0.33695 0.653086 0
0.367224 0.652995 0
0.398932 0.652461 0
0.4318 0.651514 0
0.46508 0.650401 0
0.498833 0.649088 0
0.53315 0.647562 0
0.568124 0.645777 0
0.603845 0.643702 0
0.64036 0.641367 0
0.677745 0.638712 0
0.715969 0.635752 0
0.755108 0.632486 0
0.795102 0.628916 0
0.835966 0.625055 0
0.877623 0.62092 0
0.920073 0.616526 0
0.963195 0.611917 0
1 0.607095 0
1 0.602045 0
1 0.596811 0
0.0598611 0.671077 0
0.0696269 0.675196 0
0.0827039 0.678553 0
0.100511 0.680766 0
0.13022 0.679911 0
0.163973 0.678126 0
0.188251 0.679072 0
0.211536 0.680446 0
0.235157 0.681895 0
0.259678 0.683253 0
0.285298 0.684382 0
0.312078 0.685252 0
0.340154 0.685786 0
0.369543 0.685954 0
0.40029 0.68571 0
0.43241 0.685039 0
0.4654 0.684047 0
0.498756 0.682887 0
0.532616 0.681544 0
0.567025 0.679973 0
0.60209 0.678141 0
0.637888 0.676066 0
0.674449 0.673701 0
0.711833 0.671046 0
0.750072 0.668101 0
0.789151 0.664851 0
0.829084 0.661311 0
0.869841 0.657496 0
0.911376 0.653407 0
0.953689 0.649058 0
0.996643 0.64448 0
1 0.639735 0
1 0.634745 0
0.0682231 0.702693 0
0.0780041 0.706813 0
0.0910506 0.71017 0
0.108797 0.712383 0
0.138323 0.711559 0
0.171801 0.709804 0
0.195712 0.710811 0
0.218524 0.712276 0
0.241581 0.713817 0
0.265446 0.715297 0
0.290394 0.716594 0
0.316487 0.717632 0
0.343786 0.718364 0
0.372366 0.718761 0
0.402213 0.718791 0
0.433433 0.71841 0
0.465904 0.717601 0
0.49897 0.716579 0
0.532418 0.715389 0
0.566369 0.714 0
0.6009 0.712383 0
0.636057 0.710536 0
0.671931 0.708415 0
0.708553 0.706035 0
0.745968 0.70338 0
0.784207 0.700435 0
0.823255 0.6972 0
0.863127 0.69369 0
0.903792 0.689906 0
0.945235 0.685863 0
0.987411 0.681559 0
1 0.677028 0
1 0.672328 0
0.0765545 0.73434 0
0.0863508 0.738445 0
0.0993973 0.741802 0
0.117052 0.744015 0
0.146426 0.743206 0
0.179675 0.741497 0
0.20325 0.74255 0
0.225635 0.744091 0
0.248188 0.745724 0
0.271473 0.747311 0
0.295781 0.748745 0
0.321202 0.749935 0
0.347799 0.750851 0
0.375601 0.751461 0
0.404669 0.75172 0
0.434989 0.751614 0
0.466636 0.75108 0
0.499367 0.750179 0
0.532509 0.749111 0
0.566079 0.747875 0
0.600137 0.746441 0
0.634775 0.744793 0
0.670024 0.742916 0
0.705974 0.74078 0
0.742672 0.738384 0
0.780133 0.735698 0
0.818357 0.732769 0
0.857404 0.729549 0
0.897231 0.726055 0
0.937819 0.722301 0
0.979187 0.718288 0
1 0.714031 0
1 0.709545 0
0.0848402 0.765988 0
0.0946517 0.770092 0
0.107698 0.773434 0
0.125307 0.775662 0
0.154543 0.774868 0
0.187564 0.77319 0
0.210834 0.774289 0
0.232853 0.775891 0
0.254932 0.7776 0
0.277668 0.779278 0
0.301381 0.78085 0
0.326192 0.782177 0
0.352132 0.783261 0
0.379232 0.784054 0
0.407553 0.784527 0
0.437095 0.784634 0
0.467872 0.784375 0
0.499931 0.783719 0
0.532815 0.782757 0
0.566064 0.781659 0
0.599741 0.780377 0
0.633921 0.778897 0
0.668666 0.777218 0
0.704021 0.775296 0
0.740063 0.773129 0
0.776822 0.770718 0
0.814328 0.768032 0
0.852583 0.765087 0
0.8916 0.761883 0
0.93138 0.758404 0
0.971923 0.754681 0
1 0.750698 0
1 0.746487 0
0.0931106 0.79765 0
0.102937 0.801755 0
0.115969 0.805097 0
0.133532 0.807309 0
0.162646 0.806531 0
0.195483 0.804883 0
0.218494 0.806027 0
0.240146 0.807675 0
0.261799 0.809461 0
0.284047 0.811246 0
0.307195 0.812894 0
0.331411 0.814374 0
0.356741 0.815595 0
0.3832 0.816556 0
0.410803 0.817212 0
0.439628 0.817548 0
0.469612 0.817533 0
0.500862 0.817121 0
0.533272 0.816342 0
0.566278 0.815335 0
0.599634 0.814191 0
0.633433 0.812863 0
0.667735 0.811337 0
0.702571 0.809628 0
0.738048 0.807675 0
0.774182 0.805478 0
0.811002 0.803037 0
0.848539 0.800351 0
0.886824 0.797406 0
0.925841 0.794202 0
0.965606 0.790753 0
1 0.787045 0
1 0.783093 0
0.101335 0.829343 0
0.111177 0.833432 0
0.124208 0.836759 0
0.141741 0.838972 0
0.170581 0.838254 0
0.203418 0.836591 0
0.226169 0.837766 0
0.247517 0.83946 0
0.268788 0.841321 0
