EA 50 Cinematic Luts Pack/EA_Cinematic Lut (23).cube
TITLE "Generated by Resolve"
LUT_3D_SIZE 9
0 0.000564584 0.00894179
0.0761273 0.00669871 0.00315862
0.215595 0 0
0.360204 0 0
0.492012 0 0
0.622263 0 0
0.741085 0 0
0.848035 0 0
0.951186 0 0
0.039765 0.0812238 0.0570687
0.119142 0.0866255 0.0567178
0.213581 0.0914168 0.0108186
0.357595 0.0813764 0
0.490043 0.0730602 0
0.621927 0.0664988 0
0.743893 0.0647288 0
0.854902 0.0680095 0
0.962646 0.0739452 0
0.00860609 0.191379 0.0292973
0.135805 0.183795 0.0396735
0.229984 0.189914 0.0163119
0.358557 0.188708 0
0.494804 0.184955 0
0.630838 0.183078 0
0.756802 0.185672 0
0.870939 0.192477 0
0.981079 0.201175 0
0 0.314458 0
0.110399 0.311971 0
0.226429 0.316365 0
0.356649 0.317983 0
0.495476 0.317922 0
0.633494 0.318837 0
0.761135 0.32372 0
0.876738 0.332448 0
0.987778 0.342458 0
0 0.449317 0
0.101564 0.449165 0
0.220996 0.455879 0
0.353491 0.459739 0
0.493584 0.461814 0
0.632517 0.464591 0
0.760525 0.470588 0
0.876005 0.47982 0
0.986603 0.489876 0
0 0.593149 0
0.0990616 0.5944 0
0.220264 0.601892 0
0.353964 0.606317 0
0.494133 0.608667 0
0.632532 0.611597 0
0.759274 0.617136 0
0.872969 0.625238 0
0.981689 0.634028 0
0 0.737194 0
0.106996 0.738552 0.0012665
0.228412 0.745434 0.00619516
0.361822 0.748775 0.00471504
0.500923 0.749706 0
0.637385 0.750957 0
0.761639 0.754559 0
0.872389 0.760403 0
0.978195 0.766873 0
0 0.875868 0.018204
0.121523 0.875746 0.0189975
0.241611 0.880598 0.0225376
0.373068 0.881224 0.0194247
0.510277 0.879713 0.0116579
0.644221 0.878264 0.00175479
0.765774 0.879423 0
0.873976 0.883223 0
0.977523 0.888014 0
0 1 0.0336156
0.131258 1 0.0319371
0.249134 1 0.0331579
0.378668 1 0.0282139
0.514275 1 0.0193027
0.646799 0.99736 0.00877394
0.767025 0.997147 0
0.874128 1 0
0.976745 1 0
0 0.0170596 0
0.0950027 0.0135653 0
0.215442 0.00457771 0
0.374151 0 0
0.50576 0 0
0.63595 0 0
0.755169 0 0
0.862409 0 0
0.96585 0 0
0.0272526 0.0948196 0.0244755
0.136446 0.0941482 0.030396
0.198138 0.104616 0.0289311
0.350958 0.0901961 0.00259403
0.503319 0.0763714 0
0.634852 0.0697948 0
0.757076 0.0685893 0
0.868437 0.0725719 0
0.976135 0.0787976 0
0.0218509 0.19353 0.0421454
0.178363 0.178729 0.0757
0.242084 0.192218 0.0834211
0.354284 0.197391 0.0379339
0.510338 0.190249 0
0.645823 0.187762 0
0.771893 0.190494 0
0.88629 0.197589 0
0.996414 0.206302 0
0 0.321279 0.0209964
0.143099 0.311147 0.0438239
0.257771 0.314763 0.0654002
0.371542 0.323079 0.0442512
0.511757 0.324422 0.00820935
0.649363 0.324788 0
0.776852 0.329458 0
0.8925 0.338216 0
1 0.348241 0
0 0.456779 0.0148928
0.116411 0.456565 0.0205386
0.237919 0.463111 0.0261997
0.370916 0.467094 0.0239872
0.510399 0.468849 0.0155489
0.648753 0.471122 0.00610361
0.77644 0.476783 0
0.891722 0.485756 0
1 0.495705 0
0 0.601038 0.0156252
0.113725 0.601831 0.0212406
0.23653 0.608865 0.0281224
0.370825 0.613062 0.0281682
0.510735 0.615213 0.0222477
0.6486 0.617884 0.0142519
0.775006 0.623194 0.00781262
0.888258 0.630915 0.0033875
0.996719 0.639429 0
0 0.745144 0.0275883
0.121523 0.745937 0.0324102
0.244083 0.752117 0.0389105
0.377798 0.754757 0.0386969
0.516991 0.75555 0.0332647
0.653056 0.756573 0.0251926
0.776699 0.759838 0.0175326
0.887007 0.765393 0.0112612
0.99237 0.771496 0.00515755
0 0.883345 0.0471046
0.135378 0.882521 0.0496529
0.256367 0.88661 0.0543984
0.388296 0.886641 0.0524758
0.525551 0.884703 0.045716
0.659175 0.882963 0.036408
0.780072 0.883711 0.0274357
0.88809 0.887541 0.0201572
0.991333 0.892195 0.0129244
0.00390631 1 0.0622263
0.144183 1 0.0618601
0.262943 1 0.0641794
0.393042 1 0.0603647
0.528878 1 0.052491
0.661341 1 0.0428016
0.78117 1 0.0338445
0.888212 1 0.0267948
0.9906 1 0.0198062
0 0.0233616 0.105837
0.12372 0.00354009 0.0720073
0.243107 0 0.0511788
0.385367 0 0.0480507
0.516793 0 0.0274052
0.646876 0 0.00779736
0.766247 0 0
0.873716 0 0
0.977371 0 0
0 0.11841 0.0464179
0.110216 0.104601 0.0439612
0.214389 0.108858 0.0326848
0.348714 0.096376 0.0461433
0.51548 0.0766308 0.0380102
0.647211 0.0701457 0.0201877
0.770016 0.069398 0.00813306
0.881941 0.0737926 0.00123598
0.990066 0.0803235 0
0 0.199802 0.0747845
0.161471 0.187961 0.0695201
0.258747 0.199084 0.0872511
0.33875 0.210498 0.0867323
0.503471 0.19884 0.0631418
0.658808 0.190799 0.0431678
0.784161 0.193133 0.0335851
0.898482 0.200473 0.0290074
1 0.209735 0.0263371
0 0.321172 0.0614939
0.154803 0.311742 0.0859083
0.300664 0.310018 0.132555
0.383658 0.325414 0.142184
0.507118 0.332723 0.0988174
0.664027 0.329244 0.0606088
0.790433 0.332753 0.0523995
0.905715 0.341146 0.0490883
1 0.351553 0.0477913
0 0.45803 0.0569924
0.118746 0.461784 0.0724346
0.269917 0.461585 0.105196
0.401343 0.464576 0.126146
0.524269 0.472923 0.105028
0.663966 0.476539 0.0712749
0.790402 0.480827 0.0636149
0.904982 0.489036 0.0598764
1 0.498985 0.0578775
0 0.604471 0.0613718
0.119219 0.607294 0.0752117
0.24979 0.614679 0.0884565
0.385809 0.618372 0.0912642
0.526284 0.620706 0.0874189
0.663355 0.622843 0.0793469
0.788571 0.62707 0.0718547
0.901289 0.634195 0.0669261
1 0.642344 0.0629587
0 0.749813 0.0760052
0.128862 0.751431 0.0878614
0.256306 0.757107 0.0983597
0.391318 0.758984 0.100099
0.531029 0.759457 0.0964218
0.66659 0.760052 0.0889448
0.789456 0.762798 0.0810407
0.899351 0.768063 0.0745556
1 0.773785 0.0681163
0 0.888151 0.0968643
0.143481 0.887465 0.105745
0.267643 0.890761 0.1131
0.400626 0.889998 0.112642
0.538323 0.88748 0.107271
0.67187 0.88542 0.0989853
0.792355 0.885954 0.090425
0.899992 0.889662 0.0832074
1 0.894133 0.0758679
0.00401312 1 0.112718
0.152377 1 0.118044
0.273198 1 0.122042
0.404517 1 0.119738
0.540978 1 0.113207
0.673548 1 0.10457
0.793317 1 0.0964828
0.900114 1 0.0898604
1 1 0.0830396
0 0.0260319 0.24303
0.110842 0 0.23537
0.263951 0 0.190112
0.393423 0 0.151415
0.524727 0 0.126635
0.654902 0 0.107332
0.774411 0 0.0921035
0.882139 0 0.081178
0.986114 0 0.0724041
0 0.120943 0.179629
0.0678416 0.0989242 0.183001
0.236194 0.0919051 0.161959
0.372824 0.0880293 0.141009
0.52369 0.0733196 0.137377
0.65594 0.0674907 0.120317
0.779293 0.0674449 0.109071
0.891569 0.072343 0.102831
1 0.0793011 0.0986648
0 0.211322 0.126894
0.0646067 0.201541 0.124407
0.226978 0.204013 0.138216
0.353445 0.213184 0.131838
0.500023 0.203815 0.148425
0.66981 0.189899 0.146105
0.794842 0.191806 0.13669
0.909346 0.199191 0.132769
1 0.208759 0.131044
0 0.309285 0.146166
0.0885939 0.308888 0.152346
0.279728 0.315206 0.165255
0.399084 0.33106 0.187701
0.490105 0.34435 0.189075
0.655543 0.336217 0.169009
0.801144 0.333516 0.154376
0.915312 0.341115 0.150042
1 0.351812 0.148821
0 0.447501 0.132586
0.082826 0.454734 0.148928
0.278187 0.458747 0.186786
0.441978 0.457588 0.233982
0.534371 0.473243 0.243885
0.657115 0.482628 0.202594
0.802243 0.482429 0.167681
0.915343 0.489113 0.162631
1 0.49868 0.160494
0 0.598581 0.138735
0.0970932 0.60322 0.154925
0.248676 0.616449 0.179843
0.415137 0.614176 0.210529
0.553994 0.615457 0.229786
0.674311 0.624002 0.20885
0.800214 0.628901 0.176379
0.911406 0.634394 0.169924
1 0.641672 0.165255
0 0.746944 0.156588
0.115343 0.749996 0.171695
0.257923 0.758694 0.191409
0.401099 0.761303 0.199878
0.542702 0.761456 0.199145
0.67837 0.761791 0.193286
0.800061 0.763607 0.184909
0.90866 0.767681 0.177264
1 0.772732 0.170245
0 0.886595 0.179751
0.134707 0.887175 0.192157
0.270481 0.891752 0.206973
0.408606 0.89073 0.210788
0.547662 0.88751 0.207416
0.681666 0.8851 0.200839
0.80177 0.885313 0.192981
0.908797 0.88867 0.185687
1 0.892912 0.17818
0 1 0.19704
0.14609 1 0.205768
0.276844 1 0.216602
0.411719 1 0.217273
0.549371 1 0.212375
0.682506 1 0.205249
0.802396 1 0.198383
0.908965 1 0.192355
1 1 0.185672
0 0.0285496 0.382757
0.0755016 0 0.380011
0.247791 0 0.345418
0.395926 0 0.294942
0.530922 0 0.257633
0.661082 0 0.233341
0.780804 0 0.218082
0.888548 0 0.20737
0.993133 0 0.199481
0 0.118746 0.314839
0.0230106 0.0907912 0.337346
0.213809 0.0742962 0.343771
0.388876 0.0695811 0.30312
0.529717 0.0667277 0.266636
0.662638 0.0625162 0.246296
0.786694 0.0633097 0.23595
0.899214 0.0685893 0.230182
1 0.0761883 0.22678
0 0.210147 0.242283
0 0.194003 0.275486
0.175753 0.189471 0.296361
0.371115 0.192096 0.284962
0.523217 0.194568 0.270359
0.677577 0.18613 0.272999
0.802884 0.188464 0.264088
0.917449 0.196078 0.260533
1 0.206088 0.259388
0 0.310292 0.218784
0 0.311101 0.223117
0.174762 0.320699 0.240009
0.36289 0.331548 0.262211
0.503761 0.345983 0.261097
0.650996 0.340093 0.281147
0.810666 0.331136 0.283803
0.924254 0.338033 0.279377
1 0.348699 0.278737
0 0.432364 0.24448
0.0135805 0.432105 0.250813
0.202884 0.446799 0.272099
0.416892 0.458625 0.290517
0.54873 0.477806 0.316289
0.638743 0.492897 0.319463
0.792004 0.487663 0.302281
0.923934 0.487755 0.290455
1 0.496071 0.286854
0 0.584207 0.241947
0.0385138 0.583932 0.249714
0.205585 0.602243 0.27715
0.420066 0.607996 0.316747
0.593057 0.606897 0.364004
0.682506 0.6224 0.373754
0.791226 0.632853 0.333532
0.920851 0.633631 0.29958
1 0.638575 0.292821
0 0.735866 0.258167
0.073991 0.737545 0.270451
0.229923 0.748745 0.293202
0.396597 0.759701 0.315862
0.569482 0.754711 0.343832
0.703273 0.753735 0.36083
0.808286 0.762051 0.339651
0.917617 0.766827 0.307057
1 0.76968 0.297978
0 0.878019 0.282567
0.104875 0.878737 0.29514
0.252155 0.885512 0.313954
0.406638 0.888731 0.328191
0.55436 0.886763 0.332097
0.690166 0.883909 0.328359
0.810788 0.88426 0.322515
0.916854 0.886946 0.314992
1 0.88983 0.306172
0 1 0.301427
0.123339 1 0.311696
0.263905 1 0.326787
0.41149 1 0.336065
0.554513 1 0.335637
0.689174 0.999771 0.330678
0.809842 0.9991 0.325856
0.916121 1 0.320623
1 1 0.313771
0 0.0307469 0.535134
0.040177 0 0.535271
0.220005 0 0.511543
0.387594 0 0.460502
0.534234 0 0.41207
0.66714 0 0.377951
0.786496 0 0.357046
0.894606 0 0.345769
0.999557 0 0.33843
0 0.120928 0.467521
0 0.0884413 0.484764
0.171221 0.0670024 0.493721
0.366857 0.0566262 0.465126
0.530098 0.0556802 0.420615
0.669123 0.0560311 0.390143
0.793454 0.0583505 0.375097
0.90634 0.0640421 0.369482
1 0.0720378 0.366552
0 0.212589 0.392752
0 0.186069 0.417517
0.123278 0.173678 0.455604
0.341772 0.167529 0.472374
0.536965 0.1738 0.44271
0.683497 0.179461 0.41474
0.809415 0.183322 0.402472
0.924804 0.191882 0.399908
1 0.202304 0.399268
0 0.322393 0.324254
0 0.30428 0.345434
0.0911879 0.304768 0.395254
0.303563 0.308919 0.424811
0.517739 0.321218 0.423087
0.673381 0.330022 0.414832
0.817624 0.326543 0.422431
0.931517 0.333928 0.41857
1 0.344686 0.418143
0 0.435782 0.341558
0 0.42565 0.328542
0.0876936 0.439567 0.345983
0.303822 0.456001 0.369711
0.508446 0.47422 0.399268
0.651484 0.493629 0.403143
0.78645 0.490532 0.425986
0.932326 0.48423 0.431296
1 0.491386 0.427115
0 0.570108 0.368917
0 0.560265 0.365652
0.125643 0.568902 0.38088
0.335866 0.587137 0.405707
0.563912 0.603876 0.429038
0.695567 0.625681 0.457435
0.771603 0.641871 0.461707
0.909163 0.637385 0.445289
1 0.635233 0.431205
0 0.719631 0.375296
0.00746166 0.715373 0.378439
0.162631 0.720745 0.391852
0.346777 0.73875 0.418982
0.571206 0.745312 0.459388
0.740627 0.743465 0.505882
0.814847 0.758831 0.515496
0.90692 0.769085 0.475059
1 0.766812 0.438087
0 0.863264 0.395239
0.0508125 0.861021 0.40264
0.20441 0.866667 0.418875
0.373693 0.873838 0.437613
0.547051 0.882353 0.457816
0.71519 0.87541 0.483848
0.834363 0.874891 0.501289
0.923766 0.884062 0.48098
1 0.88751 0.447059
0 0.996643 0.413443
0.0804303 0.99353 0.421622
0.229465 0.997757 0.437736
0.389578 1 0.452018
0.55021 1 0.463294
0.69453 0.997681 0.46656
0.817517 0.997086 0.465095
0.9243 1 0.461875
1 1 0.454841
0 0.0331121 0.686152
0.00529488 0 0.68809
0.187808 0 0.672572
0.369177 0 0.62768
0.530709 0 0.5738
0.671489 0 0.530114
0.793194 0 0.501274
0.901106 0 0.484627
1 0 0.476066
0 0.123812 0.619348
0 0.0910811 0.635645
0.134585 0.0669566 0.645777
0.336263 0.0499123 0.62652
0.520394 0.0452735 0.58291
0.673136 0.0475013 0.543374
0.801053 0.0525063 0.519341
0.913832 0.0596628 0.508309
1 0.0680247 0.504723
0 0.217411 0.545525
0 0.18941 0.569451
0.0822156 0.169329 0.5991
0.294774 0.155825 0.616007
0.511849 0.157733 0.599695
0.683391 0.167926 0.566308
0.816815 0.177737 0.545312
0.932433 0.187793 0.538003
1 0.198535 0.537438
0 0.330373 0.4692
0 0.307347 0.494621
0.0378576 0.292165 0.530724
0.243961 0.286 0.575021
0.481941 0.290196 0.602136
0.684749 0.306874 0.582895
0.823392 0.319707 0.562097
0.938415 0.329152 0.555398
1 0.340505 0.555627
0 0.45272 0.42623
0 0.436454 0.430793
0.0138247 0.426581 0.460212
0.211749 0.431571 0.514549
0.441123 0.44358 0.551965
0.661585 0.464988 0.559335
0.808118 0.479744 0.557046
0.938827 0.479194 0.567559
1 0.486503 0.563622
0 0.571572 0.4701
0 0.559838 0.456962
0.0334936 0.555077 0.449317
0.211475 0.570718 0.468498
0.442786 0.59321 0.498268
0.650889 0.617685 0.534112
0.783444 0.641703 0.542565
0.902708 0.639368 0.566171
1 0.630533 0.568963
0 0.705913 0.501534
0 0.694987 0.497185
0.0833143 0.688609 0.497398
0.256367 0.694957 0.510338
0.47808 0.715557 0.53753
0.70753 0.736492 0.565057
0.827222 0.76141 0.596567
0.886534 0.777325 0.600565
1 0.769665 0.580972
0 0.846326 0.512367
0 0.838209 0.511269
0.130327 0.836927 0.517403
0.297993 0.83743 0.525933
0.49073 0.854902 0.552529
0.714565 0.863676 0.595148
0.871275 0.864164 0.643992
0.930068 0.880583 0.654643
1 0.889708 0.613092
0 0.979736 0.524376
0.0190738 0.973297 0.526909
0.170077 0.974746 0.538018
0.336767 0.976104 0.549981
0.513619 0.981704 0.567132
0.686122 0.992157 0.589273
0.842573 0.988617 0.618708
0.948013 0.990829 0.63888
1 1 0.619455
0 0.0358282 0.833112
0 0.000991836 0.836133
0.15407 0 0.826383
0.343587 0 0.789349
0.519188 0 0.736019
0.671153 0 0.685802
0.798581 0 0.648783
0.908873 0 0.625849
1 0 0.612467
0 0.12694 0.766888
0 0.0940871 0.782513
0.0998703 0.0690623 0.793942
0.303273 0.0481117 0.781918
0.501198 0.038117 0.744472
0.669947 0.0386816 0.700618
0.806806 0.0451209 0.668086
0.922606 0.0546578 0.64979
1 0.064271 0.64062
0 0.222446 0.694636
0 0.194644 0.718807
0.0504005 0.174197 0.747402
0.25861 0.156237 0.763684
0.479881 0.14966 0.75491
0.672908 0.156725 0.722988
0.821225 0.169604 0.694102
0.941222 0.183139 0.678599
1 0.195056 0.672328
0 0.33756 0.617853
0 0.314488 0.644877
0.00364691 0.297063 0.679377
0.200763 0.2795 0.711543
0.429709 0.273259 0.735714
0.65507 0.286259 0.730495
0.821851 0.306752 0.707408
0.945968 0.32372 0.693568
1 0.336461 0.688945
0 0.465095 0.549218
0 0.445014 0.571496
0 0.429328 0.604242
0.153353 0.413901 0.640116
0.373632 0.412787 0.689464
0.618418 0.426581 0.726177
0.816373 0.453498 0.717174
0.943648 0.471427 0.701457
1 0.480674 0.694575
0 0.588815 0.541619
0 0.575158 0.53521
0 0.563806 0.544686
0.131075 0.551202 0.571359
0.341421 0.559487 0.628992
0.574777 0.578271 0.673198
0.789441 0.608957 0.689845
0.92285 0.627054 0.690867
1 0.624002 0.698894
0 0.705715 0.60209
0 0.692454 0.589548
0.00616464 0.683528 0.579232
0.1561 0.673014 0.565835
0.343465 0.688884 0.585245
0.577661 0.717067 0.620706
0.77789 0.748775 0.663767
0.897185 0.775982 0.675425
1 0.770748 0.696147
0 0.832563 0.63415
0 0.818906 0.6271
0.0560769 0.809812 0.624598
0.209751 0.796368 0.617731
0.389425 0.800198 0.628168
0.612696 0.825162 0.659709
0.834714 0.853742 0.694896
0.942275 0.882979 0.730709
0.994415 0.89807 0.733867
0 0.962219 0.638285
0 0.950729 0.633585
0.094377 0.945647 0.635538
0.255573 0.939254 0.636545
0.43032 0.937713 0.643046
0.624552 0.959472 0.673915
0.840604 0.97554 0.723842
0.985351 0.980529 0.777188
1 0.99823 0.78912
0 0.0381628 0.984283
0 0.0031281 0.988037
0.119188 0 0.98201
0.313451 0 0.952468
0.50013 0 0.9037
0.664042 0 0.850935
0.800061 0 0.807492
0.915099 0 0.777829
1 0 0.758999
0 0.129717 0.918593
0 0.0968185 0.933654
0.0651102 0.0711681 0.945876
0.26894 0.048188 0.939315
0.474891 0.033814 0.909575
0.658015 0.0309148 0.866606
0.80679 0.0367285 0.828275
0.929107 0.0476234 0.802579
1 0.059205 0.787198
0 0.227008 0.848035
0 0.199542 0.872297
0.0184176 0.178912 0.90013
0.224842 0.159304 0.916991
0.44625 0.147234 0.913848
0.652262 0.148104 0.887266
0.817166 0.159915 0.854658
0.946822 0.175616 0.831373
1 0.190173 0.818097
0 0.344335 0.771923
0 0.321141 0.799756
0 0.30367 0.834287
0.169894 0.285313 0.864973
0.392325 0.272465 0.886366
0.619883 0.274952 0.886641
0.808942 0.293126 0.865827
0.949157 0.314366 0.845319
1 0.331151 0.833066
0 0.473564 0.69778
0 0.452583 0.724727
0 0.437018 0.759228
0.11899 0.418647 0.792798
0.326436 0.402289 0.826169
0.559335 0.402792 0.857084
0.781033 0.427207 0.863264
0.93904 0.45539 0.847883
1 0.473747 0.835431
0 0.604044 0.649454
0 0.586618 0.661463
0 0.57171 0.688884
0.08542 0.551934 0.717556
0.275685 0.534463 0.7514
0.497749 0.537942 0.805325
0.737285 0.561563 0.851865
0.926238 0.595926 0.850309
1 0.613718 0.834455
0 0.720302 0.676417
0 0.706905 0.662455
0 0.696132 0.65893
0.0794385 0.678019 0.661646
0.254765 0.661097 0.684001
0.465553 0.672602 0.744869
0.691661 0.699229 0.796902
0.897444 0.737484 0.821118
1 0.756161 0.822736
0 0.829801 0.740124
0 0.814023 0.727138
0 0.802213 0.71606
0.126741 0.785443 0.697887
0.280049 0.769162 0.678737
0.467628 0.788052 0.701152
0.695766 0.825254 0.745632
0.887984 0.8654 0.797147
1 0.895644 0.811826
0 0.947463 0.76347
0 0.931487 0.754086
0.021912 0.920256 0.749432
0.17406 0.90486 0.740642
0.33312 0.887678 0.730053
0.512673 0.894194 0.743145
0.730114 0.928405 0.783963
0.945464 0.966766 0.828916
1 1 0.868864
