EA 50 Cinematic Luts Pack/EA_Cinematic Lut (26).cube
TITLE "Generated by Resolve"
LUT_3D_SIZE 9
0 0.0295567 0.0577707
0 0.0243534 0.04065
0.103151 0 0
0.283009 0 0
0.433936 0 0
0.57583 0 0
0.700236 0 0
0.806043 0 0
0.903502 0 0
0 0.110689 0.117754
0 0.105562 0.106874
0.114 0.067689 0.0183108
0.292241 0.0492256 0
0.442359 0.0362249 0
0.584741 0.0269474 0
0.710674 0.0230411 0
0.819028 0.0256352 0
0.920287 0.0319829 0
0 0.221546 0.099733
0 0.201816 0.0979782
0.137469 0.164172 0.0308537
0.29868 0.153002 0
0.451438 0.143374 0
0.597314 0.138094 0
0.728191 0.139544 0
0.841062 0.147051 0
0.946624 0.158053 0
0 0.341176 0.0717632
0 0.325521 0.0552224
0.135958 0.286183 0.00970474
0.299809 0.278798 0
0.45684 0.274601 0
0.606165 0.273564 0
0.739605 0.278172 0
0.854826 0.288472 0
0.96199 0.301503 0
0 0.475944 0.06009
0 0.464759 0.0487678
0.130251 0.428412 0.00825513
0.297444 0.424338 0
0.456321 0.422858 0
0.60737 0.424506 0
0.741558 0.43061 0
0.85742 0.442161 0
0.964553 0.45565 0
0 0.625345 0.0554055
0 0.61622 0.0466011
0.127291 0.581338 0.00886549
0.29633 0.57847 0
0.456184 0.578134 0
0.606867 0.580118 0
0.740536 0.586511 0
0.85481 0.597147 0
0.960296 0.609598 0
0 0.778408 0.0632944
0 0.769482 0.0550088
0.133455 0.734722 0.0183108
0.302281 0.730846 0.00961318
0.461479 0.729519 0.000717174
0.61033 0.729915 0
0.741588 0.734462 0
0.852979 0.742885 0
0.955337 0.752819 0
0 0.926986 0.0811627
0 0.916854 0.071931
0.145861 0.880064 0.0338598
0.313329 0.874067 0.0241093
0.470085 0.869749 0.0135348
0.616449 0.867491 0.00280766
0.74435 0.868925 0
0.852949 0.875059 0
0.952422 0.882689 0
0 1 0.0953841
0 1 0.0837262
0.151873 1 0.0429541
0.317037 1 0.0310063
0.471687 0.999786 0.0187839
0.61622 0.995315 0.00701915
0.742535 0.995132 0
0.849775 1 0
0.948165 1 0
0 0.0449378 0.0675669
0 0.0297856 0.0368811
0.101778 0 0.0111696
0.295872 0 0
0.446571 0 0
0.58819 0 0
0.712871 0 0
0.818662 0 0
0.91664 0 0
0 0.123232 0.106172
0 0.111986 0.101534
0.0972457 0.0795758 0.0571908
0.284108 0.0565652 0.0222477
0.453956 0.0378729 0
0.595865 0.0284428 0
0.721965 0.0250248 0
0.830686 0.0283055 0
0.932326 0.0353857 0
0 0.222019 0.132998
0 0.195346 0.154681
0.147555 0.164477 0.118044
0.292363 0.159625 0.0625162
0.464775 0.146487 0.0146639
0.610697 0.141207 0
0.741711 0.142794 0
0.85507 0.150805 0
0.96083 0.162066 0
0 0.346044 0.114611
0 0.323049 0.12459
0.165713 0.282994 0.102495
0.313283 0.282475 0.0724956
0.472084 0.280034 0.0326848
0.620737 0.278233 0.0189364
0.754131 0.282719 0.0114748
0.869276 0.292927 0.00975052
0.976715 0.306249 0.0111543
0 0.482017 0.105989
0 0.470756 0.100572
0.145922 0.434409 0.0633555
0.313451 0.430289 0.0530404
0.47219 0.428946 0.0414893
0.622477 0.429908 0.0307469
0.756512 0.435828 0.0246128
0.872267 0.447242 0.0238956
0.979248 0.460578 0.0251011
0 0.632181 0.103502
0 0.622583 0.0987106
0.142535 0.587289 0.0632792
0.312261 0.584283 0.0561227
0.471717 0.583627 0.0473793
0.622065 0.585534 0.0386358
0.755093 0.591394 0.0327459
0.869307 0.602014 0.03122
0.974289 0.613962 0.0308995
0 0.785473 0.11281
0 0.775967 0.107332
0.148165 0.740459 0.0721294
0.317632 0.736202 0.0650492
0.476707 0.734524 0.0571298
0.625101 0.734646 0.0481575
0.75581 0.738903 0.0414893
0.866682 0.746975 0.0377356
0.968612 0.756542 0.0350958
0 0.933608 0.131289
0 0.922713 0.123766
0.159838 0.885298 0.0870069
0.327459 0.878386 0.0781415
0.484382 0.873777 0.0687114
0.630137 0.870924 0.0582895
0.757839 0.872404 0.0500496
0.865858 0.878187 0.0447089
0.965194 0.885832 0.0404669
0 1 0.145281
0 1 0.134874
0.164706 1 0.0950942
0.330358 1 0.0841993
0.485222 1 0.0729839
0.629679 0.998413 0.0620432
0.755779 0.998123 0.0532998
0.862745 1 0.0481422
0.960906 1 0.0438087
0 0.0508888 0.181186
0 0.0196384 0.135912
0.129717 0 0.0728161
0.307195 0 0.0622721
0.457588 0 0.0382239
0.599008 0 0.0167239
0.723644 0 0.000320439
0.82948 0 0
0.927596 0 0
0 0.146899 0.134096
0 0.12221 0.120745
0.113313 0.0836194 0.0666209
0.281468 0.0623484 0.0712749
0.465766 0.0377661 0.0583047
0.607538 0.0281071 0.0373236
0.734035 0.0249638 0.0228733
0.843275 0.0286412 0.015259
0.945861 0.0365148 0.0118257
0 0.227893 0.171115
0 0.204105 0.153918
0.163577 0.170703 0.127092
0.276036 0.171939 0.116411
0.457481 0.15465 0.0871901
0.62327 0.143816 0.0644388
0.753628 0.145068 0.0537728
0.867262 0.153689 0.0504463
0.9729 0.165164 0.0500038
0 0.345205 0.160266
0 0.323232 0.172137
0.208286 0.277928 0.175189
0.32517 0.284581 0.176089
0.467292 0.288197 0.129015
0.635325 0.282597 0.0887007
0.767681 0.285969 0.0803693
0.882856 0.296223 0.0789044
0.990402 0.309697 0.0806592
0 0.483391 0.15407
0 0.475685 0.158068
0.17789 0.432853 0.148196
0.343847 0.427726 0.161059
0.486137 0.433097 0.136934
0.637629 0.435264 0.101717
0.770687 0.440085 0.0946212
0.885679 0.450675 0.0932479
0.992813 0.464149 0.0947738
0 0.635828 0.155352
0 0.628168 0.158709
0.155962 0.593271 0.129656
0.327733 0.590066 0.125582
0.487541 0.58938 0.1187
0.63714 0.590814 0.109941
0.769024 0.595621 0.103029
0.882658 0.605631 0.100984
0.987259 0.617151 0.100374
0 0.790082 0.167041
0 0.78172 0.168917
0.160494 0.745541 0.137575
0.331579 0.740856 0.132738
0.490837 0.738537 0.126268
0.639017 0.738506 0.118166
0.768673 0.74197 0.110979
0.87924 0.749844 0.107103
0.980529 0.758846 0.103944
0 0.938689 0.187198
0 0.927932 0.186023
0.171511 0.88986 0.15198
0.340169 0.882124 0.144564
0.497459 0.876844 0.136446
0.643015 0.873579 0.12694
0.770291 0.8748 0.119081
0.877806 0.880339 0.113695
0.976837 0.887861 0.109377
0 1 0.201877
0 1 0.196994
0.175372 1 0.159243
0.341772 1 0.149371
0.497429 1 0.139696
0.641886 1 0.129702
0.768002 1 0.121889
0.874662 1 0.117082
0.972641 1 0.112978
0 0.0538033 0.316823
0 0.0117647 0.297719
0.151232 0 0.21062
0.315892 0 0.164477
0.465934 0 0.136095
0.607401 0 0.114839
0.732067 0 0.0986954
0.837995 0 0.0879225
0.936278 0 0.0803693
0 0.150042 0.266102
0 0.117006 0.258473
0.135363 0.0669413 0.194369
0.305638 0.0540627 0.164431
0.474189 0.0346685 0.156115
0.616022 0.0252079 0.135409
0.743053 0.0227512 0.121782
0.852735 0.0269932 0.114885
0.955932 0.0356298 0.112383
0 0.239536 0.221561
0 0.217487 0.206806
0.13164 0.175448 0.17612
0.290562 0.174441 0.159564
0.454185 0.159777 0.17084
0.634531 0.143175 0.165835
0.76463 0.144076 0.155413
0.878584 0.15288 0.152911
0.984665 0.16466 0.153399
0 0.333074 0.242908
0 0.3205 0.236912
0.187442 0.283207 0.20621
0.341131 0.290745 0.22034
0.450446 0.299992 0.217655
0.627359 0.290089 0.195834
0.778744 0.287098 0.180926
0.893095 0.296834 0.178729
1 0.310353 0.180316
0 0.473213 0.228244
0 0.469093 0.233249
0.186694 0.430549 0.228534
0.385397 0.421653 0.268009
0.496925 0.434089 0.274693
0.63151 0.442084 0.231983
0.78349 0.442664 0.197864
0.896864 0.45156 0.195041
1 0.464729 0.19649
0 0.630564 0.23154
0 0.624491 0.237018
0.155612 0.595804 0.220035
0.357565 0.586374 0.243565
0.516045 0.584939 0.260105
0.648798 0.592676 0.238361
0.781842 0.598627 0.206928
0.893446 0.6065 0.202853
0.997497 0.617411 0.201831
0 0.788037 0.246662
0 0.78114 0.25182
0.162966 0.747982 0.229679
0.342199 0.74403 0.231586
0.503349 0.741375 0.228046
0.651698 0.741146 0.221622
0.780331 0.743832 0.21413
0.889387 0.750301 0.208881
0.989853 0.758419 0.204929
0 0.937758 0.268925
0 0.928512 0.271504
0.175189 0.891676 0.244923
0.348943 0.883665 0.241733
0.507576 0.877668 0.235584
0.653635 0.874052 0.227817
0.780285 0.874754 0.220432
0.887266 0.880018 0.215061
0.985931 0.887266 0.210544
0 1 0.285176
0 1 0.283589
0.179782 1 0.252781
0.34966 1 0.245838
0.506508 1 0.237751
0.651484 0.999924 0.229236
0.777722 0.999573 0.222644
0.883955 1 0.218235
0.981857 1 0.214511
0 0.0564736 0.457069
0 0.0123598 0.443366
0.135653 0 0.366888
0.318837 0 0.308827
0.472465 0 0.267796
0.613687 0 0.241337
0.738277 0 0.224872
0.844556 0 0.214649
0.942885 0 0.207401
0 0.148409 0.402274
0 0.109133 0.413443
0.113069 0.0494087 0.376654
0.321599 0.0355077 0.326818
0.479973 0.0278477 0.285512
0.6224 0.019913 0.261448
0.750134 0.0182956 0.248707
0.860533 0.0234073 0.242756
0.964157 0.0325933 0.240955
0 0.238453 0.337423
0 0.209567 0.35787
0.0799115 0.160418 0.334142
0.307652 0.152789 0.312474
0.477363 0.1505 0.293111
0.642191 0.1393 0.293004
0.7729 0.140963 0.283406
0.886854 0.149905 0.281193
0.993439 0.162341 0.282475
0 0.333898 0.315709
0 0.322713 0.308064
0.0826123 0.288838 0.281468
0.305303 0.291615 0.295598
0.464393 0.30193 0.290364
0.623194 0.294347 0.308721
0.7888 0.285252 0.311238
0.902556 0.294286 0.308949
1 0.30782 0.311162
0 0.458106 0.340551
0 0.446799 0.335821
0.111513 0.418708 0.314336
0.360784 0.423163 0.325383
0.511589 0.438956 0.347768
0.613733 0.452949 0.349828
0.773877 0.448508 0.333471
0.906111 0.450874 0.323888
1 0.462806 0.323903
0 0.616678 0.335622
0 0.605753 0.332738
0.113329 0.582391 0.318502
0.363165 0.580865 0.35082
0.55581 0.577081 0.395377
0.657526 0.591608 0.404166
0.773526 0.603265 0.365133
0.903578 0.606409 0.333562
1 0.615076 0.33051
0 0.77763 0.349294
0 0.769131 0.3514
0.136004 0.739086 0.332891
0.338308 0.743038 0.348547
0.530831 0.735317 0.373785
0.677455 0.733944 0.390387
0.789212 0.742916 0.369879
0.899001 0.750118 0.339712
0.99736 0.756008 0.333654
0 0.929961 0.372869
0 0.920851 0.375631
0.157473 0.886046 0.35288
0.347585 0.882261 0.360113
0.514611 0.877241 0.360952
0.662898 0.87364 0.356481
0.789746 0.874144 0.35079
0.895842 0.878813 0.345251
0.992798 0.884443 0.339178
0 1 0.390494
0 1 0.390494
0.167346 1 0.363851
0.349935 1 0.365484
0.512139 1 0.361883
0.658701 0.997864 0.355596
0.785626 0.997345 0.350942
0.891569 1 0.347326
0.988937 1 0.343603
0 0.0590372 0.610452
0 0.0142672 0.599939
0.108339 0 0.534142
0.310933 0 0.475456
0.476005 0 0.423117
0.619806 0 0.386664
0.743847 0 0.364355
0.850385 0 0.353445
0.949004 0 0.34667
0 0.150683 0.555688
0 0.106966 0.5617
0.0703593 0.0419928 0.527138
0.299702 0.0226596 0.489586
0.479927 0.0163882 0.439719
0.628397 0.0129091 0.405447
0.756252 0.0126802 0.387854
0.867628 0.0188144 0.382666
0.971572 0.0284733 0.381399
0 0.240803 0.488441
0 0.201419 0.500359
0.0270237 0.144213 0.493629
0.278264 0.128176 0.500496
0.491066 0.129702 0.466087
0.648249 0.132753 0.435508
0.779934 0.136309 0.422934
0.894392 0.145907 0.421408
1 0.158923 0.423362
0 0.345953 0.42179
0 0.315801 0.43093
0 0.27306 0.437537
0.246159 0.269154 0.459037
0.478691 0.27747 0.453315
0.645762 0.284474 0.443244
0.796384 0.281285 0.451148
0.910307 0.290654 0.449271
1 0.304372 0.45182
0 0.461769 0.438514
0 0.440681 0.414542
0 0.411963 0.389364
0.248188 0.421027 0.405707
0.471763 0.435828 0.431861
0.62707 0.454276 0.43476
0.76878 0.45185 0.458274
0.915175 0.44802 0.466056
1 0.458488 0.465202
0 0.603006 0.463661
0 0.58265 0.449882
0.0340887 0.549752 0.42359
0.279591 0.560647 0.441077
0.527291 0.574685 0.461692
0.671473 0.595773 0.489372
0.75462 0.613001 0.494667
0.892546 0.610834 0.480583
1 0.612375 0.470207
0 0.762036 0.467704
0 0.747646 0.460731
0.0694133 0.711788 0.432898
0.289082 0.722683 0.452918
0.533303 0.72668 0.490761
0.715282 0.724147 0.536583
0.796368 0.740291 0.54696
0.888594 0.752651 0.508644
1 0.753841 0.47512
0 0.915862 0.48687
0 0.904036 0.484688
0.110475 0.867948 0.459205
0.315328 0.86807 0.470878
0.507881 0.873411 0.487922
0.688426 0.865644 0.513115
0.813794 0.865248 0.530694
0.903243 0.876402 0.512367
1 0.882826 0.481407
0 1 0.503685
0 1 0.501915
0.133227 1 0.475761
0.328511 1 0.482582
0.508278 1 0.490623
0.664515 0.996216 0.492592
0.793561 0.995605 0.491096
0.900175 1 0.489662
0.996597 1 0.48571
0 0.0615244 0.760067
0 0.0168307 0.751842
0.0767681 0 0.694255
0.292836 0 0.641413
0.472831 0 0.583658
0.624338 0 0.537453
0.750668 0 0.507164
0.856733 0 0.490623
0.955703 0 0.482429
0 0.153979 0.706386
0 0.109834 0.711284
0.0338598 0.0420844 0.677775
0.2692 0.0160525 0.649531
0.470085 0.00582895 0.60032
0.632136 0.00411994 0.556863
0.763928 0.0069276 0.530632
0.875227 0.0145571 0.520073
0.979492 0.0245975 0.518166
0 0.245289 0.639338
0 0.204547 0.650538
0 0.139666 0.63537
0.231373 0.116564 0.642695
0.466194 0.113878 0.621775
0.648447 0.121538 0.585855
0.787717 0.131106 0.56463
0.902495 0.14229 0.558434
1 0.155688 0.560525
0 0.35404 0.565301
0 0.319097 0.57879
0 0.261112 0.572106
0.186755 0.246433 0.607904
0.443381 0.246937 0.631312
0.657588 0.261784 0.610239
0.802777 0.27509 0.589899
0.917617 0.28629 0.584985
1 0.300954 0.58851
0 0.479164 0.522103
0 0.451957 0.51574
0 0.399786 0.502846
0.156771 0.397253 0.549661
0.405158 0.405921 0.583734
0.638224 0.426673 0.590463
0.791257 0.441871 0.588586
0.922545 0.443854 0.601648
1 0.45449 0.601053
0 0.604944 0.56376
0 0.582956 0.540398
0 0.536416 0.490974
0.156008 0.545022 0.50312
0.406775 0.564614 0.529992
0.627802 0.5888 0.565515
0.767086 0.613443 0.574624
0.887007 0.613718 0.600839
1 0.608347 0.607065
0 0.749172 0.59324
0 0.728176 0.578851
0 0.680461 0.537728
0.199512 0.679713 0.543557
0.441077 0.697826 0.568261
0.683101 0.71809 0.595117
0.809567 0.743694 0.627329
0.868925 0.761639 0.633326
0.993561 0.757443 0.617212
0 0.899763 0.603281
0 0.881804 0.592355
0.037171 0.839002 0.55697
0.240253 0.832273 0.558282
0.452476 0.846876 0.581994
0.688273 0.854383 0.623346
0.851347 0.855177 0.672496
0.910079 0.873457 0.685023
0.990845 0.885618 0.64651
0 1 0.61384
0 1 0.606332
0.0745251 0.985962 0.575189
0.276371 0.979843 0.57966
0.472313 0.982193 0.593561
0.656718 0.991302 0.614359
0.819165 0.987686 0.643702
0.924681 0.991928 0.665919
1 1 0.649195
0 0.0653849 0.901488
0 0.020325 0.894286
0.0439765 0 0.842329
0.268086 0 0.797253
0.461921 0 0.739803
0.624384 0 0.686839
0.75668 0 0.648615
0.864591 0 0.625254
0.963531 0 0.612238
0 0.157855 0.848005
0 0.113451 0.852049
0 0.0446326 0.819699
0.236378 0.014435 0.798428
0.451072 0 0.755383
0.629129 0 0.707607
0.770214 7.62951e-05 0.673213
0.884611 0.0101625 0.655482
0.988525 0.0215152 0.648051
0 0.250568 0.78201
0 0.209796 0.793225
0 0.14461 0.777066
0.195682 0.117464 0.784161
0.434638 0.106218 0.770703
0.638804 0.111177 0.73669
0.792645 0.123491 0.70724
0.912139 0.138506 0.693217
1 0.152941 0.689464
0 0.361746 0.70779
0 0.326879 0.723018
0 0.266758 0.714824
0.144381 0.240757 0.738552
0.39205 0.2309 0.759106
0.629145 0.24239 0.752377
0.802274 0.263157 0.729564
0.926268 0.281956 0.717556
1 0.298177 0.716411
0 0.492363 0.639231
0 0.461357 0.650584
0 0.40351 0.641169
0.0991226 0.380331 0.669291
0.338781 0.376242 0.715663
0.595956 0.389181 0.751522
0.800671 0.416785 0.743206
0.928466 0.437171 0.729961
1 0.450202 0.726848
0 0.62324 0.629664
0 0.599695 0.613367
0 0.546319 0.580819
0.0768292 0.526726 0.600519
0.306615 0.532097 0.655222
0.55288 0.550561 0.699092
0.774289 0.581903 0.716411
0.9084 0.60267 0.720104
1 0.603235 0.731762
0 0.749889 0.688045
0 0.727077 0.665949
0 0.676356 0.61384
0.10042 0.658961 0.593561
0.307744 0.672435 0.610559
0.554391 0.699825 0.645243
0.76141 0.732235 0.689006
0.880735 0.761425 0.702647
0.987198 0.759503 0.726665
0 0.887282 0.719692
0 0.863737 0.702724
0 0.813001 0.658595
0.152972 0.792187 0.644358
0.352316 0.793332 0.652094
0.587442 0.816907 0.682277
0.815824 0.845777 0.717723
0.923232 0.876814 0.755352
0.971527 0.894957 0.761563
0 1 0.722225
0 1 0.70721
0 0.95787 0.667018
0.196201 0.944015 0.660563
0.390021 0.939193 0.663783
0.596124 0.959594 0.693294
0.818158 0.97557 0.743114
0.963027 0.982635 0.79855
1 1 0.813153
0 0.0691081 1
0 0.0237125 1
0.0103761 0 0.989319
0.238941 0 0.951446
0.443702 0 0.898405
0.617914 0 0.842695
0.758663 0 0.797909
0.87126 0 0.767742
0.972229 0 0.749264
0 0.161578 0.990723
0 0.116823 0.993927
0 0.0476234 0.962585
0.20238 0.0148318 0.946242
0.42501 0 0.910826
0.617334 0 0.863813
0.770916 0 0.824201
0.891752 0.00376898 0.799008
0.998444 0.0174105 0.785687
0 0.25568 0.92604
0 0.215061 0.937148
0 0.149905 0.92047
0.162661 0.121263 0.928298
0.401892 0.104662 0.920623
0.619303 0.1037 0.89221
0.789624 0.114855 0.85893
0.918883 0.132097 0.837201
1 0.149233 0.82649
0 0.369116 0.852537
0 0.334524 0.868986
0 0.274159 0.860609
0.114565 0.247654 0.883146
0.35552 0.230945 0.900679
0.595193 0.232334 0.899855
0.790448 0.250614 0.879164
0.9308 0.273945 0.860731
1 0.294301 0.852049
0 0.50193 0.778988
0 0.470176 0.795148
0 0.412436 0.787488
0.0660563 0.386374 0.813352
0.29308 0.367224 0.843931
0.538231 0.366751 0.873869
0.766766 0.391928 0.880827
0.925093 0.42237 0.867704
1 0.444694 0.859205
0 0.639796 0.728908
0 0.612421 0.730968
0 0.555627 0.716518
0.0323949 0.528679 0.738018
0.242664 0.508873 0.769512
0.477256 0.51162 0.822721
0.723552 0.535943 0.869963
0.913344 0.573098 0.871183
1 0.594354 0.858808
0 0.766094 0.754086
0 0.742992 0.730404
0 0.690471 0.685145
0.0252995 0.665492 0.680995
0.220356 0.645945 0.700725
0.443641 0.656703 0.760845
0.676219 0.683742 0.813275
0.882521 0.724468 0.839979
1 0.746059 0.844495
0 0.886259 0.817472
0 0.860349 0.794369
0 0.806745 0.741482
0.0713207 0.782605 0.715938
0.244205 0.763546 0.694011
0.44361 0.781033 0.715038
0.678111 0.818509 0.759793
0.870298 0.860578 0.813214
0.98233 0.893736 0.830839
0 1 0.838972
0 0.987076 0.819013
0 0.93373 0.772259
0.115862 0.910826 0.755947
0.294011 0.890364 0.742077
0.485206 0.895277 0.753582
0.708888 0.929656 0.794553
0.924163 0.969894 0.841382
1 1 0.884184
