EA 50 Cinematic Luts Pack/EA_Cinematic Lut (1).cube
TITLE "Generated by Resolve"
LUT_3D_SIZE 9
0 0.146715 0.206683
0.0667735 0.132601 0.191348
0.15375 0.129427 0.186831
0.237812 0.127016 0.183444
0.335286 0.120104 0.176425
0.433661 0.112718 0.169299
0.532021 0.10631 0.16321
0.62829 0.102022 0.159091
0.721325 0.101839 0.158587
0.00910964 0.198672 0.221378
0.124361 0.186725 0.208637
0.20444 0.184817 0.205707
0.298894 0.17998 0.200259
0.401251 0.175143 0.19472
0.505745 0.173266 0.191592
0.61146 0.175769 0.192096
0.714107 0.182788 0.196094
0.809705 0.193088 0.202625
0.0848249 0.248981 0.229343
0.171054 0.250111 0.225544
0.262577 0.253681 0.223438
0.370611 0.257389 0.221088
0.47982 0.263569 0.220661
0.587549 0.271336 0.22179
0.691447 0.281636 0.22536
0.788907 0.294545 0.230991
0.878828 0.31075 0.239841
0.125032 0.341604 0.242374
0.221057 0.351858 0.243244
0.330037 0.360159 0.242863
0.440848 0.368795 0.243061
0.55079 0.379049 0.245197
0.657221 0.390799 0.249348
0.758404 0.404944 0.255787
0.851652 0.421744 0.264973
0.935592 0.440864 0.277211
0.179171 0.459678 0.26183
0.284566 0.471656 0.263752
0.397833 0.481865 0.265141
0.509422 0.493492 0.268284
0.618006 0.505852 0.273625
0.72195 0.519982 0.281086
0.818158 0.535943 0.290517
0.905684 0.553887 0.302602
0.981292 0.574792 0.317311
0.240345 0.587533 0.286519
0.35407 0.598627 0.289921
0.467048 0.610376 0.294606
0.577234 0.622217 0.300954
0.683253 0.635142 0.308766
0.782238 0.648997 0.317845
0.872831 0.664668 0.32903
0.952895 0.682185 0.342184
1 0.702266 0.357809
0.31429 0.714321 0.319921
0.428077 0.724971 0.325582
0.538842 0.735317 0.332235
0.646128 0.746059 0.339773
0.747295 0.757 0.348226
0.840146 0.769345 0.358358
0.9234 0.782696 0.370001
0.993454 0.798398 0.384039
1 0.815351 0.399512
0.396262 0.833036 0.361578
0.507118 0.840848 0.368612
0.615091 0.848478 0.376318
0.717891 0.855756 0.384741
0.813367 0.863645 0.394461
0.89865 0.871519 0.404578
0.972 0.88011 0.415885
1 0.890303 0.428794
1 0.900862 0.442512
0.487465 0.934676 0.41326
0.593225 0.938994 0.420371
0.693828 0.941497 0.42681
0.787549 0.943496 0.433478
0.872328 0.945724 0.440421
0.947662 0.94931 0.448829
1 0.955383 0.459327
1 0.963699 0.471946
1 0.972473 0.484657
0 0.149767 0.236118
0.0750744 0.135363 0.220584
0.16112 0.132998 0.216831
0.245487 0.130053 0.212757
0.343023 0.122866 0.205081
0.442115 0.11574 0.197971
0.540764 0.109682 0.192279
0.637903 0.10634 0.189258
0.731685 0.107256 0.190433
0.0234531 0.199817 0.248829
0.131365 0.189914 0.23772
0.211933 0.188144 0.234775
0.307927 0.18352 0.229572
0.411612 0.179644 0.225208
0.517571 0.179065 0.223865
0.623789 0.18294 0.226444
0.72575 0.190433 0.232242
0.820905 0.20148 0.241169
0.0930648 0.253239 0.258381
0.178759 0.255528 0.255848
0.273686 0.260365 0.255604
0.382895 0.265049 0.255024
0.491753 0.271489 0.256458
0.599207 0.279881 0.260288
0.702129 0.290303 0.266468
0.799374 0.303655 0.275624
0.888167 0.319829 0.287617
0.136446 0.34931 0.276188
0.232731 0.360204 0.279469
0.341787 0.368643 0.281422
0.452689 0.377584 0.284947
0.562234 0.388006 0.290455
0.668025 0.399863 0.297719
0.768338 0.414237 0.307149
0.860655 0.430793 0.318883
0.94403 0.450324 0.33344
0.190555 0.46862 0.304387
0.296071 0.480278 0.309255
0.409171 0.490898 0.314
0.520485 0.502419 0.320394
0.628595 0.514839 0.327932
0.731746 0.529046 0.337072
0.827314 0.544747 0.348135
0.914031 0.562829 0.361639
0.987701 0.583505 0.377325
0.251408 0.596109 0.338888
0.365194 0.607462 0.344411
0.477653 0.618753 0.351034
0.587686 0.630732 0.358816
0.693141 0.643534 0.367636
0.791165 0.657282 0.37789
0.880766 0.672755 0.390249
0.959243 0.689845 0.404211
1 0.709941 0.420706
0.325612 0.722484 0.378042
0.438621 0.732601 0.384787
0.549279 0.742931 0.392554
0.655711 0.753262 0.400946
0.755779 0.764202 0.410376
0.847745 0.776074 0.421424
0.929946 0.789136 0.43389
0.998474 0.804456 0.448554
1 0.820172 0.464347
0.406622 0.839551 0.423377
0.517189 0.847242 0.431449
0.624292 0.8542 0.439796
0.726558 0.861326 0.449134
0.820554 0.868513 0.459129
0.904616 0.875685 0.469642
0.976272 0.883635 0.481132
1 0.893294 0.494408
1 0.903563 0.508293
0.496635 0.939666 0.477989
0.601328 0.943008 0.485298
0.70103 0.944945 0.492012
0.793286 0.946197 0.498604
0.877363 0.948119 0.505913
0.951598 0.951308 0.514366
1 0.95758 0.525567
1 0.965927 0.538125
1 0.974655 0.551019
0 0.152773 0.264973
0.0840009 0.138491 0.249638
0.168292 0.136339 0.246647
0.252781 0.132891 0.242664
0.351019 0.125582 0.236057
0.450309 0.118349 0.230472
0.549416 0.112886 0.226932
0.647013 0.110445 0.227451
0.741711 0.112795 0.232654
0.0403143 0.2 0.276631
0.138048 0.193057 0.269673
0.21883 0.191363 0.26833
0.317113 0.186877 0.265309
0.421271 0.183627 0.264118
0.528695 0.184665 0.266957
0.634852 0.189456 0.273304
0.736599 0.197528 0.282551
0.830777 0.209094 0.294423
0.100587 0.257694 0.294774
0.186801 0.261158 0.295888
0.283864 0.266712 0.298985
0.393149 0.271809 0.30193
0.502281 0.278767 0.306737
0.608988 0.287312 0.313146
0.712154 0.298299 0.321782
0.808682 0.31194 0.33283
0.897047 0.328496 0.346441
0.146258 0.356756 0.323964
0.242283 0.36791 0.330343
0.352102 0.376165 0.334691
0.463142 0.385504 0.340352
0.572137 0.395941 0.347463
0.677836 0.408392 0.356207
0.77763 0.422568 0.366812
0.869566 0.439597 0.380041
0.951415 0.459464 0.395727
0.200046 0.476951 0.360159
0.3066 0.488487 0.366384
0.41973 0.499229 0.372595
0.530587 0.510597 0.380118
0.638575 0.523369 0.388815
0.740856 0.53727 0.398993
0.835843 0.553292 0.411353
0.921279 0.571176 0.425574
0.993866 0.592096 0.442374
0.261845 0.604562 0.398779
0.375708 0.615671 0.405493
0.488243 0.626856 0.413291
0.597742 0.638773 0.421988
0.701915 0.651209 0.431464
0.799512 0.665034 0.442786
0.887861 0.680064 0.45565
0.965179 0.697368 0.470375
1 0.716899 0.487343
0.335943 0.730007 0.441138
0.44889 0.740124 0.449195
0.558892 0.750179 0.457618
0.664317 0.760113 0.466407
0.763867 0.770809 0.476585
0.854765 0.782238 0.488014
0.936049 0.795163 0.500938
1 0.809873 0.515587
1 0.824811 0.531533
0.416846 0.845945 0.489693
0.526528 0.85301 0.498039
0.63331 0.859693 0.506981
0.734478 0.866407 0.516411
0.827527 0.872816 0.526421
0.910323 0.879316 0.536736
0.980056 0.886732 0.54789
1 0.896193 0.561318
1 0.905928 0.574823
0.505211 0.944015 0.545556
0.608957 0.946578 0.552666
0.707485 0.947738 0.558953
0.79913 0.948562 0.565347
0.882139 0.950286 0.572473
0.955184 0.953399 0.580728
1 0.959792 0.59176
1 0.967956 0.604013
1 0.976913 0.616709
0 0.155535 0.298039
0.0917678 0.141527 0.284901
0.173449 0.139162 0.284367
0.259159 0.135088 0.282872
0.358007 0.127504 0.27924
0.457298 0.120485 0.276768
0.556863 0.115419 0.276539
0.654902 0.113695 0.27982
0.750881 0.117754 0.288243
0.0485847 0.201572 0.317403
0.142473 0.195483 0.314366
0.224811 0.193927 0.31632
0.32488 0.189776 0.316106
0.430518 0.187686 0.317739
0.538674 0.189868 0.323018
0.645045 0.195377 0.331258
0.746471 0.204074 0.342031
0.839506 0.216083 0.354818
0.105028 0.261677 0.346014
0.193561 0.266728 0.350149
0.292912 0.272557 0.354955
0.402869 0.278309 0.359564
0.511864 0.285695 0.365667
0.618662 0.29453 0.37348
0.721813 0.305837 0.383398
0.817578 0.319722 0.39559
0.905303 0.336904 0.41062
0.154345 0.363928 0.381888
0.251194 0.374899 0.389334
0.362051 0.383536 0.395056
0.472831 0.392935 0.401785
0.581994 0.403815 0.410056
0.687388 0.416266 0.419883
0.786572 0.43093 0.431754
0.877653 0.448173 0.44593
0.958236 0.467903 0.462287
0.208499 0.484794 0.421729
0.316838 0.496376 0.429129
0.429694 0.506889 0.43621
0.540459 0.51873 0.444724
0.647745 0.531273 0.454185
0.749767 0.545495 0.465415
0.843885 0.56144 0.478508
0.928206 0.579324 0.493065
0.999725 0.600244 0.510506
0.272297 0.612528 0.463584
0.385931 0.623362 0.471061
0.498146 0.634745 0.479683
0.606638 0.646357 0.488594
0.71075 0.658854 0.498939
0.807172 0.672206 0.510506
0.894652 0.687373 0.523552
0.970962 0.704448 0.538582
1 0.723751 0.555779
0.346181 0.737408 0.50837
0.458701 0.747326 0.516777
0.567681 0.756939 0.525154
0.672999 0.766766 0.534463
0.771405 0.776883 0.54461
0.861845 0.78819 0.556039
0.941634 0.800671 0.568505
1 0.814908 0.583291
1 0.82916 0.59852
0.426673 0.852018 0.558129
0.535851 0.858671 0.566552
0.642054 0.865019 0.575296
0.742306 0.870909 0.584451
0.834012 0.876692 0.593805
0.915129 0.882445 0.603235
0.983688 0.889754 0.614282
1 0.89897 0.626993
1 0.908537 0.639918
0.513741 0.948272 0.613809
0.616587 0.94995 0.619944
0.713878 0.950317 0.625528
0.804532 0.950866 0.631189
0.886519 0.952224 0.637552
0.958602 0.955581 0.645457
1 0.961944 0.655772
1 0.970352 0.667536
1 0.979278 0.679271
0 0.157656 0.345205
0.0966506 0.143694 0.335073
0.176883 0.141115 0.336202
0.264073 0.136416 0.336049
0.363287 0.128695 0.333562
0.463645 0.122164 0.332662
0.563958 0.117723 0.334234
0.663401 0.117464 0.339681
0.759869 0.122683 0.350057
0.0529335 0.203113 0.371252
0.145678 0.197513 0.370047
0.229816 0.196063 0.373251
0.331991 0.19237 0.374273
0.439719 0.191959 0.378164
0.548409 0.194934 0.385183
0.655085 0.201221 0.394781
0.755611 0.210269 0.406256
0.84831 0.223056 0.420386
0.109026 0.265919 0.404562
0.199817 0.271946 0.410681
0.30193 0.278431 0.416739
0.41207 0.284657 0.422492
0.521233 0.292058 0.429664
0.628367 0.301518 0.438605
0.730526 0.313008 0.449317
0.826017 0.327596 0.462516
0.912917 0.344793 0.478386
0.161379 0.370642 0.444938
0.260197 0.381842 0.453407
0.37171 0.3906 0.460029
0.482399 0.40032 0.467689
0.591592 0.411505 0.476814
0.696437 0.424079 0.487266
0.795056 0.439155 0.499702
0.885222 0.45626 0.514336
0.965118 0.476463 0.53138
0.217517 0.492515 0.487724
0.326574 0.503746 0.495506
0.439246 0.514809 0.503532
0.550042 0.526665 0.512535
0.656977 0.539254 0.522423
0.758419 0.553521 0.533959
0.851301 0.56936 0.54696
0.935286 0.587335 0.561883
1 0.607965 0.57911
0.281758 0.620127 0.531212
0.395911 0.631098 0.539376
0.507301 0.642344 0.547784
0.615869 0.65391 0.557092
0.719356 0.6663 0.567422
0.815015 0.679545 0.578729
0.901762 0.694484 0.591669
0.976349 0.711192 0.606226
1 0.730495 0.623316
0.356207 0.744595 0.57702
0.467796 0.754086 0.584939
0.576913 0.763638 0.593378
0.681666 0.773144 0.602274
0.779416 0.783078 0.612161
0.868482 0.794232 0.622934
0.947219 0.806195 0.634897
1 0.819699 0.64889
1 0.833112 0.66273
0.435981 0.857649 0.626108
0.545266 0.864134 0.634165
0.650599 0.869871 0.642222
0.750072 0.875517 0.650858
0.840116 0.880461 0.658854
0.92018 0.885817 0.667399
0.987305 0.892836 0.677684
1 0.901732 0.689296
1 0.911284 0.701274
0.521996 0.952102 0.679744
0.62356 0.952987 0.684703
0.720287 0.953063 0.689403
0.809903 0.953155 0.693858
0.891112 0.954589 0.69929
0.962142 0.9579 0.706401
1 0.964492 0.715877
1 0.973144 0.726574
1 0.982223 0.737392
0 0.159655 0.401862
0.0986954 0.145464 0.392569
0.179248 0.142702 0.394568
0.268238 0.137331 0.394827
0.368566 0.129732 0.393469
0.469535 0.123461 0.393652
0.571145 0.120027 0.396948
0.672236 0.121447 0.404456
0.768933 0.127611 0.416449
0.0554818 0.204532 0.431022
0.148653 0.199466 0.431189
0.234882 0.198062 0.435203
0.339284 0.19527 0.437537
0.448737 0.195834 0.442985
0.558434 0.200061 0.451545
0.664759 0.206851 0.461921
0.76463 0.216709 0.47422
0.856855 0.230045 0.489128
0.114366 0.270497 0.468391
0.206394 0.277348 0.475746
0.310674 0.284199 0.482444
0.42092 0.290517 0.488823
0.530465 0.298604 0.497047
0.637263 0.308217 0.506432
0.7393 0.3205 0.5178
0.834501 0.335363 0.53164
0.920684 0.352956 0.547829
0.169085 0.377417 0.511696
0.269306 0.388602 0.520607
0.380591 0.397528 0.527459
0.491875 0.407675 0.535912
0.600656 0.41886 0.545174
0.705318 0.432074 0.555932
0.803311 0.447044 0.56849
0.893141 0.464546 0.583291
0.972061 0.484947 0.600305
0.226184 0.500206 0.555917
0.336019 0.511452 0.563653
0.448966 0.522591 0.572015
0.559243 0.534279 0.58085
0.666163 0.547204 0.590875
0.766506 0.561303 0.601862
0.859297 0.57731 0.614862
0.942123 0.595209 0.629343
1 0.616114 0.646128
0.291707 0.627909 0.599573
0.405585 0.63888 0.607431
0.516808 0.649897 0.615671
0.62536 0.661372 0.624613
0.727764 0.673381 0.634211
0.822782 0.686824 0.645212
0.90837 0.701381 0.657282
0.981933 0.718318 0.671443
1 0.737209 0.687312
0.365911 0.751629 0.644205
0.477501 0.761105 0.651743
0.586297 0.770321 0.659571
0.689967 0.779416 0.667659
0.786999 0.78938 0.676677
0.87509 0.8 0.686519
0.952819 0.811749 0.697734
1 0.82446 0.710216
1 0.837385 0.722866
0.44596 0.8636 0.69163
0.554589 0.869551 0.698848
0.659266 0.874952 0.70605
0.757458 0.879911 0.71313
0.846342 0.884291 0.719844
0.925399 0.889296 0.727199
0.991089 0.895994 0.736095
1 0.904967 0.74641
1 0.91426 0.756619
0.529885 0.955779 0.74165
0.630762 0.956161 0.745403
0.726726 0.95584 0.748531
0.815503 0.955856 0.751614
0.8963 0.957198 0.755611
0.966262 0.960662 0.760983
1 0.967681 0.76875
1 0.976425 0.777462
1 0.985946 0.786694
0 0.161273 0.463722
0.100114 0.147036 0.454887
0.180941 0.143908 0.457527
0.272602 0.138064 0.457908
0.373861 0.130755 0.457343
0.476143 0.124971 0.458488
0.578775 0.122667 0.462974
0.680629 0.125277 0.471962
0.778058 0.132769 0.485359
0.0575723 0.205921 0.494942
0.15111 0.201205 0.496178
0.240711 0.200336 0.500618
0.347921 0.198642 0.504341
0.458122 0.20032 0.510887
0.568063 0.205325 0.520012
0.673915 0.212558 0.530587
0.773495 0.223194 0.543252
0.864973 0.236835 0.558434
0.119585 0.275074 0.535225
0.213596 0.283085 0.543236
0.319219 0.289876 0.550072
0.43003 0.296757 0.557046
0.539727 0.305226 0.565438
0.646265 0.315343 0.574823
0.748226 0.327962 0.586404
0.842802 0.342947 0.600198
0.928542 0.361273 0.616159
0.176715 0.384298 0.579812
0.277623 0.395407 0.588403
0.390112 0.4047 0.595666
0.501305 0.415 0.603922
0.609918 0.426688 0.61297
0.714443 0.439979 0.62356
0.8121 0.455192 0.635996
0.901137 0.473014 0.650233
0.978347 0.493431 0.666407
0.234577 0.50779 0.623652
0.345983 0.519173 0.631266
0.458457 0.53019 0.639033
0.569223 0.542199 0.647608
0.675166 0.555032 0.656733
0.775387 0.569406 0.667674
0.867216 0.585504 0.67985
0.948837 0.60325 0.693385
1 0.624292 0.709636
0.301762 0.635813 0.665995
0.415564 0.646418 0.673106
0.52697 0.657603 0.680858
0.634394 0.668849 0.688807
0.7364 0.681041 0.697871
0.830518 0.694102 0.707713
0.915358 0.70869 0.718929
0.987381 0.725628 0.731991
1 0.744213 0.746609
0.376272 0.758892 0.708232
0.487541 0.768215 0.715023
0.595453 0.777005 0.721675
0.698604 0.786175 0.728878
0.794751 0.795575 0.736461
0.882109 0.806088 0.745129
0.958251 0.817136 0.754376
1 0.82948 0.764752
1 0.842023 0.775326
0.456214 0.869673 0.75288
0.564202 0.875212 0.758755
0.668177 0.880354 0.764477
0.764904 0.884306 0.769024
0.852949 0.888319 0.773678
0.930892 0.892882 0.778729
0.995392 0.899901 0.785565
1 0.908858 0.793988
1 0.91812 0.802518
0.53843 0.959899 0.797177
0.638514 0.959777 0.798627
0.733684 0.958984 0.798978
0.822034 0.959014 0.800092
0.901701 0.960357 0.802152
0.970962 0.964248 0.806134
1 0.971466 0.812467
1 0.98056 0.820264
1 0.990143 0.828824
0 0.162676 0.528527
0.100938 0.14844 0.520058
0.182803 0.144869 0.522622
0.277195 0.138613 0.522942
0.379324 0.131563 0.522683
0.482841 0.126909 0.52488
0.587045 0.125872 0.530388
0.68986 0.129839 0.540368
0.787305 0.13814 0.554208
0.060029 0.207309 0.56083
0.154162 0.203159 0.562417
0.246891 0.20267 0.567193
0.356405 0.202228 0.571786
0.467811 0.20528 0.57911
0.57763 0.210605 0.588022
0.683391 0.218753 0.598581
0.782376 0.22977 0.610925
0.873503 0.244205 0.625818
0.125399 0.280156 0.602319
0.220783 0.288884 0.610666
0.328176 0.295827 0.617319
0.439414 0.303212 0.624353
0.548775 0.311955 0.63209
0.655848 0.322667 0.641474
0.757351 0.335393 0.652491
0.851377 0.351186 0.665934
0.936248 0.369589 0.6813
0.183841 0.391196 0.646433
0.287022 0.402518 0.654887
0.399969 0.4121 0.661875
0.51104 0.422599 0.669459
0.619974 0.434653 0.677989
0.723812 0.448035 0.687877
0.820951 0.463752 0.699779
0.908782 0.481559 0.712871
0.985351 0.502449 0.728664
0.243717 0.515877 0.688823
0.356283 0.526879 0.695705
0.468971 0.538277 0.702861
0.578988 0.550546 0.710521
0.684764 0.563378 0.718975
0.784344 0.577844 0.728908
0.875074 0.593744 0.739742
0.955825 0.611887 0.752087
1 0.632593 0.766598
0.312444 0.643519 0.72842
0.426123 0.654459 0.734813
0.53695 0.665537 0.741344
0.643961 0.676844 0.748165
0.745525 0.688945 0.755749
0.838804 0.7019 0.763775
0.922759 0.716533 0.772885
0.993454 0.733104 0.783902
1 0.751659 0.796414
0.386969 0.766445 0.767193
0.497551 0.775341 0.77203
0.605097 0.784329 0.776898
0.707973 0.793286 0.782162
0.803418 0.802533 0.78764
0.889906 0.812726 0.794079
0.964141 0.822995 0.801205
1 0.834943 0.809842
1 0.846845 0.818738
0.466758 0.875837 0.805615
0.574456 0.881346 0.809476
0.677653 0.885771 0.81268
0.773419 0.889326 0.815351
0.860121 0.892805 0.818097
0.936797 0.897292 0.82179
1 0.904219 0.827619
1 0.912978 0.835019
1 0.922362 0.842985
0.54757 0.964279 0.842802
0.646708 0.963623 0.842191
0.741238 0.962814 0.841505
0.828641 0.962585 0.841321
0.907652 0.964126 0.84271
0.975753 0.968231 0.846006
1 0.975692 0.85211
1 0.985031 0.859785
1 0.994263 0.867826
0 0.163912 0.594171
0.101518 0.149599 0.585779
0.185336 0.145861 0.58793
0.281834 0.139361 0.587762
0.385153 0.132906 0.587488
0.489998 0.12903 0.590066
0.596124 0.129732 0.596551
0.699641 0.134951 0.606973
0.796826 0.143618 0.620676
0.0626688 0.208835 0.626322
0.158389 0.20557 0.628031
0.254078 0.2056 0.632731
0.365606 0.2065 0.637598
0.477516 0.210269 0.644816
0.587839 0.216434 0.653513
0.693309 0.225238 0.663447
0.79176 0.236896 0.675425
0.882322 0.252064 0.689708
0.132586 0.285801 0.667735
0.22858 0.294896 0.675761
0.337697 0.302129 0.681788
0.448631 0.309804 0.687999
0.558999 0.319127 0.695476
0.665583 0.330098 0.704097
0.766949 0.343572 0.714916
0.86041 0.359838 0.727275
0.944595 0.378607 0.741756
0.192523 0.398566 0.71014
0.297337 0.409873 0.717617
0.410147 0.419532 0.723705
0.521447 0.430716 0.730571
0.629862 0.442802 0.738186
0.733669 0.456748 0.747326
0.829816 0.472694 0.757153
0.917388 0.490822 0.768917
0.992813 0.512047 0.782879
0.254292 0.524041 0.749493
0.367132 0.535103 0.755291
0.479484 0.546914 0.761028
0.589242 0.558984 0.766995
0.694896 0.572229 0.774044
0.793469 0.586572 0.781491
0.883711 0.602853 0.790539
0.963607 0.620981 0.801129
1 0.641764 0.81413
0.324041 0.651972 0.784298
0.437263 0.663081 0.788754
0.547555 0.673976 0.793133
0.654383 0.685374 0.798276
0.755077 0.697108 0.803632
0.847715 0.710307 0.810132
0.93051 0.72459 0.817884
1 0.74136 0.828016
1 0.759365 0.839033
0.398444 0.774441 0.816358
0.508537 0.783413 0.819501
0.615686 0.792081 0.823011
0.7178 0.800488 0.82652
0.812467 0.809735 0.831022
0.897414 0.819196 0.836179
0.970336 0.82916 0.842481
1 0.840436 0.850141
1 0.85211 0.858427
0.478569 0.882689 0.850187
0.585245 0.887739 0.852735
0.687053 0.891356 0.854551
0.781674 0.894408 0.856168
0.867109 0.897505 0.85803
0.942946 0.901808 0.861357
1 0.908553 0.866835
1 0.917372 0.874235
1 0.926497 0.882048
0.556359 0.968688 0.883177
0.655024 0.967742 0.881834
0.748821 0.966705 0.880613
0.835416 0.96643 0.880171
0.913588 0.968032 0.881422
0.980667 0.972183 0.884901
1 0.979965 0.891493
1 0.989288 0.899397
1 0.998627 0.907347
