EA 50 Cinematic Luts Pack/EA_Cinematic Lut (43).cube
TITLE "A very warm, dreamlike color grade that smoothens the contrast of shadows and highlights."
LUT_3D_SIZE 9
0.0005 0.0000 0.0000
0.0764 0.0085 0.0000
0.1945 0.0211 0.0000
0.3455 0.0111 0.0000
0.4884 0.0067 0.0000
0.6279 0.0087 0.0000
0.7694 0.0145 0.0000
0.8961 0.0625 0.0102
1.0000 0.1134 0.0387
0.0224 0.0824 0.0256
0.1056 0.0858 0.0124
0.2212 0.0893 0.0000
0.3549 0.0880 0.0000
0.4927 0.0870 0.0000
0.6314 0.0889 0.0000
0.7723 0.0929 0.0000
0.9044 0.1103 0.0057
1.0000 0.1502 0.0343
0.0724 0.1965 0.0877
0.1362 0.1974 0.0821
0.2324 0.2010 0.0668
0.3621 0.2018 0.0173
0.4992 0.2007 0.0112
0.6365 0.2023 0.0183
0.7773 0.2038 0.0118
0.9149 0.2060 0.0068
1.0000 0.2224 0.0177
0.1248 0.3170 0.1548
0.1736 0.3175 0.1521
0.2618 0.3191 0.1462
0.3683 0.3239 0.1334
0.4966 0.3279 0.0908
0.6427 0.3256 0.0670
0.7826 0.3263 0.0651
0.9191 0.3277 0.0577
1.0000 0.3382 0.0684
0.1771 0.4421 0.2187
0.2167 0.4424 0.2173
0.2949 0.4434 0.2134
0.3977 0.4459 0.2066
0.5099 0.4510 0.1958
0.6351 0.4577 0.1614
0.7844 0.4552 0.1392
0.9186 0.4577 0.1324
1.0000 0.4660 0.1360
0.2279 0.5845 0.2838
0.2608 0.5847 0.2827
0.3309 0.5853 0.2799
0.4280 0.5870 0.2750
0.5372 0.5898 0.2676
0.6533 0.5964 0.2573
0.7610 0.6111 0.2352
0.9153 0.6059 0.2056
0.9998 0.6102 0.1996
0.2792 0.7408 0.3588
0.3070 0.7409 0.3577
0.3688 0.7414 0.3554
0.4576 0.7426 0.3520
0.5621 0.7441 0.3458
0.6766 0.7480 0.3381
0.7924 0.7545 0.3279
0.9025 0.7662 0.3094
1.0000 0.7665 0.2719
0.3264 0.8891 0.4401
0.3508 0.8892 0.4393
0.4063 0.8896 0.4372
0.4888 0.8901 0.4335
0.5880 0.8912 0.4291
0.6981 0.8937 0.4247
0.8144 0.8974 0.4155
0.9272 0.9038 0.4077
1.0000 0.9133 0.3899
0.3779 1.0000 0.5211
0.3990 1.0000 0.5208
0.4481 1.0000 0.5197
0.5221 0.9996 0.5178
0.6175 0.9996 0.5140
0.7251 0.9997 0.5089
0.8365 0.9998 0.5051
0.9480 1.0000 0.4981
1.0000 1.0000 0.4898
0.0000 0.0048 0.0536
0.0872 0.0052 0.0941
0.2002 0.0173 0.0899
0.3453 0.0133 0.0771
0.4827 0.0180 0.0767
0.6208 0.0265 0.0842
0.7625 0.0364 0.0893
0.8894 0.0800 0.1041
1.0000 0.1245 0.1213
0.0169 0.0832 0.1122
0.1022 0.0879 0.0957
0.2289 0.0874 0.0684
0.3556 0.0897 0.0672
0.4878 0.0941 0.0789
0.6248 0.0991 0.0878
0.7660 0.1045 0.0905
0.8983 0.1227 0.0989
1.0000 0.1584 0.1176
0.0668 0.1981 0.1333
0.1308 0.1993 0.1294
0.2290 0.2031 0.1175
0.3639 0.2026 0.0762
0.4975 0.2029 0.0836
0.6336 0.2056 0.0938
0.7736 0.2082 0.0936
0.9109 0.2116 0.0942
1.0000 0.2269 0.1066
0.1170 0.3180 0.1876
0.1665 0.3188 0.1850
0.2554 0.3208 0.1796
0.3639 0.3255 0.1683
0.4984 0.3280 0.1299
0.6425 0.3265 0.1148
0.7802 0.3283 0.1240
0.9174 0.3296 0.1171
1.0000 0.3314 0.1103
0.1697 0.4430 0.2438
0.2097 0.4434 0.2422
0.2889 0.4446 0.2383
0.3931 0.4471 0.2323
0.5061 0.4523 0.2210
0.6344 0.4584 0.1879
0.7845 0.4558 0.1675
0.9222 0.4560 0.1599
1.0000 0.4603 0.1595
0.2218 0.5851 0.3065
0.2553 0.5854 0.3054
0.3262 0.5861 0.3027
0.4242 0.5877 0.2980
0.5336 0.5909 0.2897
0.6510 0.5972 0.2789
0.7622 0.6110 0.2530
0.9178 0.6050 0.2247
0.9998 0.6077 0.2174
0.2750 0.7411 0.3800
0.3033 0.7413 0.3790
0.3656 0.7418 0.3763
0.4562 0.7428 0.3718
0.5612 0.7443 0.3656
0.6756 0.7482 0.3581
0.7920 0.7547 0.3466
0.9016 0.7667 0.3264
1.0000 0.7658 0.2879
0.3235 0.8892 0.4582
0.3480 0.8894 0.4574
0.4038 0.8898 0.4554
0.4866 0.8903 0.4518
0.5860 0.8914 0.4477
0.6972 0.8939 0.4421
0.8135 0.8976 0.4332
0.9268 0.9040 0.4245
1.0000 0.9136 0.4066
0.3742 0.9999 0.5370
0.3953 0.9999 0.5366
0.4447 1.0000 0.5356
0.5195 0.9995 0.5334
0.6156 0.9995 0.5293
0.7233 0.9996 0.5244
0.8350 0.9997 0.5206
0.9473 0.9999 0.5128
0.9999 0.9999 0.5047
0.0140 0.0071 0.1632
0.0913 0.0129 0.1697
0.1969 0.0262 0.1836
0.3213 0.0433 0.1935
0.4606 0.0545 0.1969
0.6079 0.0557 0.1904
0.7498 0.0689 0.1941
0.8815 0.0990 0.2022
0.9970 0.1388 0.2132
0.0000 0.0896 0.2028
0.0704 0.0937 0.2108
0.2033 0.0991 0.1975
0.3266 0.1103 0.1939
0.4732 0.1099 0.1906
0.6152 0.1139 0.1864
0.7561 0.1218 0.1915
0.8893 0.1398 0.1995
1.0000 0.1735 0.2113
0.0649 0.1977 0.2230
0.1269 0.1999 0.2176
0.2232 0.2061 0.2008
0.3628 0.2051 0.1762
0.4954 0.2071 0.1715
0.6283 0.2118 0.1825
0.7662 0.2169 0.1893
0.9025 0.2226 0.1962
1.0000 0.2404 0.2049
0.1157 0.3202 0.2339
0.1639 0.3212 0.2320
0.2515 0.3236 0.2281
0.3613 0.3284 0.2183
0.5034 0.3286 0.1848
0.6420 0.3287 0.1867
0.7767 0.3319 0.1992
0.9126 0.3347 0.1994
1.0000 0.3379 0.1998
0.1647 0.4445 0.2886
0.2047 0.4450 0.2875
0.2830 0.4465 0.2838
0.3868 0.4496 0.2779
0.5013 0.4550 0.2666
0.6380 0.4587 0.2312
0.7862 0.4567 0.2150
0.9199 0.4585 0.2215
1.0000 0.4601 0.2180
0.2152 0.5863 0.3523
0.2487 0.5867 0.3513
0.3193 0.5877 0.3485
0.4169 0.5899 0.3433
0.5279 0.5930 0.3360
0.6456 0.5997 0.3233
0.7711 0.6087 0.2883
0.9212 0.6043 0.2639
0.9999 0.6038 0.2550
0.2672 0.7421 0.4239
0.2955 0.7423 0.4228
0.3584 0.7430 0.4200
0.4501 0.7440 0.4163
0.5564 0.7455 0.4103
0.6720 0.7495 0.4009
0.7902 0.7557 0.3884
0.8993 0.7685 0.3633
1.0000 0.7641 0.3241
0.3184 0.8893 0.4970
0.3431 0.8895 0.4963
0.3995 0.8899 0.4945
0.4831 0.8906 0.4911
0.5841 0.8916 0.4861
0.6962 0.8941 0.4800
0.8123 0.8981 0.4722
0.9264 0.9044 0.4615
1.0000 0.9144 0.4430
0.3673 0.9999 0.5729
0.3891 0.9999 0.5723
0.4398 1.0000 0.5708
0.5160 0.9996 0.5680
0.6124 0.9994 0.5641
0.7201 0.9995 0.5598
0.8328 0.9996 0.5552
0.9461 0.9997 0.5463
0.9997 0.9997 0.5386
0.0307 0.0173 0.2509
0.1025 0.0243 0.2529
0.2020 0.0400 0.2586
0.3175 0.0580 0.2741
0.4471 0.0755 0.2902
0.5804 0.0975 0.2972
0.7271 0.1093 0.3011
0.8698 0.1233 0.3021
0.9879 0.1602 0.3126
0.0385 0.0979 0.2557
0.1050 0.1014 0.2600
0.2051 0.1081 0.2690
0.3218 0.1185 0.2813
0.4514 0.1299 0.2956
0.5837 0.1473 0.2983
0.7366 0.1487 0.2986
0.8750 0.1632 0.3008
0.9930 0.1911 0.3109
0.0000 0.2041 0.3294
0.0594 0.2072 0.3315
0.1875 0.2116 0.3284
0.3309 0.2162 0.3025
0.4610 0.2254 0.2963
0.6062 0.2273 0.2975
0.7524 0.2306 0.2918
0.8911 0.2369 0.2954
1.0000 0.2544 0.3053
0.1146 0.3188 0.3443
0.1637 0.3203 0.3379
0.2485 0.3243 0.3271
0.3551 0.3318 0.3056
0.5032 0.3308 0.2769
0.6385 0.3330 0.2729
0.7722 0.3374 0.2818
0.9061 0.3420 0.2884
1.0000 0.3474 0.2968
0.1726 0.4467 0.3456
0.2089 0.4475 0.3454
0.2833 0.4494 0.3432
0.3847 0.4531 0.3371
0.5003 0.4584 0.3254
0.6465 0.4590 0.2868
0.7876 0.4588 0.2856
0.9174 0.4622 0.2996
1.0000 0.4653 0.3039
0.2172 0.5882 0.4109
0.2496 0.5887 0.4102
0.3183 0.5899 0.4085
0.4134 0.5926 0.4038
0.5233 0.5964 0.3970
0.6416 0.6032 0.3841
0.7786 0.6083 0.3423
0.9247 0.6051 0.3209
0.9999 0.6065 0.3264
0.2638 0.7435 0.4809
0.2921 0.7438 0.4802
0.3549 0.7444 0.4786
0.4451 0.7460 0.4752
0.5502 0.7480 0.4693
0.6668 0.7521 0.4619
0.7851 0.7587 0.4482
0.9005 0.7700 0.4138
1.0000 0.7636 0.3790
0.3135 0.8899 0.5519
0.3381 0.8902 0.5511
0.3941 0.8907 0.5491
0.4772 0.8916 0.5455
0.5789 0.8925 0.5413
0.6924 0.8949 0.5356
0.8092 0.8991 0.5265
0.9253 0.9053 0.5148
1.0000 0.9158 0.4922
0.3638 1.0000 0.6251
0.3856 1.0000 0.6246
0.4365 1.0000 0.6232
0.5131 0.9996 0.6207
0.6098 0.9995 0.6169
0.7188 0.9996 0.6117
0.8328 0.9996 0.6056
0.9455 0.9997 0.5977
0.9998 0.9998 0.5871
0.0421 0.0336 0.3587
0.1083 0.0394 0.3607
0.2061 0.0526 0.3649
0.3205 0.0712 0.3706
0.4450 0.0920 0.3828
0.5753 0.1128 0.4001
0.7129 0.1332 0.4171
0.8484 0.1590 0.4239
0.9770 0.1823 0.4330
0.0537 0.1059 0.3616
0.1164 0.1091 0.3625
0.2133 0.1164 0.3645
0.3252 0.1289 0.3707
0.4480 0.1428 0.3877
0.5788 0.1577 0.4053
0.7160 0.1742 0.4199
0.8506 0.1962 0.4249
0.9812 0.2123 0.4325
0.0805 0.2109 0.3719
0.1243 0.2142 0.3738
0.2171 0.2186 0.3771
0.3308 0.2242 0.3875
0.4558 0.2327 0.4011
0.5866 0.2421 0.4163
0.7222 0.2551 0.4226
0.8643 0.2634 0.4282
0.9942 0.2723 0.4283
0.0368 0.3251 0.4638
0.1009 0.3268 0.4665
0.1971 0.3313 0.4667
0.3164 0.3371 0.4670
0.4679 0.3418 0.4305
0.5996 0.3498 0.4209
0.7431 0.3532 0.4269
0.8889 0.3552 0.4187
1.0000 0.3603 0.4199
0.1732 0.4442 0.4843
0.2082 0.4453 0.4829
0.2837 0.4482 0.4727
0.3820 0.4537 0.4583
0.4940 0.4622 0.4326
0.6464 0.4611 0.3984
0.7827 0.4636 0.3937
0.9130 0.4677 0.4019
1.0000 0.4720 0.4086
0.2349 0.5904 0.4746
0.2631 0.5911 0.4749
0.3250 0.5929 0.4755
0.4153 0.5961 0.4735
0.5226 0.6008 0.4656
0.6419 0.6074 0.4531
0.7895 0.6084 0.4093
0.9277 0.6070 0.4044
1.0000 0.6101 0.4194
0.2740 0.7447 0.5421
0.3006 0.7451 0.5419
0.3600 0.7460 0.5411
0.4467 0.7478 0.5390
0.5485 0.7506 0.5339
0.6633 0.7552 0.5275
0.7820 0.7622 0.5146
0.9151 0.7676 0.4717
1.0000 0.7641 0.4467
0.3164 0.8914 0.6134
0.3403 0.8916 0.6128
0.3949 0.8923 0.6114
0.4769 0.8932 0.6092
0.5762 0.8946 0.6053
0.6879 0.8975 0.5997
0.8053 0.9016 0.5924
0.9211 0.9081 0.5791
0.9997 0.9195 0.5515
0.3644 1.0000 0.6897
0.3858 1.0000 0.6892
0.4355 1.0000 0.6878
0.5109 0.9997 0.6852
0.6061 0.9995 0.6811
0.7155 0.9996 0.6772
0.8303 0.9997 0.6713
0.9437 0.9998 0.6618
0.9998 0.9998 0.6497
0.0501 0.0516 0.4820
0.1134 0.0563 0.4834
0.2092 0.0671 0.4867
0.3225 0.0836 0.4916
0.4464 0.1044 0.4977
0.5748 0.1278 0.5052
0.7081 0.1509 0.5209
0.8431 0.1729 0.5381
0.9718 0.1951 0.5528
0.0635 0.1161 0.4836
0.1228 0.1189 0.4843
0.2159 0.1259 0.4871
0.3269 0.1376 0.4922
0.4495 0.1529 0.4986
0.5773 0.1711 0.5071
0.7101 0.1896 0.5236
0.8449 0.2079 0.5403
0.9733 0.2272 0.5544
0.0805 0.2185 0.4886
0.1341 0.2202 0.4891
0.2254 0.2241 0.4904
0.3374 0.2310 0.4928
0.4581 0.2414 0.4994
0.5832 0.2525 0.5164
0.7164 0.2646 0.5335
0.8510 0.2780 0.5485
0.9773 0.2949 0.5553
0.1361 0.3299 0.5143
0.1714 0.3322 0.5123
0.2383 0.3376 0.5139
0.3442 0.3440 0.5104
0.4662 0.3494 0.5212
0.5934 0.3561 0.5335
0.7264 0.3644 0.5478
0.8599 0.3748 0.5552
0.9833 0.3881 0.5600
0.1223 0.4504 0.5991
0.1622 0.4516 0.5999
0.2357 0.4547 0.6048
0.3332 0.4608 0.6076
0.4534 0.4675 0.6093
0.6069 0.4721 0.5652
0.7408 0.4804 0.5542
0.8696 0.4901 0.5607
0.9998 0.4857 0.5532
0.2372 0.5864 0.6260
0.2648 0.5873 0.6249
0.3252 0.5897 0.6221
0.4159 0.5942 0.6098
0.5196 0.6010 0.5929
0.6346 0.6113 0.5659
0.7885 0.6101 0.5315
0.9212 0.6123 0.5257
0.9995 0.6161 0.5317
0.3029 0.7466 0.6042
0.3249 0.7471 0.6053
0.3761 0.7485 0.6073
0.4545 0.7510 0.6092
0.5513 0.7542 0.6069
0.6634 0.7597 0.5978
0.7831 0.7662 0.5847
0.9270 0.7671 0.5400
0.9996 0.7669 0.5370
0.3336 0.8930 0.6786
0.3557 0.8933 0.6786
0.4071 0.8939 0.6785
0.4847 0.8951 0.6779
0.5799 0.8969 0.6753
0.6880 0.9004 0.6705
0.8037 0.9050 0.6642
0.9196 0.9116 0.6506
0.9997 0.9168 0.6057
0.3745 1.0000 0.7568
0.3949 1.0000 0.7565
0.4427 1.0000 0.7556
0.5153 0.9997 0.7537
0.6081 0.9996 0.7508
0.7146 0.9997 0.7472
0.8276 0.9997 0.7416
0.9412 0.9998 0.7344
0.9998 0.9998 0.7210
0.0527 0.0710 0.6088
0.1155 0.0745 0.6097
0.2119 0.0837 0.6118
0.3255 0.0980 0.6151
0.4486 0.1168 0.6209
0.5763 0.1391 0.6277
0.7087 0.1632 0.6375
0.8415 0.1879 0.6489
0.9686 0.2104 0.6675
0.0691 0.1283 0.6097
0.1256 0.1309 0.6106
0.2181 0.1374 0.6127
0.3291 0.1480 0.6166
0.4515 0.1627 0.6225
0.5786 0.1804 0.6291
0.7107 0.2004 0.6382
0.8430 0.2211 0.6512
0.9699 0.2406 0.6695
0.0872 0.2257 0.6138
0.1389 0.2272 0.6142
0.2291 0.2311 0.6156
0.3399 0.2378 0.6182
0.4592 0.2480 0.6249
0.5842 0.2607 0.6320
0.7154 0.2755 0.6402
0.8467 0.2905 0.6569
0.9729 0.3057 0.6744
0.1269 0.3392 0.6228
0.1645 0.3411 0.6220
0.2440 0.3445 0.6225
0.3509 0.3492 0.6244
0.4718 0.3555 0.6271
0.5950 0.3641 0.6343
0.7233 0.3735 0.6524
0.8546 0.3836 0.6702
0.9792 0.3950 0.6853
0.1663 0.4566 0.6722
0.2038 0.4577 0.6692
0.2847 0.4595 0.6628
0.3665 0.4672 0.6599
0.4799 0.4750 0.6492
0.6045 0.4803 0.6602
0.7349 0.4869 0.6734
0.8656 0.4949 0.6878
0.9876 0.5043 0.6956
0.1929 0.5934 0.7487
0.2234 0.5945 0.7483
0.2880 0.5972 0.7471
0.3735 0.6020 0.7530
0.4737 0.6098 0.7584
0.5926 0.6175 0.7612
0.7485 0.6227 0.7083
0.8798 0.6311 0.6945
0.9960 0.6405 0.6989
0.3038 0.7420 0.7825
0.3262 0.7426 0.7813
0.3777 0.7444 0.7785
0.4552 0.7477 0.7733
0.5523 0.7526 0.7559
0.6606 0.7603 0.7366
0.7760 0.7705 0.7071
0.9262 0.7691 0.6700
0.9996 0.7710 0.6627
0.3942 0.8920 0.7380
0.4058 0.8932 0.7388
0.4360 0.8956 0.7426
0.5015 0.8973 0.7479
0.5883 0.8998 0.7515
0.6915 0.9038 0.7498
0.8045 0.9093 0.7402
0.9217 0.9155 0.7262
0.9998 0.9170 0.6824
0.3989 1.0000 0.8437
0.4171 1.0000 0.8438
0.4607 1.0000 0.8440
0.5286 0.9997 0.8443
0.6179 0.9997 0.8443
0.7196 0.9997 0.8414
0.8291 0.9998 0.8351
0.9409 0.9998 0.8263
0.9999 0.9999 0.8071
0.0494 0.0909 0.7448
0.1141 0.0940 0.7455
0.2115 0.1018 0.7474
0.3257 0.1143 0.7504
0.4503 0.1314 0.7551
0.5782 0.1520 0.7610
0.7097 0.1748 0.7719
0.8416 0.1989 0.7842
0.9676 0.2239 0.7975
0.0671 0.1426 0.7455
0.1247 0.1449 0.7462
0.2180 0.1506 0.7480
0.3304 0.1605 0.7514
0.4536 0.1741 0.7562
0.5805 0.1909 0.7625
0.7117 0.2101 0.7725
0.8432 0.2311 0.7849
0.9688 0.2533 0.7983
0.0944 0.2341 0.7491
0.1443 0.2357 0.7496
0.2325 0.2396 0.7507
0.3410 0.2464 0.7539
0.4609 0.2561 0.7595
0.5858 0.2683 0.7661
0.7164 0.2828 0.7748
0.8471 0.2992 0.7868
0.9715 0.3168 0.8005
0.1202 0.3467 0.7561
0.1640 0.3478 0.7565
0.2467 0.3504 0.7576
0.3535 0.3548 0.7595
0.4736 0.3610 0.7621
0.5958 0.3697 0.7697
0.7238 0.3805 0.7798
0.8534 0.3928 0.7904
0.9760 0.4053 0.8116
0.1908 0.4635 0.7766
0.2219 0.4650 0.7739
0.2837 0.4687 0.7710
0.3708 0.4752 0.7681
0.4854 0.4804 0.7705
0.6093 0.4867 0.7735
0.7357 0.4951 0.7848
0.8623 0.5042 0.8088
0.9830 0.5132 0.8327
0.2225 0.6006 0.8526
0.2508 0.6017 0.8507
0.3129 0.6043 0.8458
0.4016 0.6088 0.8406
0.5014 0.6167 0.8305
0.6165 0.6260 0.8149
0.7453 0.6317 0.8224
0.8737 0.6379 0.8401
0.9922 0.6455 0.8595
0.2664 0.7485 0.9506
0.2889 0.7493 0.9517
0.3421 0.7513 0.9513
0.4216 0.7550 0.9494
0.5132 0.7603 0.9552
0.6143 0.7684 0.9619
0.7335 0.7763 0.9659
0.8872 0.7814 0.8919
0.9998 0.7894 0.8699
0.3714 0.8893 0.9848
0.3903 0.8898 0.9842
0.4345 0.8911 0.9824
0.5024 0.8934 0.9789
0.5891 0.8969 0.9734
0.6927 0.9024 0.9555
0.8017 0.9099 0.9317
0.9149 0.9193 0.8899
0.9998 0.9203 0.8420
0.4995 0.9999 0.9336
0.5089 0.9999 0.9323
0.5318 0.9997 0.9306
0.5698 0.9997 0.9325
0.6356 0.9997 0.9433
0.7283 0.9998 0.9499
0.8327 0.9999 0.9485
0.9420 0.9999 0.9366
0.9999 0.9999 0.9165
0.0570 0.1110 0.9280
0.1186 0.1140 0.9289
0.2146 0.1207 0.9313
0.3283 0.1321 0.9351
0.4523 0.1474 0.9401
0.5800 0.1661 0.9459
0.7117 0.1876 0.9543
0.8430 0.2105 0.9645
0.9680 0.2348 0.9753
0.0645 0.1581 0.9317
0.1233 0.1603 0.9327
0.2178 0.1656 0.9349
0.3308 0.1747 0.9383
0.4543 0.1872 0.9429
0.5817 0.2028 0.9483
0.7134 0.2211 0.9556
0.8442 0.2414 0.9660
0.9690 0.2631 0.9765
0.0961 0.2446 0.9353
0.1449 0.2461 0.9362
0.2319 0.2499 0.9384
0.3407 0.2563 0.9418
0.4616 0.2655 0.9462
0.5871 0.2772 0.9515
0.7177 0.2913 0.9586
0.8477 0.3073 0.9685
0.9714 0.3249 0.9790
0.1242 0.3535 0.9437
0.1673 0.3545 0.9441
0.2495 0.3570 0.9452
0.3558 0.3613 0.9472
0.4742 0.3677 0.9498
0.5966 0.3762 0.9560
0.7248 0.3868 0.9634
0.8540 0.3989 0.9712
0.9760 0.4124 0.9810
0.1692 0.4729 0.9542
0.2010 0.4743 0.9535
0.2710 0.4771 0.9531
0.3717 0.4806 0.9547
0.4870 0.4856 0.9569
0.6105 0.4919 0.9593
0.7363 0.5006 0.9667
0.8623 0.5110 0.9755
0.9816 0.5224 0.9835
0.2441 0.6067 0.9903
0.2721 0.6079 0.9874
0.3313 0.6111 0.9808
0.4147 0.6169 0.9714
0.5071 0.6256 0.9661
0.6231 0.6321 0.9673
0.7490 0.6387 0.9702
0.8738 0.6465 0.9804
0.9892 0.6551 0.9965
0.2854 0.7555 1.0000
0.3084 0.7563 1.0000
0.3613 0.7584 1.0000
0.4385 0.7620 1.0000
0.5327 0.7671 0.9996
0.6390 0.7750 0.9996
0.7547 0.7845 0.9997
0.8835 0.7900 0.9998
0.9991 0.7958 0.9999
0.4366 0.8880 1.0000
0.4476 0.8889 1.0000
0.4910 0.8896 1.0000
0.5424 0.8925 0.9997
0.6167 0.8975 0.9997
0.7024 0.9042 0.9998
0.7945 0.9138 0.9998
0.8898 0.9257 0.9999
0.9999 0.9290 0.9999
0.6757 0.9910 0.9998
0.6847 0.9915 0.9998
0.7013 0.9936 0.9998
0.7398 0.9959 0.9998
0.7835 0.9999 0.9999
0.8475 0.9999 0.9999
0.9073 0.9999 0.9999
0.9683 1.0000 1.0000
1.0000 1.0000 1.0000
