EA 50 Cinematic Luts Pack/EA_Cinematic Lut (43).cube
TITLE "A very warm, dreamlike color grade that smoothens the contrast of shadows and highlights."
LUT_3D_SIZE 5
0.0005 0.0000 0.0000
0.1945 0.0211 0.0000
0.4884 0.0067 0.0000
0.7694 0.0145 0.0000
1.0000 0.1134 0.0387
0.0724 0.1965 0.0877
0.2324 0.2010 0.0668
0.4992 0.2007 0.0112
0.7773 0.2038 0.0118
1.0000 0.2224 0.0177
0.1771 0.4421 0.2187
0.2949 0.4434 0.2134
0.5099 0.4510 0.1958
0.7844 0.4552 0.1392
1.0000 0.4660 0.1360
0.2792 0.7408 0.3588
0.3688 0.7414 0.3554
0.5621 0.7441 0.3458
0.7924 0.7545 0.3279
1.0000 0.7665 0.2719
0.3779 1.0000 0.5211
0.4481 1.0000 0.5197
0.6175 0.9996 0.5140
0.8365 0.9998 0.5051
1.0000 1.0000 0.4898
0.0140 0.0071 0.1632
0.1969 0.0262 0.1836
0.4606 0.0545 0.1969
0.7498 0.0689 0.1941
0.9970 0.1388 0.2132
0.0649 0.1977 0.2230
0.2232 0.2061 0.2008
0.4954 0.2071 0.1715
0.7662 0.2169 0.1893
1.0000 0.2404 0.2049
0.1647 0.4445 0.2886
0.2830 0.4465 0.2838
0.5013 0.4550 0.2666
0.7862 0.4567 0.2150
1.0000 0.4601 0.2180
0.2672 0.7421 0.4239
0.3584 0.7430 0.4200
0.5564 0.7455 0.4103
0.7902 0.7557 0.3884
1.0000 0.7641 0.3241
0.3673 0.9999 0.5729
0.4398 1.0000 0.5708
0.6124 0.9994 0.5641
0.8328 0.9996 0.5552
0.9997 0.9997 0.5386
0.0421 0.0336 0.3587
0.2061 0.0526 0.3649
0.4450 0.0920 0.3828
0.7129 0.1332 0.4171
0.9770 0.1823 0.4330
0.0805 0.2109 0.3719
0.2171 0.2186 0.3771
0.4558 0.2327 0.4011
0.7222 0.2551 0.4226
0.9942 0.2723 0.4283
0.1732 0.4442 0.4843
0.2837 0.4482 0.4727
0.4940 0.4622 0.4326
0.7827 0.4636 0.3937
1.0000 0.4720 0.4086
0.2740 0.7447 0.5421
0.3600 0.7460 0.5411
0.5485 0.7506 0.5339
0.7820 0.7622 0.5146
1.0000 0.7641 0.4467
0.3644 1.0000 0.6897
0.4355 1.0000 0.6878
0.6061 0.9995 0.6811
0.8303 0.9997 0.6713
0.9998 0.9998 0.6497
0.0527 0.0710 0.6088
0.2119 0.0837 0.6118
0.4486 0.1168 0.6209
0.7087 0.1632 0.6375
0.9686 0.2104 0.6675
0.0872 0.2257 0.6138
0.2291 0.2311 0.6156
0.4592 0.2480 0.6249
0.7154 0.2755 0.6402
0.9729 0.3057 0.6744
0.1663 0.4566 0.6722
0.2847 0.4595 0.6628
0.4799 0.4750 0.6492
0.7349 0.4869 0.6734
0.9876 0.5043 0.6956
0.3038 0.7420 0.7825
0.3777 0.7444 0.7785
0.5523 0.7526 0.7559
0.7760 0.7705 0.7071
0.9996 0.7710 0.6627
0.3989 1.0000 0.8437
0.4607 1.0000 0.8440
0.6179 0.9997 0.8443
0.8291 0.9998 0.8351
0.9999 0.9999 0.8071
0.0570 0.1110 0.9280
0.2146 0.1207 0.9313
0.4523 0.1474 0.9401
0.7117 0.1876 0.9543
0.9680 0.2348 0.9753
0.0961 0.2446 0.9353
0.2319 0.2499 0.9384
0.4616 0.2655 0.9462
0.7177 0.2913 0.9586
0.9714 0.3249 0.9790
0.1692 0.4729 0.9542
0.2710 0.4771 0.9531
0.4870 0.4856 0.9569
0.7363 0.5006 0.9667
0.9816 0.5224 0.9835
0.2854 0.7555 1.0000
0.3613 0.7584 1.0000
0.5327 0.7671 0.9996
0.7547 0.7845 0.9997
0.9991 0.7958 0.9999
0.6757 0.9910 0.9998
0.7013 0.9936 0.9998
0.7835 0.9999 0.9999
0.9073 0.9999 0.9999
1.0000 1.0000 1.0000
