EA 50 Cinematic Luts Pack/EA_Cinematic Lut (2).cube
TITLE "Generated by Resolve"
LUT_3D_SIZE 9
0 0.148013 0.240253
0.0446937 0.135729 0.225391
0.140719 0.130251 0.217075
0.229862 0.126558 0.211337
0.332921 0.118151 0.202701
0.436988 0.109209 0.194293
0.541222 0.101183 0.186938
0.643381 0.0952773 0.181415
0.742229 0.0935683 0.179004
0 0.202335 0.251972
0.1084 0.188693 0.236164
0.193851 0.185443 0.230655
0.293767 0.179202 0.223224
0.401984 0.172778 0.215869
0.512612 0.169299 0.210681
0.624704 0.170153 0.208637
0.733715 0.175586 0.209659
0.83537 0.18439 0.213062
0.0636912 0.252628 0.255543
0.157839 0.251743 0.248295
0.25481 0.253971 0.243503
0.369009 0.256107 0.238483
0.48455 0.26067 0.235355
0.598749 0.266789 0.233783
0.709087 0.275471 0.23447
0.812741 0.286839 0.23714
0.908537 0.301625 0.242725
0.107851 0.344457 0.264607
0.210513 0.353124 0.261662
0.325841 0.359869 0.258091
0.443107 0.366888 0.255344
0.55964 0.375479 0.254505
0.672679 0.38558 0.255619
0.780331 0.398108 0.258885
0.879728 0.413428 0.264714
0.969345 0.43122 0.27335
0.166094 0.461814 0.279255
0.277989 0.472221 0.277455
0.397925 0.480781 0.275532
0.516228 0.490745 0.275425
0.631571 0.501427 0.27744
0.742184 0.513924 0.281498
0.844755 0.528344 0.287495
0.938231 0.544884 0.295979
1 0.564569 0.306996
0.231968 0.5888 0.29865
0.352529 0.59826 0.298238
0.472313 0.608331 0.299321
0.589349 0.618494 0.302113
0.702174 0.629755 0.306401
0.807691 0.642008 0.312078
0.904433 0.656199 0.319783
0.990097 0.672419 0.329458
1 0.691417 0.341588
0.311833 0.714488 0.325399
0.432517 0.723491 0.32723
0.550134 0.732158 0.330251
0.664256 0.741222 0.334279
0.772045 0.75053 0.339391
0.871153 0.761364 0.346197
0.960159 0.773327 0.354559
1 0.787884 0.365301
1 0.803876 0.377539
0.40061 0.831968 0.35935
0.518288 0.838132 0.362707
0.633082 0.844083 0.366857
0.742535 0.849729 0.371908
0.844343 0.856062 0.378332
0.935424 0.862531 0.385367
1 0.869902 0.393729
1 0.879133 0.403784
1 0.888853 0.41471
0.499397 0.932265 0.402045
0.611749 0.934966 0.405783
0.718761 0.935866 0.409201
0.818555 0.936339 0.413046
0.908949 0.937163 0.41738
0.989395 0.939483 0.423209
1 0.944549 0.431174
1 0.95201 0.441199
1 0.959976 0.451423
0 0.151629 0.26363
0.054902 0.138582 0.248127
0.148928 0.134203 0.240818
0.238346 0.129961 0.234592
0.341451 0.121263 0.225467
0.446296 0.112566 0.21706
0.550835 0.104891 0.210025
0.653925 0.0999466 0.205371
0.753582 0.0993515 0.204334
0 0.205264 0.274754
0.11632 0.192218 0.259251
0.202152 0.189136 0.253819
0.30367 0.183062 0.246571
0.413321 0.17763 0.240162
0.525521 0.175433 0.236439
0.638178 0.177691 0.236118
0.746487 0.183612 0.238697
0.847715 0.19321 0.244129
0.0734722 0.257038 0.278447
0.166384 0.257527 0.272526
0.266941 0.261006 0.269215
0.382391 0.264118 0.265705
0.497627 0.268971 0.264149
0.611582 0.275746 0.264851
0.720928 0.284581 0.267765
0.824399 0.296437 0.273411
0.919051 0.311238 0.281697
0.120638 0.352468 0.291524
0.223331 0.361852 0.290761
0.33875 0.368765 0.289204
0.456168 0.37612 0.289281
0.572335 0.384924 0.291295
0.684764 0.395163 0.295064
0.791531 0.407965 0.300923
0.889982 0.423072 0.308995
0.979049 0.441306 0.319722
0.17879 0.471183 0.313588
0.290776 0.481331 0.314382
0.410574 0.490333 0.315358
0.528634 0.500237 0.318059
0.643519 0.510994 0.322026
0.753323 0.523583 0.327611
0.855238 0.537758 0.335119
0.947875 0.554452 0.344961
1 0.573953 0.357015
0.244404 0.59794 0.341405
0.365042 0.60766 0.342931
0.484306 0.617304 0.3458
0.601205 0.627604 0.34992
0.713451 0.638743 0.35523
0.81796 0.650919 0.362036
0.913664 0.664927 0.370901
0.997635 0.680735 0.38146
1 0.699779 0.394522
0.324605 0.723262 0.373419
0.44445 0.731716 0.376333
0.56199 0.740383 0.380453
0.675212 0.749035 0.385397
0.781842 0.758358 0.39147
0.880003 0.768719 0.399222
0.967895 0.780423 0.408453
1 0.794614 0.419928
1 0.8094 0.432654
0.41236 0.839094 0.411063
0.529747 0.845121 0.415457
0.64361 0.850431 0.420356
0.752499 0.855909 0.426322
0.852735 0.86157 0.433143
0.942504 0.867338 0.440681
1 0.874113 0.449348
1 0.882826 0.459907
1 0.892241 0.471153
0.509865 0.937865 0.456962
0.621073 0.93959 0.461051
0.727123 0.939941 0.46482
0.825345 0.939681 0.468727
0.914992 0.940215 0.473472
0.994247 0.942168 0.479484
1 0.947433 0.488197
1 0.95491 0.498329
1 0.962829 0.508858
0 0.1552 0.286732
0.0654765 0.141848 0.270954
0.156909 0.137911 0.264652
0.246418 0.133181 0.258549
0.350286 0.124361 0.250278
0.455375 0.115572 0.243107
0.560418 0.108522 0.237827
0.664042 0.104524 0.236057
0.764721 0.105394 0.2383
0.00645457 0.207858 0.298512
0.123873 0.195743 0.284886
0.209857 0.192782 0.280827
0.313817 0.186831 0.275349
0.424002 0.182071 0.271565
0.537804 0.181521 0.27129
0.650446 0.184726 0.274128
0.758587 0.191287 0.279652
0.858824 0.20145 0.287633
0.0823224 0.26183 0.307637
0.175418 0.26363 0.304906
0.278218 0.267842 0.304402
0.393805 0.271412 0.303868
0.509377 0.276814 0.305196
0.622568 0.283787 0.308141
0.732219 0.293187 0.313207
0.834974 0.305348 0.320562
0.929183 0.320562 0.330358
0.131777 0.360433 0.330266
0.234073 0.370153 0.33228
0.350317 0.376883 0.33283
0.467918 0.384649 0.334813
0.583535 0.393484 0.338323
0.695888 0.404318 0.343465
0.802136 0.416938 0.350454
0.900191 0.432517 0.35996
0.98764 0.451102 0.371847
0.189593 0.480125 0.359365
0.302632 0.49015 0.361471
0.422461 0.49929 0.363836
0.540093 0.509041 0.367666
0.654856 0.52015 0.372747
0.763745 0.532433 0.379385
0.865064 0.546944 0.388144
0.956344 0.563455 0.398825
1 0.5832 0.412024
0.256214 0.607004 0.391089
0.376913 0.61648 0.39382
0.4963 0.626032 0.397833
0.61265 0.636271 0.40293
0.723522 0.647059 0.408957
0.827588 0.659312 0.416846
0.921981 0.672892 0.426337
1 0.688914 0.437736
1 0.707408 0.451438
0.336294 0.731395 0.426368
0.456107 0.739849 0.43061
0.572961 0.748226 0.435462
0.685115 0.756497 0.440909
0.791196 0.765591 0.447807
0.888228 0.775509 0.456031
0.975143 0.787091 0.465858
1 0.800687 0.477516
1 0.814694 0.490562
0.423957 0.846082 0.467399
0.540398 0.851499 0.472236
0.653925 0.856504 0.477791
0.761639 0.861601 0.484031
0.860868 0.866484 0.49102
0.949248 0.871611 0.498527
1 0.877836 0.507073
1 0.886366 0.517922
1 0.895262 0.528984
0.519661 0.942794 0.515145
0.629862 0.94374 0.519203
0.73463 0.943328 0.522744
0.832197 0.942657 0.526574
0.920684 0.942992 0.531289
0.998672 0.944869 0.53724
1 0.950256 0.545953
1 0.957565 0.555962
1 0.965682 0.566445
0 0.158572 0.313466
0.0745861 0.14519 0.299184
0.16286 0.141222 0.295201
0.253651 0.135882 0.291157
0.358206 0.126833 0.285328
0.46334 0.118288 0.280735
0.568933 0.111666 0.278172
0.67306 0.108415 0.278721
0.775097 0.111009 0.283696
0.0147402 0.210193 0.331685
0.129152 0.198734 0.321309
0.216785 0.195941 0.320012
0.322652 0.190372 0.316884
0.434409 0.18677 0.31548
0.54902 0.187366 0.317311
0.661906 0.191302 0.321859
0.769741 0.198489 0.328786
0.868772 0.20911 0.337743
0.0878309 0.266438 0.349599
0.18323 0.269871 0.349477
0.288441 0.274327 0.3505
0.404746 0.278569 0.351476
0.520195 0.284398 0.354025
0.633524 0.291646 0.358282
0.74316 0.301381 0.364569
0.845136 0.313802 0.373053
0.938659 0.329656 0.384268
0.141131 0.368246 0.378042
0.244205 0.377813 0.381186
0.361547 0.384894 0.383032
0.478874 0.392721 0.386099
0.594705 0.401984 0.390723
0.706752 0.412833 0.396948
0.812375 0.425956 0.405188
0.909514 0.441764 0.415702
0.995621 0.460212 0.428397
0.199298 0.48864 0.410712
0.314199 0.49868 0.413993
0.433753 0.507591 0.417288
0.551278 0.5178 0.422126
0.665324 0.528679 0.428046
0.773968 0.541299 0.435752
0.874372 0.555734 0.44535
0.964462 0.572244 0.456504
1 0.592004 0.470497
0.268055 0.615595 0.445686
0.388495 0.624796 0.449287
0.507546 0.634516 0.454215
0.622827 0.644465 0.459678
0.733654 0.655299 0.466621
0.836484 0.667094 0.474891
0.929931 0.680812 0.484749
1 0.696605 0.496605
1 0.71487 0.510719
0.34789 0.739391 0.48365
0.467247 0.747646 0.488411
0.583017 0.755581 0.493431
0.695064 0.763745 0.499474
0.799924 0.772259 0.506508
0.896452 0.782055 0.514916
0.98175 0.793179 0.524514
1 0.806317 0.536492
1 0.819654 0.549096
0.43508 0.85272 0.526421
0.550988 0.85771 0.531487
0.663905 0.862379 0.537057
0.770642 0.866636 0.543206
0.868406 0.870924 0.549752
0.954986 0.875303 0.556634
1 0.881453 0.56524
1 0.889723 0.575616
1 0.898436 0.586328
0.529351 0.947585 0.574716
0.638575 0.947646 0.578073
0.742016 0.946426 0.581109
0.838529 0.945495 0.584405
0.925917 0.945464 0.588525
1 0.947601 0.594293
1 0.952956 0.602502
1 0.960494 0.612207
1 0.968566 0.621958
0 0.16144 0.352102
0.0805829 0.147951 0.3402
0.167117 0.143862 0.337804
0.25951 0.137881 0.334905
0.364462 0.128695 0.330083
0.470741 0.120638 0.326818
0.577142 0.114656 0.325811
0.68275 0.112871 0.328206
0.785321 0.11664 0.334936
0.0201114 0.21239 0.376013
0.133242 0.20148 0.367361
0.222751 0.198764 0.367193
0.330831 0.193637 0.365148
0.444831 0.191699 0.365713
0.560006 0.193103 0.369116
0.673259 0.197818 0.37496
0.780133 0.205356 0.382681
0.878798 0.216754 0.39295
0.0928511 0.271366 0.39826
0.190524 0.275792 0.399969
0.298634 0.280873 0.402152
0.415152 0.285588 0.404273
0.5308 0.291417 0.407874
0.644495 0.29929 0.41323
0.753094 0.309224 0.420371
0.85478 0.322332 0.429908
0.947448 0.338186 0.442039
0.14934 0.375631 0.430915
0.254414 0.385397 0.435111
0.372442 0.392615 0.437919
0.489708 0.400748 0.441947
0.605585 0.410315 0.447486
0.717052 0.421271 0.454414
0.82208 0.434791 0.46334
0.918257 0.450462 0.474449
1 0.469398 0.487953
0.209583 0.497002 0.466575
0.325216 0.506676 0.470405
0.444587 0.516136 0.474723
0.562158 0.526329 0.480171
0.675837 0.537255 0.486641
0.783856 0.54992 0.494789
0.882948 0.564233 0.504509
0.972686 0.580835 0.516182
1 0.600305 0.530221
0.278798 0.623804 0.503532
0.399786 0.633112 0.507958
0.517952 0.642695 0.512901
0.633341 0.652583 0.518883
0.743511 0.66331 0.525979
0.845502 0.674968 0.534203
0.93817 0.688472 0.544137
1 0.703914 0.555795
1 0.722179 0.570031
0.359228 0.747127 0.543008
0.477577 0.75494 0.547555
0.5935 0.762798 0.552789
0.704952 0.770626 0.558633
0.80911 0.778958 0.565591
0.904173 0.788617 0.573602
0.988327 0.799222 0.58291
1 0.811627 0.594354
1 0.824125 0.60589
0.445609 0.858854 0.58584
0.561624 0.863645 0.590753
0.673594 0.867704 0.59588
0.779507 0.871733 0.601694
0.875471 0.875166 0.607187
0.960922 0.879149 0.613413
1 0.885023 0.621469
1 0.892973 0.630991
1 0.901671 0.640986
0.538689 0.951858 0.633021
0.646525 0.951125 0.635447
0.749371 0.94963 0.637766
0.844739 0.948226 0.64007
0.931304 0.948287 0.643473
1 0.950378 0.648615
1 0.955962 0.656184
1 0.963729 0.665034
1 0.971923 0.674067
0 0.164248 0.39913
0.0834669 0.150454 0.388052
0.170291 0.146181 0.386496
0.264591 0.139513 0.383993
0.370733 0.130434 0.380163
0.477668 0.122652 0.377859
0.585443 0.117662 0.378363
0.692805 0.11754 0.382589
0.795621 0.122255 0.39086
0.0236362 0.214496 0.425986
0.137087 0.204181 0.418677
0.228779 0.20148 0.419287
0.339223 0.197223 0.418433
0.455039 0.196231 0.420417
0.571283 0.198886 0.425284
0.684169 0.204105 0.431983
0.790356 0.212467 0.440589
0.888533 0.224414 0.451728
0.0993515 0.2766 0.452049
0.198169 0.28188 0.455055
0.308537 0.287312 0.457923
0.425162 0.292088 0.460746
0.541222 0.298589 0.465415
0.654597 0.306615 0.471336
0.763058 0.317327 0.47921
0.864439 0.330709 0.489494
0.956359 0.34696 0.502113
0.158236 0.383062 0.487709
0.264729 0.392798 0.492515
0.382513 0.400153 0.495735
0.500404 0.408698 0.500618
0.615854 0.41825 0.506462
0.727138 0.429831 0.513832
0.831495 0.443244 0.523049
0.927321 0.459312 0.534478
1 0.478447 0.548196
0.219471 0.505302 0.5252
0.335882 0.514961 0.529198
0.455558 0.524468 0.534005
0.57258 0.534493 0.539483
0.686244 0.545739 0.546242
0.793103 0.558221 0.554101
0.892073 0.572702 0.563973
0.980591 0.589212 0.575448
1 0.608972 0.589319
0.289998 0.63212 0.562875
0.410681 0.641428 0.567224
0.528695 0.650752 0.572213
0.644053 0.660517 0.578012
0.753063 0.670863 0.584649
0.854383 0.682734 0.592767
0.9458 0.695827 0.60209
1 0.711513 0.613565
1 0.729366 0.626902
0.370138 0.754635 0.601907
0.488502 0.762417 0.606287
0.604059 0.769924 0.611124
0.714351 0.77734 0.616419
0.817746 0.785687 0.622736
0.911757 0.794797 0.630045
0.994842 0.805219 0.638819
1 0.816831 0.649073
1 0.82884 0.659678
0.456764 0.865217 0.643839
0.572076 0.869474 0.648173
0.683345 0.873198 0.652644
0.787869 0.876524 0.657206
0.882597 0.879393 0.661646
0.966949 0.883024 0.66688
1 0.888594 0.673823
1 0.89662 0.682292
1 0.905013 0.690776
0.547539 0.955901 0.688365
0.654658 0.954665 0.689799
0.756649 0.952773 0.690791
0.851148 0.951293 0.691936
0.937255 0.951247 0.694087
1 0.953475 0.697734
1 0.959487 0.703868
1 0.96733 0.711009
1 0.975952 0.718685
0 0.166659 0.45124
0.0856489 0.152773 0.440681
0.172778 0.148119 0.439796
0.269886 0.140948 0.437415
0.377005 0.132143 0.434333
0.485328 0.124819 0.432914
0.594186 0.120958 0.434501
0.702358 0.122026 0.440131
0.805936 0.128069 0.44976
0.0266728 0.216587 0.480262
0.140368 0.206638 0.474037
0.235599 0.204425 0.47509
0.348974 0.201236 0.475486
0.465599 0.201373 0.478569
0.582116 0.204761 0.484108
0.694484 0.210422 0.491142
0.800366 0.219547 0.500252
0.897749 0.2318 0.511833
0.105684 0.281834 0.509239
0.206409 0.288273 0.513008
0.318196 0.293599 0.516182
0.435416 0.298924 0.519677
0.551659 0.305806 0.524651
0.664729 0.314305 0.530739
0.773144 0.325353 0.538979
0.873869 0.338842 0.549401
0.965286 0.355825 0.56202
0.16701 0.390555 0.546517
0.274144 0.400198 0.551293
0.393194 0.407889 0.555016
0.510994 0.416571 0.559915
0.626276 0.426596 0.565728
0.737408 0.438254 0.573129
0.841428 0.451881 0.582391
0.936416 0.468254 0.59353
1 0.487388 0.606714
0.228992 0.513436 0.584237
0.347036 0.523186 0.588312
0.466209 0.532555 0.592782
0.583734 0.54287 0.598199
0.696391 0.554025 0.604318
0.803113 0.566751 0.612284
0.901076 0.581323 0.621592
0.988281 0.597681 0.63241
1 0.617578 0.645975
0.301244 0.640482 0.621271
0.421851 0.649393 0.625147
0.540032 0.658869 0.629862
0.6542 0.668391 0.634943
0.762798 0.678904 0.64123
0.863157 0.690379 0.648447
0.953765 0.703502 0.657145
1 0.719188 0.667811
1 0.736721 0.680171
0.381689 0.76228 0.658701
0.499687 0.769909 0.662577
0.614313 0.776974 0.666499
0.724056 0.784451 0.671122
0.82649 0.792218 0.67628
0.919722 0.801205 0.682628
1 0.810925 0.689738
1 0.822187 0.698222
1 0.833783 0.707042
0.468147 0.871595 0.698665
0.582773 0.875425 0.7019
0.693294 0.878874 0.70515
0.796231 0.881209 0.7075
0.890043 0.883711 0.710155
0.97319 0.8869 0.71339
1 0.892775 0.718547
1 0.900771 0.725399
1 0.909133 0.732418
0.557031 0.960296 0.738506
0.663279 0.958541 0.737911
0.764431 0.956161 0.736431
0.858457 0.954681 0.735821
0.943343 0.954635 0.736263
1 0.95729 0.738705
1 0.9635 0.743603
1 0.971664 0.749966
1 0.980346 0.757076
0 0.168826 0.506615
0.0871443 0.154925 0.496529
0.175402 0.149783 0.495689
0.275395 0.142153 0.493309
0.383429 0.133593 0.490532
0.49305 0.127398 0.490089
0.603555 0.124773 0.492638
0.712734 0.127184 0.499245
0.816327 0.13402 0.509453
0.0302129 0.218585 0.536934
0.144244 0.209247 0.531243
0.242756 0.207385 0.532662
0.358541 0.205417 0.533928
0.476417 0.206882 0.537835
0.592813 0.210605 0.543328
0.705089 0.217151 0.550515
0.81033 0.226658 0.559533
0.907332 0.239673 0.571054
0.112581 0.287495 0.567422
0.214603 0.294652 0.571725
0.328222 0.300084 0.574884
0.445899 0.305913 0.578592
0.561776 0.313024 0.583154
0.675425 0.322103 0.58938
0.783352 0.333227 0.597253
0.883482 0.347539 0.607553
0.973983 0.364569 0.619837
0.175174 0.397986 0.604837
0.284642 0.407782 0.609659
0.404166 0.415763 0.613321
0.521843 0.424613 0.617792
0.637461 0.434974 0.623285
0.74789 0.446693 0.630198
0.851347 0.460838 0.639139
0.945037 0.477195 0.649424
1 0.496803 0.662425
0.239231 0.52195 0.641764
0.358465 0.531319 0.64535
0.477852 0.541024 0.649439
0.594629 0.551583 0.654185
0.707073 0.562722 0.659846
0.813138 0.57554 0.667033
0.909911 0.589883 0.675288
0.996201 0.606638 0.685161
1 0.626184 0.697322
0.313085 0.648539 0.676799
0.433539 0.657771 0.680201
0.551125 0.667124 0.683955
0.664851 0.676692 0.688151
0.772992 0.687099 0.693202
0.872435 0.698451 0.698894
0.962097 0.71162 0.705806
1 0.726925 0.714733
1 0.744427 0.725292
0.3935 0.770123 0.711559
0.510781 0.777295 0.713802
0.62501 0.784527 0.716228
0.734447 0.791775 0.719173
0.836133 0.79939 0.722515
0.92842 0.808072 0.726909
1 0.816999 0.732204
1 0.827878 0.739162
1 0.838834 0.746548
0.479744 0.877974 0.746288
0.594064 0.881743 0.747799
0.703746 0.884459 0.748821
0.805646 0.886397 0.749538
0.898009 0.888365 0.7505
0.979812 0.891493 0.75256
1 0.897292 0.756848
1 0.905089 0.762814
1 0.913558 0.769375
0.567071 0.964813 0.780011
0.672297 0.962539 0.777569
0.772763 0.960143 0.775174
0.865782 0.958404 0.773404
0.949966 0.958541 0.773266
1 0.961456 0.775128
1 0.967895 0.779858
1 0.976318 0.78616
1 0.984634 0.792828
0 0.170748 0.563485
0.0883497 0.156771 0.553628
0.178683 0.151415 0.552499
0.280873 0.143481 0.549722
0.390158 0.1355 0.547005
0.501183 0.130053 0.546944
0.613703 0.129152 0.550439
0.723613 0.132815 0.55758
0.826932 0.140002 0.567819
0.0341192 0.2206 0.593957
0.14931 0.212238 0.588617
0.250889 0.210849 0.590066
0.36878 0.210193 0.591684
0.48719 0.21236 0.595636
0.60412 0.216876 0.601099
0.716091 0.224079 0.607874
0.820768 0.234211 0.616709
0.917144 0.247959 0.627848
0.120867 0.293614 0.624842
0.223362 0.301152 0.629099
0.338766 0.306859 0.631846
0.456123 0.312932 0.634989
0.573068 0.320592 0.639445
0.686213 0.329931 0.645106
0.794003 0.341787 0.652949
0.893523 0.356542 0.662425
0.983307 0.373938 0.674067
0.184894 0.405768 0.66125
0.296025 0.415534 0.66537
0.415396 0.423545 0.668391
0.533318 0.433066 0.672328
0.648402 0.443442 0.677134
0.758801 0.455711 0.683497
0.861189 0.470069 0.690715
0.95462 0.486717 0.699916
1 0.506645 0.711406
0.250904 0.530465 0.695872
0.370398 0.539849 0.698665
0.489448 0.54995 0.70161
0.605936 0.560281 0.704936
0.718273 0.571801 0.709422
0.823255 0.584482 0.714488
0.919509 0.599222 0.721218
1 0.61593 0.72961
1 0.635554 0.74052
0.325811 0.657237 0.726986
0.445777 0.666606 0.728771
0.562799 0.675761 0.730678
0.676326 0.685389 0.73344
0.78352 0.69543 0.736568
0.882307 0.707012 0.740948
0.970718 0.719814 0.7467
1 0.735332 0.75491
1 0.7523 0.764202
0.406058 0.778271 0.756008
0.52282 0.785504 0.756802
0.636637 0.792416 0.758068
0.745251 0.7991 0.759472
0.846128 0.806699 0.761975
0.936751 0.814664 0.765286
1 0.823316 0.769879
1 0.833539 0.776028
1 0.844251 0.782895
0.492622 0.884916 0.786847
0.605844 0.888228 0.787213
0.714046 0.89015 0.78703
0.814725 0.891569 0.786816
0.90576 0.893187 0.787015
0.986664 0.896147 0.788754
1 0.901778 0.792782
1 0.909636 0.79881
1 0.917861 0.805264
0.576684 0.969329 0.816983
0.681422 0.966751 0.813901
0.781109 0.964126 0.811032
0.873259 0.962356 0.809033
0.956573 0.962585 0.808804
1 0.965545 0.810864
1 0.97232 0.816083
1 0.980713 0.822644
1 0.989136 0.829282
