EA 50 Cinematic Luts Pack/EA_Cinematic Lut (35).cube
TITLE "Crisp contrast and cold, subdued hues will extract the essence and stress the mood of every action footage. "
LUT_3D_SIZE 5
0.0000 0.0000 0.0000
0.1548 0.0902 0.0632
0.3261 0.2089 0.1598
0.4966 0.3273 0.2563
0.6678 0.4465 0.3533
0.1182 0.2337 0.1792
0.2426 0.2495 0.1217
0.4007 0.2972 0.1967
0.5480 0.3843 0.2830
0.7053 0.4865 0.3734
0.2600 0.4699 0.3709
0.2940 0.4856 0.3116
0.4861 0.4983 0.2664
0.6486 0.5339 0.3394
0.8005 0.5987 0.4186
0.4021 0.7049 0.5612
0.4266 0.7140 0.5302
0.5269 0.7336 0.4522
0.7285 0.7466 0.4111
0.8961 0.7773 0.4800
0.6604 0.9169 0.7873
0.6917 0.9184 0.7838
0.7636 0.9267 0.7831
0.8652 0.9434 0.8136
0.9683 0.9736 0.8977
0.0204 0.0514 0.0730
0.1613 0.1102 0.1580
0.3620 0.2027 0.1917
0.5167 0.3247 0.2745
0.6813 0.4452 0.3661
0.0583 0.2473 0.2495
0.1670 0.2681 0.2693
0.4047 0.3019 0.2528
0.5501 0.3885 0.3169
0.7219 0.4835 0.3839
0.2052 0.4775 0.4318
0.3110 0.4818 0.4102
0.4855 0.4999 0.3423
0.6540 0.5349 0.3734
0.8135 0.5968 0.4277
0.3769 0.7091 0.5989
0.4385 0.7116 0.5843
0.5143 0.7370 0.4911
0.7258 0.7478 0.4661
0.9054 0.7769 0.4839
0.6474 0.9206 0.8039
0.6832 0.9214 0.7999
0.7640 0.9281 0.7959
0.8659 0.9450 0.8214
0.9700 0.9750 0.9032
0.0757 0.1390 0.1783
0.1450 0.1775 0.2492
0.3374 0.2447 0.3313
0.5520 0.3277 0.3526
0.7299 0.4363 0.4075
0.1011 0.2756 0.3117
0.2000 0.2910 0.3334
0.3869 0.3266 0.3884
0.6063 0.3797 0.3819
0.7713 0.4732 0.4278
0.1511 0.4940 0.4978
0.2105 0.5038 0.5073
0.3488 0.5313 0.5334
0.6647 0.5397 0.4715
0.8674 0.5831 0.4659
0.2958 0.7231 0.6730
0.3309 0.7290 0.6789
0.5108 0.7358 0.6580
0.7322 0.7492 0.5717
0.9173 0.7769 0.5687
0.5721 0.9367 0.8593
0.6268 0.9354 0.8531
0.7505 0.9355 0.8388
0.8670 0.9504 0.8467
0.9752 0.9793 0.9208
0.1343 0.2259 0.2829
0.1754 0.2520 0.3273
0.3049 0.3065 0.4549
0.5130 0.3796 0.5044
0.7192 0.4670 0.5298
0.1691 0.3216 0.3827
0.2245 0.3375 0.4020
0.3478 0.3763 0.4976
0.5467 0.4315 0.5416
0.7694 0.4950 0.5549
0.1884 0.5162 0.5643
0.2243 0.5268 0.5749
0.3979 0.5460 0.5953
0.6144 0.5710 0.6275
0.8923 0.5840 0.6113
0.2442 0.7409 0.7466
0.2818 0.7470 0.7524
0.3820 0.7653 0.7701
0.5289 0.7954 0.7985
0.9395 0.7755 0.7216
0.5244 0.9540 0.9104
0.5626 0.9553 0.9118
0.6697 0.9597 0.9166
0.8598 0.9615 0.9066
0.9850 0.9875 0.9529
0.1925 0.3123 0.3868
0.2208 0.3313 0.4184
0.3112 0.3798 0.5078
0.4791 0.4419 0.6230
0.6895 0.5137 0.6779
0.2229 0.3840 0.4635
0.2504 0.3982 0.4896
0.3419 0.4352 0.5691
0.5128 0.4815 0.6832
0.7279 0.5425 0.7157
0.2454 0.5513 0.6229
0.2730 0.5601 0.6424
0.3749 0.5812 0.7105
0.5815 0.5934 0.8526
0.8321 0.6270 0.8186
0.2770 0.7614 0.8186
0.2833 0.7690 0.8295
0.3087 0.7920 0.8658
0.6109 0.7941 0.9225
0.9025 0.8000 0.8951
0.5688 0.9642 0.9697
0.6010 0.9660 0.9713
0.6919 0.9720 0.9763
0.8309 0.9831 0.9857
0.9999 1.0000 1.0000
