EA 50 Cinematic Luts Pack/EA_Cinematic Lut (37).cube
TITLE "A classic “film noir” look with a modern twist that will give your editing material a comic look that cannot go unnoticed. "
LUT_3D_SIZE 9
0.0000 0.0000 0.0000
0.0398 0.0397 0.0391
0.1116 0.1041 0.1014
0.1886 0.1670 0.1608
0.2664 0.2289 0.2182
0.3493 0.2889 0.2721
0.4389 0.3475 0.3237
0.5914 0.3789 0.3359
0.7479 0.4011 0.3440
0.1025 0.1020 0.1006
0.1208 0.1200 0.1183
0.1584 0.1570 0.1546
0.2086 0.2061 0.2026
0.2662 0.2616 0.2564
0.3365 0.3184 0.3088
0.4225 0.3738 0.3566
0.5728 0.4062 0.3682
0.7295 0.4296 0.3748
0.2126 0.2107 0.2073
0.2219 0.2196 0.2160
0.2440 0.2406 0.2365
0.2797 0.2733 0.2675
0.3242 0.3157 0.3082
0.3755 0.3651 0.3560
0.4416 0.4163 0.4027
0.5509 0.4573 0.4298
0.6862 0.4891 0.4448
0.3233 0.3184 0.3125
0.3293 0.3240 0.3179
0.3441 0.3378 0.3313
0.3690 0.3609 0.3536
0.4041 0.3923 0.3831
0.4469 0.4310 0.4188
0.5235 0.4667 0.4458
0.6150 0.5022 0.4719
0.7198 0.5363 0.4947
0.4344 0.4274 0.4191
0.4386 0.4314 0.4230
0.4490 0.4413 0.4326
0.4667 0.4583 0.4492
0.4914 0.4818 0.4722
0.5594 0.5017 0.4832
0.6324 0.5273 0.4983
0.7138 0.5562 0.5176
0.8018 0.5873 0.5397
0.5408 0.5341 0.5242
0.5439 0.5370 0.5271
0.5516 0.5445 0.5343
0.5654 0.5576 0.5469
0.5852 0.5767 0.5654
0.6112 0.6016 0.5893
0.6434 0.6319 0.6180
0.8318 0.6190 0.5725
0.9172 0.6411 0.5840
0.6497 0.6434 0.6301
0.6521 0.6457 0.6323
0.6582 0.6517 0.6379
0.6690 0.6621 0.6477
0.6850 0.6773 0.6617
0.7063 0.6975 0.6802
0.7325 0.7225 0.7031
0.7642 0.7520 0.7293
0.9996 0.7182 0.6589
0.7578 0.7516 0.7306
0.7598 0.7535 0.7323
0.7649 0.7583 0.7366
0.7738 0.7669 0.7440
0.7869 0.7795 0.7541
0.8046 0.7964 0.7661
0.8270 0.8176 0.7788
0.8540 0.8433 0.7912
0.8856 0.8728 0.8018
0.8663 0.8603 0.7985
0.8680 0.8619 0.7990
0.8723 0.8661 0.8004
0.8800 0.8733 0.8026
0.8913 0.8841 0.8056
0.9066 0.8987 0.8089
0.9258 0.9171 0.8122
0.9492 0.9392 0.8149
0.9766 0.9651 0.8155
0.0135 0.0135 0.0133
0.0521 0.0520 0.0513
0.1125 0.1119 0.1102
0.2149 0.1638 0.1530
0.3492 0.1997 0.1747
0.4611 0.2430 0.2080
0.5607 0.2927 0.2498
0.6385 0.3569 0.3089
0.7329 0.4116 0.3575
0.1090 0.1085 0.1069
0.1265 0.1256 0.1237
0.1627 0.1613 0.1588
0.2358 0.2026 0.1939
0.3401 0.2412 0.2208
0.4384 0.2854 0.2549
0.5303 0.3345 0.2959
0.6069 0.3934 0.3506
0.7158 0.4382 0.3867
0.2159 0.2138 0.2103
0.2251 0.2225 0.2188
0.2470 0.2432 0.2390
0.2815 0.2757 0.2704
0.3255 0.3178 0.3110
0.3763 0.3669 0.3585
0.4564 0.4140 0.3974
0.5364 0.4634 0.4399
0.6752 0.4947 0.4539
0.3254 0.3203 0.3143
0.3314 0.3259 0.3197
0.3462 0.3396 0.3330
0.3709 0.3625 0.3552
0.4061 0.3937 0.3842
0.4464 0.4328 0.4217
0.4901 0.4775 0.4658
0.5520 0.5216 0.5054
0.6557 0.5594 0.5304
0.4358 0.4288 0.4204
0.4400 0.4327 0.4243
0.4504 0.4426 0.4339
0.4680 0.4595 0.4504
0.4925 0.4829 0.4734
0.5244 0.5124 0.5016
0.5790 0.5439 0.5265
0.6571 0.5758 0.5490
0.7461 0.6086 0.5720
0.5417 0.5351 0.5253
0.5448 0.5380 0.5282
0.5525 0.5455 0.5354
0.5661 0.5586 0.5481
0.5859 0.5777 0.5666
0.6119 0.6025 0.5905
0.6439 0.6328 0.6192
0.7838 0.6373 0.5996
0.8689 0.6612 0.6122
0.6504 0.6442 0.6310
0.6528 0.6466 0.6332
0.6590 0.6525 0.6388
0.6697 0.6629 0.6485
0.6857 0.6781 0.6626
0.7068 0.6982 0.6811
0.7330 0.7232 0.7039
0.7646 0.7526 0.7302
0.9996 0.7187 0.6580
0.7585 0.7522 0.7312
0.7605 0.7541 0.7329
0.7655 0.7590 0.7373
0.7744 0.7675 0.7446
0.7875 0.7802 0.7547
0.8052 0.7970 0.7666
0.8276 0.8182 0.7792
0.8544 0.8439 0.7916
0.8861 0.8734 0.8021
0.8669 0.8609 0.7987
0.8686 0.8625 0.7992
0.8729 0.8666 0.8006
0.8806 0.8739 0.8028
0.8919 0.8847 0.8057
0.9071 0.8992 0.8091
0.9262 0.9176 0.8123
0.9496 0.9398 0.8150
0.9770 0.9656 0.8155
0.0474 0.0473 0.0466
0.0770 0.0768 0.0757
0.1271 0.1264 0.1246
0.1864 0.1846 0.1817
0.2576 0.2436 0.2367
0.4788 0.2407 0.2049
0.7160 0.1435 0.1438
0.8339 0.1719 0.1724
0.8954 0.2859 0.2473
0.1241 0.1235 0.1217
0.1397 0.1388 0.1368
0.1730 0.1716 0.1691
0.2199 0.2171 0.2135
0.3333 0.2522 0.2339
0.5519 0.2232 0.1855
0.7491 0.1408 0.1454
0.8192 0.2379 0.2080
0.8605 0.3471 0.2932
0.2238 0.2214 0.2178
0.2327 0.2298 0.2260
0.2547 0.2496 0.2449
0.2874 0.2815 0.2761
0.3859 0.3062 0.2875
0.5570 0.3001 0.2592
0.6485 0.3356 0.2866
0.7194 0.3889 0.3351
0.7779 0.4523 0.3961
0.3308 0.3251 0.3189
0.3368 0.3305 0.3242
0.3514 0.3440 0.3372
0.3760 0.3665 0.3589
0.4091 0.3977 0.3890
0.4483 0.4365 0.4267
0.4932 0.4802 0.4693
0.5775 0.5181 0.4971
0.6595 0.5612 0.5322
0.4395 0.4322 0.4237
0.4436 0.4361 0.4276
0.4540 0.4459 0.4371
0.4715 0.4626 0.4533
0.4957 0.4857 0.4761
0.5278 0.5149 0.5036
0.5644 0.5508 0.5379
0.6053 0.5930 0.5794
0.6552 0.6380 0.6215
0.5444 0.5376 0.5278
0.5475 0.5406 0.5306
0.5552 0.5480 0.5378
0.5687 0.5611 0.5505
0.5883 0.5801 0.5690
0.6139 0.6048 0.5930
0.6460 0.6349 0.6214
0.6981 0.6656 0.6449
0.7748 0.6946 0.6633
0.6523 0.6463 0.6332
0.6547 0.6486 0.6354
0.6608 0.6545 0.6409
0.6715 0.6648 0.6506
0.6873 0.6800 0.6647
0.7083 0.7001 0.6832
0.7345 0.7250 0.7059
0.7657 0.7544 0.7324
0.9184 0.7539 0.7066
0.7600 0.7539 0.7329
0.7620 0.7558 0.7346
0.7670 0.7606 0.7389
0.7759 0.7692 0.7462
0.7889 0.7818 0.7561
0.8066 0.7986 0.7677
0.8288 0.8198 0.7802
0.8556 0.8454 0.7924
0.8872 0.8748 0.8026
0.8683 0.8623 0.7992
0.8700 0.8639 0.7997
0.8744 0.8680 0.8010
0.8820 0.8753 0.8032
0.8932 0.8860 0.8061
0.9083 0.9006 0.8094
0.9274 0.9189 0.8126
0.9508 0.9410 0.8151
0.9779 0.9668 0.8154
0.0895 0.0893 0.0881
0.1097 0.1092 0.1078
0.1499 0.1489 0.1468
0.2023 0.2003 0.1973
0.2613 0.2572 0.2528
0.3243 0.3170 0.3104
0.4589 0.3582 0.3334
0.7349 0.3081 0.2616
0.9183 0.2709 0.2431
0.1473 0.1464 0.1444
0.1607 0.1596 0.1573
0.1901 0.1885 0.1857
0.2333 0.2303 0.2268
0.2856 0.2803 0.2754
0.3440 0.3356 0.3283
0.5253 0.3529 0.3175
0.7815 0.2941 0.2500
0.9294 0.2867 0.2537
0.2368 0.2343 0.2307
0.2452 0.2423 0.2384
0.2653 0.2611 0.2569
0.2972 0.2914 0.2864
0.3392 0.3312 0.3248
0.4378 0.3640 0.3435
0.6727 0.3309 0.2804
0.8868 0.2525 0.2249
0.9552 0.3252 0.2806
0.3396 0.3335 0.3274
0.3454 0.3388 0.3325
0.3598 0.3519 0.3449
0.3856 0.3734 0.3649
0.4158 0.4044 0.3957
0.5170 0.4233 0.3997
0.7086 0.4047 0.3544
0.8042 0.4303 0.3719
0.8681 0.4795 0.4173
0.4462 0.4381 0.4295
0.4502 0.4420 0.4332
0.4604 0.4516 0.4426
0.4776 0.4678 0.4585
0.5017 0.4905 0.4806
0.5316 0.5197 0.5092
0.5672 0.5556 0.5441
0.6115 0.5964 0.5831
0.6985 0.6308 0.6059
0.5492 0.5422 0.5321
0.5522 0.5451 0.5349
0.5599 0.5525 0.5421
0.5733 0.5654 0.5547
0.5929 0.5841 0.5730
0.6183 0.6087 0.5967
0.6506 0.6383 0.6241
0.6861 0.6730 0.6560
0.7247 0.7123 0.6925
0.6560 0.6499 0.6366
0.6584 0.6522 0.6388
0.6645 0.6580 0.6443
0.6752 0.6683 0.6539
0.6908 0.6834 0.6679
0.7116 0.7034 0.6864
0.7374 0.7281 0.7091
0.7684 0.7574 0.7356
0.8138 0.7884 0.7574
0.7629 0.7569 0.7358
0.7649 0.7588 0.7375
0.7698 0.7636 0.7417
0.7786 0.7721 0.7488
0.7916 0.7846 0.7584
0.8090 0.8014 0.7698
0.8311 0.8226 0.7820
0.8578 0.8480 0.7936
0.8890 0.8774 0.8036
0.8709 0.8648 0.8001
0.8725 0.8664 0.8006
0.8768 0.8705 0.8019
0.8843 0.8777 0.8040
0.8955 0.8885 0.8068
0.9105 0.9030 0.8099
0.9296 0.9212 0.8129
0.9527 0.9433 0.8153
0.9797 0.9691 0.8153
0.1320 0.1314 0.1296
0.1467 0.1458 0.1438
0.1786 0.1773 0.1748
0.2240 0.2215 0.2182
0.2780 0.2735 0.2690
0.3373 0.3301 0.3241
0.3996 0.3898 0.3816
0.4628 0.4515 0.4409
0.6476 0.4743 0.4363
0.1765 0.1752 0.1727
0.1876 0.1861 0.1835
0.2132 0.2111 0.2080
0.2521 0.2487 0.2449
0.3007 0.2952 0.2903
0.3559 0.3479 0.3415
0.4149 0.4046 0.3959
0.4751 0.4638 0.4528
0.6914 0.4716 0.4282
0.2556 0.2523 0.2484
0.2633 0.2596 0.2555
0.2816 0.2772 0.2728
0.3115 0.3056 0.3007
0.3514 0.3437 0.3379
0.3986 0.3889 0.3814
0.4506 0.4394 0.4298
0.5311 0.4854 0.4670
0.7899 0.4639 0.4100
0.3516 0.3460 0.3400
0.3571 0.3511 0.3449
0.3708 0.3636 0.3571
0.3940 0.3847 0.3775
0.4247 0.4144 0.4066
0.4626 0.4514 0.4424
0.5135 0.4910 0.4776
0.7441 0.4734 0.4220
0.9350 0.4478 0.3841
0.4549 0.4471 0.4387
0.4589 0.4508 0.4423
0.4689 0.4602 0.4513
0.4858 0.4757 0.4664
0.5113 0.4974 0.4867
0.5386 0.5267 0.5161
0.6242 0.5484 0.5261
0.8054 0.5385 0.4888
0.9333 0.5451 0.4815
0.5565 0.5489 0.5386
0.5595 0.5518 0.5414
0.5671 0.5590 0.5485
0.5804 0.5718 0.5609
0.5998 0.5902 0.5787
0.6252 0.6144 0.6020
0.6554 0.6440 0.6302
0.6897 0.6785 0.6624
0.7325 0.7162 0.6962
0.6616 0.6552 0.6416
0.6640 0.6575 0.6437
0.6701 0.6633 0.6492
0.6806 0.6734 0.6586
0.6962 0.6883 0.6725
0.7169 0.7081 0.6907
0.7425 0.7327 0.7132
0.7742 0.7615 0.7385
0.8086 0.7950 0.7640
0.7674 0.7613 0.7398
0.7694 0.7632 0.7414
0.7743 0.7679 0.7454
0.7831 0.7764 0.7522
0.7960 0.7888 0.7614
0.8133 0.8055 0.7724
0.8351 0.8265 0.7841
0.8616 0.8519 0.7953
0.8923 0.8811 0.8048
0.8746 0.8685 0.8014
0.8762 0.8701 0.8018
0.8804 0.8742 0.8031
0.8879 0.8814 0.8051
0.8990 0.8921 0.8077
0.9139 0.9066 0.8107
0.9327 0.9248 0.8135
0.9557 0.9467 0.8155
0.9825 0.9724 0.8150
0.1743 0.1732 0.1707
0.1856 0.1842 0.1816
0.2114 0.2094 0.2064
0.2505 0.2473 0.2436
0.2993 0.2942 0.2894
0.3545 0.3471 0.3409
0.4133 0.4039 0.3962
0.4736 0.4633 0.4540
0.5328 0.5223 0.5114
0.2096 0.2077 0.2047
0.2189 0.2168 0.2136
0.2410 0.2382 0.2346
0.2757 0.2715 0.2674
0.3202 0.3142 0.3090
0.3719 0.3639 0.3574
0.4278 0.4181 0.4100
0.4852 0.4749 0.4656
0.5429 0.5323 0.5212
0.2788 0.2748 0.2705
0.2857 0.2815 0.2770
0.3025 0.2976 0.2928
0.3303 0.3241 0.3188
0.3678 0.3599 0.3539
0.4123 0.4030 0.3958
0.4620 0.4517 0.4432
0.5134 0.5029 0.4930
0.5682 0.5573 0.5454
0.3685 0.3619 0.3556
0.3738 0.3667 0.3603
0.3865 0.3787 0.3720
0.4078 0.3990 0.3920
0.4372 0.4275 0.4201
0.4733 0.4632 0.4552
0.5139 0.5034 0.4942
0.5597 0.5488 0.5376
0.6104 0.5992 0.5858
0.4660 0.4592 0.4511
0.4697 0.4628 0.4546
0.4790 0.4716 0.4633
0.4951 0.4866 0.4780
0.5184 0.5081 0.4989
0.5469 0.5363 0.5266
0.5821 0.5713 0.5606
0.6228 0.6114 0.5982
0.8219 0.6068 0.5591
0.5652 0.5582 0.5483
0.5682 0.5610 0.5510
0.5758 0.5681 0.5578
0.5890 0.5805 0.5698
0.6083 0.5986 0.5870
0.6352 0.6219 0.6085
0.6630 0.6514 0.6372
0.7360 0.6749 0.6508
0.9163 0.6656 0.6129
0.6694 0.6624 0.6483
0.6718 0.6646 0.6504
0.6778 0.6703 0.6558
0.6882 0.6803 0.6651
0.7037 0.6950 0.6786
0.7242 0.7145 0.6965
0.7499 0.7387 0.7186
0.7795 0.7676 0.7444
0.8127 0.8009 0.7689
0.7737 0.7672 0.7448
0.7756 0.7691 0.7464
0.7806 0.7738 0.7502
0.7892 0.7822 0.7566
0.8021 0.7945 0.7653
0.8192 0.8110 0.7756
0.8411 0.8319 0.7867
0.8673 0.8570 0.7972
0.8989 0.8858 0.8058
0.8798 0.8737 0.8029
0.8814 0.8753 0.8034
0.8856 0.8793 0.8045
0.8931 0.8864 0.8064
0.9041 0.8971 0.8088
0.9189 0.9114 0.8115
0.9377 0.9294 0.8141
0.9603 0.9513 0.8157
0.9870 0.9768 0.8145
0.2166 0.2147 0.2116
0.2256 0.2234 0.2202
0.2470 0.2442 0.2406
0.2808 0.2767 0.2725
0.3244 0.3186 0.3135
0.3754 0.3676 0.3612
0.4305 0.4213 0.4135
0.4873 0.4776 0.4688
0.5447 0.5346 0.5245
0.2454 0.2427 0.2391
0.2533 0.2504 0.2467
0.2724 0.2687 0.2646
0.3030 0.2981 0.2935
0.3437 0.3372 0.3317
0.3917 0.3834 0.3767
0.4442 0.4347 0.4268
0.4985 0.4887 0.4797
0.5545 0.5445 0.5341
0.3058 0.3011 0.2964
0.3120 0.3071 0.3022
0.3274 0.3218 0.3167
0.3530 0.3463 0.3407
0.3877 0.3796 0.3734
0.4295 0.4204 0.4131
0.4763 0.4668 0.4584
0.5255 0.5158 0.5064
0.5791 0.5691 0.5583
0.3887 0.3815 0.3749
0.3935 0.3860 0.3794
0.4053 0.3974 0.3905
0.4252 0.4167 0.4095
0.4530 0.4438 0.4363
0.4870 0.4775 0.4696
0.5260 0.5163 0.5075
0.5707 0.5608 0.5506
0.6200 0.6100 0.5980
0.4805 0.4736 0.4656
0.4841 0.4770 0.4688
0.4932 0.4853 0.4770
0.5086 0.4999 0.4912
0.5301 0.5209 0.5120
0.5582 0.5486 0.5392
0.5926 0.5827 0.5728
0.6320 0.6220 0.6101
0.6756 0.6652 0.6502
0.5762 0.5700 0.5603
0.5791 0.5728 0.5630
0.5864 0.5797 0.5697
0.5990 0.5919 0.5815
0.6178 0.6095 0.5984
0.6426 0.6327 0.6203
0.6713 0.6611 0.6473
0.7051 0.6944 0.6782
0.7435 0.7320 0.7117
0.6780 0.6718 0.6577
0.6804 0.6740 0.6598
0.6864 0.6796 0.6649
0.6968 0.6894 0.6739
0.7122 0.7038 0.6870
0.7328 0.7229 0.7043
0.7600 0.7463 0.7248
0.7874 0.7753 0.7506
0.8524 0.7997 0.7632
0.7819 0.7748 0.7510
0.7838 0.7766 0.7524
0.7887 0.7813 0.7560
0.7972 0.7895 0.7619
0.8100 0.8017 0.7700
0.8271 0.8180 0.7796
0.8489 0.8387 0.7898
0.8751 0.8635 0.7994
0.9047 0.8924 0.8076
0.8866 0.8802 0.8048
0.8883 0.8818 0.8052
0.8924 0.8858 0.8062
0.8998 0.8928 0.8079
0.9108 0.9034 0.8101
0.9255 0.9175 0.8125
0.9442 0.9354 0.8147
0.9668 0.9570 0.8157
0.9932 0.9823 0.8138
0.2590 0.2560 0.2522
0.2664 0.2632 0.2593
0.2845 0.2806 0.2763
0.3137 0.3087 0.3039
0.3529 0.3465 0.3408
0.3995 0.3915 0.3847
0.4508 0.4417 0.4339
0.5038 0.4945 0.4857
0.5592 0.5497 0.5396
0.2831 0.2794 0.2752
0.2899 0.2859 0.2816
0.3064 0.3017 0.2971
0.3337 0.3280 0.3228
0.3704 0.3634 0.3574
0.4145 0.4061 0.3991
0.4636 0.4544 0.4464
0.5145 0.5052 0.4963
0.5689 0.5594 0.5492
0.3362 0.3306 0.3254
0.3418 0.3360 0.3307
0.3557 0.3494 0.3438
0.3789 0.3717 0.3657
0.4108 0.4026 0.3960
0.4498 0.4409 0.4334
0.4933 0.4842 0.4759
0.5405 0.5312 0.5219
0.5927 0.5833 0.5726
0.4118 0.4043 0.3975
0.4162 0.4086 0.4017
0.4271 0.4192 0.4121
0.4457 0.4373 0.4300
0.4716 0.4630 0.4552
0.5035 0.4945 0.4864
0.5409 0.5318 0.5228
0.5845 0.5753 0.5651
0.6324 0.6230 0.6111
0.4981 0.4905 0.4823
0.5015 0.4938 0.4854
0.5098 0.5019 0.4934
0.5242 0.5159 0.5072
0.5449 0.5362 0.5273
0.5724 0.5635 0.5540
0.6058 0.5966 0.5864
0.6441 0.6347 0.6228
0.6864 0.6767 0.6621
0.5904 0.5841 0.5741
0.5931 0.5868 0.5767
0.6001 0.5935 0.5833
0.6124 0.6053 0.5946
0.6308 0.6225 0.6110
0.6540 0.6451 0.6326
0.6822 0.6728 0.6589
0.7152 0.7053 0.6893
0.7526 0.7422 0.7226
0.6890 0.6832 0.6687
0.6913 0.6854 0.6707
0.6970 0.6909 0.6758
0.7071 0.7005 0.6847
0.7219 0.7147 0.6977
0.7419 0.7335 0.7147
0.7672 0.7568 0.7358
0.7956 0.7849 0.7588
0.8285 0.8172 0.7793
0.7905 0.7844 0.7588
0.7924 0.7862 0.7601
0.7972 0.7908 0.7633
0.8058 0.7989 0.7686
0.8185 0.8108 0.7758
0.8358 0.8270 0.7844
0.8577 0.8473 0.7935
0.8856 0.8712 0.8017
0.9130 0.9003 0.8093
0.8952 0.8882 0.8068
0.8968 0.8897 0.8072
0.9010 0.8937 0.8081
0.9083 0.9007 0.8095
0.9191 0.9110 0.8114
0.9337 0.9250 0.8135
0.9523 0.9427 0.8153
0.9749 0.9641 0.8155
0.9998 0.9891 0.8129
0.3015 0.2973 0.2928
0.3079 0.3035 0.2988
0.3234 0.3184 0.3134
0.3491 0.3432 0.3377
0.3839 0.3769 0.3707
0.4261 0.4180 0.4109
0.4734 0.4649 0.4568
0.5228 0.5140 0.5052
0.5765 0.5675 0.5574
0.3222 0.3173 0.3125
0.3281 0.3230 0.3180
0.3426 0.3369 0.3317
0.3667 0.3603 0.3545
0.3997 0.3923 0.3858
0.4399 0.4317 0.4243
0.4849 0.4763 0.4683
0.5330 0.5242 0.5152
0.5859 0.5768 0.5666
0.3689 0.3627 0.3569
0.3739 0.3675 0.3617
0.3864 0.3795 0.3734
0.4074 0.3999 0.3934
0.4365 0.4284 0.4214
0.4724 0.4641 0.4563
0.5129 0.5043 0.4958
0.5584 0.5495 0.5400
0.6088 0.5998 0.5890
0.4375 0.4300 0.4229
0.4415 0.4339 0.4268
0.4516 0.4438 0.4365
0.4687 0.4608 0.4532
0.4924 0.4842 0.4764
0.5225 0.5140 0.5057
0.5588 0.5500 0.5408
0.6009 0.5921 0.5818
0.6471 0.6382 0.6259
0.5177 0.5102 0.5017
0.5209 0.5132 0.5048
0.5287 0.5210 0.5124
0.5424 0.5344 0.5256
0.5627 0.5545 0.5452
0.5892 0.5807 0.5710
0.6213 0.6127 0.6020
0.6583 0.6495 0.6369
0.6995 0.6903 0.6750
0.6070 0.6005 0.5901
0.6098 0.6030 0.5925
0.6167 0.6096 0.5988
0.6285 0.6210 0.6098
0.6457 0.6377 0.6257
0.6679 0.6596 0.6465
0.6953 0.6865 0.6719
0.7276 0.7183 0.7013
0.7641 0.7544 0.7341
0.7024 0.6966 0.6813
0.7046 0.6987 0.6832
0.7102 0.7041 0.6881
0.7200 0.7135 0.6968
0.7344 0.7273 0.7094
0.7542 0.7456 0.7261
0.7781 0.7687 0.7465
0.8061 0.7962 0.7671
0.8385 0.8281 0.7855
0.8014 0.7957 0.7668
0.8033 0.7974 0.7680
0.8079 0.8020 0.7709
0.8162 0.8099 0.7757
0.8286 0.8218 0.7822
0.8453 0.8378 0.7899
0.8667 0.8578 0.7978
0.8927 0.8817 0.8052
0.9211 0.9100 0.8113
0.9040 0.8980 0.8091
0.9056 0.8995 0.8094
0.9097 0.9034 0.8102
0.9169 0.9103 0.8114
0.9277 0.9205 0.8130
0.9424 0.9343 0.8146
0.9610 0.9517 0.8157
0.9837 0.9727 0.8149
0.9998 0.9980 0.8110
