EA 50 Cinematic Luts Pack/EA_Cinematic Lut (30).cube
TITLE "A very powerful colorization that emphasizes the shadows and midtones of the shot and cools down the whole look."
LUT_3D_SIZE 5
0.0000 0.0000 0.0000
0.0872 0.0000 0.0012
0.3038 0.0000 0.0053
0.6928 0.0000 0.0142
0.9997 0.0000 0.0263
0.0000 0.0901 0.0003
0.0870 0.0899 0.0000
0.3053 0.0887 0.0000
0.7032 0.0857 0.0000
1.0000 0.0896 0.0245
0.0000 0.4318 0.0012
0.0861 0.4323 0.0000
0.3046 0.4324 0.0000
0.6980 0.4318 0.0000
1.0000 0.4334 0.0269
0.0000 0.8026 0.0029
0.0856 0.8028 0.0000
0.3034 0.8026 0.0000
0.6954 0.8016 0.0000
0.9998 0.8009 0.0000
0.0000 0.9998 0.0059
0.0844 0.9998 0.0000
0.3014 0.9999 0.0000
0.6930 0.9998 0.0000
1.0000 0.9999 0.0027
0.0000 0.0000 0.1269
0.0875 0.0000 0.1272
0.3039 0.0000 0.1282
0.6931 0.0000 0.1314
0.9998 0.0000 0.1362
0.0000 0.0900 0.1270
0.0873 0.0894 0.1304
0.3162 0.0835 0.1264
0.7137 0.0806 0.1270
1.0000 0.0896 0.1365
0.0000 0.4319 0.1265
0.0863 0.4320 0.1297
0.3051 0.4321 0.1290
0.7069 0.4276 0.1206
1.0000 0.4332 0.1382
0.0000 0.8026 0.1273
0.0653 0.8064 0.1080
0.2928 0.8060 0.0996
0.6979 0.8028 0.0854
0.9999 0.8008 0.1253
0.0000 0.9998 0.1283
0.0805 1.0000 0.1220
0.3001 1.0000 0.1232
0.6922 0.9999 0.1233
1.0000 0.9999 0.1277
0.0000 0.0000 0.3987
0.0874 0.0000 0.3985
0.3038 0.0000 0.3960
0.6938 0.0000 0.3985
0.9998 0.0000 0.4045
0.0000 0.0898 0.3963
0.0819 0.0831 0.4622
0.3162 0.0813 0.4152
0.7147 0.0791 0.4070
1.0000 0.0898 0.4054
0.0000 0.4320 0.3976
0.0833 0.4333 0.4005
0.3056 0.4305 0.4104
0.6966 0.4306 0.4143
1.0000 0.4333 0.4050
0.0000 0.8026 0.3975
0.0607 0.8067 0.3871
0.2989 0.8035 0.4026
0.6980 0.8014 0.3914
1.0000 0.8006 0.3974
0.0000 0.9998 0.3962
0.0810 1.0000 0.3921
0.3005 1.0000 0.3931
0.6923 1.0000 0.3942
1.0000 0.9999 0.3971
0.0000 0.0000 0.7658
0.0868 0.0000 0.7651
0.3033 0.0000 0.7637
0.6946 0.0000 0.7645
0.9999 0.0000 0.7663
0.0000 0.0895 0.7634
0.0665 0.0659 0.8723
0.3192 0.0709 0.8106
0.7123 0.0785 0.7782
0.9999 0.0907 0.7667
0.0000 0.4321 0.7655
0.0770 0.4328 0.7782
0.3038 0.4278 0.7853
0.7089 0.4222 0.7793
1.0000 0.4332 0.7677
0.0000 0.8021 0.7667
0.0536 0.8061 0.7721
0.2892 0.8042 0.7738
0.6967 0.7993 0.7800
0.9997 0.8002 0.7657
0.0000 0.9997 0.7651
0.0806 0.9999 0.7638
0.3006 1.0000 0.7635
0.6926 0.9997 0.7635
0.9999 0.9998 0.7647
0.0000 0.0000 0.9988
0.0864 0.0000 0.9991
0.3037 0.0000 0.9994
0.6941 0.0000 0.9998
0.9999 0.0000 1.0000
0.0000 0.0896 0.9994
0.0866 0.0895 1.0000
0.3041 0.0897 1.0000
0.6944 0.0907 0.9999
0.9999 0.0918 1.0000
0.0000 0.4326 1.0000
0.0874 0.4327 1.0000
0.3048 0.4332 1.0000
0.6956 0.4342 1.0000
0.9999 0.4334 1.0000
0.0000 0.8016 0.9999
0.0893 0.8017 0.9999
0.3045 0.8017 1.0000
0.6944 0.8011 0.9997
0.9998 0.8005 0.9999
0.0077 0.9995 1.0000
0.0982 0.9995 1.0000
0.3108 0.9996 1.0000
0.6991 0.9996 0.9998
1.0000 1.0000 0.9999
