EA 50 Cinematic Luts Pack/EA_Cinematic Lut (17).cube
TITLE "Generated by Resolve"
LUT_3D_SIZE 5
0 0 0
0.196384 0 0.0610971
0.560204 0 0.0951095
0.939452 0 0.127398
1 0 0.153765
0.00115969 0.195346 0
0.118837 0.228458 0.012192
0.453727 0.195468 0
0.840909 0.14638 0
1 0.0946975 0.021149
0.0546273 0.455726 0
0.131411 0.494682 0.00195315
0.382071 0.489921 0
0.730907 0.452918 0
1 0.398123 0
0.128176 0.706096 0
0.183551 0.748867 0
0.384833 0.758862 0.00175479
0.681697 0.740536 0
1 0.701137 0
0.20325 0.955856 0
0.249775 0.999832 0
0.415946 1 0.0126497
0.68249 1 0
1 0.984634 0
0 0 0.254932
0.124239 0 0.306981
0.50927 0 0.43566
0.890486 0 0.478004
1 0 0.509056
0 0.23769 0.0478676
0.115587 0.230228 0.286656
0.432456 0.194873 0.326696
0.819623 0.135622 0.342855
1 0.0869459 0.369574
0.0742199 0.469596 0
0.206073 0.474647 0.25594
0.376257 0.489128 0.299123
0.734188 0.437995 0.244282
1 0.379721 0.256687
0.190555 0.706691 0
0.265904 0.735332 0.194583
0.396231 0.756695 0.2963
0.674769 0.738628 0.255268
1 0.690959 0.204257
0.283803 0.95021 0
0.342123 0.984634 0.149615
0.452033 1 0.285283
0.683574 1 0.288853
0.997696 0.982605 0.233692
0 0 0.52755
0.139086 0 0.546883
0.416342 0 0.602258
0.829725 0 0.739544
1 0 0.801419
0 0.292714 0.309911
0.0979171 0.245792 0.513909
0.367987 0.226795 0.542229
0.770489 0.142321 0.647196
1 0.0903182 0.683268
0 0.542748 0.0948959
0.132616 0.521721 0.320104
0.377234 0.495125 0.539788
0.717433 0.441932 0.56199
1 0.368032 0.5635
0.0896315 0.762005 0.0225376
0.29015 0.753872 0.27332
0.474067 0.739849 0.515435
0.673182 0.742061 0.546349
1 0.675975 0.476539
0.246525 0.986816 0
0.408698 0.989425 0.237781
0.538613 1 0.458778
0.698894 1 0.549279
0.9935 0.983444 0.498131
0 0 0.764446
0.140902 0 0.791592
0.400763 0 0.784222
0.725856 0 0.859663
1 0 1
0 0.305272 0.600534
0.0780804 0.25922 0.77789
0.396384 0.244129 0.781567
0.689372 0.198184 0.811505
1 0.108827 0.932311
0 0.605234 0.296284
0 0.582086 0.573373
0.365026 0.516182 0.758434
0.65893 0.479805 0.769375
1 0.374823 0.853834
0 0.838834 0.124895
0.11957 0.83006 0.362371
0.403601 0.789914 0.56849
0.676646 0.750561 0.775418
1 0.682719 0.782971
0.0946517 1 0.0464485
0.310292 1 0.291691
0.565789 1 0.526345
0.778195 0.996246 0.755779
0.994415 0.98938 0.777615
0 0 0.99469
0.132403 0 1
0.415305 0 1
0.698039 0 1
1 0 1
0 0.3131 0.861448
0.0558328 0.270222 1
0.39939 0.247852 1
0.688991 0.238468 0.999878
1 0.176822 1
0 0.639048 0.571054
0 0.595804 0.856397
0.350286 0.534676 1
0.700465 0.510292 1
0.997406 0.4421 1
0 0.90695 0.299718
0 0.893767 0.556191
0.248081 0.855222 0.817929
0.669535 0.776699 0.990356
0.975448 0.726162 0.987121
0 1 0.149767
0.12163 1 0.386908
0.397864 1 0.609277
0.710338 1 0.80264
1 1 1
