EA 50 Cinematic Luts Pack/EA_Cinematic Lut (10).cube
TITLE "Generated by Resolve"
LUT_3D_SIZE 5
0.0273442 0.0602731 0.0247196
0.282673 0.0497749 0
0.561975 0.0587625 0
0.825086 0.066804 0
1 0.0798047 0
0.138094 0.163806 0.148974
0.297047 0.200702 0.0905318
0.609979 0.242008 0
0.897231 0.270924 0
1 0.306157 0
0.272908 0.366827 0.300496
0.404791 0.438956 0.331823
0.70367 0.533089 0.258701
1 0.590555 0.144991
1 0.635737 0.0360723
0.465888 0.630533 0.507988
0.585275 0.700511 0.564202
0.805859 0.798215 0.527367
1 0.877714 0.438117
1 0.926528 0.312764
0.643671 0.879973 0.698878
0.737835 0.928344 0.747005
0.900954 0.986969 0.706264
1 1 0.615244
1 1 0.490959
0 0.131228 0.0147097
0.209461 0.064744 0.0649424
0.505302 0.070222 0
0.775219 0.0793622 0
1 0.0930037 0
0.0391852 0.21268 0.10425
0.257679 0.192706 0.209857
0.57052 0.234989 0.106004
0.876814 0.286198 0.0115358
1 0.323323 0
0.253086 0.39855 0.280568
0.40444 0.431418 0.415167
0.662852 0.525582 0.375586
1 0.613062 0.301442
1 0.656168 0.197208
0.474525 0.654765 0.503563
0.600397 0.698146 0.626581
0.789471 0.790066 0.641093
1 0.896956 0.581842
1 0.945541 0.459068
0.657557 0.894606 0.696803
0.750881 0.920287 0.790402
0.884428 0.968246 0.790478
1 1 0.728878
1 1 0.622797
0 0.201892 0.0689555
0.019852 0.121294 0.226978
0.39791 0.0833448 0.153597
0.694804 0.0876936 0.0112764
0.968551 0.105287 0
0 0.291875 0.126879
0.0825818 0.257404 0.304128
0.480339 0.234073 0.32343
0.811109 0.290288 0.222309
1 0.33637 0.121492
0.0961471 0.476204 0.286046
0.341512 0.477501 0.451026
0.606546 0.49984 0.544869
0.949523 0.587549 0.486915
1 0.669001 0.422995
0.383963 0.713512 0.514366
0.599359 0.718868 0.67631
0.771084 0.762921 0.773053
1 0.866209 0.742428
1 0.956374 0.669963
0.605219 0.932113 0.713283
0.759274 0.925002 0.841657
0.879942 0.943572 0.896651
1 1 0.884153
1 1 0.820172
0 0.272938 0.125261
0 0.195651 0.30898
0.212558 0.132204 0.342947
0.568399 0.107988 0.252903
0.873213 0.116396 0.124605
0 0.370535 0.17261
0 0.330892 0.362829
0.287373 0.289296 0.493217
0.685115 0.29163 0.456748
1 0.33753 0.35935
0 0.567132 0.314031
0.136309 0.564431 0.485328
0.432761 0.569055 0.652949
0.837522 0.570031 0.69398
1 0.653941 0.623896
0.206149 0.79884 0.523308
0.444968 0.793561 0.681712
0.701823 0.80322 0.806729
0.942016 0.812726 0.889113
1 0.891936 0.822934
0.464622 0.996994 0.710933
0.666667 0.966873 0.844022
0.864561 0.948562 0.93434
0.998383 0.959091 0.991638
1 1 0.955474
0 0.344671 0.182605
0 0.270253 0.372976
0 0.203113 0.466209
0.384115 0.157198 0.451896
0.7355 0.145663 0.366827
0 0.448341 0.227192
0 0.408515 0.426047
0.0759442 0.371145 0.585748
0.494255 0.343923 0.644968
0.878782 0.355627 0.597223
0 0.657679 0.358068
0 0.651148 0.543862
0.24387 0.64741 0.716686
0.631785 0.624277 0.852293
1 0.636149 0.837201
0 0.890593 0.549187
0.236225 0.883375 0.709392
0.486839 0.884215 0.83566
0.751202 0.876051 0.97293
1 0.846876 1
0.267216 1 0.712688
0.474983 1 0.840024
0.692988 1 0.926192
0.906584 0.990784 1
1 0.973053 1
