EA 50 Cinematic Luts Pack/EA_Cinematic Lut (29).cube
TITLE "This spectacular grade will extract the saturation of the warm hues and turn your shot into a fantasy tale."
LUT_3D_SIZE 9
0.0000 0.0000 0.0000
0.0919 0.0000 0.0020
0.2226 0.0000 0.0070
0.3786 0.0000 0.0159
0.5515 0.0000 0.0293
0.7460 0.0000 0.0462
0.8902 0.0000 0.0635
0.9669 0.0000 0.0805
0.9998 0.0000 0.0973
0.0447 0.0595 0.0362
0.1043 0.0652 0.0052
0.2411 0.0603 0.0000
0.3978 0.0555 0.0000
0.5776 0.0480 0.0000
0.7708 0.0391 0.0000
0.9053 0.0284 0.0000
0.9756 0.0141 0.0000
1.0000 0.0632 0.1034
0.1181 0.1735 0.0935
0.1537 0.1786 0.0786
0.2481 0.1853 0.0186
0.4127 0.1784 0.0000
0.5920 0.1729 0.0000
0.7805 0.1677 0.0000
0.9104 0.1591 0.0000
0.9781 0.1485 0.0000
1.0000 0.1888 0.1275
0.2076 0.3059 0.1462
0.2334 0.3097 0.1385
0.2982 0.3179 0.1136
0.4189 0.3250 0.0416
0.6120 0.3174 0.0000
0.7976 0.3112 0.0000
0.9175 0.3059 0.0000
0.9806 0.3004 0.0000
1.0000 0.3333 0.1584
0.3103 0.4486 0.1955
0.3304 0.4514 0.1905
0.3807 0.4579 0.1762
0.4687 0.4672 0.1434
0.6178 0.4732 0.0675
0.8107 0.4658 0.0000
0.9262 0.4590 0.0000
0.9850 0.4530 0.0000
1.0000 0.4837 0.2037
0.4218 0.5879 0.2453
0.4381 0.5899 0.2413
0.4781 0.5947 0.2308
0.5524 0.6020 0.2092
0.6705 0.6114 0.1698
0.8134 0.6168 0.0930
0.9318 0.6096 0.0000
0.9880 0.6023 0.0000
0.9999 0.6261 0.2668
0.5416 0.7167 0.2994
0.5566 0.7181 0.2960
0.5948 0.7215 0.2872
0.6612 0.7271 0.2700
0.7498 0.7343 0.2409
0.8468 0.7422 0.1943
0.9321 0.7458 0.1173
0.9899 0.7393 0.0000
1.0000 0.7534 0.3526
0.6782 0.8274 0.3555
0.6903 0.8284 0.3526
0.7196 0.8310 0.3453
0.7667 0.8353 0.3314
0.8290 0.8412 0.3081
0.8937 0.8482 0.2721
0.9472 0.8556 0.2180
0.9900 0.8587 0.1404
1.0000 0.8643 0.4752
0.8582 0.9194 0.5001
0.8634 0.9203 0.4993
0.8760 0.9228 0.4972
0.8954 0.9270 0.4932
0.9192 0.9333 0.4853
0.9464 0.9417 0.4698
0.9733 0.9520 0.4369
0.9949 0.9641 0.3398
0.9995 0.9643 0.7777
0.0107 0.0019 0.0610
0.0923 0.0000 0.1064
0.2238 0.0000 0.1056
0.3795 0.0000 0.1066
0.5521 0.0000 0.1117
0.7465 0.0000 0.1178
0.8904 0.0000 0.1255
0.9670 0.0000 0.1342
0.9999 0.0000 0.1436
0.0404 0.0624 0.1024
0.1044 0.0655 0.1066
0.2558 0.0541 0.0936
0.4310 0.0342 0.0761
0.6344 0.0030 0.0394
0.8013 0.0000 0.0491
0.9149 0.0000 0.0659
0.9778 0.0000 0.0825
1.0000 0.0643 0.1447
0.0956 0.1805 0.1160
0.1586 0.1777 0.1347
0.2480 0.1856 0.1113
0.4289 0.1731 0.0689
0.6370 0.1522 0.0000
0.8156 0.1382 0.0000
0.9267 0.1251 0.0000
0.9849 0.1113 0.0000
1.0000 0.1896 0.1604
0.1879 0.3117 0.1561
0.2379 0.3090 0.1720
0.2997 0.3179 0.1527
0.4189 0.3252 0.1195
0.6281 0.3137 0.0390
0.8170 0.3015 0.0000
0.9279 0.2928 0.0000
0.9858 0.2828 0.0000
1.0000 0.3338 0.1844
0.2952 0.4528 0.2024
0.3341 0.4509 0.2141
0.3831 0.4576 0.2011
0.4694 0.4674 0.1733
0.6177 0.4733 0.1306
0.8207 0.4633 0.0017
0.9326 0.4538 0.0000
0.9880 0.4456 0.0000
1.0000 0.4842 0.2215
0.4098 0.5909 0.2509
0.4411 0.5895 0.2607
0.4806 0.5944 0.2502
0.5539 0.6020 0.2298
0.6709 0.6116 0.1942
0.8134 0.6169 0.1440
0.9353 0.6081 0.0000
0.9899 0.5993 0.0000
0.9999 0.6266 0.2802
0.5307 0.7188 0.3042
0.5594 0.7178 0.3124
0.5974 0.7212 0.3037
0.6629 0.7269 0.2872
0.7505 0.7343 0.2591
0.8470 0.7423 0.2152
0.9321 0.7459 0.1588
0.9909 0.7385 0.0000
1.0000 0.7537 0.3616
0.6690 0.8290 0.3595
0.6925 0.8282 0.3664
0.7216 0.8308 0.3592
0.7682 0.8351 0.3457
0.8297 0.8412 0.3232
0.8939 0.8482 0.2884
0.9473 0.8558 0.2366
0.9900 0.8588 0.1748
1.0000 0.8647 0.4803
0.8582 0.9195 0.5074
0.8635 0.9204 0.5068
0.8759 0.9229 0.5047
0.8953 0.9271 0.5010
0.9191 0.9335 0.4934
0.9462 0.9418 0.4787
0.9731 0.9522 0.4474
0.9947 0.9644 0.3559
0.9995 0.9647 0.7819
0.0381 0.0071 0.1327
0.0991 0.0032 0.1787
0.2237 0.0000 0.2002
0.3797 0.0000 0.1998
0.5536 0.0000 0.1978
0.7480 0.0000 0.1981
0.8912 0.0000 0.2022
0.9673 0.0000 0.2075
0.9999 0.0000 0.2133
0.0600 0.0575 0.2007
0.1181 0.0663 0.1794
0.2334 0.0640 0.2014
0.4025 0.0520 0.2009
0.6076 0.0242 0.1934
0.8004 0.0000 0.1870
0.9149 0.0000 0.1871
0.9778 0.0000 0.1899
1.0000 0.0659 0.2144
0.1085 0.1797 0.1938
0.1531 0.1818 0.1963
0.2482 0.1858 0.1998
0.4240 0.1746 0.1913
0.6329 0.1540 0.1767
0.8276 0.1258 0.1623
0.9413 0.0831 0.1403
0.9943 0.0180 0.1032
1.0000 0.1914 0.2190
0.1806 0.3156 0.2053
0.2107 0.3184 0.2055
0.3073 0.3164 0.2228
0.4187 0.3257 0.2032
0.6297 0.3135 0.1771
0.8313 0.2935 0.1496
0.9457 0.2646 0.1082
0.9965 0.2236 0.0033
1.0000 0.3350 0.2365
0.2532 0.4635 0.2189
0.2979 0.4612 0.2310
0.3909 0.4563 0.2562
0.4715 0.4675 0.2310
0.6175 0.4736 0.2094
0.8214 0.4633 0.1690
0.9414 0.4457 0.1195
0.9951 0.4223 0.0000
1.0000 0.4854 0.2623
0.3775 0.5986 0.2647
0.4115 0.5970 0.2748
0.4875 0.5934 0.2970
0.5580 0.6016 0.2783
0.6721 0.6119 0.2450
0.8132 0.6171 0.2171
0.9363 0.6078 0.1620
0.9933 0.5925 0.0740
0.9999 0.6276 0.3122
0.5034 0.7243 0.3160
0.5321 0.7230 0.3242
0.6043 0.7205 0.3434
0.6676 0.7265 0.3283
0.7525 0.7343 0.3019
0.8474 0.7426 0.2616
0.9320 0.7460 0.2262
0.9914 0.7382 0.1572
1.0000 0.7546 0.3840
0.6451 0.8329 0.3694
0.6702 0.8321 0.3763
0.7267 0.8303 0.3928
0.7720 0.8347 0.3803
0.8319 0.8409 0.3591
0.8946 0.8483 0.3269
0.9474 0.8560 0.2797
0.9900 0.8589 0.2371
0.9999 0.8656 0.4931
0.8585 0.9199 0.5245
0.8636 0.9208 0.5246
0.8759 0.9231 0.5238
0.8951 0.9274 0.5202
0.9188 0.9338 0.5136
0.9458 0.9423 0.5004
0.9726 0.9527 0.4726
0.9943 0.9649 0.3933
0.9995 0.9657 0.7924
0.0741 0.0175 0.1970
0.1181 0.0149 0.2302
0.2332 0.0003 0.2838
0.3795 0.0000 0.2965
0.5529 0.0000 0.2959
0.7485 0.0000 0.2940
0.8920 0.0000 0.2928
0.9678 0.0000 0.2931
1.0000 0.0008 0.2975
0.0999 0.0534 0.2791
0.1433 0.0711 0.2425
0.2411 0.0657 0.2818
0.3884 0.0612 0.2987
0.5706 0.0526 0.2985
0.7832 0.0225 0.2964
0.9147 0.0000 0.2898
0.9780 0.0000 0.2876
1.0000 0.0690 0.2992
0.1329 0.1754 0.2884
0.1713 0.1769 0.2954
0.2608 0.1866 0.2739
0.3983 0.1846 0.2961
0.5954 0.1712 0.2968
0.8031 0.1486 0.2905
0.9309 0.1128 0.2809
0.9908 0.0575 0.2688
1.0000 0.1930 0.3037
0.1921 0.3158 0.2861
0.2256 0.3174 0.2879
0.3019 0.3211 0.2918
0.4193 0.3261 0.2961
0.6216 0.3155 0.2883
0.8253 0.2969 0.2727
0.9415 0.2722 0.2579
0.9945 0.2406 0.2426
1.0000 0.3372 0.3100
0.2789 0.4607 0.2996
0.3034 0.4624 0.3007
0.3597 0.4670 0.3019
0.4802 0.4654 0.3203
0.6172 0.4741 0.3005
0.8234 0.4628 0.2731
0.9421 0.4449 0.2516
0.9953 0.4209 0.2259
1.0000 0.4870 0.3293
0.3585 0.6041 0.3143
0.3779 0.6056 0.3140
0.4408 0.6061 0.3228
0.5703 0.5997 0.3540
0.6747 0.6122 0.3222
0.8131 0.6174 0.3059
0.9367 0.6077 0.2685
0.9936 0.5922 0.2356
1.0000 0.6294 0.3634
0.4531 0.7340 0.3361
0.4833 0.7326 0.3445
0.5582 0.7294 0.3641
0.6782 0.7252 0.3932
0.7568 0.7339 0.3695
0.8483 0.7430 0.3319
0.9319 0.7462 0.3130
0.9916 0.7382 0.2645
1.0000 0.7561 0.4213
0.5985 0.8398 0.3864
0.6266 0.8390 0.3934
0.6910 0.8370 0.4101
0.7799 0.8338 0.4356
0.8360 0.8404 0.4175
0.8960 0.8483 0.3872
0.9477 0.8565 0.3452
0.9896 0.8590 0.3333
0.9998 0.8671 0.5159
0.8596 0.9207 0.5521
0.8645 0.9216 0.5528
0.8764 0.9239 0.5540
0.8951 0.9280 0.5535
0.9185 0.9344 0.5480
0.9449 0.9428 0.5369
0.9716 0.9535 0.5138
0.9936 0.9658 0.4506
0.9996 0.9676 0.8110
0.1173 0.0325 0.2630
0.1511 0.0311 0.2899
0.2423 0.0189 0.3454
0.3878 0.0000 0.3903
0.5529 0.0000 0.4009
0.7482 0.0000 0.4015
0.8919 0.0000 0.4002
0.9679 0.0000 0.3987
1.0000 0.0034 0.3976
0.1449 0.0640 0.3332
0.1760 0.0813 0.3072
0.2563 0.0771 0.3493
0.3969 0.0604 0.3931
0.5628 0.0585 0.4037
0.7590 0.0539 0.4040
0.9065 0.0238 0.4047
0.9777 0.0000 0.4003
1.0000 0.0724 0.3978
0.1629 0.1643 0.4078
0.2040 0.1666 0.4053
0.2853 0.1882 0.3505
0.4082 0.1842 0.3886
0.5749 0.1814 0.4038
0.7761 0.1709 0.4056
0.9156 0.1479 0.4035
0.9853 0.1053 0.3972
1.0000 0.1958 0.3985
0.2215 0.3117 0.3873
0.2498 0.3134 0.3914
0.3175 0.3166 0.4022
0.4306 0.3274 0.3789
0.5897 0.3258 0.4008
0.7980 0.3114 0.4023
0.9278 0.2921 0.3961
0.9899 0.2636 0.3860
1.0000 0.3391 0.4039
0.2880 0.4617 0.3886
0.3145 0.4629 0.3900
0.3770 0.4656 0.3934
0.4759 0.4699 0.3975
0.6182 0.4744 0.4017
0.8157 0.4651 0.3951
0.9381 0.4491 0.3813
0.9874 0.4498 0.3778
1.0000 0.4891 0.4114
0.3860 0.6017 0.4018
0.4062 0.6029 0.4028
0.4546 0.6058 0.4052
0.5313 0.6110 0.4063
0.6850 0.6098 0.4239
0.8128 0.6178 0.4073
0.9380 0.6071 0.3779
0.9875 0.6052 0.3884
1.0000 0.6318 0.4305
0.4721 0.7328 0.4171
0.4881 0.7336 0.4172
0.5290 0.7357 0.4169
0.6193 0.7373 0.4249
0.7683 0.7318 0.4569
0.8500 0.7432 0.4205
0.9318 0.7465 0.4103
0.9861 0.7439 0.4202
1.0000 0.7583 0.4725
0.5629 0.8455 0.4315
0.5786 0.8463 0.4311
0.6272 0.8471 0.4349
0.7359 0.8433 0.4616
0.8450 0.8387 0.4925
0.8986 0.8478 0.4658
0.9482 0.8570 0.4257
0.9841 0.8596 0.5080
0.9996 0.8694 0.5504
0.8625 0.9222 0.5876
0.8672 0.9231 0.5890
0.8785 0.9253 0.5922
0.8961 0.9293 0.5964
0.9185 0.9355 0.5975
0.9444 0.9440 0.5894
0.9704 0.9546 0.5712
0.9924 0.9670 0.5220
0.9996 0.9703 0.8384
0.1648 0.0519 0.3349
0.1923 0.0510 0.3563
0.2655 0.0426 0.4047
0.3975 0.0155 0.4651
0.5613 0.0000 0.4966
0.7487 0.0000 0.5071
0.8915 0.0000 0.5085
0.9678 0.0000 0.5075
0.9999 0.0035 0.5056
0.1906 0.0809 0.3928
0.2153 0.0965 0.3743
0.2823 0.0935 0.4131
0.4053 0.0769 0.4657
0.5748 0.0529 0.5028
0.7572 0.0558 0.5106
0.8959 0.0557 0.5105
0.9736 0.0271 0.5120
1.0000 0.0726 0.5056
0.2152 0.1563 0.4965
0.2516 0.1687 0.4694
0.3163 0.1937 0.4232
0.4238 0.1900 0.4658
0.5856 0.1796 0.5010
0.7663 0.1785 0.5117
0.9037 0.1710 0.5128
0.9777 0.1493 0.5128
1.0000 0.1961 0.5056
0.2501 0.3041 0.5028
0.2781 0.3047 0.5081
0.3469 0.3058 0.5190
0.4547 0.3281 0.4600
0.6037 0.3237 0.4974
0.7776 0.3226 0.5103
0.9138 0.3102 0.5133
0.9830 0.2914 0.5109
1.0000 0.3402 0.5060
0.3224 0.4574 0.4892
0.3449 0.4587 0.4917
0.3993 0.4618 0.4983
0.4885 0.4655 0.5107
0.6292 0.4759 0.4858
0.7902 0.4749 0.5073
0.9255 0.4604 0.5081
0.9847 0.4557 0.5021
1.0000 0.4906 0.5068
0.3924 0.6030 0.4920
0.4139 0.6038 0.4931
0.4659 0.6058 0.4956
0.5539 0.6087 0.4994
0.6814 0.6134 0.5039
0.8135 0.6180 0.5084
0.9329 0.6093 0.5021
0.9812 0.6166 0.5005
0.9996 0.6339 0.5140
0.4982 0.7306 0.5046
0.5156 0.7312 0.5054
0.5608 0.7328 0.5074
0.6382 0.7360 0.5107
0.7322 0.7417 0.5118
0.8562 0.7406 0.5275
0.9313 0.7465 0.5141
0.9819 0.7491 0.5176
0.9995 0.7606 0.5378
0.5985 0.8428 0.5194
0.6145 0.8434 0.5197
0.6533 0.8451 0.5203
0.7141 0.8483 0.5208
0.8236 0.8451 0.5484
0.9007 0.8460 0.5689
0.9449 0.8593 0.5139
0.9813 0.8628 0.5887
0.9997 0.8724 0.5995
0.8794 0.9212 0.6411
0.8824 0.9224 0.6418
0.8896 0.9254 0.6433
0.9009 0.9308 0.6452
0.9200 0.9373 0.6530
0.9443 0.9455 0.6578
0.9694 0.9563 0.6445
0.9909 0.9688 0.6092
0.9997 0.9741 0.8739
0.2161 0.0767 0.4089
0.2391 0.0760 0.4259
0.3001 0.0702 0.4664
0.4116 0.0484 0.5252
0.5770 0.0063 0.5872
0.7555 0.0000 0.6133
0.8920 0.0000 0.6249
0.9676 0.0000 0.6270
0.9998 0.0033 0.6254
0.2395 0.1017 0.4565
0.2601 0.1156 0.4426
0.3172 0.1135 0.4766
0.4225 0.1008 0.5291
0.5828 0.0705 0.5872
0.7690 0.0441 0.6235
0.8967 0.0524 0.6294
0.9692 0.0571 0.6286
0.9998 0.0718 0.6254
0.2731 0.1655 0.5520
0.2995 0.1777 0.5307
0.3530 0.2034 0.4928
0.4471 0.2005 0.5357
0.5966 0.1885 0.5857
0.7759 0.1739 0.6225
0.9011 0.1756 0.6310
0.9728 0.1718 0.6315
0.9999 0.1957 0.6254
0.2892 0.2888 0.6403
0.3172 0.2883 0.6471
0.3932 0.3043 0.5979
0.4837 0.3306 0.5379
0.6202 0.3278 0.5821
0.7873 0.3196 0.6199
0.9069 0.3194 0.6310
0.9776 0.3092 0.6337
0.9999 0.3400 0.6253
0.3509 0.4515 0.6103
0.3728 0.4524 0.6141
0.4263 0.4542 0.6242
0.5173 0.4561 0.6389
0.6545 0.4761 0.5714
0.8028 0.4716 0.6159
0.9131 0.4723 0.6274
0.9817 0.4613 0.6312
0.9998 0.4904 0.6249
0.4311 0.5987 0.5986
0.4497 0.5997 0.6005
0.4943 0.6018 0.6053
0.5756 0.6054 0.6148
0.6924 0.6096 0.6317
0.8202 0.6194 0.6012
0.9193 0.6186 0.6246
0.9776 0.6216 0.6206
0.9995 0.6347 0.6243
0.5023 0.7318 0.6032
0.5210 0.7323 0.6040
0.5695 0.7335 0.6062
0.6523 0.7359 0.6103
0.7551 0.7391 0.6150
0.8548 0.7433 0.6207
0.9251 0.7500 0.6254
0.9787 0.7536 0.6223
0.9996 0.7629 0.6293
0.6263 0.8416 0.6168
0.6425 0.8421 0.6177
0.6817 0.8434 0.6197
0.7511 0.8445 0.6248
0.8463 0.8429 0.6384
0.8956 0.8507 0.6462
0.9411 0.8593 0.6547
0.9792 0.8678 0.6643
0.9997 0.8759 0.6718
0.8980 0.9202 0.7206
0.9006 0.9213 0.7222
0.9069 0.9241 0.7261
0.9174 0.9292 0.7326
0.9314 0.9368 0.7415
0.9473 0.9474 0.7495
0.9691 0.9582 0.7617
0.9895 0.9711 0.7327
0.9998 0.9789 0.9152
0.2705 0.1036 0.4824
0.2905 0.1032 0.4965
0.3424 0.0995 0.5314
0.4377 0.0845 0.5899
0.5874 0.0469 0.6672
0.7704 0.0000 0.7581
0.8957 0.0000 0.7935
0.9680 0.0000 0.8124
0.9999 0.0021 0.8155
0.2917 0.1253 0.5228
0.3093 0.1377 0.5117
0.3589 0.1363 0.5428
0.4504 0.1272 0.5969
0.5957 0.1019 0.6699
0.7758 0.0593 0.7624
0.9040 0.0342 0.8142
0.9705 0.0484 0.8208
0.9999 0.0711 0.8156
0.3287 0.1809 0.6160
0.3496 0.1923 0.5986
0.3950 0.2173 0.5645
0.4777 0.2150 0.6098
0.6150 0.2041 0.6737
0.7833 0.1829 0.7595
0.9071 0.1673 0.8135
0.9726 0.1726 0.8236
1.0000 0.1953 0.8156
0.3503 0.2788 0.8053
0.3802 0.2878 0.7652
0.4407 0.3078 0.6890
0.5192 0.3368 0.6197
0.6456 0.3341 0.6775
0.7957 0.3257 0.7526
0.9122 0.3147 0.8115
0.9754 0.3162 0.8250
1.0000 0.3398 0.8156
0.3873 0.4408 0.8133
0.4088 0.4411 0.8212
0.4621 0.4412 0.8415
0.5639 0.4529 0.7789
0.6858 0.4775 0.6699
0.8138 0.4751 0.7427
0.9192 0.4680 0.8065
0.9784 0.4689 0.8224
0.9999 0.4898 0.8153
0.4606 0.5943 0.7716
0.4779 0.5950 0.7760
0.5224 0.5966 0.7876
0.6051 0.5991 0.8107
0.7242 0.6057 0.7937
0.8353 0.6151 0.7711
0.9249 0.6143 0.8153
0.9742 0.6276 0.7979
0.9996 0.6343 0.8144
0.5471 0.7281 0.7567
0.5647 0.7287 0.7591
0.6087 0.7303 0.7654
0.6810 0.7330 0.7771
0.7849 0.7360 0.7626
0.8580 0.7444 0.7767
0.9218 0.7534 0.7868
0.9743 0.7586 0.8005
0.9997 0.7633 0.8129
0.6293 0.8432 0.7650
0.6464 0.8437 0.7663
0.6875 0.8447 0.7697
0.7800 0.8429 0.7662
0.8664 0.8423 0.7640
0.9107 0.8495 0.7749
0.9437 0.8613 0.7946
0.9760 0.8732 0.8135
0.9998 0.8789 0.8172
0.9121 0.9214 0.8176
0.9146 0.9224 0.8195
0.9207 0.9250 0.8244
0.9308 0.9297 0.8329
0.9442 0.9367 0.8453
0.9594 0.9463 0.8616
0.9745 0.9588 0.8793
0.9888 0.9737 0.8923
0.9999 0.9848 0.9574
0.3280 0.1321 0.5589
0.3456 0.1320 0.5722
0.3910 0.1296 0.6056
0.4737 0.1195 0.6670
0.6090 0.0924 0.7803
0.7785 0.0381 0.9033
0.9030 0.0000 0.9646
0.9698 0.0000 0.9865
1.0000 0.0057 0.9966
0.3475 0.1514 0.5976
0.3651 0.1506 0.6110
0.4112 0.1473 0.6444
0.4944 0.1351 0.7201
0.6349 0.1052 0.8392
0.8001 0.0455 0.9467
0.9155 0.0000 0.9959
0.9736 0.0316 1.0000
1.0000 0.0747 0.9967
0.3850 0.2006 0.7015
0.4026 0.1991 0.7217
0.4497 0.1930 0.7752
0.5389 0.1768 0.8625
0.6883 0.1399 0.9587
0.8253 0.1277 0.9931
0.9172 0.1453 1.0000
0.9736 0.1714 1.0000
1.0000 0.1974 0.9968
0.4190 0.2869 0.9124
0.4363 0.2850 0.9292
0.4822 0.2828 0.9546
0.5708 0.2873 0.9644
0.7003 0.2914 0.9772
0.8255 0.2973 0.9903
0.9177 0.3065 1.0000
0.9736 0.3237 1.0000
1.0000 0.3410 0.9970
0.4617 0.4404 0.9355
0.4766 0.4422 0.9383
0.5146 0.4466 0.9443
0.5890 0.4535 0.9539
0.7034 0.4595 0.9686
0.8263 0.4633 0.9849
0.9179 0.4687 0.9980
0.9737 0.4794 1.0000
1.0000 0.4903 0.9974
0.5381 0.5906 0.9125
0.5519 0.5922 0.9156
0.5869 0.5960 0.9233
0.6473 0.6023 0.9365
0.7286 0.6108 0.9543
0.8282 0.6177 0.9739
0.9176 0.6207 0.9929
0.9736 0.6268 0.9998
0.9998 0.6345 0.9976
0.6584 0.7223 0.8877
0.6687 0.7235 0.8906
0.6942 0.7266 0.8979
0.7358 0.7320 0.9105
0.7909 0.7393 0.9297
0.8548 0.7481 0.9544
0.9182 0.7554 0.9810
0.9740 0.7579 0.9998
0.9998 0.7635 0.9982
0.8005 0.8294 0.8765
0.8063 0.8305 0.8787
0.8205 0.8333 0.8843
0.8438 0.8383 0.8942
0.8743 0.8456 0.9091
0.9068 0.8551 0.9298
0.9399 0.8661 0.9562
0.9742 0.8755 0.9897
0.9999 0.8792 0.9990
0.9257 0.9240 0.9091
0.9278 0.9250 0.9108
0.9332 0.9276 0.9149
0.9421 0.9323 0.9220
0.9540 0.9392 0.9323
0.9676 0.9485 0.9453
0.9812 0.9604 0.9609
0.9928 0.9748 0.9791
1.0000 0.9918 0.9999
