EA 50 Cinematic Luts Pack/EA_Cinematic Lut (2).cube
TITLE "Generated by Resolve"
LUT_3D_SIZE 33
0 0.148013 0.240253
0 0.14699 0.23856
0 0.145464 0.236378
0.00184634 0.142336 0.232624
0.0446937 0.135729 0.225391
0.0725719 0.133074 0.22208
0.0965438 0.131609 0.219928
0.11902 0.130831 0.218387
0.140719 0.130251 0.217075
0.162325 0.129824 0.215915
0.183856 0.129122 0.214649
0.206134 0.128084 0.213153
0.229862 0.126558 0.211337
0.254566 0.124743 0.209339
0.280735 0.122515 0.207065
0.306584 0.120378 0.204898
0.332921 0.118151 0.202701
0.35877 0.115923 0.200565
0.384802 0.113649 0.198413
0.41091 0.111391 0.196307
0.436988 0.109209 0.194293
0.463172 0.107042 0.192294
0.489128 0.104952 0.190402
0.515282 0.102953 0.188571
0.541222 0.101183 0.186938
0.567147 0.0994736 0.185367
0.592752 0.0979324 0.183932
0.618219 0.0964675 0.182574
0.643381 0.0952773 0.181415
0.668559 0.094377 0.180468
0.693431 0.0939803 0.179873
0.718273 0.0936294 0.179324
0.742229 0.0935683 0.179004
0 0.161654 0.243473
0 0.160342 0.241489
0 0.157916 0.23856
0.0310826 0.151934 0.231846
0.063798 0.148379 0.227512
0.089189 0.146807 0.225055
0.111894 0.145892 0.223346
0.13344 0.145235 0.221714
0.154376 0.144656 0.220539
0.175219 0.143923 0.219181
0.196719 0.143008 0.217792
0.219486 0.141695 0.216159
0.243961 0.139895 0.214191
0.269688 0.137713 0.211994
0.295613 0.135454 0.209796
0.322148 0.13315 0.207568
0.348424 0.130968 0.205493
0.37467 0.128756 0.203418
0.40116 0.126513 0.201312
0.427237 0.124407 0.199344
0.453819 0.122255 0.19736
0.479988 0.120378 0.19559
0.506691 0.118639 0.193927
0.532921 0.116991 0.192386
0.559152 0.115373 0.19086
0.585229 0.114046 0.189563
0.611429 0.112963 0.188449
0.637354 0.112184 0.187549
0.66305 0.111528 0.186755
0.688411 0.111192 0.186236
0.714122 0.111498 0.186038
0.73933 0.112184 0.18616
0.764508 0.113115 0.186465
0 0.175525 0.246494
0 0.17409 0.244175
0.0104372 0.170764 0.240085
0.0527199 0.164508 0.233082
0.0797589 0.162249 0.229953
0.103014 0.160906 0.227985
0.124758 0.15993 0.226429
0.145815 0.159228 0.225193
0.166934 0.15845 0.223865
0.187961 0.15758 0.222583
0.210315 0.156329 0.221027
0.234119 0.154681 0.219196
0.25951 0.152636 0.21709
0.285573 0.150439 0.214908
0.312306 0.148272 0.212787
0.338598 0.146136 0.210651
0.365103 0.143938 0.208545
0.391821 0.141802 0.2065
0.418311 0.13991 0.204639
0.445258 0.137987 0.202808
0.471702 0.136248 0.201114
0.498604 0.134524 0.199466
0.525368 0.133318 0.198138
0.5523 0.132143 0.196872
0.578973 0.131197 0.195773
0.605554 0.130358 0.194751
0.631952 0.129885 0.194003
0.65861 0.129854 0.193561
0.685191 0.130358 0.193515
0.711681 0.131182 0.193622
0.73756 0.132052 0.193851
0.762997 0.133318 0.194308
0.788235 0.134966 0.195041
0 0.189548 0.249454
0 0.186954 0.246159
0.0400397 0.180438 0.239063
0.0700236 0.177234 0.235279
0.0944686 0.175509 0.23299
0.11664 0.174365 0.231296
0.138018 0.173556 0.229938
0.158923 0.172732 0.228595
0.179721 0.171939 0.227359
0.201938 0.170779 0.225834
0.224857 0.169497 0.224247
0.250187 0.16759 0.222202
0.276097 0.16553 0.220066
0.302693 0.163363 0.217914
0.329595 0.16144 0.215839
0.356207 0.159564 0.213901
0.38323 0.157656 0.211948
0.409873 0.155901 0.210147
0.437003 0.154192 0.208377
0.463996 0.152834 0.206867
0.4916 0.151629 0.205554
0.518791 0.150729 0.204318
0.54612 0.149752 0.203174
0.573266 0.149264 0.202258
0.600855 0.149172 0.201633
0.628244 0.149462 0.201297
0.655482 0.149905 0.201038
0.682307 0.150591 0.201022
0.709316 0.151858 0.201343
0.735775 0.153277 0.201846
0.761852 0.154955 0.202487
0.787472 0.156786 0.203265
0.812406 0.158907 0.204242
0 0.202335 0.251972
0.0197299 0.198184 0.247288
0.0596017 0.192264 0.240833
0.0855726 0.190051 0.238087
0.1084 0.188693 0.236164
0.130007 0.187716 0.234638
0.151141 0.18706 0.233341
0.172076 0.186343 0.23209
0.193851 0.185443 0.230655
0.216144 0.184405 0.229175
0.241062 0.182757 0.227222
0.266865 0.181018 0.225223
0.293767 0.179202 0.223224
0.320867 0.177417 0.22121
0.347631 0.175677 0.219364
0.374868 0.17406 0.217456
0.401984 0.172778 0.215869
0.429679 0.171542 0.214298
0.456916 0.170504 0.212894
0.484657 0.169558 0.211612
0.512612 0.169299 0.210681
0.540932 0.169162 0.209964
0.568933 0.169345 0.209384
0.596902 0.169619 0.208911
0.624704 0.170153 0.208637
0.652293 0.171084 0.208591
0.679835 0.172274 0.20882
0.707012 0.173953 0.209201
0.733715 0.175586 0.209659
0.759762 0.177462 0.210269
0.785534 0.179553 0.211032
0.810681 0.181903 0.212009
0.83537 0.18439 0.213062
0.00463874 0.214405 0.253925
0.0471656 0.207736 0.246693
0.0757153 0.204883 0.243229
0.0997024 0.203311 0.241016
0.12195 0.202365 0.239429
0.143297 0.201694 0.237964
0.164385 0.201022 0.236713
0.185718 0.200443 0.23534
0.208118 0.19971 0.233967
0.232166 0.198642 0.232319
0.257649 0.197208 0.230426
0.284398 0.195575 0.228397
0.311879 0.194232 0.226551
0.339315 0.19295 0.224903
0.366949 0.191791 0.223163
0.394247 0.190799 0.221653
0.422324 0.189929 0.220203
0.450248 0.189593 0.219104
0.47895 0.189487 0.218189
0.507408 0.189853 0.217502
0.535882 0.190097 0.216861
0.56405 0.190677 0.216342
0.592447 0.191501 0.216052
0.62063 0.192584 0.216007
0.648554 0.193805 0.216007
0.676249 0.195148 0.216159
0.703441 0.197101 0.216556
0.73019 0.198978 0.216953
0.756252 0.201114 0.217456
0.781842 0.203418 0.218051
0.806928 0.205921 0.21886
0.831571 0.208698 0.219806
0.855634 0.211704 0.221103
0.0272679 0.225452 0.254322
0.0644846 0.220401 0.248493
0.0899672 0.218524 0.245792
0.112688 0.217472 0.243946
0.134737 0.216953 0.24242
0.156191 0.216541 0.241199
0.1776 0.216251 0.239918
0.199847 0.215747 0.238605
0.223011 0.215198 0.237186
0.248707 0.214267 0.235462
0.275303 0.213321 0.233799
0.303029 0.212375 0.231937
0.330571 0.211444 0.230304
0.35848 0.210819 0.228702
0.386709 0.21062 0.227497
0.415564 0.210559 0.226413
0.443885 0.210742 0.225483
0.472679 0.210956 0.224598
0.501366 0.211826 0.224048
0.530221 0.21265 0.22356
0.558618 0.213748 0.223102
0.586801 0.214939 0.222751
0.614923 0.216236 0.222538
0.642588 0.217792 0.222477
0.670314 0.21944 0.222568
0.697353 0.221469 0.222797
0.724437 0.223575 0.223255
0.750454 0.225895 0.223667
0.776257 0.228397 0.224262
0.801541 0.231128 0.225071
0.826215 0.234028 0.225956
0.85037 0.23714 0.227115
0.874235 0.240681 0.228382
0.0500649 0.237095 0.254017
0.0785229 0.23473 0.250599
0.102647 0.233677 0.248447
0.12517 0.23328 0.246799
0.146609 0.233082 0.245502
0.168292 0.233082 0.244175
0.190616 0.233188 0.243076
0.213931 0.233234 0.241856
0.238926 0.232868 0.24033
0.265324 0.232364 0.238758
0.293568 0.23212 0.23714
0.321874 0.232059 0.235813
0.350362 0.232212 0.234394
0.378546 0.232502 0.233188
0.407218 0.232868 0.232074
0.435737 0.233616 0.231205
0.464851 0.234455 0.230549
0.493568 0.235645 0.229953
0.522637 0.236789 0.229526
0.55111 0.238071 0.228992
0.579248 0.239567 0.228672
0.607584 0.241093 0.228428
0.635111 0.242863 0.228305
0.662806 0.244648 0.228275
0.689967 0.246967 0.22855
0.717144 0.249226 0.228977
0.743313 0.251728 0.229374
0.769421 0.254261 0.229999
0.79472 0.257099 0.230732
0.819715 0.260136 0.231632
0.844205 0.263386 0.232776
0.868055 0.26685 0.233936
0.891752 0.270695 0.235569
0.0636912 0.252628 0.255543
0.0899062 0.251225 0.252796
0.113527 0.251041 0.250965
0.136095 0.251209 0.249592
0.157839 0.251743 0.248295
0.179873 0.252293 0.247135
0.203006 0.252888 0.24593
0.227649 0.253574 0.244785
0.25481 0.253971 0.243503
0.283009 0.254383 0.2421
0.31165 0.254749 0.240848
0.340414 0.255253 0.23949
0.369009 0.256107 0.238483
0.398154 0.257008 0.237507
0.426734 0.258122 0.236683
0.455711 0.259159 0.23595
0.48455 0.26067 0.235355
0.513558 0.262043 0.234928
0.542016 0.263569 0.234409
0.570504 0.265095 0.234119
0.598749 0.266789 0.233783
0.62649 0.268742 0.233707
0.654444 0.270726 0.233829
0.68159 0.272984 0.233936
0.709087 0.275471 0.23447
0.7355 0.278096 0.234867
0.761883 0.280781 0.235523
0.787472 0.283757 0.236271
0.812741 0.286839 0.23714
0.8374 0.290135 0.23827
0.861662 0.293736 0.239521
0.885542 0.297658 0.24123
0.908537 0.301625 0.242725
0.073167 0.271366 0.257237
0.098558 0.271092 0.254917
0.122408 0.271351 0.2533
0.145006 0.272297 0.252018
0.16846 0.273518 0.251041
0.192187 0.274968 0.250172
0.2168 0.276265 0.249195
0.243427 0.277165 0.248005
0.271595 0.278218 0.24683
0.30074 0.279072 0.245716
0.329885 0.280034 0.244495
0.358846 0.281041 0.243595
0.387915 0.282155 0.242542
0.416709 0.283467 0.241749
0.445853 0.284779 0.241062
0.474693 0.286244 0.240375
0.503807 0.287938 0.24007
0.53254 0.289555 0.239521
0.561105 0.291325 0.239368
0.589563 0.293217 0.239094
0.617456 0.295262 0.239063
0.645548 0.297307 0.23917
0.673014 0.299779 0.239384
0.70074 0.302358 0.239902
0.727367 0.305074 0.240284
0.753902 0.30782 0.240925
0.779706 0.310842 0.241642
0.805188 0.314046 0.242573
0.830182 0.317418 0.243839
0.854612 0.320989 0.245014
0.878676 0.324849 0.246677
0.902052 0.329 0.248295
0.924788 0.333181 0.250095
0.0815747 0.293278 0.259083
0.108217 0.293812 0.257282
0.132601 0.295171 0.255985
0.156878 0.296605 0.255055
0.180621 0.298421 0.254231
0.205798 0.300175 0.253422
0.232181 0.301823 0.252705
0.260365 0.303136 0.25153
0.289586 0.304402 0.250584
0.318822 0.305531 0.249363
0.348119 0.306752 0.248493
0.377325 0.30808 0.247501
0.406241 0.309514 0.246769
0.435492 0.310918 0.246021
0.464637 0.312612 0.245457
0.493828 0.314458 0.245197
0.522698 0.316258 0.244724
0.551324 0.31812 0.244572
0.579858 0.320104 0.244282
0.607965 0.322316 0.244297
0.636332 0.324529 0.244419
0.663859 0.326986 0.244587
0.691722 0.32958 0.24509
0.718685 0.332494 0.245594
0.745541 0.335348 0.246311
0.771572 0.338476 0.247089
0.797223 0.341711 0.248035
0.822583 0.345052 0.249256
0.847074 0.34873 0.250477
0.871672 0.352712 0.252171
0.895109 0.356847 0.253727
0.918196 0.360967 0.255589
0.940291 0.365423 0.25745
0.0939345 0.3178 0.261601
0.119905 0.319158 0.260105
0.145357 0.320943 0.259236
0.170108 0.32314 0.258518
0.195529 0.325154 0.257908
0.22121 0.327184 0.257267
0.249317 0.328847 0.256245
0.278218 0.330404 0.255421
0.307668 0.331716 0.2542
0.337102 0.333028 0.2533
0.366247 0.334524 0.252338
0.39559 0.33608 0.251621
0.424811 0.337743 0.251057
0.453941 0.339483 0.250416
0.483268 0.34139 0.250187
0.512367 0.34342 0.249805
0.541253 0.345449 0.249699
0.56997 0.347601 0.249454
0.598199 0.349889 0.249454
0.626642 0.352163 0.249531
0.654353 0.354742 0.249775
0.682582 0.357534 0.250416
0.709651 0.360449 0.250935
0.736767 0.363287 0.251713
0.762905 0.366461 0.252491
0.788861 0.369757 0.253452
0.814389 0.373205 0.254658
0.83917 0.376883 0.255863
0.863783 0.380636 0.25742
0.887587 0.384985 0.259129
0.910979 0.38912 0.261067
0.933364 0.393561 0.263005
0.955261 0.398123 0.265309
0.107851 0.344457 0.264607
0.134188 0.346273 0.2636
0.159289 0.348547 0.262791
0.18468 0.350835 0.262272
0.210513 0.353124 0.261662
0.237644 0.355093 0.260822
0.266468 0.356832 0.260044
0.296056 0.358389 0.258946
0.325841 0.359869 0.258091
0.355123 0.361578 0.257206
0.384634 0.36321 0.256504
0.413764 0.365026 0.255955
0.443107 0.366888 0.255344
0.472663 0.369085 0.255238
0.501854 0.37116 0.254826
0.530816 0.373251 0.254719
0.55964 0.375479 0.254505
0.588083 0.377874 0.254597
0.616724 0.380285 0.254841
0.644587 0.38294 0.25507
0.672679 0.38558 0.255619
0.700267 0.388708 0.256245
0.72752 0.391653 0.257053
0.75407 0.394858 0.257801
0.780331 0.398108 0.258885
0.805936 0.401587 0.259953
0.830854 0.405295 0.261265
0.855802 0.409155 0.262974
0.879728 0.413428 0.264714
0.903349 0.417502 0.266697
0.925887 0.421927 0.268666
0.948104 0.426429 0.270954
0.969345 0.43122 0.27335
0.122637 0.37229 0.267994
0.148241 0.374685 0.267124
0.173846 0.377081 0.266575
0.199496 0.379538 0.265965
0.226001 0.381903 0.26537
0.255024 0.383963 0.264729
0.284169 0.385733 0.263752
0.314 0.38732 0.262928
0.343572 0.389059 0.262028
0.373251 0.390875 0.261387
0.402625 0.392844 0.260838
0.432029 0.394842 0.260273
0.461372 0.396933 0.260044
0.490959 0.399283 0.259785
0.520073 0.401526 0.2598
0.549111 0.403861 0.259663
0.577859 0.406256 0.259907
0.606409 0.408759 0.260075
0.634455 0.411475 0.260365
0.662898 0.414282 0.26099
0.690501 0.417411 0.26157
0.717968 0.42034 0.262364
0.744823 0.423499 0.263096
0.77116 0.42681 0.264302
0.797024 0.430289 0.265538
0.822171 0.433982 0.266865
0.847135 0.437705 0.268559
0.871473 0.442023 0.27039
0.895308 0.446082 0.272374
0.918059 0.450477 0.274296
0.940627 0.454887 0.276539
0.962051 0.459617 0.278859
0.982635 0.464591 0.281376
0.136584 0.401343 0.271458
0.162844 0.403815 0.270863
0.188449 0.406546 0.270451
0.21474 0.409125 0.269871
0.242969 0.411276 0.269276
0.272053 0.413474 0.268498
0.302266 0.415183 0.267689
0.331823 0.417136 0.266865
0.361807 0.418967 0.26627
0.391165 0.421042 0.265675
0.420676 0.423163 0.265202
0.450385 0.425467 0.265126
0.479942 0.427848 0.264897
0.509133 0.430152 0.264973
0.538262 0.432532 0.264866
0.567163 0.435019 0.265141
0.595926 0.437598 0.265309
0.624262 0.440314 0.26566
0.652537 0.443046 0.266194
0.680568 0.446281 0.266896
0.708156 0.449271 0.267826
0.735134 0.452461 0.268666
0.761715 0.455741 0.269947
0.787793 0.459174 0.271199
0.813123 0.462837 0.272587
0.838315 0.466529 0.27425
0.862852 0.470771 0.27602
0.886915 0.474815 0.278019
0.909941 0.479103 0.279911
0.932708 0.483436 0.282155
0.954376 0.488075 0.284566
0.975464 0.492866 0.286946
0.99527 0.497978 0.289921
0.151476 0.431128 0.275288
0.177066 0.433967 0.274861
0.203555 0.436683 0.274327
0.231296 0.439323 0.274006
0.260212 0.441642 0.273243
0.290135 0.443519 0.272511
0.319814 0.445548 0.271702
0.350088 0.447486 0.271168
0.379553 0.449699 0.270756
0.409461 0.45182 0.270359
0.438819 0.454093 0.270176
0.468681 0.456687 0.270085
0.498085 0.459068 0.270191
0.527321 0.461555 0.270115
0.556359 0.464057 0.270405
0.585214 0.466667 0.270573
0.613855 0.469368 0.271015
0.642145 0.472206 0.271702
0.670481 0.475364 0.272465
0.6981 0.47837 0.273503
0.725292 0.481529 0.274403
0.752041 0.484779 0.275715
0.778317 0.488197 0.276921
0.803845 0.491814 0.278309
0.829282 0.49543 0.279942
0.854002 0.499641 0.281727
0.878264 0.503563 0.283711
0.901503 0.507774 0.285618
0.924498 0.512001 0.287938
0.946502 0.516518 0.290272
0.967819 0.521172 0.292622
0.988128 0.526055 0.29546
1 0.531411 0.298299
0.166094 0.461814 0.279255
0.19263 0.464637 0.278935
0.219394 0.46743 0.278553
0.248295 0.4701 0.278004
0.277989 0.472221 0.277455
0.307912 0.474357 0.276722
0.338247 0.476356 0.276249
0.367819 0.478614 0.275868
0.397925 0.480781 0.275532
0.427436 0.483223 0.27541
0.45742 0.485832 0.275303
0.4869 0.488243 0.275441
0.516228 0.490745 0.275425
0.545419 0.493294 0.275837
0.57438 0.495933 0.276219
0.603082 0.498665 0.276722
0.631571 0.501427 0.27744
0.660075 0.504616 0.278279
0.687846 0.507591 0.279332
0.715236 0.510719 0.280217
0.742184 0.513924 0.281498
0.768627 0.517281 0.282689
0.7944 0.520806 0.284108
0.819989 0.524361 0.285771
0.844755 0.528344 0.287495
0.869444 0.532296 0.28957
0.892836 0.536416 0.291493
0.91606 0.540505 0.293736
0.938231 0.544884 0.295979
0.960037 0.54934 0.298421
0.980819 0.554055 0.300999
1 0.559365 0.303838
1 0.564569 0.306996
0.181384 0.492973 0.283528
0.208438 0.495949 0.283268
0.236469 0.498924 0.283024
0.266056 0.501152 0.282536
0.295857 0.503395 0.281895
0.326375 0.505486 0.281468
0.356222 0.507805 0.281071
0.386404 0.510033 0.280797
0.415946 0.512444 0.280674
0.446113 0.515129 0.280674
0.475746 0.517571 0.280934
0.50515 0.520119 0.281056
0.534569 0.522622 0.281544
0.563485 0.525307 0.282032
0.592477 0.527962 0.282582
0.620935 0.53077 0.28336
0.649454 0.533806 0.284092
0.677531 0.536873 0.285237
0.705089 0.539925 0.286107
0.732174 0.543069 0.287434
0.758801 0.546334 0.288716
0.78497 0.549722 0.290196
0.810544 0.553246 0.291783
0.83566 0.557183 0.293553
0.860395 0.560922 0.295537
0.884001 0.564904 0.297383
0.9075 0.568872 0.299596
0.929915 0.573129 0.301747
0.951949 0.577401 0.304158
0.972946 0.581918 0.306645
0.992721 0.586801 0.309285
1 0.592004 0.312474
1 0.597314 0.31545
0.19736 0.524605 0.288151
0.224964 0.527855 0.288106
0.254429 0.530266 0.287724
0.283925 0.532708 0.28719
0.314626 0.534798 0.286778
0.344594 0.537133 0.286381
0.374914 0.539391 0.286259
0.404623 0.541848 0.286259
0.434699 0.544457 0.286336
0.4645 0.547021 0.286793
0.494072 0.549523 0.286976
0.52369 0.55201 0.287495
0.552621 0.554711 0.287999
0.581872 0.557305 0.288609
0.610315 0.560113 0.289357
0.639078 0.56318 0.290166
0.66717 0.566079 0.291295
0.694896 0.56907 0.292226
0.722148 0.572137 0.293599
0.748989 0.575296 0.294896
0.775265 0.578576 0.296376
0.801038 0.581964 0.297917
0.826215 0.585565 0.29955
0.85127 0.589426 0.301564
0.875273 0.593225 0.303334
0.898756 0.597055 0.305516
0.921492 0.601083 0.307683
0.943725 0.605234 0.309987
0.965042 0.609583 0.312444
0.985367 0.614267 0.315022
1 0.619165 0.318044
1 0.624247 0.320897
1 0.629343 0.324147
0.21416 0.556771 0.293172
0.242954 0.559518 0.293034
0.272312 0.562066 0.292638
0.303044 0.564218 0.292348
0.333089 0.566598 0.292195
0.363607 0.568841 0.292103
0.393408 0.571283 0.29221
0.423651 0.573983 0.292424
0.453605 0.57641 0.292821
0.483116 0.578958 0.293065
0.512779 0.58143 0.293614
0.541894 0.58407 0.294087
0.571206 0.586618 0.294789
0.599756 0.589364 0.295583
0.628565 0.592111 0.296422
0.65687 0.595209 0.297627
0.684718 0.598093 0.298573
0.712108 0.601038 0.299931
0.739101 0.604089 0.301167
0.765591 0.607263 0.302647
0.791608 0.610529 0.304158
0.817014 0.614054 0.305806
0.842145 0.617639 0.307713
0.866209 0.621317 0.309453
0.889982 0.624994 0.311589
0.913024 0.628855 0.313695
0.935332 0.632792 0.315953
0.956893 0.636896 0.318303
0.977584 0.641215 0.320699
0.997421 0.645914 0.323644
1 0.650843 0.326482
1 0.655711 0.329625
1 0.660822 0.332815
0.231968 0.5888 0.29865
0.26125 0.591409 0.298421
0.291646 0.593683 0.29836
0.321843 0.596033 0.298268
0.352529 0.59826 0.298238
0.382528 0.600671 0.29836
0.412741 0.603113 0.298604
0.442908 0.605768 0.299016
0.472313 0.608331 0.299321
0.502174 0.610712 0.299916
0.531243 0.613321 0.300572
0.560708 0.615808 0.301244
0.589349 0.618494 0.302113
0.618387 0.621225 0.303029
0.646647 0.624125 0.304158
0.674617 0.626917 0.305074
0.702174 0.629755 0.306401
0.72932 0.632715 0.307576
0.755993 0.635691 0.309041
0.782101 0.638788 0.310521
0.807691 0.642008 0.312078
0.83299 0.645518 0.313985
0.85745 0.649073 0.31574
0.881285 0.652567 0.317815
0.904433 0.656199 0.319783
0.926955 0.659998 0.322011
0.948852 0.663905 0.324285
0.969741 0.667994 0.326619
0.990097 0.672419 0.329458
1 0.676997 0.332174
1 0.681666 0.335302
1 0.686564 0.33843
1 0.691417 0.341588
0.250553 0.620691 0.304555
0.280644 0.623072 0.304646
0.310964 0.625422 0.304555
0.341695 0.627619 0.304585
0.371725 0.63003 0.304768
0.402274 0.632471 0.305074
0.432319 0.635004 0.305501
0.461875 0.637491 0.305898
0.491707 0.639872 0.306554
0.520851 0.642405 0.307256
0.550378 0.6448 0.307958
0.57908 0.647379 0.308827
0.608072 0.649866 0.309651
0.63653 0.652735 0.310811
0.664744 0.655482 0.311757
0.692363 0.658183 0.313054
0.719615 0.66096 0.31429
0.746426 0.663828 0.315648
0.772717 0.666789 0.317113
0.798672 0.669795 0.318593
0.823987 0.673182 0.3205
0.848615 0.676448 0.322133
0.872663 0.679774 0.324178
0.895994 0.683253 0.326085
0.9187 0.686778 0.328252
0.940719 0.690425 0.330434
0.96199 0.69424 0.332799
0.982528 0.698283 0.335348
1 0.7028 0.338094
1 0.707118 0.34107
1 0.711727 0.34406
1 0.716411 0.347219
1 0.721218 0.350454
0.270405 0.652277 0.31107
0.300572 0.654643 0.311025
0.331212 0.656855 0.311177
0.361563 0.659129 0.311391
0.39173 0.661433 0.311742
0.422004 0.663981 0.312306
0.451759 0.666453 0.312795
0.481529 0.668757 0.313466
0.51075 0.671199 0.314122
0.540307 0.673533 0.314855
0.5691 0.676036 0.315724
0.598215 0.678416 0.316564
0.626764 0.681193 0.317723
0.654994 0.683696 0.318624
0.68278 0.686275 0.319951
0.710201 0.688899 0.321157
0.737148 0.691569 0.322469
0.763485 0.694331 0.323873
0.789548 0.697154 0.325338
0.814847 0.700236 0.327031
0.839918 0.703456 0.32871
0.864012 0.706554 0.330694
0.887541 0.709758 0.332616
0.910506 0.7131 0.334691
0.932723 0.716564 0.336873
0.954269 0.720088 0.339132
0.975082 0.723873 0.341588
0.994644 0.727993 0.344182
1 0.732113 0.347036
1 0.736522 0.34992
1 0.740856 0.353002
1 0.745403 0.356161
1 0.74995 0.35935
0.290654 0.683635 0.317952
0.321248 0.685817 0.31812
0.351659 0.688045 0.31841
0.381872 0.690333 0.318837
0.412253 0.69279 0.319417
0.441901 0.695125 0.319905
0.471794 0.697353 0.320577
0.50106 0.699718 0.321218
0.530602 0.701915 0.321981
0.559411 0.704265 0.32282
0.58854 0.706523 0.323674
0.616968 0.709026 0.324742
0.645518 0.711589 0.32575
0.673503 0.713909 0.32697
0.700862 0.716396 0.328145
0.728145 0.718868 0.329442
0.754528 0.721523 0.330846
0.780774 0.724086 0.33225
0.80618 0.727016 0.333928
0.831434 0.729885 0.335592
0.855558 0.732876 0.337469
0.879332 0.735866 0.339345
0.902342 0.738933 0.341329
0.924743 0.742092 0.343404
0.946548 0.745388 0.345586
0.967483 0.748867 0.347936
0.987747 0.752728 0.350484
1 0.756527 0.353201
1 0.760586 0.356054
1 0.764736 0.358999
1 0.769039 0.362127
1 0.773281 0.365225
1 0.777554 0.368399
0.311833 0.714488 0.325399
0.342138 0.71664 0.325704
0.372396 0.718807 0.326085
0.402579 0.72108 0.326619
0.432517 0.723491 0.32723
0.462394 0.725567 0.327886
0.4916 0.72781 0.328649
0.521263 0.7299 0.329366
0.550134 0.732158 0.330251
0.579248 0.734249 0.33106
0.607797 0.73666 0.332143
0.636484 0.738903 0.33315
0.664256 0.741222 0.334279
0.691829 0.743511 0.335363
0.719203 0.745739 0.336629
0.745617 0.74815 0.338003
0.772045 0.75053 0.339391
0.797513 0.753124 0.340978
0.823056 0.755932 0.342702
0.847303 0.758618 0.344442
0.871153 0.761364 0.346197
0.894377 0.764248 0.348165
0.917037 0.767178 0.350195
0.938933 0.770214 0.3523
0.960159 0.773327 0.354559
0.980758 0.776852 0.357046
0.999969 0.780377 0.359716
1 0.78407 0.362463
1 0.787884 0.365301
1 0.791775 0.368261
1 0.795773 0.371283
1 0.799786 0.374426
1 0.803876 0.377539
0.333333 0.744884 0.333227
0.363546 0.746929 0.333623
0.393744 0.749187 0.334218
0.423728 0.751339 0.334844
0.453422 0.753414 0.3355
0.482643 0.755535 0.336263
0.512261 0.757473 0.336965
0.541131 0.759533 0.337819
0.570291 0.761501 0.338643
0.59884 0.763592 0.339605
0.627649 0.76585 0.340719
0.655558 0.767895 0.341756
0.683055 0.770001 0.342947
0.710506 0.772091 0.344091
0.737057 0.77435 0.34548
0.763607 0.776471 0.346807
0.789181 0.77882 0.348348
0.814878 0.781323 0.349996
0.839399 0.78381 0.351736
0.863416 0.786343 0.353414
0.886809 0.788891 0.355322
0.909545 0.791531 0.357275
0.93167 0.794308 0.359365
0.953216 0.797162 0.361593
0.974105 0.800336 0.364019
0.993759 0.803357 0.366552
1 0.806653 0.369223
1 0.810132 0.372076
1 0.813626 0.37499
1 0.81709 0.377844
1 0.820462 0.380743
1 0.823987 0.383734
1 0.827497 0.386801
0.355154 0.774624 0.341436
0.385153 0.776608 0.34197
0.415351 0.778805 0.342718
0.444907 0.780743 0.343359
0.47425 0.782666 0.344106
0.503685 0.784543 0.344808
0.53257 0.786511 0.345678
0.561761 0.788266 0.346471
0.590494 0.790143 0.347433
0.61915 0.792187 0.348562
0.647288 0.794064 0.34963
0.674815 0.795987 0.350835
0.702266 0.797833 0.351934
0.728893 0.799802 0.353231
0.755596 0.801724 0.354528
0.781338 0.803845 0.356069
0.807324 0.806104 0.357717
0.831952 0.808255 0.359426
0.856291 0.810422 0.361227
0.880003 0.812726 0.363104
0.903044 0.815106 0.365103
0.92549 0.817456 0.367086
0.947005 0.819928 0.369238
0.968185 0.822629 0.371527
0.988266 0.825452 0.373999
1 0.828305 0.376455
1 0.831113 0.37908
1 0.834028 0.381781
1 0.837079 0.384573
1 0.840162 0.387457
1 0.843351 0.390372
1 0.846311 0.393225
1 0.849241 0.396094
0.377493 0.803693 0.350103
0.407477 0.805707 0.350835
0.437125 0.807507 0.351522
0.466468 0.809308 0.35227
0.495766 0.811002 0.352987
0.524697 0.812726 0.353826
0.553796 0.814359 0.354681
0.582467 0.816052 0.355688
0.611399 0.817914 0.356847
