EA 50 Cinematic Luts Pack/EA_Cinematic Lut (38).cube
TITLE "A subdued, frigid grade that will add some dramatic quality to your video."
LUT_3D_SIZE 5
0.0186 0.0087 0.0228
0.1666 0.0285 0.0559
0.3662 0.1188 0.1260
0.5711 0.2719 0.2066
0.7397 0.3929 0.3095
0.0941 0.2245 0.0946
0.1791 0.2505 0.1125
0.3204 0.3211 0.2039
0.5526 0.3896 0.2745
0.7506 0.4560 0.3466
0.2064 0.4993 0.2095
0.2520 0.5086 0.1927
0.4086 0.5252 0.2556
0.5359 0.5592 0.3971
0.6801 0.6003 0.4930
0.3496 0.6638 0.3627
0.3655 0.6702 0.3332
0.4984 0.6777 0.3490
0.6200 0.6935 0.4329
0.7178 0.7223 0.5892
0.6293 0.8036 0.6245
0.6494 0.8060 0.6302
0.7094 0.8129 0.6649
0.7964 0.8302 0.7441
0.9283 0.8775 0.8802
0.0429 0.0209 0.0861
0.1351 0.0561 0.1364
0.2741 0.1964 0.1907
0.5381 0.3098 0.2704
0.7431 0.3937 0.3491
0.0503 0.2406 0.1780
0.1745 0.2592 0.1855
0.4481 0.2740 0.2036
0.6161 0.3530 0.2697
0.7921 0.4284 0.3430
0.1966 0.5029 0.2618
0.2587 0.5074 0.2908
0.4255 0.5242 0.3067
0.5763 0.5518 0.4139
0.7045 0.5959 0.4968
0.3425 0.6655 0.3957
0.3903 0.6675 0.4172
0.4900 0.6798 0.3850
0.6226 0.6938 0.4647
0.7263 0.7219 0.5992
0.6291 0.8052 0.6380
0.6488 0.8077 0.6440
0.7078 0.8159 0.6710
0.7977 0.8327 0.7485
0.9321 0.8799 0.8860
0.0937 0.0715 0.1650
0.1558 0.1037 0.2342
0.2915 0.2275 0.3087
0.4339 0.3841 0.3724
0.6203 0.4879 0.4632
0.1481 0.2553 0.2849
0.2021 0.2807 0.3043
0.4237 0.3046 0.3768
0.5522 0.4093 0.4129
0.6795 0.5079 0.4869
0.1221 0.5153 0.4158
0.1999 0.5207 0.4174
0.3981 0.5331 0.4346
0.6709 0.5323 0.4424
0.8854 0.5494 0.4826
0.3112 0.6704 0.4962
0.3598 0.6729 0.5051
0.4901 0.6781 0.5657
0.6506 0.6907 0.5477
0.7486 0.7214 0.6304
0.6282 0.8108 0.6806
0.6483 0.8136 0.6855
0.7065 0.8239 0.7025
0.8007 0.8416 0.7634
0.9443 0.8876 0.9055
0.1514 0.1740 0.2764
0.1877 0.2045 0.3443
0.3251 0.2838 0.4372
0.4867 0.3952 0.5057
0.5823 0.5216 0.5548
0.2001 0.3102 0.3808
0.2380 0.3275 0.4083
0.3772 0.3645 0.4991
0.5469 0.4384 0.5442
0.6183 0.5441 0.5897
0.2584 0.5164 0.5378
0.2894 0.5248 0.5402
0.4435 0.5399 0.5426
0.6613 0.5416 0.6271
0.7194 0.6038 0.6757
0.1995 0.6813 0.6584
0.2581 0.6841 0.6594
0.4300 0.6914 0.6665
0.6086 0.7034 0.6841
0.9314 0.6942 0.6970
0.6141 0.8263 0.7587
0.6368 0.8292 0.7625
0.7019 0.8391 0.7751
0.7993 0.8616 0.8008
0.9669 0.9019 0.9435
0.2133 0.2948 0.4003
0.2407 0.3135 0.4465
0.3515 0.3576 0.5447
0.5221 0.4297 0.6355
0.6393 0.5242 0.6981
0.2568 0.3744 0.4822
0.2843 0.3865 0.5222
0.3956 0.4142 0.6302
0.5600 0.4675 0.6984
0.6710 0.5448 0.7401
0.3460 0.5333 0.6374
0.3694 0.5382 0.6654
0.4615 0.5458 0.7809
0.6363 0.5598 0.8242
0.7341 0.6131 0.8026
0.3807 0.6808 0.7836
0.3986 0.6844 0.8000
0.4966 0.6914 0.8457
0.6951 0.6927 0.8764
0.8154 0.7212 0.8638
0.5463 0.8667 0.9093
0.5746 0.8696 0.9140
0.6537 0.8791 0.9292
0.7732 0.8969 0.9579
0.9999 0.9229 0.9999
