EA 50 Cinematic Luts Pack/EA_Cinematic Lut (8).cube
TITLE "Generated by Resolve"
LUT_3D_SIZE 33
0 0.047776 0.0635996
0 0.0385748 0.068513
0.0314488 0.0275425 0.0715953
0.101106 0.0147555 0.0729229
0.156298 0.00561532 0.0778973
0.207813 0 0.083772
0.257099 0 0.090135
0.304875 0 0.0968338
0.351507 0 0.103822
0.397391 0 0.111192
0.442329 0 0.118563
0.48658 0 0.126055
0.530251 0 0.133684
0.573434 0 0.141421
0.616236 0 0.149325
0.658717 0 0.157412
0.70071 0 0.165469
0.742382 0 0.173617
0.783749 0 0.181842
0.824872 0 0.190158
0.865934 0 0.198764
0.906615 0 0.207294
0.947097 0 0.2159
0.987366 0 0.224582
1 0 0.233356
1 0 0.242344
1 0 0.251484
1 0 0.260609
1 0 0.26978
1 0 0.279103
1 0 0.288594
1 0 0.29836
1 0 0.308171
0 0.0762951 0.0576638
0 0.0703136 0.0510414
0.021561 0.0590677 0.0493324
0.09337 0.0451057 0.0504616
0.149508 0.0353246 0.0557259
0.20145 0.026688 0.0618601
0.251011 0.018677 0.068452
0.299107 0.0112459 0.0755169
0.345815 0.00392157 0.0826276
0.391546 0 0.0899367
0.436515 0 0.0974136
0.480827 0 0.105058
0.524575 0 0.112825
0.567987 0 0.120897
0.610788 0 0.128908
0.653193 0 0.137041
0.695277 0 0.145266
0.737057 0 0.153628
0.778592 0 0.162127
0.819989 0 0.170825
0.86099 0 0.179477
0.901808 0 0.188235
0.942489 0 0.197162
0.983001 0 0.206195
1 0 0.215366
1 0 0.224689
1 0 0.234043
1 0 0.24361
1 0 0.253269
1 0 0.26302
1 0 0.272999
1 0 0.283207
1 0 0.293568
0 0.105104 0.0511635
0 0.0993973 0.0439765
0.00509651 0.0905165 0.0353399
0.0756085 0.0775921 0.0287785
0.134249 0.0672313 0.0310979
0.188556 0.0578012 0.0366217
0.239841 0.0493324 0.0433967
0.288838 0.0413214 0.0505074
0.336294 0.0337224 0.0578775
0.382589 0.0264286 0.0654154
0.42797 0.0194095 0.0730907
0.472587 0.0125887 0.0809033
0.516777 0.00613413 0.0890059
0.560281 0 0.0970932
0.603326 0 0.105287
0.645991 0 0.113619
0.688273 0 0.122026
0.730251 0 0.130541
0.772152 0 0.139376
0.813672 0 0.14818
0.854948 0 0.157092
0.89601 0 0.166094
0.936904 0 0.175189
0.97789 0 0.184695
1 0 0.194186
1 0 0.203769
1 0 0.213443
1 0 0.223255
1 0 0.233417
1 0 0.2439
1 0 0.254353
1 0 0.264866
1 0 0.275669
0 0.133471 0.0437629
0 0.127657 0.0363775
0 0.119341 0.026978
0.0595865 0.108141 0.016556
0.115007 0.0992905 0.0127871
0.169635 0.0904097 0.0140078
0.222553 0.0814679 0.0184634
0.273442 0.0729534 0.0247654
0.322469 0.0648814 0.0319524
0.36997 0.0572671 0.0395514
0.41648 0.0501564 0.0475929
0.461952 0.0432288 0.0557259
0.50663 0.0365148 0.0639353
0.550668 0.0299992 0.0722667
0.594186 0.0236973 0.0807202
0.637293 0.0176089 0.0893416
0.680232 0.011902 0.0982681
0.722637 0.00614939 0.107103
0.764721 0.000518807 0.11603
0.806577 0 0.125109
0.84828 0 0.134386
0.88983 0 0.143816
0.931365 0 0.153521
0.972519 0 0.163149
1 0 0.172976
1 0 0.183093
1 0 0.193378
1 0 0.203769
1 0 0.214496
1 0 0.22536
1 0 0.236576
1 0 0.24802
1 0 0.259556
0 0.161547 0.0357366
0 0.155734 0.0283055
0 0.147555 0.0187686
0.0476997 0.137148 0.00772107
0.0995956 0.129702 0.00138857
0.150942 0.122026 0
0.202625 0.113924 0
0.254032 0.105638 0.00173953
0.304448 0.0974746 0.00726329
0.353658 0.0897231 0.0142519
0.401495 0.0822309 0.021912
0.448203 0.0750439 0.0300298
0.49395 0.0682536 0.038407
0.538979 0.0617075 0.0470588
0.583322 0.0553902 0.0558175
0.627298 0.0494545 0.0648966
0.670726 0.0436408 0.0740063
0.713817 0.0380713 0.083299
0.756588 0.0327001 0.0926986
0.799023 0.0274662 0.102205
0.84123 0.0224002 0.111849
0.883543 0.0178531 0.121935
0.925566 0.0133669 0.132036
0.967468 0.0090486 0.142321
1 0.00486763 0.152682
1 0.000900282 0.163241
1 0 0.174411
1 0 0.185672
1 0 0.197101
1 0 0.208637
1 0 0.220371
1 0 0.232441
1 0 0.245045
0 0.189654 0.0274662
0 0.183841 0.0200351
0 0.17583 0.010544
0.0373541 0.165713 0
0.0872663 0.158938 0
0.135882 0.152407 0
0.184924 0.145525 0
0.234684 0.138201 0
0.284886 0.130816 0
0.334676 0.123201 0
0.383673 0.11574 0
0.431693 0.108476 0.00546273
0.478782 0.101534 0.0135958
0.5252 0.0950637 0.0224002
0.570886 0.0888991 0.0315404
0.615732 0.082948 0.0407416
0.660075 0.0771801 0.0501564
0.70399 0.0717021 0.0597848
0.747646 0.0665751 0.0697185
0.791241 0.0619364 0.0800488
0.834379 0.0573281 0.0903792
0.877211 0.0528572 0.100755
0.919966 0.0487221 0.111421
0.962768 0.0449836 0.122454
1 0.0415808 0.133761
1 0.0385901 0.145449
1 0.0355077 0.157015
1 0.0327001 0.168841
1 0.0302434 0.180972
1 0.0280461 0.193347
1 0.0259556 0.205814
1 0.0242924 0.218677
1 0.0225376 0.231434
0 0.217945 0.0191653
0 0.212375 0.0119783
0 0.20441 0.00247196
0.0276036 0.194385 0
0.0766766 0.188022 0
0.123659 0.182239 0
0.170657 0.176501 0
0.218387 0.170443 0
0.266804 0.163867 0
0.31577 0.157031 0
0.364889 0.150118 0
0.413748 0.143252 0
0.462074 0.136629 0
0.509636 0.130205 0
0.556481 0.124041 0.00830091
0.602792 0.118288 0.0177615
0.648524 0.112856 0.0276188
0.693645 0.107652 0.037644
0.73846 0.102907 0.0481117
0.783017 0.0984817 0.0588846
0.827359 0.0944381 0.0699626
0.871519 0.0906996 0.0813153
0.915358 0.087129 0.0927443
0.958999 0.083772 0.104356
1 0.0810559 0.116564
1 0.0784161 0.128786
1 0.0760052 0.141192
1 0.0737011 0.153658
1 0.0715648 0.166278
1 0.0699779 0.179385
1 0.0683757 0.192447
1 0.066865 0.205615
1 0.0654612 0.218814
0 0.246693 0.0111391
0 0.241108 0.00393683
0 0.233341 0
0.0184634 0.22359 0
0.0672923 0.217548 0
0.113436 0.212329 0
0.159121 0.207416 0
0.205066 0.202289 0
0.25182 0.196887 0
0.299367 0.191089 0
0.347585 0.185031 0
0.396414 0.179156 0
0.445197 0.173114 0
0.493675 0.167163 0
0.541619 0.161349 0
0.589105 0.15584 0
0.636332 0.150927 0.00721752
0.683238 0.146487 0.0179294
0.729534 0.142184 0.0289006
0.775311 0.138094 0.040116
0.820737 0.134356 0.051545
0.865965 0.131044 0.0634623
0.911238 0.128252 0.0758679
0.956161 0.125597 0.0883345
1 0.122972 0.100832
1 0.120577 0.113481
1 0.118486 0.126375
1 0.116625 0.139483
1 0.115145 0.152895
1 0.113573 0.166217
1 0.112184 0.179644
1 0.111025 0.193271
1 0.110048 0.20705
0 0.275944 0.0034638
0 0.270527 0
0 0.262943 0
0.00996414 0.253483 0
0.0590982 0.248066 0
0.104997 0.24332 0
0.149737 0.238865 0
0.194537 0.234516 0
0.239979 0.230167 0
0.286351 0.225666 0
0.333669 0.220996 0
0.381506 0.215869 0
0.429938 0.210742 0
0.478752 0.205768 0
0.527703 0.200931 0
0.57644 0.196292 0
0.624842 0.191897 0
0.672755 0.187671 0.000961318
0.720378 0.183871 0.0120394
0.767636 0.180392 0.0236667
0.814404 0.177096 0.0355993
0.860929 0.174182 0.0479744
0.907134 0.171542 0.0606394
0.95288 0.169116 0.0733349
0.998413 0.166888 0.0863813
1 0.164797 0.0994583
1 0.162875 0.112718
1 0.161563 0.126528
1 0.160174 0.140185
1 0.158953 0.153979
1 0.157839 0.167849
1 0.156863 0.181827
1 0.156359 0.196231
0 0.305943 0
0 0.300893 0
0 0.293629 0
0.00267033 0.284657 0
0.0517586 0.279423 0
0.0978408 0.275242 0
0.142519 0.271565 0
0.18677 0.268025 0
0.231327 0.26453 0
0.27686 0.26128 0
0.323201 0.257816 0
0.370428 0.254185 0
0.418311 0.250263 0
0.466789 0.246235 0
0.515953 0.242573 0
0.565179 0.238743 0
0.614328 0.235019 0
0.663157 0.231342 0
0.711666 0.227863 0
0.759991 0.22475 0.00984207
0.808103 0.22208 0.0220035
0.855604 0.219364 0.0343633
0.902647 0.2168 0.0469825
0.949355 0.214481 0.0599374
0.99585 0.212467 0.0732128
1 0.210864 0.0869154
1 0.209506 0.100664
1 0.208057 0.114473
1 0.206821 0.128405
1 0.205829 0.14258
1 0.20502 0.156909
1 0.204562 0.171542
1 0.20412 0.186145
0 0.337026 0
0 0.332525 0
0 0.325841 0
0 0.31722 0
0.0460822 0.312444 0
0.0923781 0.308736 0
0.137301 0.305791 0
0.181949 0.303578 0
0.226352 0.301183 0
0.271061 0.298726 0
0.316518 0.296239 0
0.362905 0.293736 0
0.410208 0.291142 0
0.458488 0.288624 0
0.506981 0.285588 0
0.555917 0.282506 0
0.605112 0.279484 0
0.654444 0.276493 0
0.703655 0.273594 0
0.752834 0.271 0
0.80148 0.268345 0.0105898
0.849897 0.265965 0.0227359
0.897978 0.263798 0.0353704
0.945663 0.261769 0.0483558
0.993118 0.260029 0.0617838
1 0.258656 0.075639
1 0.257298 0.0895552
1 0.256138 0.1037
1 0.255085 0.117968
1 0.254246 0.132189
1 0.253925 0.147127
1 0.253422 0.161807
1 0.253056 0.176623
0 0.369909 0
0 0.365698 0
0 0.359442 0
0 0.351553 0
0.0425574 0.347662 0
0.0894484 0.344747 0
0.13492 0.342657 0
0.1794 0.340825 0
0.223743 0.339345 0
0.26833 0.337957 0
0.313298 0.336477 0
0.358862 0.334829 0
0.40557 0.333425 0
0.452796 0.331594 0
0.50071 0.329564 0
0.549126 0.327321 0
0.597955 0.324956 0
0.647425 0.322972 0
0.696849 0.320684 0
0.746258 0.31841 0
0.795468 0.316167 0.00218204
0.84445 0.314061 0.0137331
0.893294 0.312184 0.0260014
0.942168 0.310811 0.0391394
0.990387 0.30927 0.052369
1 0.307836 0.065919
1 0.306584 0.0797589
1 0.305531 0.0939345
1 0.304768 0.108446
1 0.304326 0.123278
1 0.3037 0.137987
1 0.303212 0.152743
1 0.302937 0.167544
0 0.404639 0
0 0.401221 0
0 0.395621 0
0 0.388205 0
0.0411536 0.385077 0
0.088777 0.383017 0
0.134569 0.381476 0
0.179309 0.380255 0
0.223529 0.379309 0
0.267811 0.378546 0
0.312703 0.378134 0
0.357824 0.377417 0
0.403449 0.376455 0
0.449805 0.375372 0
0.496956 0.374197 0
0.544793 0.3729 0
0.59353 0.371756 0
0.642298 0.370077 0
0.691432 0.368368 0
0.740764 0.36672 0
0.790295 0.365057 0
0.839719 0.363394 0.00761425
0.889311 0.362142 0.0195468
0.938384 0.360662 0.0317998
0.987228 0.35935 0.0446326
1 0.35816 0.057969
1 0.357076 0.0716259
1 0.356176 0.0856641
1 0.355657 0.100221
1 0.354971 0.114717
1 0.354421 0.129381
1 0.353948 0.144213
1 0.353552 0.159136
0 0.441489 0
0 0.438682 0
0 0.43386 0
0 0.427314 0
0.0417945 0.424582 0
0.089601 0.422827 0
0.135714 0.421775 0
0.180804 0.421149 0
0.225177 0.420752 0
0.269505 0.420737 0
0.313832 0.420676 0
0.358526 0.420615 0
0.403708 0.420493 0
0.449424 0.420188 0
0.495781 0.419715 0
0.543206 0.419486 0
0.590982 0.418799 0
0.639277 0.417945 0
0.687984 0.416907 0
0.737041 0.415763 0
0.786618 0.414954 0
0.836133 0.413809 0.00450141
0.885618 0.412634 0.0153201
0.934981 0.411444 0.0268406
0.984161 0.4103 0.0390021
1 0.409247 0.0517433
1 0.408682 0.0653544
1 0.407813 0.0789654
1 0.407019 0.0928969
1 0.406302 0.107088
1 0.405661 0.121508
1 0.405142 0.136126
1 0.40502 0.151217
0 0.480629 0
0 0.478218 0
0 0.474098 0
0 0.467872 0
0.0438239 0.465568 0
0.0919661 0.464225 0
0.138293 0.463493 0
0.183734 0.463432 0
0.22855 0.463767 0
0.272755 0.464088 0
0.316838 0.464485 0
0.361135 0.464897 0
0.405859 0.465354 0
0.451331 0.466026 0
0.497246 0.466423 0
0.543603 0.466499 0
0.5906 0.466407 0
0.638209 0.466209 0
0.686381 0.465858 0
0.735286 0.46566 0
0.784237 0.465034 0
0.833371 0.464271 0.00354009
0.882597 0.463478 0.0133669
0.931991 0.462608 0.024033
0.981308 0.461723 0.0354009
1 0.461204 0.0477455
1 0.460319 0.0602426
1 0.459449 0.073228
1 0.45864 0.0865949
1 0.457877 0.100313
1 0.45716 0.11429
1 0.456825 0.128847
1 0.456138 0.14316
0 0.52134 0
0 0.519677 0
0 0.515587 0
0 0.509682 0
0.047013 0.507774 0
0.095613 0.50695 0
0.142443 0.506813 0
0.188128 0.507149 0
0.232868 0.507637 0
0.277195 0.5084 0
0.321324 0.509346 0
0.365438 0.510292 0
0.409979 0.511406 0
0.454871 0.512459 0
0.500099 0.513313 0
0.545892 0.514046 0
0.592203 0.514565 0
0.639048 0.514885 0
0.686839 0.515419 0
0.734768 0.515419 0
0.783108 0.515236 0
0.831754 0.5149 0.00480659
0.880629 0.514412 0.0135805
0.929824 0.514107 0.0233463
0.978988 0.513512 0.0338598
1 0.512749 0.0449073
1 0.51194 0.0565499
1 0.511101 0.0686961
1 0.510201 0.0812695
1 0.509636 0.0946059
1 0.508782 0.107927
1 0.507897 0.121523
1 0.507012 0.135317
0 0.563546 0
0 0.562081 0
0 0.558495 0
0 0.552972 0
0.0514992 0.551354 0
0.10071 0.551186 0
0.147738 0.551339 0
0.193545 0.551919 0
0.238483 0.552743 0
0.282841 0.553796 0
0.327047 0.555169 0
0.371313 0.556817 0
0.415412 0.558206 0
0.45977 0.559518 0
0.504433 0.560739 0
0.549584 0.561883 0
0.595407 0.563073 0
0.641764 0.56408 0
0.688411 0.564691 0
0.735531 0.565072 0
0.783093 0.565255 0.000732433
0.831037 0.56524 0.00762951
0.879545 0.565316 0.01561
0.928161 0.565087 0.0242618
0.976761 0.564569 0.0334783
1 0.563912 0.0433356
1 0.563104 0.0539559
1 0.562234 0.0651102
1 0.561608 0.0771191
1 0.560632 0.08925
1 0.559503 0.101656
1 0.558312 0.114382
1 0.557168 0.127428
0 0.606958 0
0 0.605768 0
0 0.602502 0
0.00463874 0.597421 0
0.057557 0.596551 0
0.10663 0.596323 0
0.153826 0.596689 0
0.199832 0.597543 0
0.244984 0.598733 0
0.28957 0.600183 0
0.333928 0.601999 0
0.377768 0.603616 0
0.421607 0.605295 0
0.465599 0.606958 0
0.50985 0.608515 0
0.554543 0.610117 0
0.59971 0.611658 0
0.64509 0.612772 0
0.690944 0.613687 0
0.73727 0.614404 0.000534066
0.784009 0.614878 0.00573739
0.831495 0.615488 0.0120241
0.87892 0.615488 0.0186465
0.926635 0.615259 0.0260166
0.974578 0.614878 0.0341344
1 0.614298 0.0429541
1 0.613748 0.0524605
1 0.612924 0.0626688
1 0.611826 0.0731823
1 0.610651 0.0842756
1 0.609384 0.0957504
1 0.60795 0.1075
1 0.606653 0.119814
0 0.651576 0.00363165
0 0.650721 0.00114443
0 0.6477 0
0.0112154 0.643198 0
0.0640574 0.642283 0
0.113436 0.642359 0
0.16083 0.643 0
0.206912 0.644022 0
0.252506 0.645747 0
0.297063 0.647334 0
0.341146 0.649058 0
0.384894 0.650889 0
0.428458 0.65272 0
0.472099 0.654582 0
0.516197 0.656672 0
0.560189 0.65832 0
0.604501 0.659846 0
0.649134 0.661173 0
0.694133 0.662257 0.00311284
0.739651 0.663233 0.00697337
0.785748 0.664134 0.0116121
0.831983 0.664561 0.0166171
0.878538 0.664698 0.0222629
0.925368 0.664546 0.0285039
0.972412 0.664149 0.0354162
1 0.663737 0.043183
1 0.663157 0.0516213
1 0.66215 0.0604257
1 0.660929 0.0696422
1 0.659495 0.07953
1 0.657969 0.0898756
1 0.656565 0.100862
1 0.654887 0.112047
0 0.697108 0.0111696
0 0.696895 0.009308
0 0.694224 0.00502022
0.0183261 0.689555 0
0.0712902 0.688777 0
0.120775 0.689021 0
0.168307 0.689845 0
0.214893 0.691432 0
0.260136 0.692882 0
0.304646 0.69453 0
0.348623 0.69633 0
0.392218 0.698222 0
0.435569 0.70016 0
0.479179 0.702464 0
0.522423 0.70428 0.00125124
0.565835 0.705959 0.00309758
0.60943 0.707515 0.00515755
0.65333 0.708919 0.0075227
0.697643 0.710216 0.0103151
0.742458 0.711467 0.0137026
0.787305 0.712108 0.0172274
0.832532 0.71252 0.0212863
0.878126 0.712718 0.0259556
0.924041 0.712657 0.03122
0.97052 0.712627 0.0373693
1 0.711925 0.0437171
1 0.710994 0.0506752
1 0.709911 0.0583047
1 0.708598 0.066453
1 0.707179 0.0750591
1 0.705547 0.0844129
1 0.703563 0.0939193
1 0.701518 0.103914
0 0.743832 0.0198367
0 0.743496 0.0178683
0 0.740948 0.0136721
0.0259098 0.736461 0.00758373
0.078996 0.735821 0.00537118
0.128542 0.736141 0.0041352
0.176455 0.737392 0.00387579
0.222644 0.738613 0.00364691
0.267842 0.740124 0.00376898
0.312276 0.741802 0.00415045
0.356115 0.743603 0.00477607
0.399847 0.7458 0.0059205
0.442893 0.747677 0.00691234
0.485725 0.749538 0.00808728
0.528511 0.751369 0.00949111
0.571344 0.753063 0.0110781
0.614298 0.754559 0.0128328
0.65774 0.756222 0.0150607
0.701091 0.757366 0.0172274
0.744793 0.758328 0.0197147
0.788739 0.759014 0.0225681
0.832975 0.75938 0.0257877
0.877516 0.759472 0.0294804
0.922683 0.759609 0.0339818
0.967865 0.759228 0.0387579
1 0.758511 0.0440528
1 0.757458 0.0498054
1 0.756115 0.0560922
1 0.754696 0.0630655
1 0.753231 0.0707408
1 0.751263 0.0786145
1 0.749035 0.0867781
1 0.746578 0.095552
0 0.79089 0.0287633
0 0.790585 0.0268406
0 0.788083 0.0226902
0.0337072 0.783627 0.0166323
0.0870527 0.783276 0.0146792
0.136721 0.783734 0.0135805
0.184222 0.784604 0.0129244
0.23032 0.785794 0.0126497
0.275349 0.787198 0.0126497
0.319585 0.788754 0.0128786
0.363546 0.790768 0.0136568
0.406729 0.792599 0.0143587
0.449454 0.794354 0.0151217
0.491859 0.796033 0.0160067
0.534066 0.797665 0.0170291
0.576303 0.799222 0.0182498
0.618952 0.801022 0.0200351
0.661372 0.802228 0.0215763
0.703868 0.803189 0.0231632
0.746578 0.803922 0.024979
0.789609 0.804501 0.0271305
0.832929 0.804837 0.0296483
0.876814 0.805158 0.0328069
0.920562 0.804807 0.035996
0.964614 0.804181 0.0396429
1 0.803357 0.0438544
1 0.802258 0.0485847
1 0.801129 0.0540475
1 0.799344 0.0596323
1 0.797345 0.0657511
1 0.795178 0.0724498
1 0.792798 0.0795911
1 0.790234 0.0870527
0 0.838071 0.0377661
0 0.837797 0.0358434
0 0.835294 0.0317388
0.0417029 0.831052 0.0258793
0.0948501 0.830533 0.023743
0.144259 0.830747 0.0224002
0.191592 0.831464 0.0215915
0.237537 0.832547 0.0211948
0.282414 0.83386 0.0210727
0.326787 0.835615 0.0214694
0.370077 0.837064 0.0216373
0.412833 0.838575 0.021973
0.455207 0.840146 0.0224765
0.497246 0.841688 0.0231022
0.539254 0.843366 0.0240482
0.58088 0.844709 0.0248875
0.622431 0.845869 0.025803
0.664088 0.846922 0.0269169
0.705913 0.847761 0.0281376
0.747784 0.848325 0.0293889
0.790097 0.848905 0.0310979
0.832395 0.848997 0.0328222
0.874998 0.84889 0.0348974
0.91783 0.848463 0.0372931
0.960845 0.847669 0.0399939
1 0.846571 0.0430762
1 0.845533 0.046952
1 0.843976 0.0510719
1 0.84213 0.0556039
1 0.839902 0.0605325
1 0.837415 0.065919
1 0.834775 0.0718547
1 0.832151 0.0784619
0 0.885267 0.0467384
0 0.885008 0.0448463
0 0.882643 0.0408331
0.0491798 0.878035 0.0346075
0.102068 0.877241 0.0322118
0.151324 0.877317 0.0307317
0.198428 0.877836 0.0297093
0.244236 0.878828 0.0292058
0.288975 0.880049 0.0289769
0.332723 0.881254 0.0287785
0.375723 0.882506 0.0287175
0.418097 0.883726 0.0287175
0.459968 0.884916 0.0287785
0.501747 0.886366 0.0292363
0.543145 0.887663 0.0296941
0.584176 0.888731 0.0300908
0.625025 0.889586 0.030518
0.665858 0.890242 0.0310216
0.706844 0.890806 0.0317388
0.748241 0.891478 0.0328374
0.789487 0.89163 0.0337377
0.830777 0.891432 0.034699
0.872297 0.890974 0.0359045
0.914122 0.890333 0.0374762
0.956222 0.889448 0.0393988
0.998795 0.888502 0.0419013
1 0.8869 0.044419
1 0.885054 0.047364
1 0.882994 0.0508278
1 0.880629 0.0546731
1 0.878065 0.0590524
1 0.874815 0.0634318
1 0.871321 0.0682536
0 0.932143 0.055314
0 0.931945 0.0534829
0 0.929152 0.0490578
0.0559243 0.9243 0.0425879
0.108507 0.923217 0.0399023
0.157504 0.923064 0.0381628
0.204532 0.923537 0.0370947
0.250095 0.924315 0.0363622
0.29427 0.925002 0.035584
0.33756 0.925795 0.0349737
0.380179 0.926741 0.0345769
0.422232 0.927718 0.034287
0.464027 0.928954 0.0343328
0.505013 0.929763 0.0340734
0.545678 0.930526 0.0339055
0.586145 0.931273 0.033875
0.626459 0.931914 0.0339361
0.666804 0.932494 0.034165
0.707042 0.932784 0.0343786
0.74728 0.932784 0.0345922
0.787671 0.932647 0.0349432
0.828199 0.932296 0.0354009
0.868818 0.931624 0.035935
0.909789 0.930846 0.0368658
0.950896 0.929717 0.0379492
0.992218 0.928298 0.0393378
1 0.926497 0.04094
1 0.924224 0.04271
1 0.921553 0.0447395
1 0.918868 0.0474403
1 0.91574 0.05037
1 0.912169 0.0535439
1 0.908141 0.0569314
0 0.978607 0.063447
0 0.977829 0.0610361
0 0.974823 0.0563821
0.061799 0.969772 0.0497139
0.114137 0.968444 0.0467842
0.163027 0.9682 0.0449683
0.209506 0.968139 0.0433509
0.254536 0.968429 0.0421149
0.298421 0.968856 0.041062
0.341314 0.969299 0.0400702
0.38352 0.969879 0.0392767
0.425284 0.970657 0.0387427
0.466331 0.971252 0.038117
0.50692 0.971771 0.0375219
0.547051 0.972152 0.0368963
0.586847 0.972412 0.036286
0.626642 0.972793 0.0359655
0.666362 0.973083 0.0357366
0.705837 0.973022 0.0354009
0.745235 0.972686 0.0350652
0.784741 0.972122 0.0348058
0.824384 0.971435 0.034638
0.864347 0.970718 0.0347753
0.904204 0.969497 0.0348058
0.943999 0.967742 0.0347906
0.983932 0.965667 0.0349432
1 0.963394 0.035462
1 0.960815 0.0362554
1 0.958007 0.0374151
1 0.954482 0.0384985
1 0.950652 0.0399176
1 0.946639 0.0418097
1 0.942351 0.0441138
0 1 0.0704356
0 1 0.0677043
0.000183108 1 0.0626383
0.0664683 1 0.0556191
0.118807 1 0.0527047
0.167086 1 0.0502937
0.213138 1 0.0482643
0.257664 1 0.0465248
0.301122 1 0.0450599
0.34374 1 0.0438544
0.385702 1 0.0428473
0.426719 1 0.0416114
0.467185 1 0.0404212
0.507286 1 0.0393835
0.54699 1 0.0384222
0.586587 1 0.0376898
0.625574 1 0.0366522
0.664393 1 0.0356909
0.703182 1 0.0348516
0.741909 1 0.0340276
0.780545 1 0.0331731
0.819211 1 0.0323033
0.857771 1 0.031281
0.896513 1 0.0304417
0.935317 1 0.0296483
0.974105 1 0.0288396
1 0.997971 0.0282292
1 0.994827 0.027863
1 0.991409 0.0277714
1 0.987686 0.0279545
1 0.983581 0.028397
1 0.979187 0.0291295
1 0.974716 0.0304417
0 1 0.0761883
0 1 0.0731975
0.00442512 1 0.0681315
0.0702525 1 0.0606546
0.121782 1 0.0569162
0.169696 1 0.054139
0.215427 1 0.0518196
0.259556 1 0.0496986
0.302785 1 0.0480354
