EA 50 Cinematic Luts Pack/EA_Cinematic Lut (50).cube
TITLE "If you need a gloomy and shadowy brisk cinematic look this grade is what you are looking for. "
LUT_3D_SIZE 5
0.0000 0.0000 0.0000
0.1022 0.0695 0.0600
0.2246 0.1641 0.1767
0.3707 0.2640 0.3103
0.5558 0.3726 0.4465
0.0488 0.1867 0.1025
0.1299 0.1962 0.2145
0.2868 0.2346 0.2339
0.4358 0.3104 0.3501
0.6057 0.4071 0.4747
0.1591 0.3883 0.2869
0.1889 0.4016 0.2525
0.3061 0.4134 0.4856
0.5575 0.4476 0.4456
0.7020 0.5198 0.5522
0.2717 0.6381 0.4747
0.2907 0.6484 0.4523
0.3675 0.6730 0.4429
0.5346 0.6826 0.7548
0.8129 0.7127 0.6735
0.4944 0.9071 0.6933
0.5421 0.9074 0.6991
0.6544 0.9108 0.7260
0.8037 0.9150 0.8375
0.9246 0.9450 0.9614
0.0029 0.0365 0.0818
0.1031 0.0746 0.2059
0.2345 0.1689 0.2112
0.3796 0.2669 0.3306
0.5630 0.3746 0.4612
0.0000 0.1931 0.2206
0.1364 0.1993 0.2759
0.2895 0.2393 0.2714
0.4319 0.3162 0.3734
0.6109 0.4091 0.4895
0.1297 0.3935 0.3559
0.2078 0.3956 0.3887
0.3359 0.4132 0.4741
0.5607 0.4501 0.4657
0.7168 0.5178 0.5616
0.2559 0.6414 0.5140
0.3100 0.6422 0.5419
0.3920 0.6662 0.5300
0.5511 0.6830 0.7528
0.8154 0.7141 0.6879
0.4776 0.9113 0.7113
0.5310 0.9112 0.7116
0.6510 0.9138 0.7336
0.8036 0.9180 0.8366
0.9270 0.9468 0.9627
0.0318 0.1011 0.2070
0.0764 0.1274 0.3131
0.2254 0.1814 0.4259
0.4006 0.2784 0.3883
0.5789 0.3830 0.5009
0.0859 0.2038 0.3485
0.1341 0.2180 0.3854
0.2741 0.2525 0.4463
0.4578 0.3237 0.4347
0.6270 0.4156 0.5327
0.0631 0.4058 0.4955
0.1433 0.4115 0.5180
0.3250 0.4209 0.5883
0.5687 0.4578 0.5281
0.7574 0.5122 0.6044
0.1523 0.6561 0.6466
0.2239 0.6586 0.6516
0.3793 0.6655 0.7024
0.6261 0.6802 0.7169
0.8304 0.7178 0.7152
0.3762 0.9285 0.7751
0.4578 0.9269 0.7715
0.6300 0.9249 0.7670
0.8013 0.9283 0.8345
0.9344 0.9524 0.9671
0.0814 0.1659 0.3315
0.1080 0.1854 0.3906
0.1952 0.2262 0.5622
0.3748 0.2963 0.6405
0.6033 0.3999 0.5717
0.1278 0.2394 0.4394
0.1571 0.2534 0.4698
0.2348 0.2862 0.6058
0.4161 0.3437 0.6696
0.6488 0.4309 0.6090
0.1942 0.4101 0.6144
0.2264 0.4174 0.6373
0.3226 0.4395 0.6967
0.5429 0.4752 0.7053
0.7784 0.5200 0.7010
0.1171 0.6695 0.7683
0.1717 0.6741 0.7808
0.3077 0.6862 0.8219
0.5999 0.6918 0.8624
0.8685 0.7184 0.7854
0.0000 0.9611 0.9153
0.0000 0.9693 0.9155
0.3619 0.9712 0.8879
0.7814 0.9484 0.8601
0.9476 0.9630 0.9753
0.1345 0.2321 0.4517
0.1536 0.2471 0.4909
0.2146 0.2870 0.6080
0.3438 0.3390 0.7870
0.5651 0.4213 0.8505
0.1734 0.2890 0.5349
0.1909 0.3010 0.5696
0.2489 0.3339 0.6749
0.3783 0.3748 0.8523
0.5999 0.4551 0.8792
0.2544 0.4358 0.7124
0.2683 0.4447 0.7362
0.3222 0.4672 0.8214
0.4977 0.4984 0.9073
0.6821 0.5679 0.9011
0.2715 0.6717 0.8815
0.2825 0.6789 0.8970
0.3879 0.6923 0.9300
0.6462 0.7024 0.9403
0.8130 0.7504 0.9406
0.4537 0.9392 0.9878
0.4990 0.9413 0.9878
0.6165 0.9477 0.9876
0.7808 0.9602 0.9877
0.9675 0.9716 0.9878
