EA 50 Cinematic Luts Pack/EA_Cinematic Lut (25).cube
TITLE "Generated by Resolve"
LUT_3D_SIZE 9
0 0 0
0 0 0
0.102525 0 0
0.236316 0 0
0.372305 0 0
0.517037 0 0
0.656733 0 0
0.787381 0 0
0.917433 0 0
0.00486763 0.0485695 0
0.0248264 0.0719005 0
0.0940566 0.0848096 0
0.22623 0.0787823 0
0.36141 0.06981 0
0.50663 0.0597696 0
0.647852 0.0517281 0
0.781064 0.0476234 0
0.914916 0.0451667 0
0 0.163104 0
0.0403906 0.171847 0
0.108263 0.18497 0
0.223407 0.186236 0
0.361212 0.180652 0
0.509941 0.174609 0
0.656107 0.171939 0
0.793835 0.172717 0
0.931991 0.174914 0
0 0.284581 0
0.0123751 0.297383 0
0.102144 0.308827 0
0.219928 0.313878 0
0.36202 0.31371 0
0.514183 0.31191 0
0.662913 0.312398 0
0.802991 0.315984 0
0.942748 0.320211 0
0 0.419913 0
0.00117494 0.437201 0
0.0950027 0.451621 0
0.216114 0.459983 0
0.360067 0.462547 0
0.513954 0.463416 0
0.663432 0.4654 0
0.80415 0.470253 0
0.943877 0.474937 0
0 0.568933 0
0 0.588266 0
0.0930495 0.60415 0
0.216007 0.613718 0
0.360922 0.617426 0
0.514458 0.618647 0
0.663417 0.620905 0
0.802533 0.624826 0
0.940627 0.628473 0
0 0.720806 0
0.00495918 0.740322 0
0.10219 0.756359 0
0.224948 0.76492 0
0.369192 0.76762 0
0.520897 0.767254 0
0.667445 0.767666 0
0.803677 0.769375 0
0.938628 0.77052 0
0 0.867521 0
0.023331 0.885847 0
0.119249 0.899855 0
0.240635 0.906294 0
0.382452 0.905989 0
0.53167 0.902968 0
0.674861 0.900282 0
0.808301 0.899702 0
0.940383 0.898528 0
0 1 0
0.0380255 1 0
0.131365 1 0
0.250462 1 0
0.390158 1 0
0.537545 1 0
0.679133 1 0
0.811231 1 0
0.942214 1 0
0 0 0.0140841
0 0 0.011841
0.0920119 0 0.0369116
0.24004 0 0.0350347
0.375799 0 0.0150912
0.520256 0 0
0.660243 0 0
0.79089 0 0
0.921447 0 0
0 0.0519722 0.0333715
0.0319219 0.0691997 0.0571908
0.0681773 0.0875563 0.0636301
0.208972 0.076997 0.0411231
0.363882 0.0623484 0.0145418
0.508629 0.0521401 0
0.650034 0.0446021 0
0.783581 0.0411688 0
0.91783 0.0394446 0
0 0.154467 0.0509346
0.0724041 0.156237 0.101061
0.109224 0.17615 0.115221
0.207965 0.183749 0.0721294
0.365438 0.17464 0.0283055
0.514199 0.168582 0.010544
0.660502 0.166049 0
0.798718 0.167346 0
0.937072 0.169802 0
0 0.280324 0.0279393
0.0343175 0.285786 0.0663615
0.122774 0.296513 0.0950637
0.224262 0.308431 0.0775006
0.368124 0.310033 0.0417182
0.519631 0.307454 0.0271916
0.668315 0.307805 0.01561
0.808301 0.311315 0.00717174
0.948348 0.315831 0
0 0.416861 0.0178683
0.00547799 0.434058 0.0409247
0.101549 0.448493 0.0544747
0.222995 0.456809 0.0565957
0.366812 0.459495 0.0491035
0.519936 0.459693 0.037583
0.669261 0.461494 0.0273136
0.809873 0.466194 0.0198825
0.949447 0.470726 0.0122835
0 0.566629 0.0163882
0.00123598 0.585489 0.0400702
0.0991684 0.600977 0.0554055
0.222812 0.610407 0.0606851
0.36733 0.613779 0.0559854
0.520531 0.614923 0.046479
0.668849 0.616648 0.0364538
0.807904 0.620569 0.0282139
0.945495 0.623713 0.019089
0 0.71873 0.0286717
0.00943008 0.737682 0.051667
0.107759 0.752956 0.0672465
0.231174 0.761151 0.0725872
0.375296 0.7635 0.0687114
0.526528 0.76286 0.0589609
0.672541 0.762982 0.0481727
0.808255 0.76434 0.037705
0.942794 0.765103 0.026276
0 0.865019 0.0518044
0.0271458 0.882582 0.072755
0.124086 0.895949 0.0867781
0.24564 0.901473 0.0903487
0.387625 0.900893 0.084947
0.536233 0.897276 0.0737621
0.679225 0.894621 0.061387
0.812085 0.893706 0.0493477
0.944015 0.892546 0.0363012
0 1 0.0719005
0.0409552 1 0.0899519
0.135073 1 0.100954
0.254643 1 0.102495
0.394568 1 0.0953231
0.541878 1 0.0836194
0.683268 1 0.0707408
0.815076 1 0.0588693
0.94583 1 0.0457313
0 0 0.189517
0.0205844 0 0.172702
0.115145 0 0.160388
0.246555 0 0.16228
0.38201 0 0.142275
0.526268 0 0.119997
0.666209 0 0.0994583
0.796887 0 0.0816205
0.927596 0 0.0648203
0 0.0708476 0.12311
0.000640879 0.0746166 0.138231
0.0794232 0.0868086 0.134874
0.201511 0.0779583 0.15198
0.370871 0.0574197 0.143038
0.515496 0.0469825 0.121279
0.657282 0.0397192 0.102708
0.791379 0.0366827 0.0883803
0.926543 0.0357671 0.0761578
0 0.155535 0.150881
0.0502327 0.160189 0.162127
0.120439 0.177569 0.186099
0.186816 0.191241 0.187839
0.353323 0.177996 0.162661
0.521965 0.1664 0.139147
0.667613 0.163516 0.124346
0.806088 0.165423 0.114305
0.944335 0.168093 0.105058
0 0.274678 0.135409
0.0407874 0.281163 0.175738
0.160525 0.286641 0.229572
0.231342 0.30573 0.242908
0.358526 0.313375 0.199878
0.529412 0.306996 0.158785
0.677043 0.306264 0.146334
0.817075 0.309789 0.138155
0.957214 0.314458 0.131121
0 0.413428 0.127794
0.00271611 0.43418 0.16025
0.12871 0.44213 0.201144
0.248585 0.449454 0.226444
0.375937 0.458854 0.206363
0.530282 0.460243 0.170382
0.67863 0.460945 0.159136
0.818463 0.46482 0.151064
0.958206 0.46949 0.143801
0 0.565469 0.130068
0.00204471 0.586267 0.161883
0.107774 0.602152 0.183612
0.233478 0.611383 0.191974
0.378332 0.614725 0.18912
0.530785 0.615396 0.179599
0.677958 0.616068 0.168551
0.816449 0.619379 0.159792
0.953643 0.622095 0.150393
0 0.718532 0.144747
0.0122225 0.738628 0.175082
0.115282 0.753231 0.194507
0.240299 0.760998 0.202121
0.384619 0.762707 0.19968
0.535637 0.761913 0.190799
0.680598 0.761227 0.179477
0.816007 0.762402 0.168902
0.949905 0.7626 0.156939
0 0.865293 0.169558
0.0307317 0.882994 0.196826
0.130953 0.895689 0.213565
0.253544 0.900404 0.218585
0.395895 0.899153 0.214496
0.544305 0.895109 0.204227
0.686854 0.892226 0.192233
0.819226 0.891051 0.180148
0.950851 0.889754 0.167041
0 1 0.190326
0.0443885 1 0.213886
0.140917 1 0.226932
0.261234 1 0.229496
0.401968 1 0.22385
0.549264 1 0.213092
0.690684 1 0.20116
0.822187 1 0.189639
0.952758 1 0.17673
0 0 0.36437
0.00486763 0 0.373724
0.133608 0 0.337407
0.252201 0 0.3037
0.387304 0 0.279362
0.531609 0 0.257328
0.67158 0 0.237064
0.80235 0 0.219577
0.933227 0 0.20322
0 0.0709239 0.294347
0 0.0663615 0.315175
0.098436 0.0670634 0.301854
0.222644 0.0666361 0.284352
0.376257 0.0512703 0.280064
0.520928 0.0410315 0.258595
0.663249 0.0344549 0.240833
0.797772 0.0319982 0.227222
0.933577 0.0318303 0.21593
0 0.164111 0.240543
0 0.170535 0.254246
0.0854353 0.179263 0.274327
0.198291 0.190707 0.270222
0.346975 0.180056 0.285527
0.530175 0.162692 0.279759
0.675563 0.159457 0.265202
0.814374 0.161563 0.255985
0.953048 0.164538 0.247684
0 0.259495 0.257267
0 0.27538 0.279744
0.136629 0.288869 0.299825
0.244251 0.308827 0.326375
0.338628 0.322118 0.327733
0.51838 0.311437 0.305135
0.685069 0.304326 0.286091
0.824262 0.307347 0.277195
0.964141 0.312078 0.269993
0 0.400198 0.241184
0 0.424552 0.274632
0.134463 0.436774 0.320699
0.287083 0.440314 0.37261
0.383673 0.456794 0.383337
0.521096 0.464012 0.339864
0.68838 0.460472 0.30161
0.826596 0.462654 0.292073
0.966018 0.467018 0.284733
0 0.557153 0.245472
0 0.579538 0.279408
0.104372 0.601633 0.313207
0.260258 0.604639 0.349172
0.4038 0.607248 0.369741
0.539391 0.614206 0.347234
0.687724 0.616037 0.311681
0.824186 0.617197 0.300893
0.96083 0.619303 0.291066
0 0.713436 0.263584
0 0.735012 0.2972
0.114702 0.752621 0.325841
0.247868 0.761105 0.340169
0.39408 0.762478 0.340673
0.545281 0.761486 0.333471
0.689204 0.760052 0.321859
0.823102 0.759808 0.309895
0.956161 0.759136 0.297154
0 0.861311 0.290486
0.0197452 0.880522 0.321523
0.131579 0.894469 0.345724
0.259266 0.898894 0.354971
0.40296 0.896925 0.352865
0.551858 0.892546 0.344335
0.693797 0.889113 0.332815
0.825635 0.887663 0.320729
0.956893 0.886122 0.307424
0 0.999481 0.31284
0.0357061 1 0.339712
0.142275 1 0.359686
0.266087 1 0.365179
0.40798 1 0.36112
0.55581 1 0.351843
0.697337 1 0.341115
0.828428 1 0.329992
0.958923 1 0.317479
0 0 0.528481
0 0 0.543236
0.116167 0 0.51754
0.253285 0 0.471916
0.391974 0 0.434913
0.536049 0 0.407691
0.675929 0 0.387091
0.80705 0 0.370169
0.937972 0 0.354116
0 0.0674449 0.454368
0 0.0566262 0.494011
0.0742809 0.0476844 0.507988
0.236728 0.0462196 0.470588
0.380163 0.0425879 0.433326
0.525444 0.0338903 0.408499
0.668467 0.0281376 0.391608
0.803708 0.0265354 0.378958
0.939941 0.0269322 0.368353
0 0.161181 0.380255
0 0.160754 0.429175
0.0318608 0.162387 0.456214
0.213519 0.167178 0.446983
0.368292 0.168933 0.431662
0.535988 0.15697 0.430777
0.681971 0.154498 0.41706
0.820768 0.156725 0.408133
0.95996 0.160372 0.40061
0 0.258457 0.353933
0 0.275731 0.374746
0.0299535 0.292638 0.398932
0.206561 0.307851 0.425498
0.350729 0.322194 0.424308
0.512367 0.313848 0.441886
0.693263 0.300618 0.440269
0.831876 0.302953 0.431281
0.971878 0.307683 0.424704
0 0.383246 0.37734
0 0.400381 0.401068
0.0574197 0.423072 0.430365
0.260609 0.439979 0.453849
0.396475 0.4598 0.480278
0.501472 0.47303 0.481575
0.676905 0.464454 0.461067
0.833997 0.460105 0.444785
0.971878 0.463233 0.435996
0 0.541421 0.373419
0 0.558938 0.398978
0.0602274 0.586358 0.435523
0.263996 0.597284 0.480293
0.441703 0.597513 0.528893
0.546258 0.611276 0.536889
0.677562 0.618814 0.493751
0.832456 0.615244 0.455451
0.966918 0.615106 0.443595
0 0.701167 0.390066
0 0.721141 0.42063
0.085893 0.741863 0.452903
0.24213 0.758251 0.480995
0.419699 0.754574 0.510277
0.569177 0.752422 0.526101
0.696223 0.757275 0.501472
0.830869 0.757778 0.464591
0.961822 0.754864 0.449729
0 0.851652 0.418296
0 0.871 0.449516
0.112001 0.886976 0.477546
0.256046 0.895628 0.497215
0.408133 0.894652 0.502098
0.559274 0.890272 0.496834
0.701411 0.886656 0.487022
0.832364 0.884611 0.474784
0.961913 0.881437 0.459892
0 0.991028 0.442023
0.0117189 1 0.470481
0.127993 1 0.494621
0.2645 1 0.50869
0.411765 1 0.509117
0.561181 1 0.502068
0.703395 1 0.493278
0.83418 1 0.482948
0.964141 1 0.470436
0 0 0.693599
0 0 0.711528
0.087953 0 0.696513
0.244465 0 0.650278
0.394614 0 0.601968
0.541253 0 0.564736
0.680583 0 0.538308
0.811963 0 0.520684
0.943175 0 0.505119
0 0.0688029 0.619516
0 0.0535439 0.653986
0.0306554 0.039353 0.670207
0.213931 0.0324712 0.64509
0.379217 0.0302129 0.599268
0.530526 0.0259861 0.564218
0.673671 0.0216068 0.542489
0.809888 0.0210422 0.530602
0.946441 0.0218967 0.520531
0 0.1626 0.543008
0 0.151675 0.583383
0 0.145266 0.62742
0.18323 0.141665 0.646738
0.381094 0.147219 0.616358
0.541115 0.149508 0.585016
0.68809 0.148928 0.568322
0.827405 0.151827 0.560082
0.967025 0.156039 0.553231
0 0.269596 0.471748
0 0.267918 0.509346
0 0.275944 0.56672
0.146517 0.284489 0.600671
0.364096 0.296818 0.598978
0.53402 0.303059 0.588144
0.699931 0.29575 0.591913
0.838712 0.298405 0.583322
0.978759 0.303334 0.577081
0 0.385992 0.487037
0 0.393362 0.491524
0 0.415427 0.517113
0.147112 0.436912 0.545892
0.355749 0.455756 0.576104
0.513893 0.473442 0.578225
0.670909 0.46688 0.597604
0.842145 0.456336 0.598672
0.978653 0.458 0.589014
0 0.526833 0.513176
0 0.53492 0.527871
0 0.552819 0.552346
0.179522 0.57615 0.582269
0.412284 0.594217 0.606928
0.559304 0.614527 0.633844
0.657725 0.627634 0.635004
0.820508 0.618753 0.614206
0.973266 0.611505 0.595026
0 0.684672 0.520195
0 0.698741 0.54168
0.0183871 0.713664 0.56463
0.191989 0.736996 0.597086
0.421271 0.745037 0.638972
0.606088 0.741711 0.684016
0.702464 0.753735 0.690272
0.819532 0.759396 0.645258
0.968963 0.751781 0.60293
0 0.836637 0.544015
0 0.853269 0.570306
0.0640879 0.867964 0.595605
0.222873 0.880522 0.619699
0.400488 0.889906 0.640787
0.583886 0.881361 0.665202
0.724544 0.876844 0.678645
0.838834 0.881285 0.65362
0.969177 0.878904 0.613855
0 0.977737 0.566934
0 0.993149 0.593622
0.0929427 1 0.61825
0.242161 1 0.637507
0.406989 1 0.649577
0.566064 1 0.650782
0.710414 1 0.645167
0.841871 1 0.637018
0.970886 1 0.624262
0 0 0.844709
0 0 0.864942
0.05626 0 0.858137
0.226261 0 0.817746
0.391318 0 0.764004
0.545663 0 0.717037
0.687297 0 0.682628
0.818204 0 0.659373
0.949767 0 0.642374
0 0.0719768 0.77171
0 0.0563058 0.805081
0 0.0393225 0.822339
0.183307 0.0257267 0.806546
0.369253 0.0195315 0.761364
0.534157 0.0170748 0.717144
0.681239 0.0157321 0.686778
0.81738 0.0166629 0.66952
0.954253 0.0178988 0.658808
0 0.166995 0.695415
0 0.154696 0.735073
0 0.140597 0.770687
0.136217 0.129931 0.790433
0.3561 0.131289 0.773556
0.541207 0.13817 0.736873
0.69575 0.143618 0.711513
0.835386 0.148089 0.698619
0.975341 0.152682 0.69189
0 0.277562 0.61677
0 0.271077 0.658701
0 0.263874 0.7028
0.0869764 0.261646 0.751034
0.328679 0.266178 0.778485
0.545739 0.280262 0.756634
0.706203 0.289433 0.732174
0.845899 0.293935 0.720546
0.986755 0.299779 0.715267
0 0.403265 0.572122
0 0.404517 0.594217
0 0.403128 0.63212
0.0555734 0.413031 0.691356
0.289021 0.425727 0.729473
0.524926 0.445716 0.735424
0.693263 0.456779 0.729427
0.849393 0.452049 0.735775
0.985916 0.453895 0.726375
0 0.528634 0.614786
0 0.535119 0.619883
0 0.539361 0.621241
0.0558175 0.560403 0.645823
0.291646 0.584024 0.676722
0.515511 0.607431 0.711482
0.670085 0.62797 0.716472
0.814847 0.62153 0.735973
0.981018 0.60734 0.733394
0 0.671687 0.647257
0 0.679149 0.661311
0 0.682216 0.67097
0.102281 0.693904 0.68925
0.328923 0.716045 0.717983
0.573785 0.735546 0.74406
0.715557 0.757031 0.772152
0.799756 0.768261 0.77145
0.956985 0.755261 0.746517
0 0.820417 0.661952
0 0.830915 0.679469
0 0.838895 0.694865
0.147677 0.844617 0.708614
0.344961 0.863249 0.73637
0.583612 0.869978 0.776944
0.761975 0.866651 0.821958
0.845563 0.878218 0.827787
0.958923 0.88159 0.780468
0 0.961486 0.678599
0 0.973465 0.69955
0.0341344 0.983444 0.719173
0.189899 0.989746 0.736095
0.370916 0.996139 0.754025
0.55816 1 0.77406
0.735897 0.996719 0.799283
0.86627 0.994263 0.814786
0.978637 0.998215 0.789258
0 0 0.978714
0 0 0.999969
0.0240482 0 0.998779
0.20209 0 0.96614
0.380987 0 0.912734
0.546288 0 0.859007
0.693874 0 0.816648
0.826642 0 0.786572
0.958175 0 0.764767
0 0.0764477 0.905913
0 0.0604868 0.93843
0 0.0424506 0.956847
0.151064 0.0247044 0.948013
0.35082 0.0131228 0.90901
0.531731 0.00900282 0.860456
0.688106 0.00946059 0.821942
0.827344 0.0128481 0.797498
0.963867 0.0154116 0.781277
0 0.172839 0.830655
0 0.16054 0.870329
0 0.14612 0.904952
0.101106 0.131411 0.924483
0.325124 0.124193 0.915068
0.532143 0.128389 0.880278
0.701259 0.136584 0.846708
0.845609 0.144869 0.825971
0.985046 0.150515 0.813413
0 0.285847 0.751827
0 0.279438 0.795514
0 0.2701 0.838102
0.045182 0.25655 0.874266
0.277928 0.250706 0.898848
0.517861 0.261448 0.891356
0.706279 0.27808 0.864408
0.855131 0.290166 0.845685
0.996277 0.297581 0.835752
0 0.417044 0.681834
0 0.414496 0.721645
0 0.407416 0.763012
0 0.396689 0.803571
0.223224 0.396628 0.853971
0.483238 0.408804 0.889067
0.703258 0.432273 0.876616
0.855894 0.44596 0.856672
0.993881 0.450172 0.844755
0 0.547524 0.673259
0 0.552438 0.685435
0 0.549844 0.70367
0 0.542687 0.73579
0.19205 0.552087 0.794537
0.441169 0.569787 0.837644
0.677867 0.596994 0.850828
0.83682 0.611048 0.847807
0.988037 0.602823 0.85066
0 0.672984 0.73463
0 0.67863 0.741009
0 0.678691 0.739666
0.00378424 0.673732 0.731823
0.196155 0.691234 0.752865
0.445655 0.717861 0.78677
0.667964 0.746136 0.826398
0.812131 0.768612 0.833341
0.951202 0.7579 0.848554
0 0.80853 0.770916
0 0.813443 0.782422
0 0.813489 0.789059
0.0609903 0.805097 0.787274
0.24538 0.810269 0.799039
0.48336 0.833097 0.828443
0.727047 0.857832 0.859785
0.859281 0.882155 0.8907
0.940185 0.891493 0.888106
0 0.945724 0.779568
0 0.952361 0.793011
0 0.955917 0.803586
0.110307 0.954498 0.809583
0.289189 0.953719 0.816831
0.498146 0.973342 0.845579
0.73547 0.985183 0.891264
0.905196 0.98555 0.939986
0.98732 0.997116 0.9458
0 0 1
0 0 1
0 0 1
0.174151 0 1
0.363958 0 1
0.541009 0 0.999466
0.697063 0 0.95053
0.834501 0 0.913664
0.968078 0 0.886381
0 0.0813611 1
0 0.0650645 1
0 0.0466316 1
0.118273 0.0262913 1
0.325963 0.0102846 1
0.521126 0.00256352 1
0.689998 0.00299077 0.957534
0.835691 0.00766003 0.925612
0.974975 0.0124971 0.903502
0 0.179141 0.959289
0 0.166995 0.998856
0 0.152621 1
0.0692912 0.136416 1
0.293584 0.123842 1
0.513832 0.122118 1
0.699443 0.129137 0.982986
0.853544 0.139666 0.954559
0.996307 0.147997 0.935042
0 0.294423 0.881163
0 0.288289 0.92607
0 0.278706 0.968475
0.0165866 0.264637 1
0.242588 0.251957 1
0.485115 0.252583 1
0.695644 0.266728 0.998596
0.860853 0.28336 0.973465
1 0.294896 0.955978
0 0.427817 0.806195
0 0.424506 0.850797
0 0.417548 0.893919
0 0.403922 0.932235
0.178714 0.388815 0.966842
0.426719 0.387564 0.996017
0.670542 0.408621 0.99884
0.853712 0.432349 0.979004
1 0.445869 0.961715
0 0.56527 0.757107
0 0.566369 0.787625
0 0.560342 0.823957
0 0.54583 0.857893
0.129305 0.530053 0.893416
0.366735 0.532052 0.945861
0.628321 0.552224 0.988968
0.842969 0.582681 0.98349
0.99295 0.595132 0.96231
0 0.690394 0.785275
0 0.695735 0.790051
0 0.694011 0.79556
0 0.681468 0.803861
0.109972 0.665949 0.827619
0.336095 0.675944 0.886961
0.583978 0.698848 0.935271
0.815137 0.73286 0.955261
0.971405 0.745647 0.950973
0 0.808698 0.8533
0 0.811246 0.858671
0 0.808423 0.85655
0 0.796719 0.843458
0.138476 0.781704 0.825559
0.340734 0.798413 0.845808
0.590524 0.831769 0.886442
0.807553 0.867124 0.93315
0.952178 0.891478 0.94197
0 0.933639 0.880903
0 0.935546 0.889403
0 0.932982 0.893431
0.0311742 0.922499 0.889555
0.194385 0.906081 0.879728
0.388434 0.910231 0.890455
0.627405 0.940475 0.927291
0.867521 0.974014 0.967422
1 1 1
