EA 50 Cinematic Luts Pack/EA_Cinematic Lut (22).CUBE
#Created by: Adobe Photoshop Export Color Lookup Plugin
#Copyright: (C) Copyright 2018 Navpreet Singh
TITLE "Orange and Teal 5"
#LUT size
LUT_3D_SIZE 8
#data domain
#LUT data points
DOMAIN_MIN 0.000000 0.000000 0.000000
DOMAIN_MAX 0.903226 0.903226 0.903226
0.000000 0.000000 0.000000
0.141602 0.021820 0.000000
0.283173 0.043671 0.000000
0.424774 0.065521 0.000000
0.566406 0.087341 0.000000
0.707977 0.109192 0.000000
0.849579 0.131012 0.000000
0.975708 0.162170 0.015472
0.000000 0.129028 0.115631
0.129028 0.129028 0.096649
0.305511 0.153198 0.064911
0.472473 0.159821 0.039520
0.629395 0.170868 0.024261
0.770996 0.190155 0.024261
0.912567 0.210358 0.024261
0.975708 0.271759 0.102692
0.000000 0.258057 0.231293
0.111084 0.275970 0.205963
0.258057 0.258057 0.193298
0.435608 0.290161 0.160461
0.611053 0.306396 0.129791
0.778015 0.312988 0.104462
0.943329 0.320313 0.080750
0.975708 0.383148 0.189941
0.000000 0.387085 0.346924
0.074646 0.441437 0.347534
0.258057 0.387085 0.289948
0.387085 0.387085 0.289948
0.561310 0.420380 0.258942
0.745331 0.448273 0.222748
0.916565 0.459595 0.194733
0.975708 0.496765 0.277191
0.000000 0.516144 0.462585
0.037842 0.607330 0.493652
0.222198 0.552002 0.411957
0.387085 0.516144 0.386597
0.516144 0.516144 0.386597
0.686188 0.548920 0.358215
0.871277 0.580322 0.320923
0.975708 0.613861 0.364380
0.000000 0.645172 0.578217
0.032379 0.741821 0.618622
0.185547 0.717651 0.551514
0.370087 0.662170 0.489319
0.516144 0.645172 0.483246
0.645172 0.645172 0.483246
0.810944 0.676239 0.457550
0.975708 0.709778 0.440674
0.000000 0.774200 0.693878
0.032379 0.870850 0.737518
0.149323 0.882935 0.695099
0.333282 0.827972 0.617920
0.516144 0.774200 0.579895
0.645172 0.774200 0.579895
0.774200 0.774200 0.579895
0.935028 0.802399 0.557648
0.000000 0.903229 0.809509
0.056549 0.975708 0.836884
0.185577 0.975708 0.796265
0.314606 0.975708 0.749725
0.481049 0.938354 0.693024
0.645172 0.903229 0.676544
0.774231 0.903229 0.676544
0.903229 0.903229 0.676544
0.000000 0.000000 0.032379
0.141174 0.000000 0.014404
0.283173 0.016266 0.008118
0.424774 0.038086 0.008118
0.566406 0.059937 0.008118
0.707977 0.081726 0.008118
0.849579 0.103668 0.008118
0.975708 0.135834 0.023590
0.000000 0.109711 0.129028
0.129028 0.129028 0.129028
0.295990 0.135620 0.103668
0.462952 0.142242 0.078247
0.629944 0.148865 0.052917
0.792084 0.158386 0.032379
0.933655 0.180206 0.032379
0.975708 0.261780 0.131927
0.000000 0.243652 0.249939
0.092407 0.294678 0.277283
0.258057 0.258057 0.225677
0.434540 0.282227 0.193939
0.601532 0.288849 0.168549
0.768494 0.295410 0.143188
0.935455 0.302094 0.117828
0.975708 0.372620 0.219177
0.000000 0.377594 0.370819
0.055786 0.460327 0.425568
0.240112 0.404999 0.334991
0.387085 0.387085 0.322327
0.564667 0.419189 0.289490
0.740082 0.435425 0.258820
0.907043 0.442017 0.233490
0.975708 0.485779 0.306427
0.000000 0.511627 0.491760
0.032379 0.612793 0.562103
0.203674 0.570496 0.476593
0.387085 0.516144 0.418976
0.516144 0.516144 0.418976
0.690338 0.549469 0.387970
0.874359 0.577301 0.351776
0.975708 0.602539 0.393646
0.000000 0.645172 0.612305
0.032379 0.741821 0.677734
0.166870 0.736359 0.622681
0.351227 0.681030 0.540985
0.516144 0.645172 0.515625
0.645172 0.645172 0.515625
0.815216 0.677948 0.487244
0.975708 0.709320 0.474579
0.000000 0.774200 0.728180
0.032379 0.870850 0.793396
0.130432 0.901794 0.769806
0.314575 0.846680 0.680542
0.499146 0.791199 0.618378
0.645172 0.774200 0.612274
0.774200 0.774200 0.612274
0.939972 0.805267 0.586578
0.000000 0.903229 0.844208
0.056549 0.975708 0.887482
0.185577 0.975708 0.848419
0.314606 0.975708 0.804565
0.462341 0.957001 0.746948
0.645172 0.903229 0.708923
0.774200 0.903229 0.708923
0.903229 0.903229 0.708923
0.000000 0.000000 0.064758
0.134857 0.000000 0.058167
0.282349 0.000000 0.028778
0.424774 0.010712 0.016266
0.566406 0.032532 0.016266
0.707977 0.054413 0.016266
0.849579 0.076141 0.016266
0.975708 0.109497 0.031738
0.000000 0.104858 0.161407
0.129028 0.129028 0.161407
0.295013 0.104218 0.121460
0.462952 0.102081 0.086395
0.629944 0.108673 0.061035
0.792084 0.118866 0.040497
0.933655 0.143036 0.040497
0.975708 0.234680 0.140045
0.000000 0.219391 0.258057
0.091827 0.261047 0.295258
0.258057 0.258057 0.258057
0.425018 0.264648 0.232697
0.592010 0.271271 0.207275
0.758972 0.277893 0.181946
0.925934 0.284515 0.156555
0.975708 0.361450 0.248383
0.000000 0.353394 0.378967
0.054657 0.435974 0.453308
0.221436 0.423706 0.406311
0.387085 0.387085 0.354706
0.563599 0.411255 0.322968
0.730560 0.417877 0.297577
0.897522 0.424438 0.272217
0.975708 0.473907 0.335632
0.000000 0.487366 0.499878
0.032379 0.597107 0.596527
0.184784 0.589386 0.554626
0.369141 0.534058 0.464020
0.516144 0.516144 0.451355
0.693695 0.548218 0.418518
0.869110 0.564453 0.387848
0.975708 0.589966 0.422882
0.000000 0.621338 0.620789
0.032379 0.735016 0.717438
0.148163 0.755035 0.702881
0.332703 0.699524 0.605621
0.516144 0.645172 0.548004
0.645172 0.645172 0.548004
0.819366 0.678497 0.516998
0.975708 0.708344 0.508484
0.000000 0.755219 0.741699
0.032379 0.870850 0.837830
0.111572 0.920685 0.851166
0.295898 0.865387 0.751709
0.480286 0.810059 0.670013
0.645172 0.774200 0.644653
0.774200 0.774200 0.644653
0.944244 0.806976 0.616272
0.000000 0.889191 0.862579
0.056549 0.975708 0.928345
0.185577 0.975708 0.900879
0.314606 0.975708 0.859406
0.443665 0.975708 0.809570
0.628174 0.920227 0.747406
0.774200 0.903229 0.741302
0.903229 0.903229 0.741302
0.000000 0.000000 0.097137
0.129028 0.000000 0.097137
0.276031 0.000000 0.073700
0.423553 0.000000 0.043182
0.566406 0.005127 0.024384
0.707977 0.026917 0.024384
0.849579 0.048798 0.024384
0.975708 0.083191 0.039856
0.000000 0.104401 0.193787
0.129028 0.129028 0.193787
0.277039 0.115875 0.184784
0.460999 0.079376 0.113892
0.629944 0.068604 0.069153
0.792084 0.079315 0.048645
0.933655 0.106018 0.048645
0.975708 0.207397 0.148193
0.000000 0.214539 0.290436
0.082520 0.243103 0.336945
0.258057 0.258057 0.290436
0.424042 0.233246 0.250488
0.592010 0.231110 0.215424
0.758972 0.237701 0.190063
0.925934 0.244354 0.164703
0.975708 0.333008 0.256500
0.000000 0.329102 0.387085
0.054657 0.393036 0.461456
0.220856 0.390076 0.424286
0.387085 0.387085 0.387085
0.554077 0.393677 0.361725
0.721039 0.400299 0.336304
0.888000 0.406921 0.310974
0.975708 0.461090 0.364868
0.000000 0.463104 0.508026
0.032379 0.556641 0.604675
0.183685 0.565063 0.582397
0.350433 0.552765 0.535370
0.516144 0.516144 0.483765
0.692627 0.540314 0.452026
0.859589 0.546936 0.426636
0.975708 0.576172 0.452118
0.000000 0.597046 0.628906
0.032379 0.698639 0.725555
0.146484 0.740082 0.740479
0.313812 0.718414 0.683655
0.498413 0.662903 0.592987
0.645172 0.645172 0.580383
0.822723 0.677246 0.547546
0.975708 0.697937 0.539337
0.000000 0.731018 0.749817
0.032379 0.837463 0.846466
0.109283 0.914917 0.898560
0.277191 0.884064 0.831909
0.461761 0.828552 0.734650
0.645172 0.774200 0.677032
0.774200 0.774200 0.677032
0.948395 0.807526 0.646027
0.000000 0.864929 0.870728
0.056549 0.951996 0.943207
0.185577 0.975708 0.942749
0.314606 0.975708 0.914246
0.443665 0.975708 0.868439
0.609314 0.939087 0.799042
0.774200 0.903229 0.773682
0.903229 0.903229 0.773682
0.000000 0.000000 0.129547
0.129028 0.000000 0.129547
0.269745 0.000000 0.116333
0.417236 0.000000 0.088470
0.564758 0.000000 0.057587
0.707977 0.000000 0.032898
0.849579 0.021454 0.032501
0.975708 0.057037 0.047974
0.000000 0.106659 0.226196
0.129028 0.129028 0.226196
0.258057 0.129028 0.226196
0.443573 0.090515 0.182190
0.627045 0.054565 0.106354
0.792084 0.039764 0.056763
0.933655 0.068848 0.056763
0.975708 0.180298 0.156311
0.000000 0.209717 0.322845
0.081665 0.233063 0.370178
0.258057 0.258057 0.322845
0.406067 0.244904 0.313843
0.590088 0.208405 0.242920
0.758972 0.197540 0.198212
0.925934 0.204193 0.172821
0.975708 0.304718 0.264648
0.000000 0.324280 0.419464
0.045319 0.375122 0.503174
0.211548 0.372131 0.465973
0.387085 0.387085 0.419464
0.553101 0.362274 0.379517
0.721039 0.360138 0.344452
0.888000 0.366730 0.319092
0.975708 0.430908 0.372986
0.000000 0.438843 0.516144
0.032379 0.516174 0.612793
0.183685 0.522125 0.590515
0.349884 0.519135 0.553345
0.516144 0.516144 0.516144
0.683105 0.522736 0.490784
0.850067 0.529358 0.465363
0.975708 0.560791 0.481354
0.000000 0.572845 0.637054
0.032379 0.662262 0.733704
0.146484 0.697113 0.748627
0.312714 0.694092 0.711426
0.479523 0.681793 0.664398
0.645172 0.645172 0.612793
0.821655 0.669342 0.581055
0.975708 0.680817 0.568573
0.000000 0.706818 0.757935
0.032379 0.803467 0.854584
0.109283 0.871979 0.906677
0.275513 0.868988 0.869507
0.442902 0.847443 0.812683
0.627228 0.792114 0.722107
0.774200 0.774200 0.709442
0.951752 0.806305 0.676605
0.000000 0.840790 0.878845
0.056549 0.921753 0.951324
0.185577 0.944733 0.951324
0.314606 0.969482 0.951324
0.443665 0.975708 0.927643
0.590790 0.957581 0.863678
0.774200 0.903229 0.806091
0.903229 0.903229 0.806091
0.000000 0.000000 0.161926
0.129028 0.000000 0.161926
0.263428 0.000000 0.156799
0.410950 0.000000 0.132202
0.558441 0.000000 0.103058
0.705933 0.000000 0.071991
0.849579 0.000000 0.046722
0.975708 0.030701 0.056122
0.000000 0.108978 0.258575
0.129028 0.129028 0.258575
0.258057 0.129028 0.258575
0.425018 0.102753 0.240570
0.610016 0.065308 0.176056
0.790436 0.032379 0.101105
0.933655 0.032379 0.065460
0.975708 0.153198 0.164459
0.000000 0.206512 0.355225
0.085999 0.230408 0.398254
0.258057 0.258057 0.355225
0.387085 0.258057 0.355225
0.572662 0.219543 0.311218
0.756073 0.183594 0.235382
0.925934 0.164063 0.180939
0.975708 0.276276 0.272766
0.000000 0.319427 0.451874
0.035980 0.357208 0.544922
0.210693 0.362091 0.499207
0.387085 0.387085 0.451874
0.535126 0.373932 0.442871
0.719116 0.337433 0.371948
0.888000 0.326569 0.327240
0.975708 0.400696 0.381134
0.000000 0.433960 0.548523
0.032379 0.496429 0.645172
0.174347 0.504181 0.632233
0.340546 0.501190 0.595032
0.516144 0.516144 0.548523
0.682129 0.491333 0.508575
0.850067 0.489197 0.473511
0.975708 0.527496 0.489471
0.000000 0.548553 0.645172
0.032379 0.625854 0.741821
0.146484 0.654144 0.756744
0.312714 0.651154 0.719543
0.478943 0.648163 0.682373
0.645172 0.645172 0.645172
0.812134 0.651764 0.619812
0.975708 0.660431 0.597809
0.000000 0.682465 0.766083
0.032379 0.769592 0.862732
0.109283 0.829071 0.914825
0.275513 0.826141 0.877655
0.441772 0.823090 0.840424
0.608551 0.810822 0.793427
0.774200 0.774200 0.741821
0.950684 0.798370 0.710083
0.000000 0.816498 0.886963
0.056549 0.891479 0.959473
0.185577 0.913116 0.959473
0.314606 0.936127 0.959473
0.443665 0.961487 0.959473
0.572693 0.975708 0.941040
0.756256 0.921143 0.851135
0.903229 0.903229 0.838470
0.000000 0.000000 0.194305
0.129028 0.000000 0.194305
0.258057 0.000000 0.194305
0.404602 0.000000 0.174500
0.552094 0.000000 0.147400
0.699615 0.000000 0.117676
0.847107 0.000000 0.086365
0.975708 0.015472 0.075348
0.000000 0.111298 0.290955
0.129028 0.129028 0.290955
0.258057 0.129028 0.290955
0.405426 0.116058 0.288025
0.592010 0.076996 0.239532
0.775635 0.040833 0.169556
0.931610 0.032379 0.115479
0.975708 0.131927 0.178619
0.000000 0.208801 0.387604
0.090454 0.229950 0.426178
0.258057 0.258057 0.387604
0.387085 0.258057 0.387604
0.554077 0.231781 0.369598
0.739044 0.194336 0.305084
0.922058 0.158813 0.227814
0.975708 0.248383 0.281311
0.000000 0.314545 0.484253
0.032379 0.341858 0.580902
0.215027 0.359436 0.527283
0.387085 0.387085 0.484253
0.516144 0.387085 0.484253
0.701691 0.348572 0.440247
0.885101 0.312622 0.364410
0.975708 0.370514 0.389252
0.000000 0.429108 0.580902
0.032379 0.478760 0.677551
0.165009 0.486237 0.673950
0.339722 0.491119 0.628235
0.516144 0.516144 0.580902
0.664154 0.502991 0.571899
0.848114 0.466492 0.501007
0.975708 0.494324 0.497620
0.000000 0.543671 0.677551
0.032379 0.609589 0.774200
0.137146 0.636261 0.798462
0.303375 0.633209 0.761261
0.469635 0.630219 0.724060
0.645172 0.645172 0.677551
0.811157 0.620361 0.637604
0.975708 0.621124 0.605927
0.000000 0.658234 0.774200
0.032379 0.735565 0.870850
0.109283 0.786163 0.922943
0.275513 0.783173 0.885773
0.441772 0.780151 0.848572
0.607971 0.777191 0.811401
0.774200 0.774200 0.774200
0.941162 0.780792 0.748840
0.000000 0.792236 0.895111
0.056549 0.861023 0.967590
0.185577 0.881683 0.967590
0.314606 0.902771 0.967590
0.443665 0.925171 0.967590
0.572693 0.950531 0.967590
0.737579 0.939850 0.922455
0.903229 0.903229 0.870850
0.000000 0.000000 0.226685
0.128998 0.000000 0.226685
0.258057 0.000000 0.226685
0.398315 0.000000 0.215424
0.545837 0.000000 0.190643
0.693298 0.000000 0.162262
0.840820 0.000000 0.132019
0.975708 0.012573 0.111877
0.000000 0.113617 0.323334
0.129028 0.129028 0.323334
0.258057 0.129028 0.323334
0.387085 0.129028 0.323334
0.573090 0.089600 0.296326
0.758148 0.051971 0.235321
0.925293 0.032379 0.174835
0.975708 0.129456 0.215790
0.000000 0.211151 0.419983
0.094971 0.230896 0.454010
0.258057 0.258057 0.419983
0.387085 0.258057 0.419983
0.534485 0.245087 0.417084
0.721039 0.206024 0.368561
0.904663 0.169861 0.298584
0.975708 0.246338 0.319672
0.000000 0.309723 0.516632
0.034332 0.337067 0.611298
0.219482 0.358978 0.555206
0.387085 0.387085 0.516632
0.516144 0.387085 0.516632
0.683105 0.360809 0.498627
0.868073 0.323364 0.434113
0.975708 0.363220 0.423553
0.000000 0.424286 0.613281
0.032379 0.462799 0.709930
0.158783 0.471039 0.712524
0.344055 0.488525 0.656311
0.516144 0.516144 0.613281
0.645172 0.516144 0.613281
0.830688 0.477631 0.569305
0.975708 0.480133 0.527435
0.000000 0.538788 0.709930
0.032379 0.594574 0.806580
0.127838 0.618317 0.840149
0.294037 0.615265 0.802979
0.468811 0.620178 0.757263
0.645172 0.645172 0.709930
0.793182 0.632019 0.700928
0.975708 0.596985 0.631317
0.000000 0.653473 0.806580
0.032379 0.721436 0.903229
0.113190 0.761871 0.951447
0.266174 0.765289 0.927490
0.432434 0.762238 0.890289
0.598663 0.759247 0.853088
0.774200 0.774200 0.806580
0.940186 0.749390 0.766632
0.000000 0.767944 0.903229
0.056549 0.830780 0.975708
0.185577 0.850098 0.975708
0.314606 0.869415 0.975708
0.443665 0.888763 0.975708
0.572693 0.908081 0.975708
0.737000 0.906219 0.940430
0.903229 0.903229 0.903229
