EA 50 Cinematic Luts Pack/EA_Cinematic Lut (2).cube
TITLE "Generated by Resolve"
LUT_3D_SIZE 5
0 0.148013 0.240253
0.140719 0.130251 0.217075
0.332921 0.118151 0.202701
0.541222 0.101183 0.186938
0.742229 0.0935683 0.179004
0.0636912 0.252628 0.255543
0.25481 0.253971 0.243503
0.48455 0.26067 0.235355
0.709087 0.275471 0.23447
0.908537 0.301625 0.242725
0.166094 0.461814 0.279255
0.397925 0.480781 0.275532
0.631571 0.501427 0.27744
0.844755 0.528344 0.287495
1 0.564569 0.306996
0.311833 0.714488 0.325399
0.550134 0.732158 0.330251
0.772045 0.75053 0.339391
0.960159 0.773327 0.354559
1 0.803876 0.377539
0.499397 0.932265 0.402045
0.718761 0.935866 0.409201
0.908949 0.937163 0.41738
1 0.944549 0.431174
1 0.959976 0.451423
0 0.1552 0.286732
0.156909 0.137911 0.264652
0.350286 0.124361 0.250278
0.560418 0.108522 0.237827
0.764721 0.105394 0.2383
0.0823224 0.26183 0.307637
0.278218 0.267842 0.304402
0.509377 0.276814 0.305196
0.732219 0.293187 0.313207
0.929183 0.320562 0.330358
0.189593 0.480125 0.359365
0.422461 0.49929 0.363836
0.654856 0.52015 0.372747
0.865064 0.546944 0.388144
1 0.5832 0.412024
0.336294 0.731395 0.426368
0.572961 0.748226 0.435462
0.791196 0.765591 0.447807
0.975143 0.787091 0.465858
1 0.814694 0.490562
0.519661 0.942794 0.515145
0.73463 0.943328 0.522744
0.920684 0.942992 0.531289
1 0.950256 0.545953
1 0.965682 0.566445
0 0.16144 0.352102
0.167117 0.143862 0.337804
0.364462 0.128695 0.330083
0.577142 0.114656 0.325811
0.785321 0.11664 0.334936
0.0928511 0.271366 0.39826
0.298634 0.280873 0.402152
0.5308 0.291417 0.407874
0.753094 0.309224 0.420371
0.947448 0.338186 0.442039
0.209583 0.497002 0.466575
0.444587 0.516136 0.474723
0.675837 0.537255 0.486641
0.882948 0.564233 0.504509
1 0.600305 0.530221
0.359228 0.747127 0.543008
0.5935 0.762798 0.552789
0.80911 0.778958 0.565591
0.988327 0.799222 0.58291
1 0.824125 0.60589
0.538689 0.951858 0.633021
0.749371 0.94963 0.637766
0.931304 0.948287 0.643473
1 0.955962 0.656184
1 0.971923 0.674067
0 0.166659 0.45124
0.172778 0.148119 0.439796
0.377005 0.132143 0.434333
0.594186 0.120958 0.434501
0.805936 0.128069 0.44976
0.105684 0.281834 0.509239
0.318196 0.293599 0.516182
0.551659 0.305806 0.524651
0.773144 0.325353 0.538979
0.965286 0.355825 0.56202
0.228992 0.513436 0.584237
0.466209 0.532555 0.592782
0.696391 0.554025 0.604318
0.901076 0.581323 0.621592
1 0.617578 0.645975
0.381689 0.76228 0.658701
0.614313 0.776974 0.666499
0.82649 0.792218 0.67628
1 0.810925 0.689738
1 0.833783 0.707042
0.557031 0.960296 0.738506
0.764431 0.956161 0.736431
0.943343 0.954635 0.736263
1 0.9635 0.743603
1 0.980346 0.757076
0 0.170748 0.563485
0.178683 0.151415 0.552499
0.390158 0.1355 0.547005
0.613703 0.129152 0.550439
0.826932 0.140002 0.567819
0.120867 0.293614 0.624842
0.338766 0.306859 0.631846
0.573068 0.320592 0.639445
0.794003 0.341787 0.652949
0.983307 0.373938 0.674067
0.250904 0.530465 0.695872
0.489448 0.54995 0.70161
0.718273 0.571801 0.709422
0.919509 0.599222 0.721218
1 0.635554 0.74052
0.406058 0.778271 0.756008
0.636637 0.792416 0.758068
0.846128 0.806699 0.761975
1 0.823316 0.769879
1 0.844251 0.782895
0.576684 0.969329 0.816983
0.781109 0.964126 0.811032
0.956573 0.962585 0.808804
1 0.97232 0.816083
1 0.989136 0.829282
