EA 50 Cinematic Luts Pack/EA_Cinematic Lut (28).cube
TITLE "A truly cinematic look with no compromise on sharpness, contrast, color balance and illumination."
LUT_3D_SIZE 9
0.0000 0.0000 0.0000
0.1088 0.0119 0.0050
0.2161 0.0587 0.0295
0.3203 0.1222 0.0812
0.4283 0.1876 0.1316
0.5450 0.2471 0.1711
0.6834 0.2903 0.1864
0.8149 0.3373 0.2058
0.8603 0.3540 0.2131
0.0647 0.1000 0.0485
0.1317 0.1065 0.0424
0.2480 0.1222 0.0615
0.3481 0.1623 0.1025
0.4497 0.2157 0.1448
0.5634 0.2666 0.1770
0.6955 0.3074 0.1903
0.8217 0.3530 0.2107
0.8685 0.3686 0.2181
0.1589 0.2222 0.1302
0.1809 0.2229 0.1353
0.2710 0.2371 0.1186
0.3886 0.2504 0.1392
0.4990 0.2783 0.1652
0.6186 0.3083 0.1833
0.7375 0.3445 0.1988
0.8564 0.3854 0.2171
0.9031 0.3979 0.2200
0.2530 0.3492 0.2076
0.2530 0.3494 0.2079
0.3170 0.3585 0.2043
0.4160 0.3726 0.1834
0.5429 0.3806 0.1886
0.6657 0.3948 0.1979
0.7850 0.4162 0.2114
0.9057 0.4411 0.2253
0.9577 0.4472 0.2210
0.3411 0.4804 0.2733
0.3410 0.4806 0.2735
0.3799 0.4819 0.2808
0.4565 0.4959 0.2534
0.5607 0.5061 0.2339
0.6906 0.5108 0.2370
0.8194 0.5176 0.2405
0.9443 0.5298 0.2394
0.9971 0.5301 0.2192
0.4332 0.6066 0.3392
0.4331 0.6067 0.3393
0.4329 0.6072 0.3397
0.5132 0.6139 0.3394
0.5924 0.6273 0.3036
0.7030 0.6355 0.2869
0.8330 0.6392 0.2859
0.9683 0.6405 0.2787
0.9966 0.6553 0.3392
0.5219 0.7314 0.4046
0.5219 0.7315 0.4047
0.5217 0.7319 0.4050
0.5744 0.7320 0.4175
0.6431 0.7425 0.3974
0.7269 0.7542 0.3523
0.8422 0.7605 0.3373
0.9705 0.7636 0.3319
0.9952 0.7781 0.4451
0.6033 0.8475 0.4725
0.6032 0.8475 0.4725
0.6030 0.8478 0.4728
0.6177 0.8475 0.4788
0.6950 0.8511 0.4811
0.7701 0.8613 0.4520
0.8590 0.8733 0.3998
0.9676 0.8790 0.4520
0.9949 0.8904 0.5874
0.7488 0.9336 0.6337
0.7489 0.9337 0.6339
0.7491 0.9338 0.6344
0.7497 0.9340 0.6356
0.7939 0.9374 0.6520
0.8460 0.9479 0.6536
0.9065 0.9619 0.6436
0.9775 0.9765 0.6473
0.9982 0.9856 0.8016
0.0312 0.0292 0.0595
0.1053 0.0436 0.0727
0.2285 0.0716 0.0761
0.3378 0.1193 0.0917
0.4382 0.1834 0.1365
0.5523 0.2436 0.1745
0.6897 0.2865 0.1889
0.8199 0.3338 0.2080
0.8659 0.3520 0.2158
0.0733 0.1046 0.0961
0.1380 0.1083 0.0941
0.2509 0.1255 0.0956
0.3533 0.1636 0.1153
0.4548 0.2160 0.1524
0.5688 0.2655 0.1821
0.7015 0.3048 0.1938
0.8271 0.3500 0.2133
0.8738 0.3657 0.2201
0.1591 0.2251 0.1508
0.1716 0.2276 0.1488
0.2718 0.2385 0.1413
0.3923 0.2513 0.1481
0.5012 0.2794 0.1747
0.6210 0.3087 0.1905
0.7392 0.3451 0.2053
0.8577 0.3858 0.2229
0.9074 0.3958 0.2208
0.2471 0.3526 0.2139
0.2472 0.3528 0.2143
0.3172 0.3596 0.2187
0.4174 0.3737 0.1960
0.5465 0.3804 0.1933
0.6674 0.3954 0.2048
0.7857 0.4168 0.2192
0.9064 0.4417 0.2324
0.9614 0.4456 0.2220
0.3358 0.4828 0.2770
0.3358 0.4830 0.2771
0.3796 0.4826 0.2890
0.4571 0.4965 0.2641
0.5616 0.5067 0.2432
0.6935 0.5104 0.2435
0.8210 0.5177 0.2445
0.9452 0.5300 0.2449
0.9973 0.5304 0.2296
0.4289 0.6084 0.3418
0.4288 0.6085 0.3419
0.4287 0.6090 0.3424
0.5135 0.6144 0.3466
0.5928 0.6278 0.3121
0.7035 0.6359 0.2944
0.8352 0.6389 0.2911
0.9697 0.6404 0.2825
0.9968 0.6555 0.3460
0.5188 0.7328 0.4065
0.5187 0.7329 0.4066
0.5186 0.7333 0.4069
0.5748 0.7323 0.4229
0.6431 0.7428 0.4035
0.7271 0.7546 0.3593
0.8424 0.7608 0.3438
0.9718 0.7635 0.3366
0.9954 0.7784 0.4490
0.6006 0.8485 0.4739
0.6006 0.8486 0.4740
0.6004 0.8489 0.4743
0.6144 0.8486 0.4801
0.6950 0.8513 0.4859
0.7701 0.8614 0.4575
0.8592 0.8735 0.4051
0.9666 0.8792 0.4624
0.9950 0.8907 0.5896
0.7488 0.9340 0.6361
0.7488 0.9340 0.6363
0.7491 0.9341 0.6369
0.7496 0.9343 0.6380
0.7935 0.9377 0.6545
0.8457 0.9481 0.6564
0.9063 0.9621 0.6467
0.9774 0.9769 0.6478
0.9983 0.9858 0.8031
0.0794 0.0690 0.1271
0.1083 0.0794 0.1312
0.2139 0.1086 0.1628
0.3330 0.1497 0.1712
0.4577 0.1932 0.1816
0.5827 0.2362 0.1927
0.7157 0.2740 0.2002
0.8397 0.3192 0.2166
0.8873 0.3414 0.2258
0.1100 0.1190 0.1661
0.1338 0.1242 0.1688
0.2358 0.1460 0.1793
0.3560 0.1757 0.1821
0.4780 0.2120 0.1886
0.5965 0.2543 0.1994
0.7264 0.2915 0.2057
0.8480 0.3380 0.2232
0.8952 0.3531 0.2283
0.1697 0.2332 0.2118
0.1699 0.2335 0.2122
0.2828 0.2416 0.2080
0.3957 0.2581 0.2078
0.5083 0.2835 0.2138
0.6299 0.3103 0.2167
0.7480 0.3450 0.2264
0.8663 0.3843 0.2411
0.9264 0.3852 0.2258
0.2572 0.3568 0.2583
0.2574 0.3570 0.2585
0.3169 0.3641 0.2588
0.4204 0.3778 0.2428
0.5564 0.3814 0.2231
0.6740 0.3969 0.2328
0.7910 0.4181 0.2472
0.9111 0.4426 0.2551
0.9776 0.4374 0.2241
0.3377 0.4866 0.3082
0.3378 0.4867 0.3084
0.3593 0.4908 0.3043
0.4577 0.4990 0.3030
0.5645 0.5092 0.2784
0.7022 0.5105 0.2559
0.8264 0.5185 0.2633
0.9481 0.5313 0.2679
0.9976 0.5324 0.2719
0.4215 0.6134 0.3602
0.4216 0.6134 0.3604
0.4220 0.6138 0.3612
0.5148 0.6163 0.3743
0.5943 0.6297 0.3441
0.7052 0.6378 0.3234
0.8412 0.6386 0.3142
0.9744 0.6406 0.2965
0.9975 0.6565 0.3710
0.5058 0.7385 0.4142
0.5057 0.7386 0.4143
0.5056 0.7390 0.4146
0.5672 0.7364 0.4348
0.6433 0.7440 0.4280
0.7276 0.7559 0.3866
0.8431 0.7620 0.3690
0.9726 0.7639 0.3718
0.9961 0.7796 0.4650
0.5900 0.8527 0.4801
0.5899 0.8528 0.4802
0.5898 0.8531 0.4804
0.6011 0.8529 0.4853
0.6949 0.8524 0.5053
0.7706 0.8621 0.4789
0.8595 0.8745 0.4283
0.9625 0.8804 0.4996
0.9954 0.8920 0.5988
0.7486 0.9353 0.6460
0.7487 0.9353 0.6461
0.7490 0.9354 0.6467
0.7496 0.9356 0.6478
0.7917 0.9389 0.6647
0.8447 0.9492 0.6680
0.9053 0.9630 0.6595
0.9770 0.9783 0.6498
0.9984 0.9869 0.8093
0.1293 0.1152 0.1919
0.1298 0.1158 0.1927
0.2137 0.1474 0.2190
0.3248 0.1831 0.2476
0.4445 0.2275 0.2581
0.5771 0.2635 0.2715
0.7354 0.2765 0.2621
0.8772 0.3006 0.2482
0.9243 0.3189 0.2520
0.1517 0.1489 0.2240
0.1520 0.1493 0.2244
0.2312 0.1752 0.2342
0.3401 0.2055 0.2583
0.4616 0.2430 0.2637
0.5934 0.2741 0.2758
0.7485 0.2861 0.2643
0.8831 0.3152 0.2537
0.9354 0.3253 0.2477
0.2065 0.2444 0.2752
0.2067 0.2446 0.2754
0.2748 0.2579 0.2747
0.3814 0.2767 0.2868
0.5115 0.2950 0.2848
0.6447 0.3114 0.2856
0.7795 0.3296 0.2743
0.8990 0.3645 0.2706
0.9685 0.3544 0.2421
0.2663 0.3669 0.3202
0.2664 0.3670 0.3204
0.3154 0.3722 0.3206
0.4365 0.3798 0.3131
0.5536 0.3915 0.3077
0.6757 0.4040 0.3080
0.7961 0.4233 0.3060
0.9190 0.4444 0.2998
0.9968 0.4233 0.2480
0.3485 0.4923 0.3630
0.3486 0.4924 0.3632
0.3641 0.4944 0.3632
0.4648 0.5026 0.3614
0.5641 0.5151 0.3426
0.7137 0.5111 0.3131
0.8356 0.5196 0.3127
0.9555 0.5322 0.3144
0.9982 0.5365 0.3370
0.4339 0.6172 0.4089
0.4340 0.6173 0.4090
0.4343 0.6176 0.4096
0.5040 0.6245 0.4048
0.5937 0.6336 0.3993
0.7068 0.6415 0.3781
0.8529 0.6387 0.3342
0.9799 0.6422 0.3327
0.9984 0.6589 0.4122
0.5141 0.7410 0.4570
0.5141 0.7411 0.4571
0.5144 0.7413 0.4577
0.5431 0.7458 0.4516
0.6424 0.7465 0.4718
0.7288 0.7586 0.4350
0.8446 0.7644 0.4145
0.9657 0.7681 0.4374
0.9970 0.7818 0.4959
0.5855 0.8565 0.5085
0.5856 0.8565 0.5086
0.5858 0.8567 0.5092
0.5878 0.8573 0.5098
0.6931 0.8546 0.5385
0.7692 0.8640 0.5184
0.8596 0.8762 0.4719
0.9560 0.8828 0.5571
0.9960 0.8946 0.6168
0.7509 0.9375 0.6656
0.7510 0.9375 0.6657
0.7514 0.9376 0.6663
0.7521 0.9378 0.6674
0.7888 0.9413 0.6826
0.8423 0.9512 0.6898
0.9033 0.9647 0.6843
0.9754 0.9807 0.6658
0.9986 0.9889 0.8219
0.1806 0.1647 0.2521
0.1809 0.1651 0.2525
0.2288 0.1871 0.2640
0.3246 0.2200 0.3027
0.4417 0.2582 0.3301
0.5685 0.2964 0.3467
0.7117 0.3216 0.3597
0.8553 0.3439 0.3649
0.9193 0.3458 0.3599
0.1970 0.1877 0.2778
0.1972 0.1880 0.2781
0.2437 0.2082 0.2774
0.3371 0.2380 0.3131
0.4538 0.2728 0.3380
0.5816 0.3063 0.3515
0.7215 0.3309 0.3638
0.8644 0.3513 0.3666
0.9346 0.3459 0.3561
0.2463 0.2657 0.3295
0.2464 0.2660 0.3297
0.2849 0.2760 0.3360
0.3754 0.3005 0.3447
0.4928 0.3243 0.3640
0.6228 0.3450 0.3706
0.7556 0.3651 0.3771
0.8964 0.3791 0.3714
0.9881 0.3487 0.3371
0.3032 0.3771 0.3865
0.3034 0.3773 0.3866
0.3274 0.3813 0.3889
0.4237 0.3974 0.3837
0.5388 0.4103 0.3966
0.6755 0.4159 0.3950
0.8089 0.4243 0.3911
0.9483 0.4287 0.3744
0.9963 0.4371 0.3574
0.3581 0.5026 0.4302
0.3582 0.5027 0.4303
0.3587 0.5031 0.4309
0.4635 0.5116 0.4277
0.5870 0.5147 0.4208
0.6985 0.5249 0.4191
0.8278 0.5302 0.4156
0.9704 0.5287 0.3903
0.9986 0.5452 0.4022
0.4426 0.6240 0.4700
0.4426 0.6240 0.4701
0.4429 0.6244 0.4706
0.5044 0.6300 0.4678
0.6043 0.6359 0.4709
0.6999 0.6498 0.4527
0.8660 0.6380 0.4136
0.9754 0.6486 0.4252
0.9992 0.6628 0.4709
0.5219 0.7443 0.5138
0.5220 0.7444 0.5139
0.5221 0.7446 0.5144
0.5480 0.7471 0.5131
0.6367 0.7524 0.5167
0.7242 0.7636 0.5032
0.8437 0.7683 0.4838
0.9682 0.7716 0.4848
0.9980 0.7847 0.5418
0.5922 0.8583 0.5641
0.5922 0.8583 0.5642
0.5923 0.8585 0.5647
0.5926 0.8589 0.5656
0.6654 0.8649 0.5609
0.7663 0.8666 0.5804
0.8584 0.8788 0.5318
0.9489 0.8869 0.6146
0.9970 0.8985 0.6444
0.7632 0.9388 0.7009
0.7633 0.9389 0.7010
0.7636 0.9389 0.7015
0.7644 0.9391 0.7025
0.7890 0.9443 0.7088
0.8387 0.9546 0.7204
0.9011 0.9675 0.7201
0.9718 0.9835 0.7037
0.9988 0.9915 0.8420
0.2325 0.2152 0.3106
0.2328 0.2155 0.3109
0.2549 0.2274 0.3093
0.3340 0.2601 0.3470
0.4455 0.2926 0.3906
0.5684 0.3266 0.4232
0.6938 0.3617 0.4444
0.8307 0.3894 0.4588
0.8970 0.3943 0.4676
0.2457 0.2325 0.3299
0.2460 0.2328 0.3302
0.2668 0.2433 0.3265
0.3448 0.2747 0.3567
0.4558 0.3050 0.3989
0.5769 0.3368 0.4299
0.7022 0.3700 0.4478
0.8393 0.3956 0.4603
0.9086 0.3966 0.4697
0.2883 0.2956 0.3821
0.2884 0.2958 0.3823
0.3021 0.3004 0.3866
0.3822 0.3282 0.3899
0.4903 0.3515 0.4272
0.6050 0.3770 0.4526
0.7322 0.4020 0.4609
0.8674 0.4220 0.4704
0.9547 0.4037 0.4750
0.3423 0.3946 0.4482
0.3424 0.3948 0.4483
0.3428 0.3954 0.4489
0.4308 0.4128 0.4529
0.5302 0.4314 0.4646
0.6423 0.4483 0.4838
0.7745 0.4610 0.4869
0.9108 0.4712 0.4880
0.9812 0.4695 0.4905
0.3929 0.5099 0.5020
0.3930 0.5101 0.5021
0.3934 0.5105 0.5026
0.4671 0.5192 0.5049
0.5679 0.5322 0.4954
0.6812 0.5405 0.5139
0.8222 0.5410 0.5104
0.9499 0.5491 0.5083
0.9959 0.5629 0.5040
0.4458 0.6327 0.5419
0.4459 0.6328 0.5420
0.4462 0.6331 0.5425
0.4960 0.6373 0.5420
0.5987 0.6438 0.5420
0.7277 0.6451 0.5368
0.8359 0.6555 0.5338
0.9627 0.6596 0.5338
0.9990 0.6709 0.5378
0.5224 0.7506 0.5838
0.5224 0.7507 0.5839
0.5225 0.7510 0.5843
0.5374 0.7522 0.5847
0.6281 0.7585 0.5845
0.7338 0.7632 0.5862
0.8272 0.7776 0.5663
0.9692 0.7758 0.5601
0.9991 0.7884 0.6023
0.5957 0.8621 0.6310
0.5957 0.8622 0.6311
0.5958 0.8624 0.6315
0.5961 0.8627 0.6324
0.6655 0.8673 0.6309
0.7729 0.8668 0.6569
0.8437 0.8841 0.6249
0.9449 0.8927 0.6600
0.9980 0.9037 0.6833
0.7781 0.9412 0.7416
0.7782 0.9413 0.7417
0.7785 0.9414 0.7421
0.7792 0.9416 0.7429
0.7996 0.9460 0.7487
0.8366 0.9592 0.7550
0.8971 0.9716 0.7654
0.9673 0.9871 0.7537
0.9991 0.9945 0.8703
0.2861 0.2666 0.3702
0.2862 0.2669 0.3704
0.2871 0.2678 0.3715
0.3557 0.3001 0.3933
0.4522 0.3328 0.4388
0.5704 0.3587 0.4914
0.6858 0.3943 0.5233
0.8088 0.4291 0.5452
0.8816 0.4347 0.5623
0.2967 0.2801 0.3858
0.2968 0.2803 0.3860
0.2976 0.2812 0.3871
0.3653 0.3122 0.4028
0.4608 0.3433 0.4469
0.5768 0.3680 0.4979
0.6912 0.4025 0.5283
0.8150 0.4356 0.5482
0.8907 0.4381 0.5668
0.3333 0.3315 0.4397
0.3334 0.3317 0.4399
0.3340 0.3325 0.4407
0.3999 0.3582 0.4369
0.4897 0.3838 0.4756
0.5990 0.4054 0.5210
0.7116 0.4349 0.5469
0.8389 0.4612 0.5591
0.9272 0.4510 0.5838
0.3793 0.4167 0.5093
0.3794 0.4168 0.5095
0.3798 0.4174 0.5100
0.4387 0.4305 0.5204
0.5278 0.4556 0.5136
0.6306 0.4712 0.5573
0.7440 0.4924 0.5762
0.8760 0.5082 0.5812
0.9611 0.5011 0.6038
0.4263 0.5224 0.5718
0.4264 0.5225 0.5719
0.4267 0.5229 0.5724
0.4729 0.5298 0.5770
0.5650 0.5450 0.5704
0.6643 0.5582 0.5945
0.7808 0.5718 0.6092
0.9228 0.5751 0.6120
0.9770 0.5907 0.6227
0.4756 0.6397 0.6229
0.4756 0.6398 0.6230
0.4759 0.6401 0.6234
0.5004 0.6427 0.6248
0.5934 0.6514 0.6305
0.6980 0.6623 0.6232
0.8172 0.6686 0.6379
0.9374 0.6783 0.6400
0.9946 0.6909 0.6455
0.5227 0.7587 0.6627
0.5228 0.7588 0.6628
0.5230 0.7590 0.6632
0.5234 0.7595 0.6639
0.6193 0.7649 0.6666
0.7260 0.7704 0.6672
0.8454 0.7750 0.6646
0.9476 0.7878 0.6695
0.9995 0.7956 0.6719
0.5949 0.8683 0.7050
0.5950 0.8684 0.7050
0.5951 0.8686 0.7054
0.5953 0.8689 0.7061
0.6594 0.8716 0.7087
0.7745 0.8715 0.7190
0.8424 0.8868 0.7252
0.9370 0.9003 0.7206
0.9992 0.9090 0.7369
0.7944 0.9452 0.7888
0.7945 0.9452 0.7889
0.7948 0.9453 0.7893
0.7955 0.9455 0.7900
0.8083 0.9491 0.7949
0.8479 0.9613 0.8089
0.8929 0.9773 0.8196
0.9622 0.9909 0.8247
0.9994 0.9972 0.9071
0.3409 0.3184 0.4344
0.3411 0.3186 0.4346
0.3417 0.3194 0.4356
0.3852 0.3408 0.4447
0.4665 0.3711 0.4910
0.5659 0.4008 0.5410
0.6815 0.4250 0.6006
0.7985 0.4612 0.6289
0.8785 0.4664 0.6550
0.3497 0.3292 0.4487
0.3498 0.3294 0.4489
0.3503 0.3301 0.4499
0.3930 0.3508 0.4537
0.4733 0.3801 0.4984
0.5709 0.4091 0.5473
0.6861 0.4324 0.6057
0.8029 0.4676 0.6329
0.8861 0.4699 0.6606
0.3764 0.3697 0.5054
0.3765 0.3699 0.5055
0.3770 0.3705 0.5062
0.4190 0.3882 0.4979
0.4975 0.4163 0.5252
0.5901 0.4421 0.5713
0.7039 0.4622 0.6253
0.8199 0.4930 0.6481
0.9168 0.4837 0.6828
0.4161 0.4444 0.5733
0.4162 0.4445 0.5734
0.4165 0.4450 0.5740
0.4488 0.4534 0.5836
0.5324 0.4801 0.5660
0.6205 0.5002 0.6088
0.7327 0.5152 0.6572
0.8480 0.5401 0.6737
0.9464 0.5307 0.7081
0.4611 0.5398 0.6406
0.4612 0.5399 0.6407
0.4615 0.5403 0.6411
0.4825 0.5442 0.6447
0.5655 0.5595 0.6485
0.6564 0.5805 0.6484
0.7670 0.5909 0.6950
0.8952 0.6011 0.7153
0.9598 0.6163 0.7276
0.5048 0.6501 0.7009
0.5049 0.6502 0.7010
0.5051 0.6505 0.7013
0.5070 0.6513 0.7021
0.5950 0.6607 0.7115
0.6894 0.6748 0.7089
0.8048 0.6797 0.7467
0.9057 0.7008 0.7411
0.9768 0.7134 0.7531
0.5501 0.7644 0.7488
0.5501 0.7644 0.7488
0.5503 0.7647 0.7492
0.5506 0.7651 0.7498
0.6212 0.7704 0.7540
0.7233 0.7781 0.7506
0.8077 0.7932 0.7635
0.9165 0.8048 0.7721
0.9943 0.8149 0.7821
0.5958 0.8757 0.7929
0.5958 0.8758 0.7929
0.5960 0.8759 0.7933
0.5963 0.8763 0.7941
0.6637 0.8756 0.7899
0.7819 0.8770 0.7843
0.8439 0.8926 0.8015
0.9342 0.9063 0.8123
0.9998 0.9150 0.8154
0.8071 0.9518 0.8468
0.8071 0.9519 0.8469
0.8073 0.9520 0.8472
0.8077 0.9523 0.8478
0.8143 0.9542 0.8509
0.8563 0.9661 0.8678
0.9052 0.9806 0.8872
0.9575 0.9946 0.9054
0.9997 0.9991 0.9527
0.3923 0.3683 0.5075
0.3924 0.3685 0.5077
0.3929 0.3691 0.5086
0.4130 0.3794 0.5087
0.4849 0.4098 0.5465
0.5697 0.4399 0.5969
0.6730 0.4678 0.6537
0.7979 0.4876 0.7142
0.8861 0.4936 0.7495
0.3985 0.3768 0.5202
0.3986 0.3770 0.5204
0.3991 0.3776 0.5213
0.4186 0.3874 0.5206
0.4900 0.4171 0.5567
0.5747 0.4461 0.6061
0.6784 0.4728 0.6616
0.8037 0.4916 0.7209
0.8926 0.4969 0.7557
0.4193 0.4111 0.5736
0.4194 0.4112 0.5738
0.4197 0.4118 0.5746
0.4365 0.4194 0.5713
0.5084 0.4462 0.5980
0.5939 0.4709 0.6438
0.6996 0.4931 0.6941
0.8272 0.5080 0.7481
0.9192 0.5104 0.7831
0.4546 0.4758 0.6397
0.4547 0.4759 0.6398
0.4550 0.4764 0.6403
0.4632 0.4792 0.6437
0.5336 0.4980 0.6735
0.6244 0.5157 0.7137
0.7364 0.5310 0.7549
0.8694 0.5386 0.8053
0.9381 0.5610 0.8092
0.4955 0.5616 0.7090
0.4955 0.5617 0.7091
0.4957 0.5621 0.7095
0.4962 0.5629 0.7103
0.5508 0.5728 0.7805
0.6510 0.5828 0.8246
0.7704 0.5966 0.8377
0.8946 0.6097 0.8546
0.9505 0.6414 0.8333
0.5356 0.6641 0.7791
0.5357 0.6642 0.7792
0.5359 0.6645 0.7796
0.5362 0.6651 0.7804
0.5787 0.6745 0.8252
0.6611 0.6880 0.8549
0.7748 0.7001 0.8667
0.8985 0.7109 0.8804
0.9662 0.7339 0.8655
0.5941 0.7712 0.8313
0.5942 0.7713 0.8314
0.5945 0.7715 0.8315
0.5953 0.7719 0.8317
0.6308 0.7784 0.8396
0.6968 0.7921 0.8665
0.7816 0.8062 0.9009
0.9011 0.8160 0.9119
0.9846 0.8322 0.9051
0.7002 0.8703 0.8550
0.7003 0.8703 0.8551
0.7007 0.8704 0.8552
0.7012 0.8708 0.8558
0.7136 0.8745 0.8614
0.7639 0.8886 0.8837
0.8246 0.9042 0.9121
0.9049 0.9192 0.9507
0.9970 0.9304 0.9521
0.8360 0.9580 0.9063
0.8361 0.9580 0.9063
0.8364 0.9581 0.9064
0.8370 0.9582 0.9067
0.8379 0.9584 0.9072
0.8754 0.9705 0.9247
0.9203 0.9853 0.9469
0.9717 0.9964 0.9737
1.0000 1.0000 1.0000
