EA 50 Cinematic Luts Pack/EA_Cinematic Lut (52).cube
TITLE "A very warm, uniform and sharp grade that gives your footage an extra contrast between the shadows and highlights."
LUT_3D_SIZE 9
0.0000 0.0000 0.0000
0.0556 0.0342 0.0323
0.1307 0.0967 0.0911
0.2092 0.1596 0.1515
0.2887 0.2219 0.2150
0.3694 0.2841 0.2820
0.4518 0.3470 0.3513
0.5326 0.4095 0.4194
0.6150 0.4720 0.4841
0.0693 0.1141 0.0744
0.1138 0.1258 0.0822
0.1769 0.1535 0.1281
0.2438 0.1971 0.1783
0.3156 0.2488 0.2359
0.3913 0.3046 0.2987
0.4700 0.3631 0.3644
0.5483 0.4225 0.4296
0.6291 0.4825 0.4918
0.1547 0.2324 0.1646
0.1703 0.2410 0.1626
0.2338 0.2519 0.1785
0.2991 0.2744 0.2289
0.3651 0.3098 0.2801
0.4349 0.3538 0.3366
0.5060 0.4033 0.3960
0.5798 0.4563 0.4555
0.6573 0.5103 0.5122
0.2430 0.3501 0.2625
0.2507 0.3562 0.2587
0.2841 0.3668 0.2670
0.3579 0.3780 0.2842
0.4260 0.3985 0.3385
0.4903 0.4297 0.3901
0.5576 0.4675 0.4415
0.6278 0.5101 0.4929
0.7021 0.5574 0.5446
0.3343 0.4688 0.3661
0.3372 0.4736 0.3609
0.3585 0.4820 0.3623
0.4062 0.4927 0.3773
0.4839 0.5037 0.3937
0.5517 0.5218 0.4466
0.6167 0.5494 0.4938
0.6857 0.5838 0.5393
0.7588 0.6234 0.5856
0.4264 0.5857 0.4662
0.4287 0.5895 0.4627
0.4424 0.5968 0.4609
0.4720 0.6077 0.4632
0.5297 0.6176 0.4798
0.6092 0.6290 0.4966
0.6819 0.6467 0.5451
0.7500 0.6726 0.5896
0.8181 0.7041 0.6318
0.5174 0.7034 0.5571
0.5191 0.7063 0.5544
0.5267 0.7127 0.5503
0.5494 0.7213 0.5518
0.5886 0.7320 0.5608
0.6560 0.7421 0.5727
0.7410 0.7529 0.5910
0.8154 0.7688 0.6367
0.8633 0.7944 0.7028
0.6086 0.8144 0.6421
0.6100 0.8166 0.6401
0.6137 0.8222 0.6349
0.6334 0.8289 0.6357
0.6621 0.8387 0.6363
0.7208 0.8457 0.6634
0.7951 0.8542 0.6855
0.8685 0.8654 0.7203
0.9130 0.8841 0.7857
0.7946 0.8976 0.7738
0.7975 0.8989 0.7747
0.8048 0.9022 0.7769
0.8196 0.9073 0.7822
0.8418 0.9147 0.7911
0.8708 0.9245 0.8038
0.9075 0.9359 0.8228
0.9406 0.9510 0.8421
0.9664 0.9710 0.8652
0.0115 0.0132 0.0214
0.0646 0.0448 0.0667
0.1362 0.1023 0.1093
0.2138 0.1625 0.1632
0.2921 0.2239 0.2238
0.3721 0.2856 0.2889
0.4539 0.3481 0.3567
0.5343 0.4105 0.4237
0.6165 0.4728 0.4875
0.0662 0.1199 0.1126
0.1156 0.1294 0.1233
0.1787 0.1572 0.1491
0.2448 0.2003 0.1925
0.3159 0.2515 0.2467
0.3911 0.3070 0.3073
0.4692 0.3653 0.3715
0.5470 0.4246 0.4355
0.6304 0.4833 0.4954
0.1563 0.2347 0.1850
0.1751 0.2415 0.1943
0.2315 0.2542 0.2064
0.3010 0.2760 0.2425
0.3671 0.3111 0.2905
0.4361 0.3551 0.3449
0.5072 0.4044 0.4021
0.5808 0.4573 0.4603
0.6611 0.5101 0.5146
0.2447 0.3513 0.2766
0.2523 0.3570 0.2796
0.2814 0.3687 0.2847
0.3556 0.3799 0.3002
0.4261 0.3999 0.3483
0.4925 0.4303 0.3967
0.5594 0.4681 0.4471
0.6286 0.5109 0.4977
0.7057 0.5572 0.5468
0.3356 0.4696 0.3760
0.3408 0.4735 0.3777
0.3540 0.4842 0.3702
0.4030 0.4941 0.3936
0.4821 0.5051 0.4045
0.5517 0.5228 0.4537
0.6175 0.5502 0.4987
0.6873 0.5843 0.5431
0.7625 0.6231 0.5872
0.4274 0.5863 0.4731
0.4313 0.5894 0.4740
0.4384 0.5986 0.4662
0.4702 0.6087 0.4724
0.5280 0.6183 0.4914
0.6076 0.6301 0.5037
0.6815 0.6476 0.5504
0.7506 0.6732 0.5935
0.8208 0.7041 0.6332
0.5182 0.7038 0.5622
0.5212 0.7062 0.5629
0.5256 0.7135 0.5562
0.5469 0.7225 0.5558
0.5875 0.7327 0.5677
0.6548 0.7426 0.5818
0.7398 0.7537 0.5962
0.8150 0.7694 0.6405
0.8643 0.7948 0.7044
0.6092 0.8148 0.6459
0.6118 0.8166 0.6464
0.6156 0.8222 0.6414
0.6309 0.8299 0.6388
0.6597 0.8397 0.6399
0.7214 0.8456 0.6725
0.7949 0.8544 0.6923
0.8678 0.8659 0.7244
0.9135 0.8845 0.7865
0.7956 0.8979 0.7754
0.7985 0.8992 0.7762
0.8058 0.9025 0.7784
0.8200 0.9078 0.7833
0.8423 0.9152 0.7920
0.8710 0.9251 0.8043
0.9078 0.9364 0.8233
0.9409 0.9515 0.8425
0.9667 0.9714 0.8656
0.0407 0.0467 0.0684
0.0749 0.0739 0.1026
0.1467 0.1154 0.1515
0.2193 0.1720 0.1927
0.2982 0.2298 0.2462
0.3782 0.2895 0.3062
0.4591 0.3512 0.3706
0.5385 0.4130 0.4346
0.6202 0.4748 0.4960
0.1000 0.1279 0.1489
0.1247 0.1407 0.1646
0.1861 0.1650 0.1936
0.2525 0.2062 0.2228
0.3228 0.2559 0.2690
0.3971 0.3105 0.3246
0.4741 0.3681 0.3851
0.5512 0.4269 0.4463
0.6341 0.4851 0.5039
0.1490 0.2421 0.2355
0.1757 0.2471 0.2423
0.2368 0.2578 0.2554
0.3023 0.2809 0.2789
0.3681 0.3159 0.3172
0.4369 0.3595 0.3652
0.5074 0.4083 0.4183
0.5805 0.4608 0.4730
0.6684 0.5104 0.5223
0.2444 0.3554 0.3097
0.2538 0.3608 0.3106
0.2930 0.3688 0.3294
0.3557 0.3826 0.3441
0.4281 0.4026 0.3758
0.4950 0.4327 0.4172
0.5613 0.4704 0.4629
0.6305 0.5129 0.5095
0.7155 0.5565 0.5527
0.3373 0.4720 0.4002
0.3429 0.4758 0.4022
0.3657 0.4829 0.4147
0.4007 0.4970 0.4190
0.4799 0.5074 0.4385
0.5522 0.5251 0.4706
0.6201 0.5517 0.5114
0.6899 0.5858 0.5544
0.7716 0.6224 0.5922
0.4293 0.5879 0.4899
0.4335 0.5909 0.4915
0.4450 0.5981 0.4961
0.4662 0.6113 0.4924
0.5242 0.6205 0.5156
0.6047 0.6323 0.5240
0.6813 0.6496 0.5632
0.7525 0.6745 0.6032
0.8284 0.7037 0.6367
0.5200 0.7051 0.5753
0.5231 0.7074 0.5763
0.5310 0.7132 0.5786
0.5396 0.7258 0.5666
0.5844 0.7347 0.5838
0.6515 0.7442 0.6032
0.7372 0.7556 0.6106
0.8142 0.7711 0.6502
0.8667 0.7957 0.7086
0.6108 0.8158 0.6556
0.6134 0.8176 0.6561
0.6202 0.8220 0.6579
0.6269 0.8318 0.6488
0.6628 0.8397 0.6575
0.7242 0.8456 0.6887
0.7960 0.8543 0.7120
0.8664 0.8670 0.7357
0.9150 0.8856 0.7886
0.7980 0.8987 0.7793
0.8010 0.8999 0.7801
0.8084 0.9032 0.7822
0.8211 0.9090 0.7859
0.8435 0.9163 0.7943
0.8714 0.9264 0.8057
0.9085 0.9376 0.8247
0.9416 0.9527 0.8437
0.9675 0.9725 0.8667
0.0782 0.0891 0.1187
0.1007 0.1077 0.1440
0.1523 0.1435 0.1880
0.2319 0.1855 0.2427
0.3046 0.2414 0.2844
0.3829 0.2988 0.3369
0.4655 0.3576 0.3948
0.5454 0.4176 0.4536
0.6263 0.4785 0.5107
0.1256 0.1492 0.1837
0.1430 0.1611 0.1995
0.1874 0.1855 0.2328
0.2603 0.2180 0.2740
0.3287 0.2659 0.3079
0.4041 0.3179 0.3551
0.4815 0.3734 0.4089
0.5580 0.4313 0.4649
0.6402 0.4885 0.5189
0.1900 0.2461 0.2789
0.2042 0.2526 0.2889
0.2441 0.2668 0.3061
0.3097 0.2879 0.3316
0.3766 0.3220 0.3563
0.4451 0.3647 0.3950
0.5146 0.4127 0.4414
0.5868 0.4645 0.4907
0.6745 0.5133 0.5379
0.2349 0.3638 0.3684
0.2521 0.3671 0.3727
0.2935 0.3750 0.3830
0.3624 0.3865 0.3973
0.4298 0.4081 0.4185
0.4956 0.4385 0.4502
0.5615 0.4757 0.4880
0.6305 0.5178 0.5298
0.7316 0.5553 0.5658
0.3340 0.4776 0.4390
0.3411 0.4811 0.4403
0.3644 0.4882 0.4492
0.4182 0.4964 0.4676
0.4825 0.5101 0.4823
0.5535 0.5283 0.5050
0.6223 0.5549 0.5378
0.6927 0.5889 0.5752
0.7885 0.6205 0.6026
0.4298 0.5914 0.5178
0.4346 0.5943 0.5179
0.4464 0.6017 0.5187
0.4844 0.6084 0.5401
0.5217 0.6244 0.5428
0.6041 0.6346 0.5636
0.6819 0.6525 0.5884
0.7548 0.6770 0.6224
0.8412 0.7030 0.6451
0.5216 0.7077 0.5969
0.5249 0.7100 0.5979
0.5332 0.7156 0.6008
0.5586 0.7226 0.6130
0.5823 0.7374 0.6110
0.6478 0.7471 0.6305
0.7345 0.7578 0.6420
0.8141 0.7736 0.6666
0.8714 0.7973 0.7161
0.6129 0.8176 0.6722
0.6157 0.8193 0.6730
0.6227 0.8237 0.6753
0.6388 0.8305 0.6815
0.6724 0.8389 0.6867
0.7281 0.8461 0.7113
0.7975 0.8547 0.7383
0.8650 0.8687 0.7552
0.9176 0.8874 0.7923
0.8021 0.9001 0.7859
0.8051 0.9013 0.7867
0.8126 0.9045 0.7887
0.8255 0.9102 0.7923
0.8453 0.9183 0.7986
0.8736 0.9284 0.8097
0.9096 0.9399 0.8272
0.9429 0.9548 0.8457
0.9689 0.9744 0.8687
0.1164 0.1316 0.1707
0.1326 0.1450 0.1916
0.1719 0.1742 0.2302
0.2348 0.2131 0.2810
0.3185 0.2553 0.3388
0.3919 0.3113 0.3799
0.4704 0.3687 0.4295
0.5500 0.4265 0.4810
0.6329 0.4847 0.5326
0.1543 0.1774 0.2241
0.1679 0.1876 0.2380
0.2019 0.2096 0.2725
0.2600 0.2420 0.3131
0.3397 0.2787 0.3622
0.4106 0.3300 0.3980
0.4863 0.3838 0.4434
0.5641 0.4391 0.4917
0.6475 0.4943 0.5410
0.2170 0.2606 0.3157
0.2282 0.2670 0.3249
0.2576 0.2819 0.3453
0.3095 0.3043 0.3765
0.3839 0.3324 0.4111
0.4527 0.3737 0.4375
0.5227 0.4200 0.4744
0.5949 0.4703 0.5166
0.6825 0.5183 0.5610
0.2810 0.3660 0.4147
0.2908 0.3701 0.4213
0.3185 0.3796 0.4345
0.3690 0.3947 0.4496
0.4374 0.4147 0.4706
0.5042 0.4441 0.4900
0.5699 0.4808 0.5190
0.6387 0.5225 0.5552
0.7399 0.5590 0.5908
0.3233 0.4858 0.4963
0.3355 0.4881 0.4989
0.3665 0.4935 0.5059
0.4169 0.5026 0.5169
0.4892 0.5139 0.5289
0.5554 0.5336 0.5461
0.6228 0.5611 0.5718
0.6922 0.5953 0.6033
0.8158 0.6160 0.6218
0.4233 0.5982 0.5568
0.4288 0.6008 0.5582
0.4443 0.6071 0.5623
0.4807 0.6147 0.5776
0.5422 0.6231 0.5913
0.6089 0.6375 0.6067
0.6841 0.6563 0.6234
0.7573 0.6808 0.6507
0.8536 0.7035 0.6651
0.5205 0.7123 0.6270
0.5244 0.7145 0.6272
0.5341 0.7200 0.6275
0.5580 0.7276 0.6342
0.6051 0.7349 0.6543
0.6464 0.7514 0.6566
0.7361 0.7605 0.6760
0.8111 0.7769 0.7022
0.8793 0.7992 0.7278
0.6137 0.8208 0.6952
0.6169 0.8225 0.6952
0.6246 0.8269 0.6956
0.6409 0.8337 0.6996
0.6982 0.8352 0.7265
0.7392 0.8464 0.7363
0.8021 0.8564 0.7593
0.8661 0.8705 0.7788
0.9216 0.8901 0.7979
0.8074 0.9024 0.7949
0.8105 0.9036 0.7958
0.8183 0.9067 0.7979
0.8315 0.9123 0.8015
0.8501 0.9207 0.8065
0.8767 0.9313 0.8153
0.9111 0.9434 0.8303
0.9447 0.9579 0.8491
0.9710 0.9772 0.8717
0.1554 0.1739 0.2256
0.1679 0.1841 0.2434
0.1988 0.2077 0.2763
0.2495 0.2422 0.3238
0.3201 0.2827 0.3772
0.4069 0.3255 0.4348
0.4804 0.3815 0.4726
0.5562 0.4384 0.5155
0.6368 0.4953 0.5621
0.1861 0.2099 0.2698
0.1972 0.2185 0.2818
0.2246 0.2377 0.3141
0.2721 0.2677 0.3540
0.3393 0.3041 0.4005
0.4237 0.3435 0.4522
0.4946 0.3963 0.4857
0.5692 0.4507 0.5261
0.6506 0.5049 0.5710
0.2434 0.2814 0.3535
0.2527 0.2874 0.3621
0.2761 0.3019 0.3823
0.3190 0.3241 0.4164
0.3811 0.3536 0.4504
0.4610 0.3859 0.4892
0.5278 0.4316 0.5155
0.6003 0.4802 0.5508
0.6851 0.5280 0.5918
0.3115 0.3771 0.4507
0.3196 0.3812 0.4565
0.3402 0.3913 0.4702
0.3802 0.4073 0.4883
0.4372 0.4285 0.5142
0.5102 0.4534 0.5397
0.5772 0.4890 0.5598
0.6473 0.5298 0.5889
0.7439 0.5669 0.6234
0.3710 0.4868 0.5402
0.3773 0.4898 0.5450
0.3975 0.4964 0.5547
0.4393 0.5066 0.5663
0.4951 0.5214 0.5771
0.5630 0.5399 0.5939
0.6325 0.5667 0.6113
0.7021 0.6005 0.6351
0.8245 0.6197 0.6583
0.4128 0.6069 0.6119
0.4220 0.6088 0.6137
0.4459 0.6131 0.6186
0.4858 0.6202 0.6267
0.5430 0.6293 0.6405
0.6163 0.6422 0.6485
0.6864 0.6620 0.6633
0.7710 0.6832 0.6803
0.8690 0.7039 0.6957
0.5114 0.7200 0.6650
0.5157 0.7220 0.6659
0.5266 0.7269 0.6684
0.5544 0.7332 0.6783
0.6025 0.7408 0.6908
0.6704 0.7496 0.7042
0.7420 0.7632 0.7158
0.8168 0.7805 0.7289
0.8920 0.8008 0.7448
0.6106 0.8259 0.7238
0.6141 0.8275 0.7242
0.6228 0.8315 0.7252
0.6448 0.8374 0.7277
0.7012 0.8396 0.7463
0.7534 0.8478 0.7595
0.8040 0.8613 0.7720
0.8709 0.8742 0.7923
0.9273 0.8936 0.8058
0.8134 0.9060 0.8062
0.8165 0.9071 0.8070
0.8245 0.9101 0.8091
0.8382 0.9155 0.8127
0.8576 0.9236 0.8179
0.8818 0.9348 0.8243
0.9134 0.9479 0.8354
0.9471 0.9621 0.8541
0.9738 0.9811 0.8757
0.1949 0.2160 0.2826
0.2048 0.2240 0.2969
0.2300 0.2434 0.3265
0.2722 0.2736 0.3683
0.3315 0.3113 0.4182
0.4078 0.3529 0.4709
0.4952 0.3956 0.5232
0.5678 0.4514 0.5574
0.6456 0.5072 0.5974
0.2202 0.2451 0.3193
0.2295 0.2524 0.3296
0.2522 0.2690 0.3592
0.2922 0.2961 0.3959
0.3493 0.3308 0.4403
0.4230 0.3696 0.4874
0.5082 0.4098 0.5357
0.5796 0.4635 0.5679
0.6584 0.5165 0.6065
0.2717 0.3069 0.3936
0.2796 0.3124 0.4013
0.2997 0.3260 0.4200
0.3354 0.3472 0.4551
0.3886 0.3759 0.4872
0.4575 0.4092 0.5242
0.5387 0.4442 0.5650
0.6078 0.4924 0.5922
0.6906 0.5394 0.6281
0.3385 0.3937 0.4846
0.3454 0.3977 0.4898
0.3631 0.4076 0.5024
0.3955 0.4238 0.5219
0.4440 0.4453 0.5512
0.5069 0.4718 0.5773
0.5848 0.4999 0.6085
0.6544 0.5402 0.6291
0.7453 0.5783 0.6616
0.4068 0.4949 0.5724
0.4131 0.4977 0.5761
0.4290 0.5048 0.5853
0.4589 0.5166 0.5991
0.5046 0.5323 0.6148
0.5639 0.5522 0.6368
0.6385 0.5757 0.6574
0.7099 0.6086 0.6738
0.8205 0.6306 0.7011
0.4620 0.6075 0.6541
0.4669 0.6098 0.6573
0.4794 0.6154 0.6651
0.5131 0.6230 0.6731
0.5613 0.6341 0.6836
0.6222 0.6496 0.6920
0.6946 0.6679 0.7053
0.7805 0.6879 0.7210
0.8698 0.7109 0.7352
0.5017 0.7284 0.7147
0.5088 0.7297 0.7158
0.5271 0.7329 0.7189
0.5598 0.7384 0.7246
0.6061 0.7465 0.7322
0.6730 0.7548 0.7476
0.7504 0.7676 0.7502
0.8290 0.7836 0.7590
0.9104 0.8013 0.7708
0.5985 0.8336 0.7584
0.6021 0.8351 0.7591
0.6115 0.8389 0.7608
0.6458 0.8419 0.7669
0.6979 0.8456 0.7773
0.7545 0.8533 0.7853
0.8139 0.8652 0.7925
0.8776 0.8790 0.8072
0.9354 0.8974 0.8171
0.8188 0.9111 0.8190
0.8220 0.9122 0.8198
0.8302 0.9151 0.8219
0.8443 0.9203 0.8255
0.8645 0.9280 0.8307
0.8901 0.9386 0.8374
0.9185 0.9527 0.8451
0.9495 0.9678 0.8600
0.9775 0.9862 0.8808
0.2347 0.2578 0.3403
0.2430 0.2645 0.3522
0.2638 0.2807 0.3788
0.2999 0.3071 0.4146
0.3509 0.3417 0.4606
0.4168 0.3812 0.5075
0.4954 0.4229 0.5567
0.5834 0.4657 0.6066
0.6583 0.5202 0.6379
0.2561 0.2822 0.3711
0.2640 0.2884 0.3798
0.2832 0.3027 0.4067
0.3178 0.3272 0.4392
0.3668 0.3593 0.4802
0.4308 0.3965 0.5231
0.5075 0.4363 0.5692
0.5944 0.4772 0.6164
0.6707 0.5292 0.6471
0.3023 0.3361 0.4359
0.3093 0.3412 0.4428
0.3268 0.3536 0.4594
0.3573 0.3731 0.4916
0.4031 0.4005 0.5233
0.4636 0.4333 0.5590
0.5358 0.4687 0.5982
0.6210 0.5053 0.6393
0.7014 0.5517 0.6691
0.3656 0.4146 0.5182
0.3717 0.4184 0.5230
0.3871 0.4279 0.5349
0.4146 0.4439 0.5545
0.4566 0.4650 0.5856
0.5116 0.4912 0.6115
0.5799 0.5208 0.6414
0.6639 0.5525 0.6744
0.7531 0.5895 0.7036
0.4351 0.5084 0.6036
0.4406 0.5112 0.6071
0.4543 0.5183 0.6158
0.4785 0.5302 0.6302
0.5176 0.5466 0.6467
0.5693 0.5672 0.6718
0.6353 0.5923 0.6922
0.7173 0.6190 0.7166
0.8227 0.6408 0.7456
0.5011 0.6137 0.6825
0.5059 0.6158 0.6851
0.5182 0.6213 0.6917
0.5404 0.6306 0.7023
0.5792 0.6436 0.7126
0.6295 0.6588 0.7347
0.7004 0.6762 0.7510
0.7845 0.6961 0.7646
0.8656 0.7215 0.7753
0.5497 0.7283 0.7514
0.5538 0.7300 0.7534
0.5641 0.7344 0.7586
0.5900 0.7408 0.7642
0.6325 0.7491 0.7717
0.6861 0.7602 0.7826
0.7563 0.7735 0.7899
0.8337 0.7895 0.7961
0.9087 0.8091 0.8049
0.5898 0.8411 0.7991
0.5958 0.8421 0.7998
0.6120 0.8446 0.8017
0.6595 0.8457 0.8031
0.7176 0.8488 0.8060
0.7660 0.8581 0.8119
0.8177 0.8710 0.8205
0.8860 0.8841 0.8281
0.9498 0.8992 0.8359
0.8217 0.9182 0.8343
0.8251 0.9193 0.8350
0.8335 0.9221 0.8368
0.8480 0.9271 0.8400
0.8690 0.9345 0.8447
0.8958 0.9447 0.8512
0.9256 0.9577 0.8594
0.9530 0.9743 0.8685
0.9821 0.9924 0.8870
0.2750 0.2997 0.3978
0.2821 0.3055 0.4078
0.2998 0.3192 0.4317
0.3312 0.3427 0.4625
0.3755 0.3737 0.5012
0.4329 0.4106 0.5453
0.5026 0.4512 0.5910
0.5829 0.4924 0.6377
0.6750 0.5344 0.6832
0.2935 0.3206 0.4237
0.3002 0.3258 0.4328
0.3171 0.3385 0.4555
0.3471 0.3600 0.4846
0.3903 0.3892 0.5204
0.4466 0.4243 0.5622
0.5148 0.4630 0.6048
0.5946 0.5024 0.6489
0.6868 0.5431 0.6923
0.3349 0.3680 0.4789
0.3408 0.3723 0.4864
0.3559 0.3829 0.5053
0.3831 0.4006 0.5350
0.4245 0.4261 0.5654
0.4780 0.4571 0.6016
0.5440 0.4910 0.6373
0.6237 0.5269 0.6757
0.7161 0.5649 0.7141
0.3941 0.4390 0.5530
0.3992 0.4425 0.5591
0.4124 0.4510 0.5748
0.4365 0.4649 0.6029
0.4746 0.4840 0.6337
0.5255 0.5086 0.6608
0.5910 0.5371 0.6883
0.6724 0.5683 0.7179
0.7650 0.6011 0.7485
0.4623 0.5257 0.6338
0.4665 0.5283 0.6385
0.4773 0.5349 0.6505
0.4974 0.5459 0.6722
0.5303 0.5599 0.7063
0.5827 0.5783 0.7326
0.6514 0.6010 0.7517
0.7372 0.6250 0.7701
0.8306 0.6504 0.7906
0.5303 0.6252 0.7097
0.5338 0.6274 0.7131
0.5429 0.6330 0.7218
0.5601 0.6423 0.7376
0.5881 0.6545 0.7626
0.6362 0.6663 0.7962
0.7098 0.6836 0.8027
0.7913 0.7051 0.8062
0.8674 0.7317 0.8128
0.5941 0.7327 0.7752
0.5970 0.7345 0.7774
0.6045 0.7391 0.7831
0.6186 0.7468 0.7932
0.6520 0.7563 0.8020
0.7010 0.7677 0.8125
0.7648 0.7803 0.8271
0.8387 0.7968 0.8322
0.9094 0.8177 0.8375
0.6817 0.8347 0.8184
0.6863 0.8359 0.8192
0.6977 0.8390 0.8212
0.7178 0.8443 0.8246
0.7474 0.8523 0.8298
0.7858 0.8630 0.8368
0.8340 0.8759 0.8457
0.8921 0.8897 0.8598
0.9494 0.9067 0.8648
0.8326 0.9250 0.8517
0.8357 0.9261 0.8523
0.8436 0.9290 0.8540
0.8572 0.9340 0.8570
0.8769 0.9416 0.8614
0.9025 0.9518 0.8673
0.9306 0.9649 0.8748
0.9582 0.9809 0.8838
0.9877 0.9999 0.8945
