EA 50 Cinematic Luts Pack/EA_Cinematic Lut (30).cube
TITLE "A very powerful colorization that emphasizes the shadows and midtones of the shot and cools down the whole look."
LUT_3D_SIZE 25
0.0000 0.0000 0.0000
0.0000 0.0000 0.0001
0.0082 0.0000 0.0002
0.0221 0.0000 0.0003
0.0400 0.0000 0.0005
0.0617 0.0000 0.0008
0.0872 0.0000 0.0012
0.1162 0.0000 0.0016
0.1484 0.0000 0.0021
0.1834 0.0000 0.0028
0.2210 0.0000 0.0035
0.2612 0.0000 0.0043
0.3038 0.0000 0.0053
0.3493 0.0000 0.0064
0.4047 0.0000 0.0076
0.4696 0.0000 0.0090
0.5402 0.0000 0.0106
0.6162 0.0000 0.0123
0.6928 0.0000 0.0142
0.7666 0.0000 0.0162
0.8345 0.0000 0.0181
0.8936 0.0000 0.0201
0.9406 0.0000 0.0221
0.9760 0.0000 0.0242
0.9997 0.0000 0.0263
0.0000 0.0002 0.0000
0.0000 0.0002 0.0000
0.0083 0.0002 0.0000
0.0224 0.0002 0.0000
0.0407 0.0001 0.0000
0.0628 0.0000 0.0000
0.0887 0.0000 0.0000
0.1181 0.0000 0.0000
0.1509 0.0000 0.0000
0.1864 0.0000 0.0000
0.2247 0.0000 0.0000
0.2656 0.0000 0.0000
0.3089 0.0000 0.0000
0.3558 0.0000 0.0000
0.4133 0.0000 0.0000
0.4798 0.0000 0.0000
0.5523 0.0000 0.0000
0.6293 0.0000 0.0000
0.7062 0.0000 0.0000
0.7786 0.0000 0.0015
0.8446 0.0000 0.0032
0.9015 0.0000 0.0053
0.9462 0.0000 0.0076
0.9798 0.0000 0.0102
1.0000 0.0000 0.0248
0.0000 0.0086 0.0000
0.0000 0.0086 0.0000
0.0082 0.0086 0.0000
0.0222 0.0086 0.0000
0.0404 0.0085 0.0000
0.0626 0.0084 0.0000
0.0885 0.0083 0.0000
0.1178 0.0081 0.0000
0.1504 0.0079 0.0000
0.1858 0.0076 0.0000
0.2241 0.0073 0.0000
0.2650 0.0069 0.0000
0.3083 0.0064 0.0000
0.3551 0.0059 0.0000
0.4126 0.0054 0.0000
0.4791 0.0048 0.0000
0.5516 0.0042 0.0000
0.6287 0.0035 0.0000
0.7060 0.0027 0.0000
0.7797 0.0019 0.0000
0.8469 0.0011 0.0000
0.9044 0.0002 0.0000
0.9491 0.0000 0.0000
0.9824 0.0000 0.0000
1.0000 0.0078 0.0246
0.0000 0.0214 0.0001
0.0000 0.0215 0.0000
0.0082 0.0215 0.0000
0.0222 0.0214 0.0000
0.0402 0.0215 0.0000
0.0622 0.0214 0.0000
0.0881 0.0213 0.0000
0.1173 0.0211 0.0000
0.1499 0.0208 0.0000
0.1852 0.0205 0.0000
0.2235 0.0202 0.0000
0.2643 0.0198 0.0000
0.3076 0.0194 0.0000
0.3542 0.0190 0.0000
0.4117 0.0184 0.0000
0.4785 0.0179 0.0000
0.5509 0.0173 0.0000
0.6281 0.0166 0.0000
0.7051 0.0159 0.0000
0.7790 0.0151 0.0000
0.8463 0.0143 0.0000
0.9039 0.0134 0.0000
0.9488 0.0124 0.0000
0.9822 0.0114 0.0000
1.0000 0.0206 0.0248
0.0000 0.0391 0.0001
0.0000 0.0391 0.0000
0.0081 0.0392 0.0000
0.0221 0.0391 0.0000
0.0402 0.0391 0.0000
0.0620 0.0391 0.0000
0.0875 0.0390 0.0000
0.1166 0.0388 0.0000
0.1489 0.0386 0.0000
0.1845 0.0383 0.0000
0.2229 0.0379 0.0000
0.2637 0.0375 0.0000
0.3070 0.0371 0.0000
0.3535 0.0367 0.0000
0.4109 0.0362 0.0000
0.4778 0.0358 0.0000
0.5501 0.0352 0.0000
0.6272 0.0346 0.0000
0.7045 0.0339 0.0000
0.7783 0.0332 0.0000
0.8457 0.0323 0.0000
0.9034 0.0315 0.0000
0.9484 0.0305 0.0000
0.9819 0.0296 0.0000
1.0000 0.0383 0.0246
0.0000 0.0619 0.0002
0.0000 0.0619 0.0000
0.0080 0.0619 0.0000
0.0220 0.0619 0.0000
0.0400 0.0618 0.0000
0.0618 0.0618 0.0000
0.0872 0.0617 0.0000
0.1160 0.0616 0.0000
0.1483 0.0614 0.0000
0.1837 0.0612 0.0000
0.2218 0.0609 0.0000
0.2628 0.0605 0.0000
0.3063 0.0600 0.0000
0.3530 0.0595 0.0000
0.4106 0.0592 0.0000
0.4775 0.0587 0.0000
0.5495 0.0583 0.0000
0.6267 0.0577 0.0000
0.7036 0.0571 0.0000
0.7776 0.0564 0.0000
0.8450 0.0557 0.0000
0.9028 0.0548 0.0000
0.9480 0.0539 0.0000
0.9817 0.0529 0.0000
1.0000 0.0611 0.0245
0.0000 0.0901 0.0003
0.0000 0.0901 0.0000
0.0080 0.0901 0.0000
0.0218 0.0901 0.0000
0.0398 0.0901 0.0000
0.0616 0.0900 0.0000
0.0870 0.0899 0.0000
0.1157 0.0898 0.0000
0.1477 0.0897 0.0000
0.1829 0.0896 0.0000
0.2212 0.0892 0.0000
0.2619 0.0890 0.0000
0.3053 0.0887 0.0000
0.3523 0.0883 0.0000
0.4102 0.0877 0.0000
0.4770 0.0873 0.0000
0.5491 0.0868 0.0000
0.6261 0.0863 0.0000
0.7032 0.0857 0.0000
0.7771 0.0851 0.0000
0.8445 0.0844 0.0000
0.9023 0.0837 0.0000
0.9475 0.0829 0.0000
0.9813 0.0820 0.0000
1.0000 0.0896 0.0245
0.0000 0.1241 0.0004
0.0000 0.1241 0.0000
0.0079 0.1241 0.0000
0.0217 0.1241 0.0000
0.0396 0.1241 0.0000
0.0613 0.1241 0.0000
0.0868 0.1240 0.0000
0.1156 0.1239 0.0000
0.1474 0.1238 0.0000
0.1824 0.1237 0.0000
0.2204 0.1236 0.0000
0.2614 0.1235 0.0000
0.3050 0.1232 0.0000
0.3515 0.1230 0.0000
0.4090 0.1226 0.0000
0.4760 0.1221 0.0000
0.5486 0.1215 0.0000
0.6256 0.1209 0.0000
0.7027 0.1204 0.0000
0.7765 0.1198 0.0000
0.8441 0.1191 0.0000
0.9020 0.1184 0.0000
0.9473 0.1177 0.0000
0.9811 0.1168 0.0000
1.0000 0.1240 0.0249
0.0000 0.1644 0.0005
0.0000 0.1644 0.0000
0.0078 0.1644 0.0000
0.0215 0.1644 0.0000
0.0393 0.1644 0.0000
0.0611 0.1644 0.0000
0.0865 0.1643 0.0000
0.1154 0.1643 0.0000
0.1474 0.1643 0.0000
0.1824 0.1644 0.0000
0.2203 0.1644 0.0000
0.2611 0.1644 0.0000
0.3045 0.1642 0.0000
0.3513 0.1639 0.0000
0.4084 0.1637 0.0000
0.4749 0.1634 0.0000
0.5471 0.1629 0.0000
0.6245 0.1623 0.0000
0.7021 0.1615 0.0000
0.7761 0.1609 0.0000
0.8437 0.1603 0.0000
0.9016 0.1596 0.0000
0.9470 0.1589 0.0000
0.9809 0.1581 0.0000
1.0000 0.1648 0.0254
0.0000 0.2115 0.0006
0.0000 0.2116 0.0000
0.0077 0.2116 0.0000
0.0215 0.2117 0.0000
0.0393 0.2117 0.0000
0.0610 0.2118 0.0000
0.0864 0.2118 0.0000
0.1153 0.2118 0.0000
0.1475 0.2118 0.0000
0.1826 0.2118 0.0000
0.2205 0.2119 0.0000
0.2611 0.2120 0.0000
0.3043 0.2119 0.0000
0.3506 0.2118 0.0000
0.4078 0.2115 0.0000
0.4746 0.2111 0.0000
0.5463 0.2108 0.0000
0.6231 0.2105 0.0000
0.7006 0.2099 0.0000
0.7751 0.2091 0.0000
0.8432 0.2082 0.0000
0.9012 0.2075 0.0000
0.9468 0.2068 0.0000
0.9807 0.2060 0.0000
1.0000 0.2124 0.0266
0.0000 0.2698 0.0008
0.0000 0.2699 0.0000
0.0076 0.2700 0.0000
0.0214 0.2700 0.0000
0.0392 0.2701 0.0000
0.0609 0.2701 0.0000
0.0863 0.2702 0.0000
0.1152 0.2702 0.0000
0.1474 0.2702 0.0000
0.1827 0.2702 0.0000
0.2207 0.2702 0.0000
0.2612 0.2703 0.0000
0.3042 0.2704 0.0000
0.3504 0.2704 0.0000
0.4071 0.2703 0.0000
0.4737 0.2700 0.0000
0.5458 0.2693 0.0000
0.6228 0.2689 0.0000
0.6996 0.2685 0.0000
0.7737 0.2680 0.0000
0.8418 0.2672 0.0000
0.9004 0.2661 0.0000
0.9464 0.2650 0.0000
0.9805 0.2640 0.0000
1.0000 0.2711 0.0278
0.0000 0.3471 0.0010
0.0000 0.3473 0.0000
0.0076 0.3473 0.0000
0.0214 0.3474 0.0000
0.0392 0.3475 0.0000
0.0608 0.3475 0.0000
0.0862 0.3476 0.0000
0.1151 0.3476 0.0000
0.1473 0.3477 0.0000
0.1826 0.3477 0.0000
0.2208 0.3476 0.0000
0.2614 0.3477 0.0000
0.3044 0.3478 0.0000
0.3504 0.3479 0.0000
0.4070 0.3479 0.0000
0.4731 0.3477 0.0000
0.5447 0.3473 0.0000
0.6219 0.3468 0.0000
0.6993 0.3462 0.0000
0.7732 0.3458 0.0000
0.8408 0.3453 0.0000
0.8994 0.3445 0.0000
0.9455 0.3434 0.0000
0.9800 0.3422 0.0000
1.0000 0.3486 0.0285
0.0000 0.4318 0.0012
0.0000 0.4320 0.0000
0.0075 0.4320 0.0000
0.0213 0.4321 0.0000
0.0391 0.4322 0.0000
0.0608 0.4322 0.0000
0.0861 0.4323 0.0000
0.1150 0.4324 0.0000
0.1472 0.4324 0.0000
0.1825 0.4324 0.0000
0.2207 0.4324 0.0000
0.2615 0.4324 0.0000
0.3046 0.4324 0.0000
0.3506 0.4325 0.0000
0.4070 0.4327 0.0000
0.4730 0.4326 0.0000
0.5444 0.4323 0.0000
0.6209 0.4321 0.0000
0.6980 0.4318 0.0000
0.7725 0.4311 0.0000
0.8405 0.4306 0.0000
0.8989 0.4302 0.0000
0.9449 0.4296 0.0000
0.9794 0.4288 0.0000
1.0000 0.4334 0.0269
0.0000 0.5094 0.0014
0.0000 0.5097 0.0000
0.0074 0.5096 0.0000
0.0212 0.5097 0.0000
0.0391 0.5097 0.0000
0.0607 0.5098 0.0000
0.0861 0.5098 0.0000
0.1149 0.5099 0.0000
0.1471 0.5100 0.0000
0.1823 0.5100 0.0000
0.2205 0.5100 0.0000
0.2613 0.5100 0.0000
0.3046 0.5100 0.0000
0.3507 0.5100 0.0000
0.4071 0.5101 0.0000
0.4728 0.5101 0.0000
0.5439 0.5099 0.0000
0.6204 0.5099 0.0000
0.6971 0.5098 0.0000
0.7712 0.5095 0.0000
0.8396 0.5091 0.0000
0.8985 0.5085 0.0000
0.9445 0.5082 0.0000
0.9790 0.5076 0.0000
0.9999 0.5101 0.0237
0.0000 0.5724 0.0016
0.0000 0.5727 0.0000
0.0072 0.5727 0.0000
0.0211 0.5727 0.0000
0.0390 0.5727 0.0000
0.0607 0.5728 0.0000
0.0860 0.5728 0.0000
0.1148 0.5729 0.0000
0.1470 0.5729 0.0000
0.1822 0.5730 0.0000
0.2203 0.5730 0.0000
0.2611 0.5730 0.0000
0.3044 0.5730 0.0000
0.3507 0.5730 0.0000
0.4073 0.5730 0.0000
0.4730 0.5730 0.0000
0.5439 0.5728 0.0000
0.6200 0.5729 0.0000
0.6967 0.5729 0.0000
0.7705 0.5728 0.0000
0.8385 0.5727 0.0000
0.8973 0.5722 0.0000
0.9437 0.5715 0.0000
0.9783 0.5709 0.0000
0.9997 0.5724 0.0225
0.0000 0.6332 0.0019
0.0000 0.6334 0.0000
0.0071 0.6334 0.0000
0.0210 0.6334 0.0000
0.0389 0.6335 0.0000
0.0606 0.6335 0.0000
0.0860 0.6336 0.0000
0.1147 0.6336 0.0000
0.1468 0.6337 0.0000
0.1821 0.6337 0.0000
0.2202 0.6338 0.0000
0.2610 0.6338 0.0000
0.3043 0.6338 0.0000
0.3507 0.6338 0.0000
0.4074 0.6337 0.0000
0.4733 0.6337 0.0000
0.5442 0.6335 0.0000
0.6202 0.6336 0.0000
0.6966 0.6337 0.0000
0.7702 0.6335 0.0000
0.8378 0.6332 0.0000
0.8962 0.6329 0.0000
0.9427 0.6325 0.0000
0.9777 0.6319 0.0000
0.9998 0.6325 0.0203
0.0000 0.6925 0.0022
0.0000 0.6928 0.0000
0.0070 0.6928 0.0000
0.0210 0.6928 0.0000
0.0388 0.6928 0.0000
0.0605 0.6928 0.0000
0.0859 0.6929 0.0000
0.1147 0.6929 0.0000
0.1467 0.6930 0.0000
0.1819 0.6930 0.0000
0.2200 0.6931 0.0000
0.2608 0.6931 0.0000
0.3041 0.6932 0.0000
0.3505 0.6931 0.0000
0.4073 0.6930 0.0000
0.4735 0.6929 0.0000
0.5444 0.6926 0.0000
0.6202 0.6925 0.0000
0.6961 0.6925 0.0000
0.7694 0.6924 0.0000
0.8370 0.6922 0.0000
0.8956 0.6919 0.0000
0.9420 0.6917 0.0000
0.9770 0.6913 0.0000
0.9998 0.6914 0.0123
0.0000 0.7494 0.0026
0.0000 0.7496 0.0000
0.0068 0.7496 0.0000
0.0208 0.7496 0.0000
0.0387 0.7497 0.0000
0.0604 0.7497 0.0000
0.0858 0.7497 0.0000
0.1146 0.7498 0.0000
0.1466 0.7498 0.0000
0.1817 0.7499 0.0000
0.2199 0.7499 0.0000
0.2607 0.7499 0.0000
0.3039 0.7498 0.0000
0.3501 0.7497 0.0000
0.4068 0.7495 0.0000
0.4728 0.7493 0.0000
0.5439 0.7488 0.0000
0.6198 0.7488 0.0000
0.6958 0.7487 0.0000
0.7690 0.7487 0.0000
0.8364 0.7486 0.0000
0.8949 0.7485 0.0000
0.9415 0.7482 0.0000
0.9766 0.7480 0.0000
0.9999 0.7478 0.0037
0.0000 0.8026 0.0029
0.0000 0.8028 0.0000
0.0065 0.8028 0.0000
0.0206 0.8028 0.0000
0.0385 0.8028 0.0000
0.0603 0.8028 0.0000
0.0856 0.8028 0.0000
0.1144 0.8028 0.0000
0.1464 0.8028 0.0000
0.1815 0.8028 0.0000
0.2195 0.8027 0.0000
0.2602 0.8027 0.0000
0.3034 0.8026 0.0000
0.3496 0.8025 0.0000
0.4060 0.8024 0.0000
0.4721 0.8022 0.0000
0.5432 0.8017 0.0000
0.6193 0.8017 0.0000
0.6954 0.8016 0.0000
0.7687 0.8016 0.0000
0.8360 0.8015 0.0000
0.8945 0.8015 0.0000
0.9411 0.8013 0.0000
0.9763 0.8011 0.0000
0.9998 0.8009 0.0000
0.0000 0.8510 0.0033
0.0000 0.8512 0.0000
0.0063 0.8512 0.0000
0.0204 0.8512 0.0000
0.0384 0.8512 0.0000
0.0600 0.8512 0.0000
0.0854 0.8512 0.0000
0.1142 0.8512 0.0000
0.1462 0.8511 0.0000
0.1812 0.8512 0.0000
0.2190 0.8512 0.0000
0.2598 0.8511 0.0000
0.3030 0.8510 0.0000
0.3490 0.8510 0.0000
0.4054 0.8509 0.0000
0.4713 0.8507 0.0000
0.5424 0.8503 0.0000
0.6186 0.8502 0.0000
0.6950 0.8502 0.0000
0.7684 0.8501 0.0000
0.8358 0.8501 0.0000
0.8942 0.8500 0.0000
0.9408 0.8500 0.0000
0.9760 0.8499 0.0000
0.9996 0.8498 0.0000
0.0000 0.8940 0.0038
0.0000 0.8942 0.0000
0.0060 0.8942 0.0000
0.0202 0.8942 0.0000
0.0382 0.8942 0.0000
0.0599 0.8942 0.0000
0.0851 0.8942 0.0000
0.1139 0.8942 0.0000
0.1459 0.8942 0.0000
0.1809 0.8942 0.0000
0.2188 0.8942 0.0000
0.2593 0.8942 0.0000
0.3025 0.8941 0.0000
0.3485 0.8941 0.0000
0.4047 0.8940 0.0000
0.4705 0.8939 0.0000
0.5415 0.8935 0.0000
0.6178 0.8934 0.0000
0.6944 0.8934 0.0000
0.7680 0.8933 0.0000
0.8355 0.8933 0.0000
0.8940 0.8933 0.0000
0.9407 0.8933 0.0000
0.9760 0.8934 0.0000
0.9996 0.8934 0.0000
0.0000 0.9308 0.0042
0.0000 0.9310 0.0000
0.0058 0.9310 0.0000
0.0199 0.9310 0.0000
0.0380 0.9310 0.0000
0.0597 0.9310 0.0000
0.0850 0.9310 0.0000
0.1137 0.9310 0.0000
0.1457 0.9309 0.0000
0.1807 0.9309 0.0000
0.2185 0.9309 0.0000
0.2589 0.9309 0.0000
0.3021 0.9309 0.0000
0.3480 0.9309 0.0000
0.4041 0.9308 0.0000
0.4698 0.9307 0.0000
0.5406 0.9304 0.0000
0.6170 0.9303 0.0000
0.6937 0.9304 0.0000
0.7677 0.9304 0.0000
0.8356 0.9304 0.0000
0.8943 0.9305 0.0000
0.9410 0.9306 0.0000
0.9761 0.9306 0.0000
0.9997 0.9307 0.0000
0.0000 0.9607 0.0047
0.0000 0.9608 0.0000
0.0055 0.9608 0.0000
0.0197 0.9608 0.0000
0.0377 0.9608 0.0000
0.0595 0.9608 0.0000
0.0848 0.9608 0.0000
0.1135 0.9608 0.0000
0.1454 0.9608 0.0000
0.1804 0.9608 0.0000
0.2182 0.9608 0.0000
0.2586 0.9608 0.0000
0.3016 0.9608 0.0000
0.3476 0.9608 0.0000
0.4037 0.9608 0.0000
0.4694 0.9608 0.0000
0.5403 0.9605 0.0000
0.6167 0.9606 0.0000
0.6935 0.9606 0.0000
0.7676 0.9607 0.0000
0.8356 0.9607 0.0000
0.8945 0.9607 0.0000
0.9412 0.9607 0.0000
0.9763 0.9608 0.0000
0.9998 0.9608 0.0000
0.0000 0.9837 0.0053
0.0000 0.9838 0.0000
0.0054 0.9838 0.0000
0.0194 0.9838 0.0000
0.0375 0.9838 0.0000
0.0593 0.9838 0.0000
0.0846 0.9838 0.0000
0.1132 0.9838 0.0000
0.1453 0.9838 0.0000
0.1803 0.9838 0.0000
0.2181 0.9838 0.0000
0.2586 0.9839 0.0000
0.3015 0.9839 0.0000
0.3474 0.9839 0.0000
0.4035 0.9839 0.0000
0.4692 0.9839 0.0000
0.5401 0.9836 0.0000
0.6165 0.9837 0.0000
0.6933 0.9838 0.0000
0.7674 0.9838 0.0000
0.8355 0.9838 0.0000
0.8946 0.9838 0.0000
0.9413 0.9839 0.0000
0.9764 0.9839 0.0000
0.9999 0.9839 0.0000
0.0000 0.9998 0.0059
0.0000 0.9998 0.0000
0.0051 0.9998 0.0000
0.0190 0.9998 0.0000
0.0372 0.9998 0.0000
0.0591 0.9998 0.0000
0.0844 0.9998 0.0000
0.1131 0.9999 0.0000
0.1452 0.9999 0.0000
0.1801 0.9999 0.0000
0.2180 0.9999 0.0000
0.2585 0.9999 0.0000
0.3014 0.9999 0.0000
0.3472 0.9999 0.0000
0.4032 0.9999 0.0000
0.4691 0.9999 0.0000
0.5399 0.9996 0.0000
0.6163 0.9997 0.0000
0.6930 0.9998 0.0000
0.7672 0.9998 0.0000
0.8354 0.9998 0.0000
0.8945 0.9999 0.0000
0.9414 0.9999 0.0000
0.9765 0.9999 0.0000
1.0000 0.9999 0.0027
0.0000 0.0000 0.0144
0.0000 0.0000 0.0145
0.0082 0.0000 0.0146
0.0222 0.0000 0.0148
0.0401 0.0000 0.0151
0.0618 0.0000 0.0154
0.0872 0.0000 0.0158
0.1162 0.0000 0.0162
0.1483 0.0000 0.0169
0.1834 0.0000 0.0175
0.2210 0.0000 0.0183
0.2612 0.0000 0.0191
0.3038 0.0000 0.0200
0.3493 0.0000 0.0209
0.4048 0.0000 0.0220
0.4697 0.0000 0.0231
0.5403 0.0000 0.0243
0.6163 0.0000 0.0257
0.6927 0.0000 0.0272
0.7667 0.0000 0.0285
0.8346 0.0000 0.0301
0.8936 0.0000 0.0317
0.9406 0.0000 0.0333
0.9760 0.0000 0.0350
0.9997 0.0000 0.0367
0.0000 0.0002 0.0145
0.0000 0.0002 0.0152
0.0108 0.0000 0.0139
0.0323 0.0000 0.0090
0.0613 0.0000 0.0017
0.0819 0.0000 0.0019
0.1062 0.0000 0.0022
0.1340 0.0000 0.0026
0.1652 0.0000 0.0031
0.1992 0.0000 0.0037
0.2359 0.0000 0.0044
0.2753 0.0000 0.0053
0.3171 0.0000 0.0063
0.3634 0.0000 0.0074
0.4203 0.0000 0.0086
0.4852 0.0000 0.0100
0.5560 0.0000 0.0116
0.6312 0.0000 0.0134
0.7064 0.0000 0.0152
0.7786 0.0000 0.0171
0.8446 0.0000 0.0190
0.9014 0.0000 0.0209
0.9462 0.0000 0.0229
0.9798 0.0000 0.0250
1.0000 0.0000 0.0357
0.0000 0.0086 0.0145
0.0000 0.0090 0.0124
0.0084 0.0087 0.0120
0.0256 0.0079 0.0074
0.0505 0.0060 0.0010
0.0757 0.0047 0.0000
0.1027 0.0038 0.0000
0.1326 0.0032 0.0000
0.1653 0.0025 0.0000
0.2005 0.0020 0.0000
0.2384 0.0014 0.0000
0.2789 0.0009 0.0000
0.3218 0.0003 0.0000
0.3698 0.0000 0.0000
0.4287 0.0000 0.0000
0.4954 0.0000 0.0000
0.5680 0.0000 0.0000
0.6443 0.0000 0.0000
0.7200 0.0000 0.0000
0.7919 0.0000 0.0000
0.8570 0.0000 0.0000
0.9116 0.0000 0.0007
0.9535 0.0000 0.0028
0.9847 0.0000 0.0051
1.0000 0.0078 0.0356
0.0000 0.0214 0.0144
0.0000 0.0225 0.0080
0.0065 0.0222 0.0077
0.0225 0.0216 0.0079
0.0436 0.0209 0.0027
0.0693 0.0197 0.0000
0.0971 0.0187 0.0000
0.1277 0.0178 0.0000
0.1609 0.0170 0.0000
0.1968 0.0163 0.0000
0.2352 0.0156 0.0000
0.2761 0.0149 0.0000
0.3193 0.0142 0.0000
0.3673 0.0135 0.0000
0.4263 0.0128 0.0000
0.4935 0.0121 0.0000
0.5662 0.0114 0.0000
0.6427 0.0106 0.0000
0.7186 0.0098 0.0000
0.7908 0.0090 0.0000
0.8561 0.0081 0.0000
0.9114 0.0071 0.0000
0.9542 0.0061 0.0000
0.9858 0.0050 0.0000
1.0000 0.0206 0.0355
0.0000 0.0391 0.0145
0.0000 0.0409 0.0038
0.0043 0.0406 0.0035
0.0205 0.0400 0.0039
0.0406 0.0394 0.0042
0.0651 0.0387 0.0000
0.0927 0.0378 0.0000
0.1234 0.0369 0.0000
0.1569 0.0361 0.0000
0.1934 0.0352 0.0000
0.2322 0.0344 0.0000
0.2733 0.0336 0.0000
0.3168 0.0329 0.0000
0.3646 0.0322 0.0000
0.4236 0.0315 0.0000
0.4912 0.0307 0.0000
0.5640 0.0300 0.0000
0.6407 0.0292 0.0000
0.7168 0.0284 0.0000
0.7893 0.0275 0.0000
0.8550 0.0266 0.0000
0.9106 0.0256 0.0000
0.9536 0.0246 0.0000
0.9854 0.0235 0.0000
1.0000 0.0383 0.0355
0.0000 0.0619 0.0146
0.0000 0.0643 0.0007
0.0021 0.0641 0.0000
0.0183 0.0635 0.0006
0.0385 0.0628 0.0011
0.0623 0.0622 0.0015
0.0896 0.0615 0.0000
0.1200 0.0608 0.0000
0.1537 0.0599 0.0000
0.1900 0.0591 0.0000
0.2290 0.0583 0.0000
0.2706 0.0574 0.0000
0.3144 0.0566 0.0000
0.3622 0.0559 0.0000
0.4214 0.0552 0.0000
0.4889 0.0545 0.0000
0.5617 0.0538 0.0000
0.6385 0.0530 0.0000
0.7149 0.0522 0.0000
0.7877 0.0513 0.0000
0.8536 0.0504 0.0000
0.9096 0.0494 0.0000
0.9529 0.0484 0.0000
0.9849 0.0473 0.0000
1.0000 0.0611 0.0354
0.0000 0.0901 0.0146
0.0000 0.0924 0.0008
0.0016 0.0923 0.0000
0.0171 0.0920 0.0000
0.0368 0.0915 0.0000
0.0604 0.0910 0.0000
0.0875 0.0903 0.0000
0.1177 0.0897 0.0000
0.1510 0.0891 0.0000
0.1873 0.0884 0.0000
0.2264 0.0875 0.0000
0.2678 0.0868 0.0000
0.3118 0.0861 0.0000
0.3600 0.0853 0.0000
0.4193 0.0845 0.0000
0.4869 0.0838 0.0000
0.5597 0.0830 0.0000
0.6366 0.0823 0.0000
0.7131 0.0815 0.0000
0.7861 0.0807 0.0000
0.8522 0.0798 0.0000
0.9084 0.0789 0.0000
0.9521 0.0779 0.0000
0.9844 0.0768 0.0000
1.0000 0.0896 0.0354
0.0000 0.1241 0.0147
0.0000 0.1264 0.0009
0.0013 0.1264 0.0000
0.0165 0.1262 0.0000
0.0358 0.1258 0.0000
0.0590 0.1254 0.0000
0.0859 0.1249 0.0000
0.1160 0.1243 0.0000
0.1491 0.1238 0.0000
0.1852 0.1232 0.0000
0.2241 0.1226 0.0000
0.2659 0.1220 0.0000
0.3100 0.1214 0.0000
0.3577 0.1207 0.0000
0.4166 0.1200 0.0000
0.4846 0.1191 0.0000
0.5578 0.1182 0.0000
0.6348 0.1175 0.0000
0.7115 0.1167 0.0000
0.7847 0.1159 0.0000
0.8511 0.1150 0.0000
0.9076 0.1141 0.0000
0.9514 0.1132 0.0000
0.9839 0.1122 0.0000
1.0000 0.1240 0.0355
0.0000 0.1644 0.0149
0.0000 0.1667 0.0010
0.0010 0.1668 0.0000
0.0160 0.1666 0.0000
0.0350 0.1663 0.0000
0.0580 0.1660 0.0000
0.0846 0.1656 0.0000
0.1147 0.1651 0.0000
0.1479 0.1647 0.0000
0.1839 0.1644 0.0000
0.2227 0.1640 0.0000
0.2642 0.1636 0.0000
0.3083 0.1630 0.0000
0.3561 0.1623 0.0000
0.4145 0.1617 0.0000
0.4819 0.1611 0.0000
0.5549 0.1602 0.0000
0.6326 0.1593 0.0000
0.7099 0.1583 0.0000
0.7833 0.1575 0.0000
0.8499 0.1566 0.0000
0.9067 0.1558 0.0000
0.9507 0.1548 0.0000
0.9835 0.1538 0.0000
1.0000 0.1648 0.0362
0.0000 0.2115 0.0150
0.0000 0.2139 0.0012
0.0008 0.2140 0.0000
0.0157 0.2139 0.0000
0.0346 0.2137 0.0000
0.0573 0.2136 0.0000
0.0838 0.2133 0.0000
0.1138 0.2130 0.0005
0.1470 0.2126 0.0009
0.1830 0.2122 0.0011
0.2217 0.2120 0.0000
0.2631 0.2116 0.0000
0.3070 0.2112 0.0000
0.3542 0.2107 0.0000
0.4127 0.2101 0.0000
0.4802 0.2094 0.0000
0.5527 0.2087 0.0000
0.6299 0.2081 0.0000
0.7073 0.2072 0.0000
0.7814 0.2062 0.0000
0.8488 0.2050 0.0000
0.9058 0.2041 0.0000
0.9501 0.2032 0.0000
0.9831 0.2023 0.0000
1.0000 0.2125 0.0370
0.0000 0.2698 0.0153
0.0000 0.2726 0.0013
0.0007 0.2729 0.0000
0.0155 0.2727 0.0000
0.0342 0.2726 0.0000
0.0568 0.2724 0.0000
0.0834 0.2721 0.0007
0.1134 0.2717 0.0019
0.1465 0.2713 0.0029
0.1824 0.2709 0.0030
0.2210 0.2707 0.0030
0.2622 0.2705 0.0006
0.3060 0.2701 0.0000
0.3530 0.2697 0.0000
0.4108 0.2692 0.0000
0.4781 0.2684 0.0000
0.5511 0.2674 0.0000
0.6283 0.2667 0.0000
0.7053 0.2660 0.0000
0.7791 0.2652 0.0000
0.8467 0.2640 0.0000
0.9045 0.2627 0.0000
0.9495 0.2612 0.0000
0.9827 0.2601 0.0000
1.0000 0.2711 0.0380
