EA 50 Cinematic Luts Pack/EA_Cinematic Lut (6).cube
TITLE "Generated by Resolve"
LUT_3D_SIZE 9
0.199695 0.0695048 0.210864
0.229236 0.0815747 0.218448
0.258778 0.0942245 0.226322
0.29514 0.104906 0.233616
0.345113 0.110842 0.2392
0.401648 0.114702 0.243915
0.463096 0.118181 0.248524
0.527138 0.12256 0.253513
0.59173 0.130129 0.259937
0.205798 0.140352 0.219913
0.235477 0.151736 0.228046
0.267582 0.162982 0.235981
0.312993 0.171496 0.242771
0.368841 0.179263 0.249226
0.431189 0.188876 0.256458
0.498695 0.201892 0.265415
0.567864 0.218219 0.275669
0.635248 0.236469 0.286519
0.211551 0.211429 0.228168
0.241718 0.228016 0.236362
0.281636 0.245838 0.245045
0.336599 0.264164 0.254139
0.398627 0.283375 0.263493
0.465293 0.302525 0.272831
0.533928 0.322652 0.282872
0.601694 0.343923 0.293233
0.666636 0.367239 0.305119
0.210346 0.317601 0.22884
0.24744 0.344213 0.241215
0.29926 0.368307 0.252735
0.359548 0.390906 0.263508
0.425422 0.413352 0.274586
0.494194 0.435569 0.286061
0.563439 0.458625 0.298131
0.630213 0.482902 0.311269
0.692439 0.508217 0.325994
0.2159 0.45124 0.2374
0.262165 0.479545 0.251591
0.320821 0.504784 0.264759
0.385382 0.529397 0.277821
0.453773 0.552865 0.291478
0.523659 0.576455 0.305592
0.591745 0.600259 0.320027
0.656245 0.624704 0.335668
0.713497 0.650843 0.352407
0.228977 0.594156 0.254398
0.284703 0.621195 0.270726
0.347692 0.646677 0.286473
0.415259 0.670237 0.302174
0.485161 0.693141 0.317708
0.554284 0.715236 0.332906
0.620447 0.737713 0.348669
0.680964 0.760723 0.364996
0.731685 0.785046 0.382345
0.253803 0.735866 0.28452
0.314992 0.760937 0.302358
0.38114 0.783505 0.319341
0.450507 0.804639 0.335561
0.520165 0.824231 0.351141
0.587304 0.843656 0.366796
0.649912 0.862715 0.382589
0.704082 0.882872 0.399344
0.749905 0.903288 0.41648
0.289067 0.868482 0.326116
0.353811 0.888884 0.34432
0.422461 0.90724 0.361532
0.492378 0.923476 0.377905
0.560876 0.938735 0.394049
0.624765 0.952483 0.40914
0.681544 0.965621 0.42414
0.728069 0.979202 0.439445
0.769375 0.992508 0.454902
0.33608 0.982971 0.380591
0.402594 0.997971 0.397574
0.47042 1 0.41239
0.537163 1 0.426001
0.600259 1 0.438514
0.658289 1 0.451225
0.707012 1 0.464714
0.74873 1 0.479408
0.788388 1 0.493797
0.201999 0.0741283 0.240482
0.231571 0.0860609 0.248127
0.261463 0.0991989 0.256275
0.298558 0.109194 0.263035
0.349065 0.114717 0.267964
0.406332 0.118837 0.272633
0.468223 0.122637 0.27747
0.532952 0.128038 0.283299
0.598123 0.136797 0.291081
0.208392 0.144762 0.249561
0.23798 0.156237 0.257359
0.270756 0.16759 0.265217
0.317388 0.176394 0.272282
0.374304 0.185229 0.279713
0.437812 0.196246 0.288487
0.505913 0.210651 0.299153
0.575006 0.227283 0.311009
0.642329 0.246189 0.32401
0.213947 0.21738 0.257557
0.244511 0.234897 0.266575
0.286412 0.254414 0.27718
0.342596 0.273716 0.287861
0.405051 0.292988 0.298878
0.472007 0.312596 0.310719
0.540444 0.332631 0.323217
0.608377 0.354238 0.33695
0.672831 0.377356 0.351873
0.213977 0.327611 0.262928
0.25214 0.354635 0.277501
0.304845 0.378637 0.291203
0.36585 0.401358 0.305135
0.432059 0.423774 0.319417
0.500893 0.445899 0.333837
0.569894 0.469032 0.348745
0.636316 0.492897 0.364355
0.698314 0.518532 0.381262
0.220264 0.462226 0.280186
0.267552 0.489967 0.2972
0.326818 0.515419 0.313497
0.391836 0.539727 0.329671
0.46041 0.563073 0.345373
0.530129 0.586557 0.361013
0.598093 0.609964 0.377005
0.662196 0.634424 0.393927
0.718135 0.660197 0.411505
0.234028 0.604501 0.307042
0.290547 0.631586 0.325277
0.353887 0.656382 0.342824
0.42182 0.679942 0.359808
0.491768 0.702525 0.376226
0.56054 0.724361 0.392432
0.626215 0.746502 0.409262
0.68571 0.768917 0.426291
0.735622 0.793179 0.444404
0.259693 0.745632 0.342931
0.321141 0.769863 0.361639
0.387732 0.792264 0.379599
0.456962 0.812787 0.396536
0.526177 0.832197 0.412879
0.592935 0.851011 0.429374
0.654948 0.869673 0.445884
0.708049 0.889311 0.463172
0.752789 0.90837 0.480613
0.295094 0.876265 0.388113
0.360189 0.896361 0.407172
0.428733 0.913848 0.424903
0.498619 0.929793 0.442054
0.566339 0.944167 0.45832
0.629496 0.957046 0.473732
0.685084 0.969421 0.488792
0.730617 0.982376 0.504402
0.771695 0.995361 0.520027
0.341955 0.988952 0.445335
0.408209 1 0.462364
0.475715 1 0.477333
0.541634 1 0.490745
0.604364 1 0.503532
0.661646 1 0.516243
0.709331 1 0.530297
0.750622 1 0.544869
0.790356 1 0.559442
0.204318 0.0787976 0.269551
0.234058 0.0910811 0.277501
0.264134 0.103868 0.286061
0.301869 0.113207 0.293019
0.353216 0.118563 0.299046
0.411048 0.122469 0.305226
0.473442 0.126879 0.312032
0.538613 0.133227 0.321111
0.60444 0.143526 0.332525
0.210895 0.148928 0.280293
0.240467 0.160616 0.289448
0.273793 0.171954 0.298833
0.322026 0.181079 0.308248
0.379614 0.190509 0.318654
0.444236 0.203281 0.331273
0.512627 0.218509 0.345403
0.581903 0.235645 0.360494
0.648783 0.254932 0.376211
0.216281 0.223377 0.294057
0.247623 0.242008 0.306432
0.291035 0.262409 0.320409
0.34786 0.281987 0.334417
0.410956 0.301686 0.348669
0.477867 0.321263 0.36289
0.546777 0.341802 0.377707
0.614496 0.363561 0.393179
0.678828 0.386984 0.409567
0.217411 0.33695 0.310689
0.25626 0.363973 0.32813
0.310033 0.387701 0.344228
0.371664 0.410712 0.360128
0.43801 0.432944 0.375875
0.507088 0.455573 0.391608
0.576104 0.478355 0.407599
0.642466 0.502602 0.424552
0.703456 0.528466 0.44242
0.224186 0.472221 0.335851
0.272694 0.499794 0.354238
0.332586 0.5252 0.371847
0.397879 0.549157 0.389013
0.466758 0.572747 0.405692
0.536263 0.595728 0.422263
0.604059 0.619364 0.439414
0.667399 0.643473 0.456947
0.722622 0.669383 0.475517
0.238941 0.614572 0.366964
0.296208 0.641245 0.386267
0.360174 0.665782 0.404852
0.428244 0.689097 0.422614
0.497704 0.711101 0.439506
0.566445 0.732921 0.456687
0.631449 0.754452 0.473915
0.690166 0.776989 0.491554
0.739269 0.800565 0.510109
0.265187 0.754574 0.406088
0.327199 0.778637 0.425956
0.393881 0.800565 0.444404
0.462837 0.820493 0.461585
0.531975 0.839536 0.478584
0.598199 0.857755 0.495323
0.659678 0.876188 0.512215
0.711574 0.895079 0.529397
0.755749 0.913283 0.546975
0.301122 0.883894 0.454459
0.366201 0.903136 0.473625
0.434928 0.92018 0.491814
0.504372 0.935561 0.508919
0.571664 0.949004 0.525124
0.634058 0.961089 0.540246
0.688258 0.972763 0.554864
0.733104 0.985458 0.57055
0.773678 0.997879 0.585763
0.347524 0.994186 0.512749
0.41355 1 0.529442
0.480522 1 0.543877
0.546212 1 0.557015
0.608255 1 0.569528
0.664698 1 0.581933
0.711513 1 0.595743
0.752453 1 0.609979
0.792355 1 0.624338
0.206546 0.0830854 0.3028
0.236454 0.0956893 0.312917
0.2663 0.107607 0.323598
0.305104 0.116335 0.333333
0.357244 0.121355 0.342428
0.415366 0.125399 0.351598
0.478294 0.13019 0.361593
0.543877 0.13727 0.37319
0.610452 0.149477 0.387381
0.213092 0.152209 0.32195
0.242496 0.16376 0.334066
0.276814 0.175387 0.346853
0.326268 0.185031 0.359121
0.384909 0.195758 0.372122
0.450202 0.20972 0.386892
0.51902 0.22562 0.402686
0.588327 0.243305 0.419059
0.654582 0.262913 0.435492
0.218036 0.228199 0.344945
0.250446 0.248814 0.360235
0.295399 0.269688 0.376059
0.353017 0.289906 0.391592
0.416434 0.309895 0.406943
0.483803 0.329671 0.422461
0.553017 0.350454 0.438407
0.620447 0.372335 0.454856
0.684443 0.396307 0.472496
0.220447 0.345663 0.368246
0.260304 0.372457 0.38677
0.315175 0.396551 0.404181
0.377157 0.41944 0.421027
0.444007 0.442039 0.437781
0.513268 0.464546 0.45449
0.582101 0.487694 0.471565
0.648035 0.512047 0.489326
0.708263 0.537621 0.507774
0.227802 0.481544 0.39707
0.277806 0.509224 0.416724
0.33817 0.534218 0.43508
0.403815 0.558511 0.45304
0.472663 0.581674 0.47039
0.54229 0.604913 0.487877
0.60972 0.628305 0.505623
0.672419 0.652308 0.523384
0.726909 0.678111 0.542489
0.243992 0.62417 0.431708
0.301823 0.650324 0.451621
0.36611 0.674876 0.470863
0.433982 0.697673 0.488655
0.503731 0.719646 0.506325
0.571939 0.74081 0.523629
0.636454 0.762371 0.540932
0.69456 0.784573 0.558801
0.742947 0.807843 0.577508
0.27071 0.763378 0.473228
0.333043 0.787045 0.493278
0.399558 0.808301 0.511513
0.468788 0.828016 0.529122
0.537438 0.846296 0.545983
0.603525 0.864317 0.562646
0.664012 0.882139 0.578973
0.7149 0.90045 0.596216
0.758373 0.917876 0.613062
0.306966 0.891173 0.522789
0.372229 0.909789 0.541878
0.44097 0.92636 0.559762
0.510124 0.940734 0.576486
0.576669 0.953384 0.591913
0.637949 0.964553 0.606058
0.69131 0.976043 0.620493
0.73547 0.988418 0.635416
0.775814 1 0.65005
0.353079 0.999374 0.580758
0.418891 1 0.596384
0.485298 1 0.609979
0.550454 1 0.622309
0.611856 1 0.633967
0.667613 1 0.645945
0.71371 1 0.658961
0.754513 1 0.672679
0.794415 1 0.686076
0.208423 0.0860609 0.34995
0.238514 0.0986954 0.363058
0.268208 0.110033 0.375219
0.308064 0.118227 0.386603
0.360678 0.123079 0.396887
0.419577 0.127703 0.407523
0.48307 0.133196 0.419135
0.549493 0.141955 0.432517
0.616434 0.155398 0.448295
0.214893 0.154498 0.375921
0.244312 0.166232 0.389487
0.279591 0.178195 0.403677
0.330327 0.188525 0.417227
0.390219 0.201221 0.432212
0.456123 0.215976 0.448478
0.525399 0.232639 0.4654
0.594354 0.250523 0.482277
0.660471 0.270878 0.499794
0.219684 0.233204 0.402869
0.253193 0.255116 0.420188
0.299809 0.276982 0.437369
0.357977 0.297566 0.45388
0.421958 0.317479 0.470222
0.48983 0.33785 0.486702
0.558663 0.358663 0.503258
0.626062 0.38117 0.520546
0.689662 0.405035 0.538918
0.223209 0.353689 0.430716
0.264469 0.380865 0.450385
0.320241 0.405035 0.468635
0.382635 0.428107 0.486244
0.449897 0.450904 0.503731
0.519127 0.473396 0.520912
0.587808 0.496849 0.538384
0.653315 0.520928 0.556527
0.713115 0.546914 0.575509
0.231724 0.490806 0.462684
0.282765 0.518059 0.482704
0.343511 0.54345 0.501793
0.409644 0.567636 0.52018
0.478645 0.590707 0.53782
0.548165 0.613855 0.555474
0.614939 0.636988 0.573022
0.677546 0.661006 0.591073
0.730968 0.686381 0.609888
0.248631 0.633219 0.499046
0.307332 0.659434 0.519554
0.371633 0.683619 0.538384
0.439963 0.706264 0.556527
0.509621 0.727977 0.574044
0.577523 0.748898 0.590982
0.641718 0.770138 0.608103
0.698634 0.791806 0.625406
0.746426 0.815015 0.643946
0.276173 0.771954 0.541665
0.338506 0.794919 0.561044
0.405524 0.816007 0.579263
0.474754 0.835248 0.596353
0.543221 0.853223 0.612833
0.608515 0.870939 0.628733
0.66836 0.888121 0.644495
0.718074 0.905562 0.660883
0.760632 0.922057 0.676326
0.312551 0.897932 0.590539
0.378317 0.916274 0.609186
0.446891 0.932036 0.626245
0.515785 0.946029 0.642329
0.581353 0.957641 0.656306
0.641993 0.968292 0.669505
0.694301 0.979385 0.683085
0.737804 0.991379 0.69688
0.778103 1 0.710552
0.35848 1 0.646418
0.423804 1 0.660716
0.490059 1 0.67335
0.554635 1 0.684367
0.615564 1 0.695033
0.670558 1 0.706127
0.716228 1 0.718273
0.756756 1 0.730892
0.796857 1 0.743358
0.210254 0.0887465 0.406409
0.239887 0.10071 0.420127
0.269841 0.111879 0.433234
0.310796 0.119585 0.44538
0.364187 0.124636 0.456825
0.423621 0.129564 0.468482
0.487938 0.136217 0.481559
0.555322 0.146899 0.496574
0.622492 0.161334 0.513664
0.216403 0.156252 0.435416
0.246098 0.168582 0.450233
0.282445 0.180865 0.465415
0.334462 0.192386 0.480232
0.395544 0.206226 0.496605
0.462257 0.222324 0.514122
0.531594 0.239399 0.531624
0.600244 0.25803 0.54902
0.666194 0.278843 0.567132
0.221775 0.238804 0.466072
0.256077 0.261692 0.484535
0.304143 0.284123 0.502464
0.362844 0.304677 0.519493
0.427375 0.325246 0.536721
0.495384 0.345647 0.553521
0.56434 0.367178 0.570535
0.631754 0.389899 0.588327
0.694987 0.414084 0.606882
0.226261 0.361929 0.496849
0.268742 0.389136 0.517021
0.324941 0.413275 0.535348
0.388083 0.436744 0.553658
0.455497 0.459388 0.57116
0.524865 0.482429 0.588479
0.593393 0.505653 0.605997
0.658824 0.530068 0.62417
0.718029 0.556161 0.64303
0.235538 0.500008 0.530327
0.287572 0.527199 0.550271
0.349004 0.552544 0.569604
0.415274 0.576379 0.587701
0.484596 0.59971 0.605356
0.553658 0.622492 0.622354
0.620584 0.645762 0.639826
0.682506 0.669551 0.657328
0.734905 0.695109 0.675578
0.253513 0.642542 0.567056
0.312688 0.668559 0.587091
0.377386 0.692348 0.605676
0.446113 0.714778 0.623331
0.515389 0.735927 0.64004
0.583062 0.756939 0.65655
0.646601 0.777646 0.672709
0.702815 0.799466 0.689509
0.749676 0.822156 0.706783
0.281453 0.780331 0.60856
0.34432 0.803143 0.627436
0.411582 0.823728 0.644938
0.480461 0.842359 0.661082
0.548669 0.860227 0.6766
0.613458 0.877256 0.691493
0.672694 0.894148 0.706432
0.721111 0.910643 0.721263
0.763317 0.926619 0.735531
0.318486 0.905104 0.655863
0.384344 0.922713 0.673518
0.452857 0.937972 0.689586
0.521172 0.95108 0.704036
0.586114 0.961975 0.71664
0.646128 0.972168 0.728588
0.697414 0.982834 0.740719
0.740444 0.994873 0.75317
0.780529 1 0.765072
0.363622 1 0.708003
0.428824 1 0.720989
0.494789 1 0.731975
0.558938 1 0.741543
0.619684 1 0.750744
0.67393 1 0.760021
0.718929 1 0.770382
0.759304 1 0.781018
0.799832 1 0.791928
0.21181 0.0907149 0.467842
0.241138 0.102388 0.481849
0.271305 0.113191 0.495705
0.313695 0.12076 0.5084
0.367727 0.126192 0.520592
0.428046 0.131731 0.533135
0.493004 0.139666 0.547112
0.560906 0.151644 0.563241
0.628565 0.167514 0.581353
0.217807 0.1579 0.498863
0.24773 0.170626 0.514641
0.285603 0.183963 0.530495
0.339223 0.196948 0.546654
0.400977 0.211963 0.563851
0.468132 0.228794 0.581704
0.537423 0.246204 0.599176
0.606043 0.265568 0.616709
0.671641 0.28658 0.634958
0.223804 0.244404 0.532113
0.25919 0.268727 0.551186
0.308415 0.291142 0.569345
0.367834 0.312245 0.586847
0.432822 0.333104 0.604089
0.500954 0.353902 0.620706
0.570123 0.375723 0.637827
0.637339 0.398444 0.655497
0.700343 0.423316 0.67364
0.229282 0.37026 0.564172
0.272648 0.39733 0.58407
0.329946 0.421866 0.602762
0.393515 0.44535 0.620752
0.461158 0.468391 0.637888
0.53077 0.491417 0.654948
0.599329 0.514778 0.672236
0.664378 0.539406 0.689754
0.722408 0.565347 0.707652
0.239246 0.509056 0.597406
0.292638 0.536431 0.617288
0.354376 0.561456 0.635889
0.421347 0.58555 0.653635
0.490425 0.608591 0.670253
0.559686 0.631556 0.687114
0.626139 0.654765 0.703639
0.687327 0.678294 0.720134
0.73904 0.703899 0.737774
0.258442 0.652018 0.633066
0.318212 0.677455 0.652277
0.38352 0.70132 0.670268
0.451942 0.723278 0.686778
0.521248 0.744488 0.702815
0.588556 0.764965 0.718105
0.651713 0.785595 0.733333
0.706874 0.807294 0.748943
0.753277 0.829618 0.76495
0.287068 0.789029 0.672312
0.350317 0.811505 0.690318
0.417472 0.831449 0.706493
0.486336 0.850004 0.72163
0.554223 0.867155 0.735653
0.618677 0.88397 0.749294
0.67686 0.899992 0.762203
0.724483 0.916045 0.774914
0.766278 0.931548 0.787106
0.324559 0.912428 0.716899
0.390524 0.929427 0.733089
0.458946 0.944259 0.747585
0.526574 0.95613 0.75938
0.591104 0.966537 0.769879
0.650431 0.976165 0.779477
0.700832 0.98706 0.789456
0.743511 0.999054 0.800015
0.783551 1 0.810254
0.369116 1 0.763287
0.434134 1 0.773892
0.499825 1 0.78204
0.563851 1 0.789593
0.62388 1 0.79675
0.677638 1 0.804578
0.722011 1 0.813458
0.762448 1 0.823163
0.803098 1 0.833371
0.21323 0.0923629 0.532082
0.242206 0.103807 0.546258
0.272862 0.11429 0.560311
0.316716 0.121782 0.573343
0.371389 0.12755 0.585794
0.43241 0.134401 0.599115
0.498344 0.143832 0.613779
0.566873 0.15729 0.630533
0.634653 0.173953 0.648814
0.219272 0.15964 0.564218
0.2495 0.173022 0.58024
0.288884 0.187213 0.596658
0.343847 0.20174 0.61355
0.4065 0.218235 0.631235
0.473945 0.235294 0.648707
0.543389 0.253559 0.665904
0.611826 0.273198 0.682963
0.677272 0.294972 0.70071
0.22594 0.250675 0.598321
0.262272 0.275837 0.617685
0.31284 0.298512 0.635767
0.372915 0.320073 0.653178
0.438087 0.34107 0.669642
0.506874 0.362448 0.686137
0.576043 0.384222 0.702586
0.643015 0.407706 0.719692
0.705562 0.432517 0.737194
0.232074 0.378531 0.629892
0.277012 0.405997 0.64979
0.335119 0.430747 0.668147
0.399084 0.454276 0.685344
0.467323 0.477607 0.701854
0.536828 0.500572 0.718105
0.605249 0.524346 0.734707
0.669612 0.548806 0.750973
0.727275 0.575158 0.768383
0.243214 0.518746 0.661906
0.297871 0.545708 0.681147
0.360265 0.570977 0.699001
0.427253 0.595132 0.715648
0.49659 0.618051 0.731533
0.565728 0.640986 0.747265
0.631617 0.663828 0.762371
0.692302 0.687648 0.777569
0.743206 0.712795 0.793439
0.263691 0.661372 0.695186
0.324025 0.686961 0.713497
0.389502 0.710506 0.730114
0.458076 0.732372 0.745403
0.527428 0.753368 0.759869
0.5944 0.773602 0.773251
0.657084 0.794156 0.786313
0.71136 0.815351 0.799832
0.757305 0.837568 0.813718
0.292836 0.798077 0.731029
0.356268 0.819867 0.746944
0.423621 0.839857 0.761212
0.492653 0.858076 0.77435
0.560342 0.874937 0.786191
0.624399 0.89131 0.797543
0.6813 0.906355 0.808286
0.728084 0.921904 0.819196
0.76939 0.936706 0.829755
0.33077 0.919905 0.769543
0.39704 0.93669 0.783612
0.465385 0.950607 0.795483
0.532647 0.961913 0.805325
0.596445 0.971618 0.813825
0.654948 0.981048 0.821973
0.704555 0.99176 0.830884
0.7467 1 0.840391
0.786831 1 0.85005
0.374914 1 0.808835
0.439689 1 0.817258
0.505211 1 0.824277
0.568765 1 0.830442
0.628428 1 0.836851
0.681392 1 0.8439
0.725368 1 0.852491
0.76582 1 0.862028
0.806317 1 0.871717
0.214496 0.0937514 0.597055
0.243214 0.104921 0.611185
0.274632 0.115557 0.625086
0.319661 0.123064 0.637903
0.375082 0.129564 0.650248
0.436957 0.137362 0.663767
0.504005 0.148791 0.679011
0.573068 0.163607 0.695842
0.640925 0.180545 0.713848
0.220676 0.161593 0.629099
0.25156 0.176135 0.645167
0.292485 0.191257 0.661677
0.348714 0.20737 0.678645
0.412024 0.224582 0.69604
0.480079 0.242451 0.713085
0.549584 0.261295 0.729442
0.617868 0.281468 0.745922
0.68304 0.303914 0.76286
0.228412 0.257816 0.662867
0.265538 0.283299 0.681834
0.317479 0.306371 0.699367
0.377874 0.328038 0.715801
0.444038 0.349615 0.731929
0.512871 0.371115 0.747524
0.582193 0.393576 0.763577
0.648951 0.417426 0.779492
0.711177 0.442527 0.795987
0.235401 0.387564 0.692805
0.281788 0.415076 0.711849
0.340444 0.439689 0.729168
0.40499 0.463828 0.74548
0.473335 0.487022 0.760967
0.54313 0.51046 0.776333
0.611109 0.53431 0.790753
0.675486 0.559014 0.805631
0.732403 0.585595 0.821103
0.247807 0.52874 0.722103
0.303349 0.555596 0.740154
0.366094 0.581094 0.75642
0.433417 0.604868 0.771298
0.503059 0.628077 0.785657
0.571817 0.650721 0.79881
0.637568 0.673854 0.812055
0.697795 0.697536 0.825437
0.748089 0.722683 0.839765
0.269322 0.671626 0.75082
0.330083 0.697139 0.76701
0.395804 0.720287 0.781353
0.464683 0.742092 0.794873
0.533822 0.762539 0.807034
0.60061 0.782879 0.818799
0.662654 0.802945 0.830427
0.716182 0.824231 0.842969
0.761257 0.845792 0.855344
0.298955 0.807675 0.780102
0.362692 0.829328 0.794156
0.430304 0.848814 0.806973
0.499275 0.866285 0.818265
0.56672 0.882994 0.829023
0.629892 0.898436 0.839017
0.685954 0.913054 0.848844
0.731746 0.92781 0.858763
0.772671 0.942321 0.868681
0.337667 0.928206 0.814191
0.403861 0.944274 0.82678
0.471733 0.957122 0.837125
0.538521 0.967727 0.845792
0.601633 0.976898 0.8533
0.659663 0.986053 0.861006
0.708232 0.99646 0.869474
0.750088 1 0.878935
0.790066 1 0.888441
0.380499 1 0.849165
0.445319 1 0.856764
0.510597 1 0.863127
0.57377 1 0.868925
0.632975 1 0.875105
0.685237 1 0.882231
0.728847 1 0.891234
0.769345 1 0.900999
0.809689 1 0.910582
