EA 50 Cinematic Luts Pack/EA_Cinematic Lut (18).CUBE
#Created by: Adobe Photoshop Export Color Lookup Plugin
#Copyright: (C) Copyright 2018 Navpreet Singh
TITLE "orange and teal"
#LUT size
LUT_3D_SIZE 8
#data domain
#LUT data points
DOMAIN_MIN 0.000000 0.000000 0.000000
DOMAIN_MAX 0.903226 0.903226 0.903226
0.000000 0.000000 0.000000
0.129028 0.042999 0.000000
0.258057 0.085999 0.000000
0.387085 0.128998 0.000000
0.516144 0.171997 0.000000
0.645172 0.214996 0.000000
0.774200 0.257996 0.000000
0.903229 0.300995 0.000000
0.000000 0.096832 0.096832
0.129028 0.129028 0.129028
0.353058 0.140350 0.034027
0.516113 0.171997 0.000000
0.645172 0.214996 0.000000
0.774200 0.257996 0.000000
0.903229 0.300995 0.000000
1.000000 0.354767 0.032257
0.000000 0.193604 0.193604
0.057709 0.297150 0.297150
0.258057 0.258057 0.258057
0.482086 0.269379 0.163055
0.706177 0.280701 0.068024
0.903229 0.300995 0.000000
1.000000 0.354767 0.032257
1.000000 0.440796 0.161285
0.000000 0.290405 0.290405
0.000000 0.451660 0.451660
0.186737 0.426178 0.426178
0.387085 0.387085 0.387085
0.611176 0.398407 0.292053
0.835205 0.409729 0.197052
1.000000 0.440796 0.161285
1.000000 0.526825 0.290314
0.000000 0.387207 0.387207
0.000000 0.548462 0.548462
0.115479 0.594269 0.594269
0.315765 0.555206 0.555206
0.516144 0.516144 0.516144
0.740173 0.527466 0.421143
0.964203 0.538757 0.326111
1.000000 0.612854 0.419373
0.000000 0.483978 0.483978
0.000000 0.645264 0.645264
0.044220 0.762299 0.762299
0.244507 0.723297 0.723297
0.444824 0.684265 0.684265
0.645172 0.645172 0.645172
0.869202 0.656494 0.550171
1.000000 0.698883 0.548401
0.000000 0.580780 0.580780
0.000000 0.742035 0.742035
0.000000 0.903320 0.903320
0.173248 0.891327 0.891327
0.373566 0.852295 0.852295
0.573853 0.813293 0.813293
0.774200 0.774200 0.774200
0.998230 0.785522 0.679199
0.000000 0.677551 0.677551
0.000000 0.838837 0.838837
0.000092 1.000000 1.000000
0.161377 1.000000 1.000000
0.322693 1.000000 1.000000
0.502594 0.981323 0.981323
0.702881 0.942322 0.942322
0.903229 0.903229 0.903229
0.000000 0.000000 0.000000
0.129028 0.042999 0.000000
0.258057 0.085999 0.000000
0.387085 0.128998 0.000000
0.516144 0.171997 0.000000
0.645172 0.214996 0.000000
0.774200 0.257996 0.000000
0.903229 0.300995 0.000000
0.000000 0.096832 0.096832
0.129028 0.129028 0.129028
0.353058 0.140350 0.034027
0.516113 0.171997 0.000000
0.645172 0.214996 0.000000
0.774200 0.257996 0.000000
0.903229 0.300995 0.000000
1.000000 0.354767 0.032257
0.000000 0.193604 0.193604
0.057709 0.297150 0.297150
0.258057 0.258057 0.258057
0.482086 0.269379 0.163055
0.706177 0.280701 0.068024
0.903229 0.300995 0.000000
1.000000 0.354767 0.032257
1.000000 0.440796 0.161285
0.000000 0.290405 0.290405
0.000000 0.451660 0.451660
0.186737 0.426178 0.426178
0.387085 0.387085 0.387085
0.611176 0.398407 0.292053
0.835205 0.409729 0.197052
1.000000 0.440796 0.161285
1.000000 0.526825 0.290314
0.000000 0.387207 0.387207
0.000000 0.548462 0.548462
0.115479 0.594269 0.594269
0.315765 0.555206 0.555206
0.516144 0.516144 0.516144
0.740173 0.527466 0.421143
0.964203 0.538757 0.326111
1.000000 0.612854 0.419373
0.000000 0.483978 0.483978
0.000000 0.645264 0.645264
0.044220 0.762299 0.762299
0.244507 0.723297 0.723297
0.444824 0.684265 0.684265
0.645172 0.645172 0.645172
0.869202 0.656494 0.550171
1.000000 0.698883 0.548401
0.000000 0.580780 0.580780
0.000000 0.742035 0.742035
0.000000 0.903320 0.903320
0.173248 0.891327 0.891327
0.373566 0.852295 0.852295
0.573853 0.813293 0.813293
0.774200 0.774200 0.774200
0.998230 0.785522 0.679199
0.000000 0.677551 0.677551
0.000000 0.838837 0.838837
0.000092 1.000000 1.000000
0.161377 1.000000 1.000000
0.322693 1.000000 1.000000
0.502594 0.981323 0.981323
0.702881 0.942322 0.942322
0.903229 0.903229 0.903229
0.000000 0.000000 0.000000
0.129028 0.042999 0.000000
0.258057 0.085999 0.000000
0.387085 0.128998 0.000000
0.516144 0.171997 0.000000
0.645172 0.214996 0.000000
0.774200 0.257996 0.000000
0.903229 0.300995 0.000000
0.000000 0.096832 0.096832
0.129028 0.129028 0.129028
0.353058 0.140350 0.034027
0.516113 0.171997 0.000000
0.645172 0.214996 0.000000
0.774200 0.257996 0.000000
0.903229 0.300995 0.000000
1.000000 0.354767 0.032257
0.000000 0.193604 0.193604
0.057709 0.297150 0.297150
0.258057 0.258057 0.258057
0.482086 0.269379 0.163055
0.706177 0.280701 0.068024
0.903229 0.300995 0.000000
1.000000 0.354767 0.032257
1.000000 0.440796 0.161285
0.000000 0.290405 0.290405
0.000000 0.451660 0.451660
0.186737 0.426178 0.426178
0.387085 0.387085 0.387085
0.611176 0.398407 0.292053
0.835205 0.409729 0.197052
1.000000 0.440796 0.161285
1.000000 0.526825 0.290314
0.000000 0.387207 0.387207
0.000000 0.548462 0.548462
0.115479 0.594269 0.594269
0.315765 0.555206 0.555206
0.516144 0.516144 0.516144
0.740173 0.527466 0.421143
0.964203 0.538757 0.326111
1.000000 0.612854 0.419373
0.000000 0.483978 0.483978
0.000000 0.645264 0.645264
0.044220 0.762299 0.762299
0.244507 0.723297 0.723297
0.444824 0.684265 0.684265
0.645172 0.645172 0.645172
0.869202 0.656494 0.550171
1.000000 0.698883 0.548401
0.000000 0.580780 0.580780
0.000000 0.742035 0.742035
0.000000 0.903320 0.903320
0.173248 0.891327 0.891327
0.373566 0.852295 0.852295
0.573853 0.813293 0.813293
0.774200 0.774200 0.774200
0.998230 0.785522 0.679199
0.000000 0.677551 0.677551
0.000000 0.838837 0.838837
0.000092 1.000000 1.000000
0.161377 1.000000 1.000000
0.322693 1.000000 1.000000
0.502594 0.981323 0.981323
0.702881 0.942322 0.942322
0.903229 0.903229 0.903229
0.000000 0.000000 0.000000
0.129028 0.042999 0.000000
0.258057 0.085999 0.000000
0.387085 0.128998 0.000000
0.516144 0.171997 0.000000
0.645172 0.214996 0.000000
0.774200 0.257996 0.000000
0.903229 0.300995 0.000000
0.000000 0.096832 0.096832
0.129028 0.129028 0.129028
0.353058 0.140350 0.034027
0.516113 0.171997 0.000000
0.645172 0.214996 0.000000
0.774200 0.257996 0.000000
0.903229 0.300995 0.000000
1.000000 0.354767 0.032257
0.000000 0.193604 0.193604
0.057709 0.297150 0.297150
0.258057 0.258057 0.258057
0.482086 0.269379 0.163055
0.706177 0.280701 0.068024
0.903229 0.300995 0.000000
1.000000 0.354767 0.032257
1.000000 0.440796 0.161285
0.000000 0.290405 0.290405
0.000000 0.451660 0.451660
0.186737 0.426178 0.426178
0.387085 0.387085 0.387085
0.611176 0.398407 0.292053
0.835205 0.409729 0.197052
1.000000 0.440796 0.161285
1.000000 0.526825 0.290314
0.000000 0.387207 0.387207
0.000000 0.548462 0.548462
0.115479 0.594269 0.594269
0.315765 0.555206 0.555206
0.516144 0.516144 0.516144
0.740173 0.527466 0.421143
0.964203 0.538757 0.326111
1.000000 0.612854 0.419373
0.000000 0.483978 0.483978
0.000000 0.645264 0.645264
0.044220 0.762299 0.762299
0.244507 0.723297 0.723297
0.444824 0.684265 0.684265
0.645172 0.645172 0.645172
0.869202 0.656494 0.550171
1.000000 0.698883 0.548401
0.000000 0.580780 0.580780
0.000000 0.742035 0.742035
0.000000 0.903320 0.903320
0.173248 0.891327 0.891327
0.373566 0.852295 0.852295
0.573853 0.813293 0.813293
0.774200 0.774200 0.774200
0.998230 0.785522 0.679199
0.000000 0.677551 0.677551
0.000000 0.838837 0.838837
0.000092 1.000000 1.000000
0.161377 1.000000 1.000000
0.322693 1.000000 1.000000
0.502594 0.981323 0.981323
0.702881 0.942322 0.942322
0.903229 0.903229 0.903229
0.000000 0.000000 0.000000
0.129028 0.042999 0.000000
0.258057 0.085999 0.000000
0.387085 0.128998 0.000000
0.516144 0.171997 0.000000
0.645172 0.214996 0.000000
0.774200 0.257996 0.000000
0.903229 0.300995 0.000000
0.000000 0.096832 0.096832
0.129028 0.129028 0.129028
0.353058 0.140350 0.034027
0.516113 0.171997 0.000000
0.645172 0.214996 0.000000
0.774200 0.257996 0.000000
0.903229 0.300995 0.000000
1.000000 0.354767 0.032257
0.000000 0.193604 0.193604
0.057709 0.297150 0.297150
0.258057 0.258057 0.258057
0.482086 0.269379 0.163055
0.706177 0.280701 0.068024
0.903229 0.300995 0.000000
1.000000 0.354767 0.032257
1.000000 0.440796 0.161285
0.000000 0.290405 0.290405
0.000000 0.451660 0.451660
0.186737 0.426178 0.426178
0.387085 0.387085 0.387085
0.611176 0.398407 0.292053
0.835205 0.409729 0.197052
1.000000 0.440796 0.161285
1.000000 0.526825 0.290314
0.000000 0.387207 0.387207
0.000000 0.548462 0.548462
0.115479 0.594269 0.594269
0.315765 0.555206 0.555206
0.516144 0.516144 0.516144
0.740173 0.527466 0.421143
0.964203 0.538757 0.326111
1.000000 0.612854 0.419373
0.000000 0.483978 0.483978
0.000000 0.645264 0.645264
0.044220 0.762299 0.762299
0.244507 0.723297 0.723297
0.444824 0.684265 0.684265
0.645172 0.645172 0.645172
0.869202 0.656494 0.550171
1.000000 0.698883 0.548401
0.000000 0.580780 0.580780
0.000000 0.742035 0.742035
0.000000 0.903320 0.903320
0.173248 0.891327 0.891327
0.373566 0.852295 0.852295
0.573853 0.813293 0.813293
0.774200 0.774200 0.774200
0.998230 0.785522 0.679199
0.000000 0.677551 0.677551
0.000000 0.838837 0.838837
0.000092 1.000000 1.000000
0.161377 1.000000 1.000000
0.322693 1.000000 1.000000
0.502594 0.981323 0.981323
0.702881 0.942322 0.942322
0.903229 0.903229 0.903229
0.000000 0.000000 0.000000
0.129028 0.042999 0.000000
0.258057 0.085999 0.000000
0.387085 0.128998 0.000000
0.516144 0.171997 0.000000
0.645172 0.214996 0.000000
0.774200 0.257996 0.000000
0.903229 0.300995 0.000000
0.000000 0.096832 0.096832
0.129028 0.129028 0.129028
0.353058 0.140350 0.034027
0.516113 0.171997 0.000000
0.645172 0.214996 0.000000
0.774200 0.257996 0.000000
0.903229 0.300995 0.000000
1.000000 0.354767 0.032257
0.000000 0.193604 0.193604
0.057709 0.297150 0.297150
0.258057 0.258057 0.258057
0.482086 0.269379 0.163055
0.706177 0.280701 0.068024
0.903229 0.300995 0.000000
1.000000 0.354767 0.032257
1.000000 0.440796 0.161285
0.000000 0.290405 0.290405
0.000000 0.451660 0.451660
0.186737 0.426178 0.426178
0.387085 0.387085 0.387085
0.611176 0.398407 0.292053
0.835205 0.409729 0.197052
1.000000 0.440796 0.161285
1.000000 0.526825 0.290314
0.000000 0.387207 0.387207
0.000000 0.548462 0.548462
0.115479 0.594269 0.594269
0.315765 0.555206 0.555206
0.516144 0.516144 0.516144
0.740173 0.527466 0.421143
0.964203 0.538757 0.326111
1.000000 0.612854 0.419373
0.000000 0.483978 0.483978
0.000000 0.645264 0.645264
0.044220 0.762299 0.762299
0.244507 0.723297 0.723297
0.444824 0.684265 0.684265
0.645172 0.645172 0.645172
0.869202 0.656494 0.550171
1.000000 0.698883 0.548401
0.000000 0.580780 0.580780
0.000000 0.742035 0.742035
0.000000 0.903320 0.903320
0.173248 0.891327 0.891327
0.373566 0.852295 0.852295
0.573853 0.813293 0.813293
0.774200 0.774200 0.774200
0.998230 0.785522 0.679199
0.000000 0.677551 0.677551
0.000000 0.838837 0.838837
0.000092 1.000000 1.000000
0.161377 1.000000 1.000000
0.322693 1.000000 1.000000
0.502594 0.981323 0.981323
0.702881 0.942322 0.942322
0.903229 0.903229 0.903229
0.000000 0.000000 0.000000
0.129028 0.042999 0.000000
0.258057 0.085999 0.000000
0.387085 0.128998 0.000000
0.516144 0.171997 0.000000
0.645172 0.214996 0.000000
0.774200 0.257996 0.000000
0.903229 0.300995 0.000000
0.000000 0.096832 0.096832
0.129028 0.129028 0.129028
0.353058 0.140350 0.034027
0.516113 0.171997 0.000000
0.645172 0.214996 0.000000
0.774200 0.257996 0.000000
0.903229 0.300995 0.000000
1.000000 0.354767 0.032257
0.000000 0.193604 0.193604
0.057709 0.297150 0.297150
0.258057 0.258057 0.258057
0.482086 0.269379 0.163055
0.706177 0.280701 0.068024
0.903229 0.300995 0.000000
1.000000 0.354767 0.032257
1.000000 0.440796 0.161285
0.000000 0.290405 0.290405
0.000000 0.451660 0.451660
0.186737 0.426178 0.426178
0.387085 0.387085 0.387085
0.611176 0.398407 0.292053
0.835205 0.409729 0.197052
1.000000 0.440796 0.161285
1.000000 0.526825 0.290314
0.000000 0.387207 0.387207
0.000000 0.548462 0.548462
0.115479 0.594269 0.594269
0.315765 0.555206 0.555206
0.516144 0.516144 0.516144
0.740173 0.527466 0.421143
0.964203 0.538757 0.326111
1.000000 0.612854 0.419373
0.000000 0.483978 0.483978
0.000000 0.645264 0.645264
0.044220 0.762299 0.762299
0.244507 0.723297 0.723297
0.444824 0.684265 0.684265
0.645172 0.645172 0.645172
0.869202 0.656494 0.550171
1.000000 0.698883 0.548401
0.000000 0.580780 0.580780
0.000000 0.742035 0.742035
0.000000 0.903320 0.903320
0.173248 0.891327 0.891327
0.373566 0.852295 0.852295
0.573853 0.813293 0.813293
0.774200 0.774200 0.774200
0.998230 0.785522 0.679199
0.000000 0.677551 0.677551
0.000000 0.838837 0.838837
0.000092 1.000000 1.000000
0.161377 1.000000 1.000000
0.322693 1.000000 1.000000
0.502594 0.981323 0.981323
0.702881 0.942322 0.942322
0.903229 0.903229 0.903229
0.000000 0.000000 0.000000
0.129028 0.042999 0.000000
0.258057 0.085999 0.000000
0.387085 0.128998 0.000000
0.516144 0.171997 0.000000
0.645172 0.214996 0.000000
0.774200 0.257996 0.000000
0.903229 0.300995 0.000000
0.000000 0.096832 0.096832
0.129028 0.129028 0.129028
0.353058 0.140350 0.034027
0.516113 0.171997 0.000000
0.645172 0.214996 0.000000
0.774200 0.257996 0.000000
0.903229 0.300995 0.000000
1.000000 0.354767 0.032257
0.000000 0.193604 0.193604
0.057709 0.297150 0.297150
0.258057 0.258057 0.258057
0.482086 0.269379 0.163055
0.706177 0.280701 0.068024
0.903229 0.300995 0.000000
1.000000 0.354767 0.032257
1.000000 0.440796 0.161285
0.000000 0.290405 0.290405
0.000000 0.451660 0.451660
0.186737 0.426178 0.426178
0.387085 0.387085 0.387085
0.611176 0.398407 0.292053
0.835205 0.409729 0.197052
1.000000 0.440796 0.161285
1.000000 0.526825 0.290314
0.000000 0.387207 0.387207
0.000000 0.548462 0.548462
0.115479 0.594269 0.594269
0.315765 0.555206 0.555206
0.516144 0.516144 0.516144
0.740173 0.527466 0.421143
0.964203 0.538757 0.326111
1.000000 0.612854 0.419373
0.000000 0.483978 0.483978
0.000000 0.645264 0.645264
0.044220 0.762299 0.762299
0.244507 0.723297 0.723297
0.444824 0.684265 0.684265
0.645172 0.645172 0.645172
0.869202 0.656494 0.550171
1.000000 0.698883 0.548401
0.000000 0.580780 0.580780
0.000000 0.742035 0.742035
0.000000 0.903320 0.903320
0.173248 0.891327 0.891327
0.373566 0.852295 0.852295
0.573853 0.813293 0.813293
0.774200 0.774200 0.774200
0.998230 0.785522 0.679199
0.000000 0.677551 0.677551
0.000000 0.838837 0.838837
0.000092 1.000000 1.000000
0.161377 1.000000 1.000000
0.322693 1.000000 1.000000
0.502594 0.981323 0.981323
0.702881 0.942322 0.942322
0.903229 0.903229 0.903229
