EA 50 Cinematic Luts Pack/EA_Cinematic Lut (39).cube
TITLE "A very natural grading that works perfect with outside, semi-lighted shots."
LUT_3D_SIZE 5
0.0000 0.0000 0.0000
0.1828 0.0222 0.0103
0.4340 0.0643 0.0357
0.6691 0.0970 0.0267
0.9266 0.1367 0.0000
0.0513 0.1510 0.0305
0.2137 0.1539 0.0124
0.4813 0.1609 0.0000
0.6893 0.1859 0.0000
0.9369 0.2212 0.0000
0.0981 0.3791 0.0557
0.2186 0.3839 0.0000
0.5006 0.3832 0.0000
0.7255 0.3850 0.0000
0.9715 0.4057 0.0000
0.0779 0.6931 0.0000
0.2367 0.6927 0.0000
0.4858 0.6968 0.0000
0.7327 0.6912 0.0000
0.9998 0.6922 0.0780
0.2836 0.9819 0.1971
0.3423 0.9866 0.1513
0.5114 0.9966 0.0000
0.7166 0.9999 0.1041
0.9929 0.9815 0.5880
0.0236 0.0231 0.0560
0.1838 0.0295 0.1364
0.4450 0.0612 0.1457
0.7009 0.0609 0.1257
1.0000 0.0297 0.0446
0.0416 0.1534 0.1536
0.2078 0.1575 0.1426
0.4785 0.1643 0.1399
0.7047 0.1761 0.1213
1.0000 0.1645 0.0433
0.1040 0.3788 0.1820
0.1891 0.3912 0.1033
0.4796 0.3924 0.1086
0.7567 0.3742 0.0000
1.0000 0.3908 0.0650
0.0543 0.6941 0.1617
0.1729 0.7019 0.0657
0.4588 0.7059 0.0000
0.7274 0.6966 0.0478
0.9999 0.6926 0.1849
0.3264 0.9779 0.3132
0.3845 0.9816 0.2902
0.5012 0.9990 0.1304
0.7170 0.9999 0.2108
0.9931 0.9823 0.6291
0.0785 0.0684 0.1426
0.1568 0.0826 0.2270
0.4354 0.0789 0.3558
0.6717 0.1032 0.3774
1.0000 0.0297 0.3613
0.0870 0.1665 0.2924
0.1816 0.1776 0.3064
0.4574 0.1796 0.3662
0.7136 0.1710 0.3778
1.0000 0.1642 0.3635
0.0609 0.3844 0.3996
0.2033 0.3887 0.3931
0.4877 0.3922 0.3667
0.7561 0.3780 0.3133
1.0000 0.3904 0.3715
0.0614 0.6938 0.4192
0.1745 0.7011 0.3820
0.3980 0.7203 0.2519
0.6979 0.7117 0.2806
1.0000 0.6937 0.4122
0.3997 0.9701 0.5303
0.4634 0.9714 0.5311
0.5738 0.9811 0.5023
0.7210 1.0000 0.4257
0.9938 0.9851 0.7562
0.1348 0.1223 0.2610
0.1791 0.1354 0.3317
0.3755 0.1523 0.4839
0.6738 0.1134 0.6702
0.9719 0.0865 0.7217
0.1630 0.1991 0.3882
0.2122 0.2121 0.4110
0.4104 0.2237 0.5390
0.6857 0.2020 0.6831
0.9941 0.1681 0.7369
0.0000 0.3993 0.6225
0.1244 0.4060 0.6633
0.4272 0.4148 0.6485
0.7007 0.4078 0.6752
1.0000 0.3888 0.7373
0.0000 0.6974 0.7309
0.1726 0.7013 0.7251
0.4445 0.7085 0.7000
0.7135 0.7054 0.6512
0.9996 0.6949 0.7381
0.3917 0.9747 0.7898
0.4680 0.9743 0.7950
0.6100 0.9740 0.8092
0.7681 0.9850 0.8096
0.9957 0.9906 0.8866
0.1929 0.1871 0.3979
0.2252 0.1993 0.4489
0.3688 0.2187 0.6203
0.6260 0.2064 0.8611
0.9697 0.0979 0.9763
0.2168 0.2493 0.5119
0.2504 0.2579 0.5599
0.4064 0.2640 0.7808
0.6714 0.2292 0.9391
0.9902 0.1738 0.9902
0.1339 0.4236 0.8237
0.1855 0.4292 0.8545
0.3835 0.4278 0.9538
0.6942 0.4124 0.9702
0.9934 0.3925 0.9930
0.0887 0.7082 0.9236
0.0180 0.7176 0.9461
0.1980 0.7328 0.9999
0.6934 0.7111 0.9720
0.9887 0.7004 0.9908
0.3960 0.9811 0.9691
0.4689 0.9812 0.9704
0.6082 0.9821 0.9745
0.7851 0.9869 0.9837
0.9999 0.9999 0.9999
