EA 50 Cinematic Luts Pack/EA_Cinematic Lut (22).CUBE
#Created by: Adobe Photoshop Export Color Lookup Plugin
#Copyright: (C) Copyright 2018 Navpreet Singh
TITLE "Orange and Teal 5"
#LUT size
LUT_3D_SIZE 32
#data domain
DOMAIN_MIN 0.0 0.0 0.0
DOMAIN_MAX 1.0 1.0 1.0
#LUT data points
0.000000 0.000000 0.000000
0.035400 0.005463 0.000000
0.070801 0.010925 0.000000
0.106201 0.016357 0.000000
0.141602 0.021820 0.000000
0.177002 0.027283 0.000000
0.212372 0.032745 0.000000
0.247803 0.038208 0.000000
0.283173 0.043671 0.000000
0.318604 0.049133 0.000000
0.353973 0.054596 0.000000
0.389404 0.060059 0.000000
0.424774 0.065521 0.000000
0.460175 0.070984 0.000000
0.495575 0.076447 0.000000
0.530975 0.081879 0.000000
0.566406 0.087341 0.000000
0.601807 0.092804 0.000000
0.637207 0.098267 0.000000
0.672607 0.103729 0.000000
0.707977 0.109192 0.000000
0.743408 0.114655 0.000000
0.778778 0.120087 0.000000
0.814209 0.125549 0.000000
0.849579 0.131012 0.000000
0.885010 0.136475 0.000000
0.920380 0.141937 0.000000
0.955780 0.147400 0.000000
0.975708 0.162170 0.015472
0.983795 0.183990 0.042755
0.991913 0.205841 0.070099
1.000000 0.227661 0.097382
0.000000 0.032257 0.028931
0.032257 0.032257 0.024170
0.076385 0.038300 0.016235
0.118134 0.039948 0.009888
0.157349 0.042725 0.006073
0.192749 0.047516 0.006073
0.228149 0.052612 0.006073
0.263550 0.057739 0.006073
0.298920 0.063019 0.006073
0.334351 0.068298 0.006073
0.369720 0.073639 0.006073
0.405151 0.079041 0.006073
0.440521 0.084381 0.006073
0.475922 0.089813 0.006073
0.511322 0.095154 0.006073
0.546722 0.100616 0.006073
0.582153 0.105988 0.006073
0.617554 0.111450 0.006073
0.652954 0.116943 0.006073
0.688354 0.122284 0.006073
0.723724 0.127686 0.006073
0.759155 0.133209 0.006073
0.794525 0.138580 0.006073
0.829956 0.144043 0.006073
0.865326 0.149475 0.006073
0.900757 0.154907 0.006073
0.936127 0.160461 0.006073
0.967621 0.168091 0.009979
0.975708 0.189514 0.037292
0.983795 0.210754 0.064575
0.991913 0.232208 0.091888
1.000000 0.253632 0.119202
0.000000 0.064514 0.057800
0.027832 0.068939 0.051453
0.064514 0.064514 0.048309
0.108917 0.072540 0.040100
0.152740 0.076599 0.032440
0.194489 0.078278 0.026093
0.236237 0.079926 0.019745
0.277985 0.081573 0.013397
0.314667 0.085449 0.012115
0.350067 0.090149 0.012115
0.385468 0.095062 0.012115
0.420868 0.100128 0.012115
0.456268 0.105194 0.012115
0.491669 0.110352 0.012115
0.527069 0.115570 0.012115
0.562439 0.120758 0.012115
0.597900 0.126068 0.012115
0.633270 0.131409 0.012115
0.668671 0.136719 0.012115
0.704071 0.142059 0.012115
0.739471 0.147339 0.012115
0.774872 0.152802 0.012115
0.810272 0.158020 0.012115
0.845673 0.163513 0.012115
0.881073 0.168762 0.012115
0.916473 0.174316 0.012115
0.951874 0.179626 0.012115
0.967621 0.196106 0.031769
0.975708 0.216888 0.059082
0.983795 0.237701 0.086365
0.991913 0.258606 0.113678
1.000000 0.279663 0.140991
0.000000 0.096771 0.086731
0.018646 0.110352 0.086884
0.064514 0.096771 0.072479
0.096771 0.096771 0.072479
0.140320 0.105103 0.064728
0.186310 0.112061 0.055664
0.229126 0.114899 0.048676
0.270874 0.116547 0.042328
0.312592 0.118195 0.036011
0.354370 0.119873 0.029633
0.396118 0.121490 0.023285
0.436615 0.123657 0.018188
0.472015 0.128143 0.018188
0.507416 0.132874 0.018188
0.542816 0.137634 0.018188
0.578186 0.142609 0.018188
0.613647 0.147552 0.018188
0.649017 0.152649 0.018188
0.684448 0.157776 0.018188
0.719818 0.162872 0.018188
0.755249 0.168121 0.018188
0.790619 0.173218 0.018188
0.826050 0.178528 0.018188
0.861420 0.183868 0.018188
0.896820 0.189117 0.018188
0.932220 0.194458 0.018188
0.959534 0.204041 0.026276
0.967621 0.224152 0.053589
0.975708 0.244324 0.080902
0.983795 0.264557 0.108185
0.991913 0.285034 0.135498
1.000000 0.305542 0.162781
0.000000 0.129028 0.115631
0.009460 0.151825 0.123383
0.055542 0.138000 0.102966
0.096771 0.129028 0.096649
0.129028 0.129028 0.096649
0.171539 0.137207 0.089539
0.217804 0.145081 0.080231
0.263763 0.151489 0.071259
0.305511 0.153198 0.064911
0.347260 0.154846 0.058563
0.389008 0.156494 0.052216
0.430725 0.158142 0.045868
0.472473 0.159821 0.039520
0.514191 0.161438 0.033203
0.555939 0.163147 0.026825
0.593964 0.166412 0.024261
0.629395 0.170868 0.024261
0.664764 0.175629 0.024261
0.700195 0.180359 0.024261
0.735565 0.185211 0.024261
0.770996 0.190155 0.024261
0.806366 0.195038 0.024261
0.841797 0.200073 0.024261
0.877167 0.205292 0.024261
0.912567 0.210358 0.024261
0.947968 0.215515 0.024261
0.959534 0.232910 0.048096
0.967621 0.252197 0.075409
0.975708 0.271759 0.102692
0.983795 0.291565 0.130005
0.991913 0.311462 0.157318
1.000000 0.331573 0.184601
0.000000 0.161285 0.144531
0.008087 0.185455 0.154663
0.046387 0.179413 0.137878
0.092529 0.165527 0.122345
0.129028 0.161285 0.120819
0.161285 0.161285 0.120819
0.202728 0.169067 0.114410
0.249268 0.177765 0.104797
0.295410 0.184662 0.095642
0.340149 0.189850 0.087494
0.381897 0.191498 0.081146
0.423645 0.193115 0.074799
0.465363 0.194733 0.068451
0.507111 0.196411 0.062134
0.548828 0.198059 0.055756
0.590576 0.199799 0.049469
0.632355 0.201355 0.043091
0.674133 0.203094 0.036713
0.715851 0.204620 0.030396
0.751312 0.209106 0.030334
0.786743 0.213623 0.030334
0.822113 0.218323 0.030334
0.857544 0.222931 0.030334
0.892914 0.227844 0.030334
0.928314 0.232758 0.030334
0.951416 0.243622 0.042633
0.959534 0.261932 0.069916
0.967621 0.280579 0.097229
0.975708 0.299500 0.124512
0.983795 0.318542 0.151825
0.991913 0.338013 0.179138
1.000000 0.357574 0.206421
0.000000 0.193542 0.173462
0.008087 0.217712 0.184357
0.037323 0.220734 0.173767
0.083313 0.206970 0.154480
0.129028 0.193542 0.144958
0.161285 0.193542 0.144958
0.193542 0.193542 0.144958
0.233765 0.200592 0.139374
0.280640 0.210205 0.129425
0.326691 0.217590 0.120331
0.372650 0.224121 0.111359
0.416534 0.228119 0.103668
0.458252 0.229767 0.097321
0.500000 0.231415 0.091003
0.541748 0.233093 0.084656
0.583496 0.234741 0.078339
0.625275 0.236389 0.071960
0.667023 0.238037 0.065643
0.708771 0.239746 0.059296
0.750488 0.241302 0.052917
0.792206 0.243042 0.046600
0.833984 0.244690 0.040253
0.873260 0.247314 0.036377
0.908661 0.251770 0.036377
0.943329 0.256653 0.037109
0.951416 0.273743 0.064392
0.959534 0.291229 0.091705
0.967621 0.309021 0.119019
0.975708 0.327179 0.146301
0.983795 0.345764 0.173615
0.991913 0.364502 0.200928
1.000000 0.383514 0.228210
0.000000 0.225800 0.202362
0.008087 0.249969 0.213898
0.028168 0.262115 0.210144
0.074127 0.248444 0.189087
0.120239 0.234589 0.173248
0.161285 0.225800 0.169128
0.193542 0.225800 0.169128
0.225800 0.225800 0.169128
0.264862 0.231995 0.164337
0.311981 0.242432 0.154175
0.358154 0.250336 0.144958
0.404327 0.257202 0.135742
0.449982 0.263580 0.127045
0.492889 0.266449 0.119934
0.534637 0.268097 0.113556
0.576385 0.269775 0.107239
0.618164 0.271393 0.100861
0.659912 0.273041 0.094574
0.701660 0.274689 0.088196
0.743378 0.276337 0.081879
0.785126 0.278046 0.075531
0.826874 0.279694 0.069183
0.868591 0.281219 0.062836
0.910339 0.282898 0.056488
0.943329 0.288300 0.058929
0.951416 0.304138 0.086212
0.959534 0.320740 0.113525
0.967621 0.337738 0.140839
0.975708 0.355072 0.168121
0.983795 0.372925 0.195435
0.991913 0.391083 0.222717
1.000000 0.409393 0.250061
0.000000 0.258057 0.231293
0.008087 0.282227 0.243195
0.018921 0.303650 0.246796
0.065155 0.289673 0.224579
0.111084 0.275970 0.205963
0.157166 0.262146 0.194244
0.193542 0.258057 0.193298
0.225800 0.258057 0.193298
0.258057 0.258057 0.193298
0.295715 0.263214 0.189514
0.343079 0.274445 0.179138
0.389618 0.282928 0.169525
0.435608 0.290161 0.160461
0.481567 0.296722 0.151459
0.527557 0.302979 0.142456
0.569275 0.304749 0.136169
0.611053 0.306396 0.129791
0.652802 0.308014 0.123474
0.694550 0.309692 0.117126
0.736267 0.311310 0.110809
0.778015 0.312988 0.104462
0.819763 0.314667 0.098083
0.861481 0.316345 0.091766
0.903259 0.317841 0.085419
0.943329 0.320313 0.080750
0.951416 0.335052 0.108032
0.959534 0.350433 0.135315
0.967621 0.366455 0.162659
0.975708 0.383148 0.189941
0.983795 0.400116 0.217255
0.991913 0.417664 0.244537
1.000000 0.435425 0.271851
0.000000 0.290314 0.260193
0.008087 0.314484 0.272339
0.016205 0.338623 0.279144
0.056000 0.331085 0.260651
0.102112 0.317200 0.240265
0.148071 0.303528 0.224487
0.193542 0.290314 0.217438
0.225800 0.290314 0.217438
0.258057 0.290314 0.217438
0.290314 0.290314 0.217438
0.326813 0.294373 0.214417
0.374146 0.306305 0.204071
0.420959 0.315308 0.194153
0.467102 0.322906 0.184998
0.513184 0.329773 0.175873
0.558960 0.336182 0.167023
0.603973 0.341339 0.158691
0.645721 0.343048 0.152374
0.687439 0.344696 0.145996
0.729187 0.346375 0.139679
0.770905 0.347992 0.133331
0.812653 0.349640 0.127014
0.854401 0.351227 0.120636
0.896149 0.352905 0.114288
0.937897 0.354584 0.107971
0.951416 0.366241 0.129822
0.959534 0.380432 0.157135
0.967621 0.395599 0.184418
0.975708 0.411224 0.211731
0.983795 0.427551 0.239044
0.991913 0.444244 0.266327
1.000000 0.461334 0.293640
0.000000 0.322571 0.289093
0.008087 0.346741 0.301575
0.016205 0.370880 0.309326
0.046906 0.372437 0.296936
0.092773 0.358795 0.275726
0.138855 0.344971 0.257446
0.185028 0.331055 0.244659
0.225800 0.322571 0.241608
0.258057 0.322571 0.241608
0.290314 0.322571 0.241608
0.322571 0.322571 0.241608
0.357788 0.325439 0.239502
0.405457 0.338104 0.228790
0.452209 0.347565 0.218964
0.498566 0.355530 0.209564
0.544525 0.362671 0.200562
0.590851 0.369324 0.191223
0.636597 0.375702 0.182434
0.680328 0.379639 0.174927
0.722076 0.381287 0.168610
0.763794 0.382996 0.162231
0.805542 0.384644 0.155914
0.847290 0.386200 0.149567
0.889038 0.387939 0.143188
0.930786 0.389648 0.136902
0.951416 0.397827 0.151642
0.959534 0.410858 0.178955
0.967621 0.424866 0.206238
0.975708 0.439545 0.233551
0.983795 0.454956 0.260864
0.991913 0.470917 0.288147
1.000000 0.487335 0.315460
0.000000 0.354828 0.318024
0.008087 0.378998 0.330566
0.016205 0.403137 0.339233
0.037872 0.413696 0.333496
0.083771 0.400085 0.311432
0.129852 0.386261 0.291687
0.175842 0.372528 0.275757
0.221832 0.358795 0.266418
0.258057 0.354828 0.265778
0.290314 0.354828 0.265778
0.322571 0.354828 0.265778
0.354828 0.354828 0.265778
0.388672 0.356415 0.264648
0.436523 0.369690 0.253784
0.483429 0.379639 0.243835
0.529755 0.388062 0.234436
0.576294 0.395538 0.224915
0.622101 0.402374 0.216064
0.668060 0.408813 0.207031
0.713837 0.415009 0.198181
0.756714 0.417908 0.191162
0.798431 0.419617 0.184845
0.840179 0.421295 0.178467
0.881927 0.422913 0.172119
0.923676 0.424500 0.165802
0.951416 0.430084 0.173462
0.959534 0.441711 0.200775
0.967621 0.454407 0.228058
0.975708 0.468018 0.255371
0.983795 0.482544 0.282684
0.991913 0.497650 0.309967
1.000000 0.513336 0.337280
0.000000 0.387085 0.346924
0.008087 0.411255 0.359802
0.016205 0.435394 0.368896
0.028381 0.455444 0.370209
0.074646 0.441437 0.347534
0.120636 0.427704 0.326843
0.166626 0.413971 0.308929
0.212830 0.400055 0.295471
0.258057 0.387085 0.289948
0.290314 0.387085 0.289948
0.322571 0.387085 0.289948
0.354828 0.387085 0.289948
0.387085 0.387085 0.289948
0.419708 0.387390 0.289642
0.467499 0.401184 0.278839
0.514587 0.411652 0.268677
0.561310 0.420380 0.258942
0.607758 0.428162 0.249481
0.653473 0.435211 0.240692
0.699677 0.441864 0.231445
0.745331 0.448273 0.222748
0.791351 0.454468 0.213684
0.833069 0.456268 0.207397
0.874817 0.457855 0.201080
0.916565 0.459595 0.194733
0.951416 0.462708 0.195282
0.959534 0.472839 0.222595
0.967621 0.484253 0.249878
0.975708 0.496765 0.277191
0.983795 0.510101 0.304474
0.991913 0.524384 0.331787
1.000000 0.539246 0.359100
0.000000 0.419342 0.375824
0.008087 0.443512 0.388672
0.016205 0.467651 0.398254
0.024292 0.491821 0.403473
0.065735 0.482605 0.383728
0.111450 0.469177 0.362366
0.157532 0.455353 0.343170
0.203705 0.441437 0.327148
0.249786 0.427582 0.316498
0.290314 0.419342 0.314087
0.322571 0.419342 0.314087
0.354828 0.419342 0.314087
0.387085 0.419342 0.314087
0.419342 0.419342 0.314087
0.451599 0.419342 0.314087
0.498718 0.432678 0.303619
0.545868 0.443604 0.293457
0.592621 0.452667 0.283661
0.639038 0.460693 0.274170
0.684998 0.468048 0.265198
0.731140 0.474915 0.256012
0.777100 0.481506 0.247009
0.823029 0.487732 0.238037
0.867737 0.492981 0.229980
0.909485 0.494568 0.223602
0.951233 0.496246 0.217255
0.959534 0.504547 0.244354
0.967621 0.514374 0.271667
0.975708 0.525665 0.298981
0.983795 0.537964 0.326263
0.991913 0.551270 0.353577
1.000000 0.565308 0.380890
0.000000 0.451599 0.404724
0.008087 0.475769 0.417755
0.016205 0.499908 0.427765
0.024292 0.524078 0.433960
0.056335 0.524261 0.420349
0.102234 0.510620 0.398376
0.148224 0.496918 0.378143
0.194427 0.482971 0.360443
0.240509 0.469147 0.346497
0.286774 0.455139 0.338867
0.322571 0.451599 0.338257
0.354828 0.451599 0.338257
0.387085 0.451599 0.338257
0.419342 0.451599 0.338257
0.451599 0.451599 0.338257
0.483856 0.451630 0.338257
0.529755 0.464020 0.328644
0.576874 0.475372 0.318542
0.623993 0.484863 0.308350
0.670441 0.493164 0.298828
0.716339 0.500732 0.289886
0.762360 0.507751 0.280792
0.808655 0.514404 0.271454
0.854462 0.520905 0.262665
0.899933 0.527191 0.254120
0.944122 0.531250 0.246216
0.959534 0.536774 0.266174
0.967621 0.544922 0.293488
0.975708 0.554810 0.320801
0.983795 0.565857 0.348083
0.991913 0.578156 0.375397
1.000000 0.591278 0.402679
0.000000 0.483856 0.433655
0.008087 0.508026 0.446777
0.016205 0.532166 0.457092
0.024292 0.556335 0.463959
0.047028 0.565857 0.457001
0.093323 0.551819 0.434418
0.139160 0.538208 0.413605
0.185394 0.524261 0.394623
0.231293 0.510590 0.378601
0.277557 0.496582 0.366974
0.322571 0.483856 0.362427
0.354828 0.483856 0.362427
0.387085 0.483856 0.362427
0.419342 0.483856 0.362427
0.451599 0.483856 0.362427
0.483856 0.483856 0.362427
0.516144 0.483856 0.362427
0.560852 0.495331 0.353607
0.608215 0.507141 0.343201
0.655212 0.516968 0.333160
0.701630 0.525482 0.323669
0.747894 0.533356 0.314392
0.793854 0.540558 0.305389
0.840057 0.547424 0.296112
0.886261 0.554016 0.286896
0.931641 0.560364 0.278442
0.959534 0.568237 0.287567
0.967621 0.575958 0.315308
0.975708 0.584259 0.342621
0.983795 0.593994 0.369904
0.991913 0.605072 0.397217
1.000000 0.617188 0.424500
0.000000 0.516144 0.462585
0.008087 0.540314 0.475708
0.016205 0.564453 0.486389
0.024292 0.588623 0.493927
0.037842 0.607330 0.493652
0.083923 0.593506 0.470947
0.130280 0.579376 0.449158
0.176117 0.565826 0.429443
0.222198 0.552002 0.411957
0.268494 0.537964 0.397705
0.314331 0.524353 0.388550
0.354828 0.516144 0.386597
0.387085 0.516144 0.386597
0.419342 0.516144 0.386597
0.451599 0.516144 0.386597
0.483856 0.516144 0.386597
0.516144 0.516144 0.386597
0.548401 0.516113 0.386597
0.591461 0.526459 0.378998
0.639099 0.538788 0.368347
0.686188 0.548920 0.358215
0.732635 0.557861 0.348694
0.779297 0.565857 0.339020
0.825165 0.573303 0.330078
0.871277 0.580322 0.320923
0.917358 0.587067 0.311798
0.959534 0.593842 0.306641
0.967621 0.603119 0.335541
0.975708 0.613861 0.364380
0.983795 0.622345 0.391724
0.991913 0.632111 0.419037
1.000000 0.643158 0.446320
0.000000 0.548401 0.491516
0.008087 0.572571 0.504791
0.016205 0.596710 0.515656
0.024292 0.620880 0.523682
0.032379 0.645050 0.528015
0.075195 0.634491 0.507080
0.120850 0.621063 0.485229
0.166809 0.607391 0.464783
0.213013 0.593414 0.446045
0.258972 0.579742 0.430115
0.305389 0.565582 0.417847
0.351410 0.551788 0.411224
0.387085 0.548401 0.410767
0.419342 0.548401 0.410767
0.451599 0.548401 0.410767
0.483856 0.548401 0.410767
0.516144 0.548401 0.410767
0.548401 0.548401 0.410767
0.580658 0.548401 0.410767
0.622498 0.557648 0.404053
0.670105 0.570282 0.393402
0.717346 0.580811 0.383118
0.763824 0.589966 0.373535
0.810486 0.598267 0.363861
0.856781 0.605835 0.354553
0.902863 0.613159 0.345428
0.948822 0.619995 0.336395
0.967621 0.627686 0.354614
0.975708 0.637238 0.383453
0.983795 0.647949 0.412292
0.991913 0.659241 0.440857
1.000000 0.669189 0.468140
0.000000 0.580658 0.520416
0.008087 0.604828 0.533844
0.016205 0.628967 0.544983
0.024292 0.653137 0.553131
0.032379 0.677307 0.558319
0.066193 0.675751 0.543518
0.111969 0.662201 0.521332
0.157806 0.648651 0.500366
0.204254 0.634430 0.480713
0.249939 0.621002 0.463440
0.296143 0.607086 0.449005
0.342285 0.593201 0.438812
0.387085 0.580658 0.434967
0.419342 0.580658 0.434937
0.451599 0.580658 0.434937
0.483856 0.580658 0.434937
0.516144 0.580658 0.434937
0.548401 0.580658 0.434937
0.580658 0.580658 0.434937
0.612915 0.580688 0.434937
0.653656 0.588837 0.428925
0.701263 0.601807 0.418243
0.748688 0.612732 0.407806
0.795288 0.622131 0.398163
0.841949 0.630615 0.388428
0.888245 0.638458 0.379120
0.934235 0.645844 0.370056
0.967621 0.652832 0.373657
0.975708 0.660919 0.402527
0.983795 0.670593 0.431366
0.991913 0.681488 0.460205
1.000000 0.693451 0.489075
0.000000 0.612915 0.549316
0.008087 0.637085 0.562714
0.016205 0.661224 0.573944
0.024292 0.685394 0.582672
0.032379 0.709564 0.588593
0.056213 0.717987 0.580688
0.102722 0.703705 0.557495
0.148773 0.689911 0.536072
0.194702 0.676239 0.515839
0.240753 0.662476 0.497559
0.286896 0.648590 0.481506
0.333282 0.634430 0.468689
0.379150 0.620850 0.460724
0.419342 0.612915 0.459076
0.451599 0.612915 0.459076
0.483856 0.612915 0.459076
0.516113 0.612915 0.459076
0.548401 0.612915 0.459076
0.580658 0.612915 0.459076
0.612915 0.612915 0.459076
0.645172 0.612915 0.459076
0.684357 0.619781 0.454193
0.732300 0.633240 0.443237
0.779907 0.644501 0.432587
0.826599 0.654205 0.422852
0.872833 0.662933 0.413574
0.919586 0.671021 0.403778
0.965515 0.678497 0.394806
0.975708 0.685089 0.421600
0.983795 0.693420 0.450439
0.991913 0.703217 0.479279
1.000000 0.714417 0.508209
0.000000 0.645172 0.578217
0.008087 0.669342 0.591675
0.016205 0.693481 0.603149
0.024292 0.717651 0.612305
0.032379 0.741821 0.618622
0.047302 0.759155 0.617035
0.093781 0.744934 0.593872
0.139893 0.731049 0.571899
0.185547 0.717651 0.551514
0.232147 0.703308 0.531982
0.277710 0.690002 0.514923
0.323822 0.676178 0.500366
0.370087 0.662170 0.489319
0.416016 0.648468 0.483551
0.451599 0.645172 0.483276
0.483826 0.645172 0.483246
0.516144 0.645172 0.483246
0.548401 0.645172 0.483246
0.580658 0.645172 0.483246
0.612915 0.645172 0.483246
0.645172 0.645172 0.483246
0.677429 0.645203 0.483246
0.715576 0.650970 0.479004
0.763519 0.664703 0.468018
0.810944 0.676239 0.457550
0.857697 0.686127 0.447784
0.904480 0.695160 0.437958
0.950714 0.703369 0.428680
0.975708 0.709778 0.440674
0.983795 0.716614 0.469543
0.991913 0.725250 0.498383
1.000000 0.735321 0.527283
0.000000 0.677429 0.607117
0.008087 0.701599 0.620636
0.016205 0.725739 0.632202
0.024292 0.749908 0.641693
0.032379 0.774078 0.648529
0.040466 0.798248 0.652344
0.084534 0.786438 0.630524
0.130676 0.772552 0.608215
0.177063 0.758423 0.586731
0.222351 0.745392 0.567230
0.268585 0.731415 0.549042
0.314697 0.717560 0.532867
0.360748 0.703766 0.519897
0.406891 0.689880 0.510773
0.451599 0.677429 0.507385
0.483856 0.677429 0.507446
0.516144 0.677429 0.507416
0.548370 0.677429 0.507416
0.580688 0.677429 0.507416
0.612915 0.677429 0.507416
0.645172 0.677429 0.507416
0.677429 0.677429 0.507416
0.709686 0.677429 0.507416
0.746368 0.681854 0.504303
0.794647 0.696045 0.493011
0.841858 0.707794 0.482727
0.888702 0.718018 0.472839
0.935974 0.727295 0.462555
0.975708 0.734955 0.459747
0.983795 0.740234 0.488617
0.991913 0.747467 0.517487
1.000000 0.756439 0.546326
0.000000 0.709686 0.636047
0.008087 0.733856 0.649536
0.016205 0.757996 0.661224
0.024292 0.782166 0.671112
0.032379 0.806335 0.678497
0.040466 0.830505 0.682922
0.075745 0.827484 0.667023
0.121002 0.814453 0.644745
0.167542 0.800201 0.622894
0.213623 0.786377 0.602417
0.259705 0.772552 0.583649
0.305511 0.759003 0.566437
0.351685 0.745056 0.551697
0.397675 0.731323 0.540070
0.443665 0.717621 0.532898
0.483856 0.709686 0.531616
0.516144 0.709686 0.531586
0.548401 0.709686 0.531586
0.580688 0.709686 0.531586
0.612885 0.709686 0.531586
0.645172 0.709686 0.531586
0.677429 0.709686 0.531586
0.709686 0.709686 0.531586
0.741943 0.709686 0.531586
0.777374 0.712891 0.529358
0.825226 0.727203 0.518433
0.873047 0.739410 0.507599
0.920013 0.749908 0.497559
0.966858 0.759338 0.487671
0.983795 0.764191 0.507690
0.991913 0.769989 0.536560
1.000000 0.777588 0.565430
0.000000 0.741943 0.664948
0.008087 0.766113 0.678467
0.016205 0.790253 0.690308
0.024292 0.814423 0.700348
0.032379 0.838593 0.708221
0.040466 0.862762 0.712952
0.065979 0.869507 0.703766
0.112549 0.855194 0.680786
0.158234 0.841736 0.659149
0.204407 0.827820 0.638000
0.250183 0.814331 0.618469
0.296478 0.800293 0.600464
0.342438 0.786591 0.584412
0.388672 0.772614 0.571075
0.434601 0.758942 0.561066
0.480835 0.744965 0.556061
0.516144 0.741943 0.555725
0.548401 0.741943 0.555725
0.580627 0.741943 0.555725
0.612915 0.741943 0.555725
0.645142 0.741943 0.555725
0.677429 0.741943 0.555725
0.709656 0.741943 0.555725
0.741943 0.741943 0.555725
0.774200 0.741943 0.555725
0.808289 0.743805 0.554443
0.856476 0.758575 0.543213
0.904083 0.770966 0.532532
0.951202 0.781799 0.522400
0.983795 0.788727 0.526733
0.991913 0.792694 0.555634
1.000000 0.799042 0.584473
0.000000 0.774200 0.693878
0.008087 0.798370 0.707428
0.016205 0.822510 0.719604
0.024292 0.846680 0.729584
0.032379 0.870850 0.737518
0.040466 0.895020 0.743073
0.056793 0.910950 0.740417
0.103058 0.896942 0.717438
0.149323 0.882935 0.695099
0.195465 0.869049 0.673737
0.241302 0.855469 0.653748
0.287323 0.841675 0.634918
0.333282 0.827972 0.617920
0.379364 0.814148 0.602997
0.425629 0.800140 0.590973
0.471527 0.786530 0.582825
0.516144 0.774200 0.579895
0.548401 0.774200 0.579865
0.580658 0.774200 0.579895
0.612915 0.774200 0.579895
0.645172 0.774200 0.579895
0.677429 0.774200 0.579895
0.709686 0.774200 0.579895
0.741943 0.774200 0.579895
0.774200 0.774200 0.579895
0.806458 0.774200 0.579895
0.839478 0.774872 0.579315
0.887207 0.789703 0.568512
0.935028 0.802399 0.557648
0.982269 0.813416 0.547394
0.991913 0.815796 0.574707
1.000000 0.820557 0.603546
0.000000 0.806458 0.722778
0.008087 0.830627 0.736267
0.016205 0.854767 0.748566
0.024292 0.878937 0.758942
0.032379 0.903107 0.767120
0.040466 0.927277 0.773285
0.048584 0.951416 0.776642
0.094147 0.938110 0.753845
0.140106 0.924377 0.731354
0.186096 0.910645 0.709778
0.231964 0.897064 0.689392
0.278198 0.883087 0.669800
0.324493 0.869019 0.651794
0.370636 0.855133 0.635803
0.416290 0.841736 0.622253
0.462616 0.827698 0.611664
0.508484 0.814087 0.605194
0.548401 0.806458 0.604095
0.580658 0.806458 0.604095
0.612915 0.806458 0.604065
0.645172 0.806458 0.604065
0.677429 0.806458 0.604065
0.709717 0.806458 0.604065
0.741913 0.806458 0.604065
0.774200 0.806458 0.604065
0.806458 0.806458 0.604065
0.838715 0.806458 0.604065
0.870972 0.806458 0.604065
0.918671 0.821045 0.593079
0.965820 0.833771 0.582886
0.991913 0.839355 0.593811
1.000000 0.842346 0.622620
0.000000 0.838715 0.751678
0.008087 0.862885 0.765289
0.016205 0.887024 0.777374
0.024292 0.911194 0.788055
0.032379 0.935364 0.796509
0.040466 0.959534 0.803192
0.072723 0.959534 0.790955
0.104980 0.959534 0.777710
0.137238 0.959534 0.764130
0.176392 0.952637 0.746246
0.222900 0.938385 0.724762
0.269165 0.924377 0.704865
0.315063 0.910706 0.686310
0.361053 0.897003 0.669403
0.407410 0.882874 0.654388
0.453766 0.868805 0.641998
0.499603 0.855225 0.632996
0.545441 0.841675 0.628387
0.580658 0.838715 0.628235
0.612915 0.838715 0.628174
0.645172 0.838715 0.628204
0.677429 0.838715 0.628204
0.709656 0.838715 0.628204
0.741943 0.838715 0.628204
0.774200 0.838715 0.628204
0.806427 0.838715 0.628204
0.838715 0.838715 0.628204
0.870972 0.838715 0.628204
0.903229 0.838715 0.628204
0.949188 0.851990 0.618591
0.991913 0.863464 0.612854
1.000000 0.864288 0.641693
0.000000 0.870972 0.780579
0.008087 0.895142 0.794189
0.016205 0.919281 0.806610
0.024292 0.943451 0.817078
0.032379 0.967621 0.826080
0.064636 0.967621 0.815247
0.096893 0.967621 0.804138
0.129150 0.967621 0.792694
0.161407 0.967621 0.780579
0.193665 0.967621 0.768127
0.225922 0.967621 0.754974
0.259705 0.966095 0.740387
0.306366 0.951660 0.721100
0.351959 0.938354 0.703217
0.398224 0.924347 0.687317
0.444183 0.910614 0.673462
