EA 50 Cinematic Luts Pack/EA_Cinematic Lut (26).cube
TITLE "Generated by Resolve"
LUT_3D_SIZE 33
0 0.0295567 0.0577707
0 0.0329137 0.0581521
0 0.0336767 0.0559396
0 0.0310674 0.0503548
0 0.0243534 0.04065
0 0.00225834 0.0155642
0 0 0
0.0487068 0 0
0.103151 0 0
0.154437 0 0
0.203479 0 0
0.243931 0 0
0.283009 0 0
0.321492 0 0
0.359442 0 0
0.396994 0 0
0.433936 0 0
0.470512 0 0
0.506416 0 0
0.541573 0 0
0.57583 0 0
0.608865 0 0
0.640665 0 0
0.671153 0 0
0.700236 0 0
0.728038 0 0
0.754665 0 0
0.780728 0 0
0.806043 0 0
0.830823 0 0
0.855283 0 0
0.879576 0 0
0.903502 0 0
0 0.0458686 0.0822919
0 0.0491493 0.0841535
0 0.0512398 0.0804913
0 0.0501564 0.0727703
0 0.0449073 0.0607462
0 0.0238956 0.033051
0 0.0109407 0.0137331
0.0505531 0.00285344 0
0.103883 0 0
0.154833 0 0
0.203906 0 0
0.24802 0 0
0.286885 0 0
0.325185 0 0
0.363058 0 0
0.400549 0 0
0.43743 0 0
0.473945 0 0
0.50985 0 0
0.545159 0 0
0.579309 0 0
0.612375 0 0
0.644221 0 0
0.674769 0 0
0.703929 0 0
0.731853 0 0
0.758572 0 0
0.784695 0 0
0.810162 0 0
0.835111 0 0
0.85977 0 0
0.88423 0 0
0.908309 0 0
0 0.0646677 0.100511
0 0.0666209 0.104036
0 0.0684062 0.101366
0 0.0686656 0.0934462
0 0.0649119 0.0801251
0 0.0456855 0.0509499
0 0.0339055 0.0294957
0.0548867 0.0267338 0.0132906
0.105928 0.0204929 0
0.155322 0.0145418 0
0.203784 0.0087129 0
0.250675 0.00340276 0
0.289372 0 0
0.32755 0 0
0.365347 0 0
0.402762 0 0
0.439582 0 0
0.476081 0 0
0.512016 0 0
0.54728 0 0
0.581445 0 0
0.614572 0 0
0.646479 0 0
0.677073 0 0
0.706294 0 0
0.73431 0 0
0.761318 0 0
0.787503 0 0
0.813016 0 0
0.838102 0 0
0.862959 0 0
0.887663 0 0
0.911955 0 0
0 0.0863355 0.111589
0 0.0869764 0.116365
0 0.0881971 0.11603
0 0.0883803 0.109331
0 0.0851759 0.095964
0 0.0668345 0.0658579
0.00856031 0.0560616 0.0429999
0.0605173 0.0498817 0.0251621
0.108965 0.0444648 0.00901808
0.15642 0.0391394 0
0.203754 0.0338293 0
0.250278 0.0285496 0
0.2907 0.024506 0
0.328832 0.0210117 0
0.366583 0.0176242 0
0.403952 0.014374 0
0.440757 0.0113375 0
0.477302 0.00852979 0
0.513405 0.00607309 0
0.548562 0.00370794 0
0.582788 0.0016022 0
0.615976 0 0
0.64799 0 0
0.678721 0 0
0.70808 0 0
0.736202 0 0
0.763424 0 0
0.789776 0 0
0.815534 0 0
0.840818 0 0
0.865843 0.000640879 0
0.890837 0.00195315 0
0.915465 0.00352483 0
0 0.110689 0.117754
0 0.109789 0.123003
0 0.109712 0.124132
0 0.108873 0.11902
0 0.105562 0.106874
0 0.0876478 0.0772106
0.019028 0.0776074 0.054078
0.0681468 0.0722667 0.0354925
0.114 0.067689 0.0183108
0.159426 0.0632181 0.00239567
0.205188 0.0584573 0
0.25066 0.0534676 0
0.292241 0.0492256 0
0.330358 0.0457465 0
0.368124 0.0424048 0
0.405524 0.0392157 0
0.442359 0.0362249 0
0.478889 0.0334325 0
0.515084 0.0311131 0
0.550378 0.0288853 0
0.584741 0.0269474 0
0.618036 0.02533 0
0.650172 0.0241093 0
0.681086 0.0233463 0
0.710674 0.0230411 0
0.739147 0.0232395 0
0.766415 0.0237736 0
0.792966 0.0245518 0
0.819028 0.0256352 0
0.844694 0.0269627 0
0.870008 0.028397 0
0.895232 0.0299992 0
0.920287 0.0319829 0
0 0.136568 0.118486
0 0.134569 0.124086
0 0.132998 0.125963
0 0.130953 0.122362
0 0.127001 0.111971
0 0.10901 0.0837415
0.0296483 0.099321 0.0614481
0.0766918 0.0945754 0.0431067
0.120302 0.0907149 0.0257267
0.163607 0.0869001 0.00927749
0.207721 0.0827955 0
0.252033 0.0783246 0
0.293935 0.0741894 0
0.332082 0.0707713 0
0.369879 0.0674907 0
0.40734 0.0644083 0
0.444312 0.0615854 0
0.481086 0.0590829 0
0.51722 0.0567025 0
0.552621 0.0546273 0
0.587182 0.052903 0
0.620706 0.051545 0
0.653056 0.0505531 0
0.684138 0.0499733 0
0.714092 0.0500649 0
0.742855 0.0505989 0
0.770397 0.0514076 0
0.797223 0.0524758 0
0.82356 0.0538491 0
0.849577 0.0555734 0
0.875395 0.0575265 0
0.901061 0.0595712 0
0.926345 0.0618143 0
0 0.163745 0.115038
0 0.160708 0.120394
0 0.158038 0.122744
0 0.154879 0.120348
0 0.150057 0.111681
0 0.131594 0.0852522
0.0389715 0.121843 0.0644999
0.084947 0.117403 0.0472877
0.127077 0.114137 0.0306401
0.168734 0.110964 0.0145113
0.211124 0.107332 0
0.254185 0.10338 0
0.29572 0.0995651 0
0.333989 0.0963302 0
0.371878 0.0932021 0
0.40943 0.0902266 0
0.446693 0.0877394 0
0.483543 0.0853285 0
0.519844 0.0831464 0
0.555428 0.0812848 0
0.590158 0.0797742 0
0.623957 0.078706 0
0.656641 0.0780804 0
0.688045 0.0778515 0
0.718227 0.078172 0
0.747326 0.0790723 0
0.775296 0.0803235 0
0.802594 0.0819104 0
0.829313 0.0836805 0
0.855573 0.0856641 0
0.881621 0.0878767 0
0.907622 0.0902876 0
0.933379 0.0930343 0
0 0.192233 0.108476
0 0.188449 0.113237
0 0.184817 0.115541
0 0.180682 0.113878
0 0.17499 0.106615
0 0.155901 0.0820172
0.0457923 0.145846 0.0631418
0.0916152 0.14139 0.0475624
0.133089 0.138506 0.0323796
0.17351 0.135698 0.0170901
0.214664 0.132601 0.0021973
0.256596 0.129137 0
0.297292 0.125719 0
0.335714 0.122683 0
0.373816 0.119829 0
0.411582 0.117098 0
0.448951 0.114778 0
0.48603 0.112612 0
0.522606 0.110765 0
0.558541 0.10927 0
0.593545 0.108064 0
0.627604 0.107286 0
0.660609 0.107012 0
0.692576 0.107393 0
0.723247 0.108232 0
0.752544 0.109316 0
0.780728 0.110842 0
0.808301 0.112688 0
0.835294 0.114794 0
0.86183 0.117052 0
0.88806 0.119463 0
0.914427 0.122271 0
0.9402 0.125032 0
0 0.221546 0.099733
0 0.217365 0.103609
0 0.213153 0.105608
0 0.208286 0.10425
0 0.201816 0.0979782
0 0.182086 0.0749371
0.049546 0.171618 0.0579538
0.0961013 0.167041 0.044358
0.137469 0.164172 0.0308537
0.177356 0.161608 0.016968
0.217716 0.158953 0.00337224
0.2589 0.156008 0
0.29868 0.153002 0
0.337255 0.150179 0
0.375586 0.147601 0
0.41384 0.145434 0
0.451438 0.143374 0
0.488685 0.141436 0
0.525521 0.139879 0
0.561822 0.138796 0
0.597314 0.138094 0
0.631754 0.137743 0
0.665034 0.137774 0
0.697383 0.138537 0
0.728191 0.139544 0
0.757763 0.140963 0
0.786191 0.142718 0
0.813901 0.144747 0
0.841062 0.147051 0
0.867811 0.149554 0
0.894209 0.152163 0
0.920699 0.155093 0
0.946624 0.158053 0
0 0.251545 0.0897536
0 0.247333 0.0925154
0 0.242863 0.0939956
0 0.237568 0.0926223
0 0.230533 0.0869154
0 0.210224 0.0650492
0.0500649 0.199374 0.0497749
0.0979934 0.19472 0.0382544
0.139803 0.191684 0.0264897
0.17969 0.189227 0.0144961
0.219745 0.186831 0.0024567
0.26041 0.184329 0
0.299718 0.181735 0
0.338567 0.179294 0
0.377127 0.17702 0
0.415747 0.17525 0
0.453712 0.173617 0
0.491417 0.172198 0
0.528588 0.171023 0
0.565118 0.170199 0
0.600824 0.169772 0
0.635569 0.169741 0
0.6692 0.170138 0
0.701656 0.171054 0
0.732601 0.172244 0
0.762356 0.173861 0
0.790982 0.17586 0
0.81886 0.178073 0
0.846159 0.180514 0
0.87303 0.183169 0
0.89984 0.186221 0
0.926329 0.189181 0
0.952331 0.192218 0
0 0.282231 0.0795605
0 0.278248 0.0810559
0 0.273808 0.0815442
0 0.268391 0.0798199
0 0.261128 0.074403
0 0.240467 0.0533608
0.047425 0.229206 0.039353
0.0968338 0.224353 0.0296025
0.139696 0.221286 0.0199283
0.180179 0.218997 0.00996414
0.220356 0.216831 0
0.26041 0.214435 0
0.300038 0.212253 0
0.339345 0.210346 0
0.37847 0.208713 0
0.417243 0.207172 0
0.455421 0.205798 0
0.49337 0.204685 0
0.530831 0.203861 0
0.567605 0.203311 0
0.603464 0.203082 0
0.638422 0.203311 0
0.672358 0.204059 0
0.704814 0.205005 0
0.735912 0.206363 0
0.765789 0.208118 0
0.794537 0.2103 0
0.822599 0.212726 0
0.85005 0.215335 0
0.877028 0.218128 0
0.904005 0.221363 0
0.930571 0.22443 0
0.956725 0.227649 0
0 0.311238 0.0755016
0 0.308873 0.0733654
0 0.305715 0.0701305
0 0.300481 0.0674449
0 0.293202 0.0619669
0 0.272541 0.0415351
0.0430304 0.261357 0.0287785
0.0936751 0.256153 0.020264
0.137652 0.253025 0.012314
0.179049 0.250858 0.00469978
0.219837 0.248707 0
0.260166 0.246662 0
0.300023 0.244816 0
0.339696 0.243351 0
0.379065 0.242023 0
0.41799 0.240726 0
0.456367 0.239628 0
0.494469 0.238712 0
0.532097 0.238087 0
0.569055 0.237797 0
0.605097 0.237781 0
0.640116 0.238132 0
0.67422 0.239078 0
0.706828 0.240223 0
0.738109 0.241794 0
0.768109 0.243717 0
0.796963 0.246006 0
0.825132 0.248569 0
0.85272 0.251362 0
0.880018 0.254505 0
0.906905 0.257664 0
0.933532 0.260822 0
0.959762 0.264149 0
0 0.341176 0.0717632
0 0.339117 0.0699474
0 0.336324 0.0670939
0 0.332067 0.0624704
0 0.325521 0.0552224
0 0.305531 0.0341802
0.0388495 0.294484 0.0217594
0.0908064 0.289403 0.0149386
0.135958 0.286183 0.00970474
0.178042 0.283879 0.00511177
0.219059 0.282002 0.000747692
0.259709 0.280324 0
0.299809 0.278798 0
0.339605 0.277531 0
0.379156 0.276463 0
0.418265 0.275425 0
0.45684 0.274601 0
0.495094 0.273899 0
0.532845 0.273457 0
0.569909 0.273335 0
0.606165 0.273564 0
0.64155 0.274311 0
0.675517 0.275181 0
0.708217 0.276448 0
0.739605 0.278172 0
0.769757 0.280278 0
0.798718 0.282719 0
0.826963 0.285389 0
0.854826 0.288472 0
0.882139 0.291646 0
0.908995 0.29485 0
0.935714 0.2981 0
0.96199 0.301503 0
0 0.372625 0.0681315
0 0.370825 0.0666056
0 0.368399 0.0641642
0 0.364614 0.06009
0 0.358511 0.0533608
0 0.338766 0.0327153
0.0368353 0.328008 0.0207065
0.089128 0.323201 0.0143282
0.134646 0.320287 0.00955215
0.176989 0.318257 0.00540169
0.218204 0.316579 0.00137331
0.259007 0.315099 0
0.299443 0.313954 0
0.339467 0.312978 0
0.378988 0.311955 0
0.418219 0.311101 0
0.456947 0.310491 0
0.495384 0.310033 0
0.533272 0.309804 0
0.570428 0.309819 0
0.607004 0.310445 0
0.642298 0.311131 0
0.676387 0.312169 0
0.709178 0.313588 0
0.740612 0.315404 0
0.770855 0.317617 0
0.799908 0.320195 0
0.828244 0.322988 0
0.856123 0.326116 0
0.883513 0.329412 0
0.910445 0.332677 0
0.937209 0.336034 0
0.963531 0.339498 0
0 0.405798 0.0650187
0 0.404379 0.0638743
0 0.402197 0.0617227
0 0.398657 0.0579385
0 0.393027 0.0517891
0 0.373449 0.0314031
0.0348821 0.362829 0.0196536
0.0873884 0.35816 0.0135805
0.133135 0.355444 0.00915541
0.175769 0.353643 0.00538643
0.217182 0.352178 0.00170901
0.258137 0.350866 0
0.298878 0.350057 0
0.338918 0.349142 0
0.378622 0.348379 0
0.417975 0.347707 0
0.456794 0.34725 0
0.495338 0.34699 0
0.533379 0.34696 0
0.570657 0.347158 0
0.607263 0.347845 0
0.642649 0.348699 0
0.676829 0.349874 0
0.709728 0.351415 0
0.741238 0.353353 0
0.771496 0.355642 0
0.800595 0.358297 0
0.829145 0.361349 0
0.857053 0.364553 0
0.884337 0.367758 0
0.911284 0.371069 0
0.938048 0.374456 0
0.964385 0.377966 0
0 0.44033 0.0622721
0 0.4392 0.0614481
0 0.437278 0.0595712
0 0.433906 0.0560006
0 0.428489 0.0501411
0 0.409049 0.0299687
0.0328985 0.398627 0.018555
0.0856489 0.394125 0.0127565
0.131563 0.391531 0.00860609
0.174395 0.389883 0.00512703
0.216037 0.388617 0.00181582
0.257282 0.38761 0
0.29807 0.386862 0
0.338231 0.386114 0
0.378058 0.385519 0
0.417578 0.385061 0
0.456519 0.384802 0
0.495155 0.38468 0
0.533257 0.384771 0
0.570855 0.385351 0
0.60737 0.386007 0
0.642756 0.386908 0
0.676966 0.388159 0
0.709895 0.389792 0
0.741451 0.391836 0
0.771771 0.394202 0
0.800885 0.396918 0
0.829572 0.400137 0
0.857359 0.40325 0
0.884657 0.4065 0
0.911589 0.409857 0
0.938338 0.413245 0
0.964645 0.41677 0
0 0.475944 0.06009
0 0.474968 0.0594186
0 0.473228 0.0577707
0 0.470207 0.0545968
0 0.464759 0.0487678
0 0.445426 0.0287938
0.0310979 0.435157 0.0176242
0.0841077 0.430854 0.0121309
0.130251 0.428412 0.00825513
0.173236 0.426871 0.00503548
0.215137 0.425834 0.00207523
0.256672 0.425086 0
0.297444 0.424338 0
0.337713 0.423728 0
0.377646 0.423255 0
0.417258 0.42295 0
0.456321 0.422858 0
0.495048 0.422889 0
0.533196 0.423072 0
0.570886 0.423789 0
0.60737 0.424506 0
0.642802 0.425513 0
0.677043 0.426841 0
0.709987 0.428519 0
0.741558 0.43061 0
0.771862 0.433036 0
0.801099 0.435904 0
0.829664 0.439048 0
0.85742 0.442161 0
0.884672 0.445411 0
0.911574 0.448753 0
0.938277 0.452155 0
0.964553 0.45565 0
0 0.512474 0.0581674
0 0.511635 0.0576486
0 0.510201 0.0563058
0 0.507256 0.0532692
0 0.501869 0.0475624
0 0.482658 0.0277714
0.0294194 0.47248 0.0167697
0.0825971 0.468284 0.0115053
0.128954 0.465995 0.00790417
0.172137 0.464607 0.00494392
0.21413 0.463615 0.00215152
0.255848 0.46302 0
0.296742 0.462394 0
0.337179 0.461936 0
0.377203 0.461601 0
0.416892 0.461402 0
0.456001 0.461402 0
0.494774 0.461524 0
0.533165 0.462013 0
0.570672 0.462608 0
0.607156 0.463355 0
0.642603 0.464424 0
0.676844 0.465812 0
0.709773 0.467536 0
0.741314 0.469642 0
0.77171 0.472206 0
0.800992 0.475151 0
0.829328 0.478096 0
0.857023 0.481224 0
0.88423 0.484443 0
0.911055 0.487755 0
0.937682 0.491096 0
0.963867 0.494545 0
0 0.549645 0.0566415
0 0.548989 0.0562905
0 0.547631 0.0550698
0 0.544854 0.0522316
0 0.539605 0.0466926
0 0.520531 0.0271
0.0281071 0.510445 0.0162814
0.0814221 0.50631 0.0111849
0.127916 0.504112 0.00776684
0.171313 0.502876 0.00508125
0.213657 0.50219 0.00273136
0.255253 0.501442 9.15541e-05
0.296254 0.500893 0
0.336767 0.500526 0
0.376898 0.500298 0
0.416632 0.500175 0
0.455787 0.500221 0
0.494759 0.500603 0
0.533043 0.50103 0
0.570459 0.501579 0
0.606943 0.502388 0
0.642344 0.503471 0
0.676555 0.50486 0
0.709438 0.5066 0
0.740948 0.508705 0
0.771237 0.511223 0
0.800488 0.514183 0
0.828748 0.517098 0
0.856367 0.520165 0
0.883482 0.523369 0
0.910231 0.526619 0
0.936751 0.5299 0
0.962798 0.533257 0
0 0.587304 0.0556497
0 0.586938 0.0556344
0 0.585763 0.054612
0 0.58294 0.0517433
0 0.577768 0.0463264
0 0.558785 0.0269017
0.0272679 0.548821 0.0162661
0.0807355 0.544778 0.0113375
0.127352 0.542641 0.00807202
0.171099 0.541695 0.00578317
0.213321 0.540841 0.00337224
0.255009 0.540169 0.000915541
0.296101 0.539666 0
0.336675 0.53933 0
0.376822 0.539132 0
0.416602 0.539055 0
0.455756 0.539147 0
0.494682 0.539498 0
0.532998 0.539986 0
0.570367 0.540551 0
0.606806 0.54136 0
0.642176 0.542443 0
0.67631 0.543832 0
0.709117 0.545556 0
0.740597 0.547692 0
0.770977 0.550317 0
0.799924 0.553017 0
0.828092 0.555871 0
0.855589 0.558877 0
0.882567 0.561975 0
0.909209 0.565148 0
0.935607 0.568353 0
0.961761 0.571832 0
0 0.625345 0.0554055
0 0.625223 0.0556344
0 0.624018 0.0545968
0 0.621317 0.0518807
0 0.61622 0.0466011
0 0.597299 0.0272679
0.0269474 0.587381 0.0167544
0.0805524 0.583413 0.0119783
0.127291 0.581338 0.00886549
0.171069 0.580377 0.00665293
0.213413 0.579599 0.00440986
0.255177 0.578927 0.00209049
0.29633 0.57847 0
0.33695 0.578149 0
0.377127 0.577966 0
0.416876 0.577874 0
0.456184 0.578134 0
0.495064 0.578454 0
0.533181 0.578805 0
0.57052 0.579355 0
0.606867 0.580118 0
0.642145 0.581155 0
0.676219 0.582513 0
0.708949 0.584192 0
0.740536 0.586511 0
0.770565 0.588815 0
0.799374 0.591424 0
0.82742 0.594217 0
0.85481 0.597147 0
0.881636 0.600137 0
0.90811 0.603174 0
0.93434 0.606256 0
0.960296 0.609598 0
0 0.663706 0.0560616
0 0.663584 0.0563058
0 0.662425 0.0553445
0 0.659785 0.0527199
0 0.65478 0.0475319
0 0.635904 0.0283207
0.0272831 0.626017 0.0178988
0.0809644 0.62208 0.0132143
0.128023 0.620264 0.0104372
0.171695 0.61912 0.00813306
0.214038 0.618296 0.00595102
0.255833 0.617624 0.0037232
0.297017 0.617151 0.00148013
0.337636 0.616815 0
0.377813 0.616602 0
0.417563 0.616495 0
0.456947 0.616846 0
0.495628 0.616983 0
0.533684 0.617288 0
0.570932 0.617792 0
0.607217 0.618509 0
0.64239 0.619486 0
0.67631 0.620752 0
0.708934 0.62237 0
0.740383 0.624567 0
0.770291 0.626825 0
0.798947 0.629313 0
0.82681 0.631983 0
0.854063 0.634791 0
0.880766 0.63769 0
0.907057 0.640604 0
0.933257 0.643687 0
0.958953 0.646784 0
0 0.702205 0.0576944
0 0.701961 0.0578012
0 0.700862 0.0569162
0 0.698253 0.0543526
0 0.693248 0.0492256
0 0.674403 0.0300755
0.0283207 0.664561 0.0197299
0.0820325 0.660609 0.0150912
0.129198 0.658824 0.0124361
0.172854 0.657618 0.0101472
0.215228 0.656764 0.00801099
0.257038 0.656062 0.00585946
0.298222 0.655543 0.00367742
0.338811 0.655161 0.00144961
0.378958 0.654871 0
0.418784 0.654826 0
0.458 0.655024 0
0.49662 0.6551 0
0.534569 0.655314 0
0.57171 0.655711 0
0.607874 0.656352 0
0.642939 0.657252 0
0.676753 0.658457 0
0.709422 0.660166 0
0.740475 0.661997 0
0.77023 0.664134 0
0.798733 0.666529 0
0.826413 0.669047 0
0.853437 0.671687 0
0.879957 0.674449 0
0.906096 0.677241 0
0.932219 0.680278 0
0.957565 0.683085 0
0 0.740414 0.060029
0 0.7402 0.0601816
0 0.739132 0.0593423
0 0.736538 0.0568246
0 0.731548 0.0517281
0 0.712688 0.0325933
0.0300603 0.7028 0.0222782
0.0840314 0.699031 0.0178836
0.130999 0.697017 0.0150454
0.174655 0.695766 0.0127871
0.217029 0.69485 0.0106813
0.258824 0.694087 0.00854505
0.299977 0.693492 0.00637827
0.340551 0.693034 0.00419623
0.380758 0.692805 0.00204471
0.420554 0.692699 0
0.459495 0.692607 0
0.498024 0.692607 0
0.535882 0.692729 0
0.572885 0.693019 0
0.608896 0.693507 0
0.643793 0.694286 0
0.67747 0.695369 0
0.710033 0.697002 0
0.740871 0.698665 0
0.770397 0.700633 0
0.798733 0.702892 0
0.826261 0.705287 0
0.853086 0.707774 0
0.879347 0.710323 0
0.905379 0.713054 0
0.931212 0.715816 0
0.956374 0.718486 0
0 0.778408 0.0632944
0 0.77818 0.063447
0 0.777096 0.0626078
0 0.774487 0.06009
0 0.769482 0.0550088
0 0.750591 0.0358892
0.0327764 0.740871 0.0257725
0.0865949 0.736919 0.0212406
0.133455 0.734722 0.0183108
0.177111 0.73341 0.0160525
0.219455 0.732418 0.0139467
0.261204 0.731563 0.0117952
0.302281 0.730846 0.00961318
0.342779 0.730297 0.00740063
0.382879 0.729915 0.00520333
0.422644 0.729763 0.00308232
0.461479 0.729519 0.000717174
0.499855 0.729366 0
0.537591 0.729366 0
0.574472 0.729549 0
0.61033 0.729915 0
0.645045 0.73051 0
0.678737 0.73164 0
0.710918 0.732937 0
0.741588 0.734462 0
0.770932 0.736248 0
0.798993 0.738308 0
0.826322 0.740536 0
0.852979 0.742885 0
0.879149 0.745403 0
0.904936 0.747921 0
0.930358 0.750332 0
0.955337 0.752819 0
0 0.816083 0.0672618
0 0.815854 0.0674296
0 0.81474 0.0665599
0 0.81207 0.0640116
0 0.806989 0.0588998
0 0.788037 0.0397498
0.0357671 0.77821 0.0295567
0.0896162 0.774227 0.0250401
0.136416 0.771923 0.0220645
0.179995 0.770489 0.0197452
0.222293 0.769406 0.0176242
0.263996 0.768444 0.0154421
0.304997 0.76762 0.0132143
0.345449 0.766979 0.011017
0.38558 0.766583 0.00889601
0.425025 0.766094 0.0065156
0.463752 0.765728 0.00411994
0.501991 0.765408 0.00163272
0.539544 0.765225 0
0.576257 0.76524 0
0.611978 0.765484 0
0.646738 0.766155 0
0.680049 0.766918 0
0.71194 0.767941 0
0.742428 0.769314 0
0.771588 0.770962 0
0.799451 0.772824 0
0.826505 0.774838 0
0.852918 0.776974 0
0.878859 0.779293 0
0.904509 0.781735 0
0.929717 0.783963 0
0.954467 0.786252 0
0 0.853391 0.0718395
0 0.853086 0.0719463
0 0.851926 0.071046
0 0.849195 0.068452
0 0.844038 0.0632792
0 0.825132 0.0442054
0.0393378 0.815152 0.0339208
0.0930037 0.810941 0.029221
0.139757 0.808545 0.0261845
0.183246 0.806973 0.0238041
0.225422 0.805722 0.0215763
0.267033 0.804623 0.0193179
0.307958 0.803662 0.0170596
0.348531 0.803098 0.0149996
0.388281 0.802304 0.0125734
0.427573 0.801617 0.0100862
0.466194 0.801099 0.00761425
0.504311 0.800641 0.005066
0.54168 0.80029 0.00248722
0.578195 0.800076 0
0.613703 0.800122 0
0.648264 0.800595 0
0.681453 0.801251 0
0.7131 0.80206 0
0.743328 0.803204 0
0.772259 0.804669 0
0.799954 0.806409 0
0.826825 0.808255 0
0.853086 0.810285 0
0.87892 0.812512 0
0.904219 0.814649 0
0.92929 0.81677 0
0.953872 0.818936 0
0 0.890394 0.0765545
0 0.889998 0.0765698
0 0.888716 0.0755627
0 0.885893 0.0729076
0 0.880644 0.0676432
0 0.861753 0.0486305
0.0427405 0.851499 0.0380865
0.0962844 0.84712 0.0332799
0.142947 0.844602 0.0301671
