EA 50 Cinematic Luts Pack/EA_Cinematic Lut (40).cube
TITLE "This grading effect will turn your footage into a contrasted, warmish, powerful, action film. "
LUT_3D_SIZE 5
0.0000 0.0000 0.0000
0.2962 0.0000 0.0000
0.6644 0.0000 0.0000
0.8983 0.0000 0.0000
1.0000 0.0013 0.0015
0.1048 0.2436 0.0745
0.2923 0.2527 0.0762
0.6159 0.2751 0.1166
0.8842 0.2797 0.0920
1.0000 0.2558 0.0054
0.2551 0.5352 0.1802
0.3566 0.5451 0.1330
0.6589 0.5511 0.1856
0.8624 0.5738 0.2801
0.9850 0.5952 0.2943
0.4382 0.7941 0.3143
0.5132 0.7981 0.2902
0.6745 0.8154 0.0779
0.8949 0.8127 0.3223
0.9828 0.8311 0.4786
0.7852 0.9739 0.5653
0.8056 0.9766 0.5609
0.8499 0.9868 0.5350
0.8985 0.9999 0.0000
0.9968 0.9966 0.7706
0.0394 0.0287 0.0958
0.2332 0.0630 0.1681
0.5698 0.1266 0.2118
0.8781 0.1051 0.2331
1.0000 0.0020 0.2164
0.0000 0.2550 0.2164
0.2954 0.2548 0.2162
0.6637 0.2542 0.2156
0.8991 0.2542 0.2157
1.0000 0.2559 0.2172
0.2686 0.5352 0.2841
0.2951 0.5550 0.2161
0.6644 0.5548 0.2160
0.8819 0.5655 0.2892
0.9950 0.5775 0.2952
0.4482 0.7940 0.3863
0.4620 0.8046 0.3320
0.6645 0.8173 0.2159
0.8960 0.8148 0.3366
0.9842 0.8309 0.5028
0.7955 0.9730 0.5909
0.8114 0.9761 0.5873
0.8582 0.9855 0.5698
0.8979 1.0000 0.2054
0.9971 0.9971 0.7780
0.1249 0.0982 0.2419
0.2513 0.1084 0.3542
0.5427 0.1753 0.3981
0.7927 0.2799 0.4370
0.9657 0.3185 0.4833
0.2076 0.2561 0.3729
0.2949 0.2545 0.4815
0.6639 0.2542 0.4811
0.8626 0.3212 0.4717
0.9946 0.3163 0.4879
0.0000 0.5547 0.4815
0.2952 0.5550 0.4816
0.6644 0.5548 0.4816
0.8988 0.5552 0.4819
0.9998 0.5559 0.4825
0.4527 0.7958 0.5195
0.4807 0.8041 0.5080
0.6646 0.8172 0.4818
0.8987 0.8169 0.4816
0.9887 0.8301 0.5634
0.8182 0.9718 0.6523
0.8354 0.9742 0.6534
0.8758 0.9831 0.6493
0.9146 0.9997 0.5434
0.9980 0.9984 0.8020
0.2152 0.1797 0.4046
0.2969 0.1949 0.4625
0.6434 0.0802 0.6508
0.8034 0.3038 0.5842
0.9339 0.4278 0.6052
0.2882 0.2964 0.4965
0.3525 0.2975 0.5637
0.6639 0.2542 0.6777
0.8533 0.3525 0.6294
0.9600 0.4563 0.6298
0.3937 0.5421 0.6033
0.4404 0.5491 0.6289
0.6642 0.5548 0.6778
0.8987 0.5551 0.6783
0.9866 0.6024 0.6654
0.0000 0.8173 0.6783
0.2948 0.8174 0.6783
0.6644 0.8168 0.6779
0.8983 0.8166 0.6777
0.9997 0.8159 0.6771
0.8167 0.9770 0.7324
0.8396 0.9783 0.7359
0.8947 0.9829 0.7462
0.9488 0.9951 0.7540
0.9993 0.9998 0.8486
0.3161 0.2678 0.5375
0.3810 0.2805 0.5692
0.5828 0.2938 0.6686
0.8987 0.0011 0.9999
0.9472 0.4369 0.7526
0.3806 0.3573 0.5990
0.4289 0.3592 0.6494
0.6357 0.3614 0.7369
0.8988 0.2553 1.0000
0.9670 0.4650 0.7959
0.5063 0.5619 0.7017
0.5359 0.5667 0.7354
0.6854 0.5681 0.8412
0.8978 0.5595 0.9531
0.9845 0.6192 0.8468
0.5696 0.8002 0.8194
0.6013 0.8046 0.8347
0.7603 0.8108 0.8421
0.9020 0.8205 0.8733
0.9929 0.8364 0.8767
0.0000 1.0000 0.9980
0.2817 1.0000 1.0000
0.6597 0.9998 0.9998
0.8978 0.9999 0.9999
1.0000 1.0000 0.9998
