EA 50 Cinematic Luts Pack/EA_Cinematic Lut (8).cube
TITLE "Generated by Resolve"
LUT_3D_SIZE 9
0 0.047776 0.0635996
0.156298 0.00561532 0.0778973
0.351507 0 0.103822
0.530251 0 0.133684
0.70071 0 0.165469
0.865934 0 0.198764
1 0 0.233356
1 0 0.26978
1 0 0.308171
0 0.161547 0.0357366
0.0995956 0.129702 0.00138857
0.304448 0.0974746 0.00726329
0.49395 0.0682536 0.038407
0.670726 0.0436408 0.0740063
0.84123 0.0224002 0.111849
1 0.00486763 0.152682
1 0 0.197101
1 0 0.245045
0 0.275944 0.0034638
0.0590982 0.248066 0
0.239979 0.230167 0
0.429938 0.210742 0
0.624842 0.191897 0
0.814404 0.177096 0.0355993
0.998413 0.166888 0.0863813
1 0.160174 0.140185
1 0.156359 0.196231
0 0.404639 0
0.0411536 0.385077 0
0.223529 0.379309 0
0.403449 0.376455 0
0.59353 0.371756 0
0.790295 0.365057 0
0.987228 0.35935 0.0446326
1 0.355657 0.100221
1 0.353552 0.159136
0 0.563546 0
0.0514992 0.551354 0
0.238483 0.552743 0
0.415412 0.558206 0
0.595407 0.563073 0
0.783093 0.565255 0.000732433
0.976761 0.564569 0.0334783
1 0.561608 0.0771191
1 0.557168 0.127428
0 0.743832 0.0198367
0.078996 0.735821 0.00537118
0.267842 0.740124 0.00376898
0.442893 0.747677 0.00691234
0.614298 0.754559 0.0128328
0.788739 0.759014 0.0225681
0.967865 0.759228 0.0387579
1 0.754696 0.0630655
1 0.746578 0.095552
0 0.932143 0.055314
0.108507 0.923217 0.0399023
0.29427 0.925002 0.035584
0.464027 0.928954 0.0343328
0.626459 0.931914 0.0339361
0.787671 0.932647 0.0349432
0.950896 0.929717 0.0379492
1 0.921553 0.0447395
1 0.908141 0.0569314
0 1 0.0806897
0.123491 1 0.0599069
0.30277 1 0.0493172
0.464775 1 0.0408484
0.617761 1 0.0321813
0.765469 1 0.0226444
0.912322 1 0.013138
1 1 0.00514229
1 1 0.0016022
0 1 0.084535
0.113924 1 0.0553292
0.283162 1 0.0348669
0.434684 1 0.0162661
0.578073 1 0
0.717083 1 0
0.855009 1 0
0.994705 1 0
1 1 0
0 0.0440681 0.191836
0.130816 0.013962 0.173999
0.305684 0 0.227207
0.484062 0 0.2654
0.655589 0 0.300084
0.821637 0 0.335241
0.984207 0 0.371618
1 0 0.409522
1 0 0.449256
0 0.157778 0.164843
0.0933852 0.128481 0.129107
0.288212 0.0975662 0.15465
0.467781 0.0717784 0.185336
0.64036 0.0492409 0.219257
0.808988 0.0294804 0.255955
0.976211 0.0132906 0.296208
1 0.00123598 0.340627
1 0 0.388418
0 0.272831 0.13344
0.0592813 0.245975 0.0999313
0.235706 0.230869 0.0823377
0.431556 0.21004 0.0996109
0.622553 0.192523 0.142458
0.805234 0.180575 0.190707
0.984222 0.172793 0.241993
1 0.168078 0.295674
1 0.165545 0.351125
0 0.404303 0.115908
0.0453498 0.386038 0.090959
0.225681 0.382086 0.0810712
0.402914 0.380911 0.0808576
0.596262 0.375128 0.100572
0.796033 0.367864 0.144015
0.990433 0.36286 0.198779
1 0.360601 0.257496
1 0.359869 0.317311
0 0.565942 0.126909
0.0583047 0.554559 0.108858
0.243977 0.556924 0.104921
0.418494 0.563699 0.107408
0.596613 0.569268 0.116091
0.786313 0.570932 0.138018
0.982559 0.568673 0.176181
1 0.564584 0.225696
1 0.560021 0.2804
0 0.7476 0.15671
0.0870069 0.740063 0.142504
0.274632 0.744732 0.140764
0.447715 0.752605 0.143191
0.616266 0.759915 0.147982
0.789044 0.764294 0.156786
0.968811 0.763531 0.173602
1 0.757275 0.200793
1 0.747524 0.237629
0 0.93579 0.192081
0.115908 0.926741 0.176364
0.300145 0.928191 0.171359
0.467796 0.931685 0.168948
0.628138 0.934768 0.16762
0.78674 0.935576 0.167468
0.948318 0.932128 0.169299
1 0.922545 0.175708
1 0.907027 0.189014
0 1 0.215747
0.128801 1 0.194202
0.306615 1 0.182849
0.466773 1 0.173312
0.617563 1 0.163333
0.762493 1 0.152178
0.906767 1 0.141207
1 1 0.132494
1 1 0.129137
0 1 0.216724
0.116045 1 0.186389
0.283848 1 0.165087
0.433967 1 0.145739
0.57586 1 0.127398
0.713314 1 0.109941
0.849378 1 0.0937209
0.987854 1 0.0797589
1 1 0.0691691
0 0.0393225 0.338491
0.13138 0.0106508 0.306279
0.298558 0 0.313481
0.446403 0 0.37583
0.607385 0 0.430014
0.771511 0 0.474449
0.934524 0 0.515648
1 0 0.556207
1 0 0.597971
0 0.152453 0.311147
0.0949721 0.123217 0.275242
0.261158 0.104356 0.26862
0.420935 0.0820478 0.327138
0.593744 0.0591745 0.369985
0.764309 0.0396735 0.410468
0.933379 0.0240635 0.45362
1 0.012604 0.500359
1 0.00448615 0.550103
0 0.268254 0.28101
0.061326 0.242008 0.24831
0.230137 0.230289 0.230137
0.417014 0.211826 0.268132
0.598535 0.19823 0.310994
0.777523 0.188815 0.358053
0.954635 0.182528 0.408209
1 0.178805 0.460945
1 0.177462 0.51606
0 0.402335 0.266346
0.0501717 0.385458 0.242939
0.228885 0.383017 0.233829
0.401297 0.384298 0.232624
0.600015 0.376562 0.262974
0.795392 0.370153 0.31696
0.982483 0.367575 0.374578
1 0.366903 0.432975
1 0.367864 0.492317
0 0.566522 0.280018
0.0650797 0.556268 0.263127
0.24976 0.559472 0.259663
0.421607 0.567437 0.261692
0.596597 0.574243 0.269459
0.789364 0.574609 0.295323
0.987457 0.570642 0.342046
1 0.566171 0.39736
1 0.562539 0.454688
0 0.749767 0.311467
0.0944991 0.742641 0.297658
0.281041 0.747539 0.295888
0.451835 0.755413 0.297459
0.617517 0.763577 0.301335
0.787747 0.767987 0.308873
0.968658 0.765835 0.32697
1 0.757595 0.359152
1 0.746471 0.401648
0 0.937774 0.346654
0.122454 0.928481 0.330678
0.305364 0.929641 0.32517
0.471 0.932692 0.321813
0.628962 0.935683 0.319341
0.784375 0.936599 0.317723
0.943832 0.932647 0.318196
1 0.921691 0.324834
1 0.903975 0.340551
0 1 0.368566
0.133196 1 0.34641
0.309499 1 0.334234
0.467613 1 0.323507
0.616053 1 0.312123
0.758511 1 0.299626
0.900069 1 0.287434
1 1 0.277836
1 1 0.27483
0 1 0.36672
0.116899 1 0.335149
0.283192 1 0.312886
0.432197 1 0.293111
0.572763 1 0.274205
0.708629 1 0.256046
0.842893 1 0.239185
0.979736 1 0.224689
1 1 0.21387
0 0.0336919 0.496223
0.131182 0.00500496 0.461753
0.300069 0 0.447456
0.448936 0 0.467979
0.585153 0 0.531655
0.731502 0 0.59646
0.887266 0 0.651637
1 0 0.701579
1 0 0.749493
0 0.146288 0.468406
0.0957351 0.117159 0.432547
0.261036 0.100343 0.412192
0.413581 0.0852674 0.425162
0.556268 0.069337 0.492592
0.717205 0.0519265 0.55346
0.885527 0.0372625 0.607065
1 0.0262913 0.659251
1 0.0185245 0.711955
0 0.262974 0.439399
0.0636149 0.2374 0.407279
0.233173 0.22649 0.389715
0.392264 0.22092 0.396384
0.554757 0.211566 0.467857
0.734325 0.202182 0.524178
0.913161 0.195926 0.577905
1 0.192187 0.632929
1 0.191043 0.689998
0 0.399969 0.428016
0.0553445 0.383963 0.405554
0.234226 0.38233 0.397467
0.39881 0.386786 0.395468
0.588052 0.380911 0.446067
0.773587 0.378058 0.499657
0.956283 0.37734 0.555413
1 0.377737 0.612253
1 0.379278 0.670268
0 0.566583 0.444358
0.0720073 0.556939 0.428214
0.256474 0.560784 0.425498
0.425788 0.569329 0.42739
0.595743 0.578378 0.433936
0.793286 0.576196 0.469871
0.986084 0.572198 0.526238
1 0.569604 0.583856
1 0.567086 0.640391
0 0.751202 0.477302
0.1019 0.744167 0.463706
0.287617 0.74905 0.461936
0.456703 0.757046 0.463264
0.619089 0.765774 0.466056
0.785504 0.770748 0.471977
0.968444 0.766247 0.492988
1 0.756069 0.533501
1 0.744503 0.58172
0 0.938628 0.511986
0.128496 0.928893 0.495628
0.310323 0.929686 0.489754
0.474357 0.932479 0.485863
0.629892 0.935302 0.482399
0.781704 0.936339 0.479149
0.937942 0.931731 0.477653
1 0.919081 0.485267
1 0.899138 0.505745
0 1 0.531991
0.136995 1 0.509346
0.311879 1 0.496361
0.468254 1 0.484703
0.614145 1 0.471839
0.75404 1 0.458045
0.892653 1 0.444587
1 1 0.43418
1 1 0.432013
0 1 0.527337
0.117266 1 0.494774
0.282231 1 0.471717
0.430045 1 0.451438
0.569329 1 0.432105
0.703716 1 0.413413
0.836225 1 0.395941
0.970977 1 0.380835
1 1 0.369635
0 0.0272831 0.66215
0.131197 0 0.626825
0.296925 0 0.608225
0.451087 0 0.604379
0.590616 0 0.632975
0.721035 0 0.696803
0.85803 0 0.768277
1 0 0.832731
1 0 0.892042
0 0.13933 0.633799
0.0959335 0.110521 0.598245
0.260624 0.0944839 0.576425
0.415366 0.081529 0.568383
0.559701 0.0700999 0.594598
0.696574 0.0598764 0.66566
0.84802 0.0495918 0.740551
1 0.0403449 0.807279
1 0.0335393 0.869856
0 0.257069 0.605966
0.0655375 0.232456 0.574731
0.236164 0.222644 0.558206
0.394919 0.219699 0.551705
0.550698 0.218067 0.578134
0.700496 0.215991 0.659403
0.86952 0.211627 0.733318
1 0.208103 0.798062
1 0.206958 0.860075
0 0.397436 0.598154
0.0604562 0.382177 0.57641
0.239918 0.381125 0.568811
0.404852 0.386007 0.567025
0.566033 0.392721 0.585992
0.731945 0.393515 0.667613
0.914519 0.392126 0.731945
1 0.392111 0.791897
1 0.393164 0.851713
0 0.566232 0.616938
0.0788586 0.557031 0.601267
0.263569 0.561227 0.599023
0.432639 0.570169 0.601511
0.594247 0.581857 0.60676
0.781369 0.580591 0.661952
0.963531 0.579339 0.717159
1 0.578073 0.772335
1 0.575906 0.826642
0 0.751919 0.651148
0.109178 0.744915 0.637675
0.294209 0.749401 0.63566
0.46244 0.757382 0.637095
0.621912 0.766323 0.639368
0.782345 0.77258 0.643137
0.969558 0.765042 0.673701
1 0.754559 0.723598
1 0.744228 0.773465
0 0.938689 0.685328
0.134249 0.928374 0.668498
0.314778 0.928252 0.661799
0.477867 0.930907 0.657801
0.631373 0.933547 0.653773
0.779324 0.934585 0.648875
0.931334 0.930114 0.645365
1 0.914824 0.655589
1 0.892576 0.684031
0 1 0.703288
0.140261 1 0.680049
0.313939 1 0.6663
0.468772 1 0.653819
0.612558 1 0.639902
0.749706 1 0.624796
0.8851 1 0.610086
1 1 0.598657
1 1 0.598215
0 1 0.695445
0.117052 1 0.662196
0.281086 1 0.638666
0.427893 1 0.618006
0.566018 1 0.598306
0.69894 1 0.579217
0.829694 1 0.561242
0.961959 1 0.545373
1 1 0.5337
0 0.0200656 0.834531
0.130739 0 0.798962
0.295125 0 0.77818
0.447883 0 0.767575
0.593164 0 0.772457
0.727657 0 0.807309
0.855177 0 0.871839
0.986618 0 0.947494
1 0 1
0 0.132082 0.806149
0.0956893 0.103441 0.770764
0.260502 0.0878004 0.748623
0.412573 0.0765087 0.736751
0.56318 0.0669566 0.739605
0.704463 0.0603189 0.776654
0.840497 0.0559396 0.851072
0.985626 0.0515755 0.9346
1 0.0474403 1
0 0.25095 0.779507
0.0670481 0.227115 0.74902
0.238926 0.218585 0.73373
0.397604 0.216907 0.726268
0.556023 0.217868 0.732143
0.707454 0.220279 0.772198
0.851896 0.222583 0.855787
1 0.223285 0.941665
1 0.223468 1
0 0.394583 0.775097
0.0652781 0.380118 0.75407
0.245396 0.379751 0.747082
0.410834 0.385138 0.745754
0.571252 0.394064 0.751156
0.729976 0.402121 0.787243
0.882109 0.407355 0.875822
1 0.408774 0.955535
1 0.409323 1
0 0.565576 0.796262
0.0855268 0.556802 0.780987
0.27042 0.561166 0.778866
0.439719 0.570352 0.781506
0.601297 0.582086 0.786572
0.759365 0.592432 0.809186
0.921004 0.593942 0.891508
1 0.591424 0.954696
1 0.588144 1
0 0.752102 0.83151
0.116091 0.745022 0.817975
0.30074 0.749157 0.815656
0.46862 0.756893 0.816938
0.626978 0.765347 0.818952
0.77818 0.773404 0.820554
0.954696 0.766506 0.870115
1 0.758541 0.918624
1 0.749065 0.965591
0 0.937987 0.864973
0.139635 0.927123 0.847639
0.319432 0.92639 0.840421
0.481514 0.928313 0.835843
0.633646 0.930419 0.831403
0.778271 0.931258 0.825589
0.923873 0.927642 0.819486
1 0.908766 0.838712
1 0.885969 0.87628
0 1 0.88101
0.142992 1 0.856855
0.315511 1 0.842252
0.468925 1 0.828824
0.611246 1 0.814298
0.746349 1 0.798611
0.878294 1 0.782666
1 1 0.769772
1 1 0.772931
0 1 0.86981
0.116121 1 0.835645
0.279637 1 0.811902
0.425742 1 0.790997
0.562875 1 0.771038
0.694713 1 0.751919
0.823667 1 0.733577
0.953185 1 0.716899
1 1 0.704692
0 0.0124361 1
0.129824 0 0.976928
0.29366 0 0.954894
0.443976 0 0.94168
0.591196 0 0.937072
0.730663 0 0.950301
0.862257 0 0.990341
0.988785 0 1
1 0 1
0 0.124453 0.984283
0.09514 0.0960555 0.949126
0.260258 0.0807965 0.927123
0.411505 0.0705425 0.913603
0.561563 0.0628672 0.910521
0.709651 0.0582742 0.924941
0.850278 0.0565652 0.970901
0.986374 0.0567941 1
1 0.0572366 1
0 0.244785 0.959121
0.0684977 0.221744 0.929397
0.241291 0.214115 0.915022
0.400977 0.213748 0.908141
0.557183 0.2168 0.910628
0.714565 0.220752 0.926986
0.862867 0.226108 0.976028
1 0.232242 1
1 0.236896 1
0 0.391485 0.95787
0.0697337 0.377707 0.937484
0.250217 0.377722 0.930831
0.416602 0.384085 0.930449
0.576516 0.393881 0.934462
0.737224 0.403845 0.94934
0.890562 0.413138 0.996277
1 0.420996 1
1 0.424628 1
0 0.564553 0.981216
0.0918746 0.556252 0.966384
0.276738 0.560616 0.964187
0.446357 0.570123 0.967086
0.607843 0.581796 0.97203
0.764126 0.593332 0.980026
0.918181 0.601678 1
1 0.605173 1
1 0.602396 1
0 0.751858 1
0.122545 0.744579 1
0.306905 0.748409 1
0.474388 0.755764 1
0.632227 0.763714 1
0.782559 0.770932 1
0.929625 0.775265 1
1 0.769802 1
1 0.758618 1
0 0.936568 1
0.144427 0.925093 1
0.32372 0.923873 1
0.485084 0.925093 1
0.636301 0.926406 1
0.779248 0.926207 1
0.915358 0.924117 0.998688
1 0.905501 1
1 0.88513 1
0 1 1
0.145403 1 1
0.316808 1 1
0.468772 1 1
0.609949 1 0.99353
0.743969 1 0.977737
0.873121 1 0.96141
1 1 0.946532
1 1 0.959655
0 1 1
0.115053 1 1
0.277882 1 0.990387
0.423484 1 0.969268
0.560098 1 0.949279
0.691188 1 0.930236
0.818647 1 0.911879
0.945205 1 0.894453
1 1 0.881468
0 0.00442512 1
0.128511 0 1
0.292088 0 1
0.441199 0 1
0.586618 0 1
0.729732 0 1
0.865782 0 1
0.996521 0 1
1 0 1
0 0.116457 1
0.0943008 0.0883803 1
0.259861 0.073579 1
0.411231 0.0642405 1
0.559579 0.0583505 1
0.71046 0.0552682 1
0.856794 0.0553902 1
0.997314 0.0579385 1
1 0.0617838 1
0 0.238499 1
0.0701762 0.216556 1
0.243793 0.209766 1
0.404288 0.2103 1
0.559915 0.214633 1
0.716548 0.220279 1
0.871107 0.227115 1
1 0.235508 1
1 0.244114 1
0 0.388388 1
0.0740826 0.375189 1
0.2551 0.375769 1
0.422065 0.382696 1
0.582254 0.393072 1
0.739879 0.404273 1
0.898909 0.414847 1
1 0.425177 1
1 0.433402 1
0 0.563302 1
0.0976425 0.555138 1
0.282979 0.55996 1
0.452598 0.569512 1
0.613886 0.581003 1
0.768978 0.592706 1
0.924361 0.602335 1
1 0.609201 1
1 0.611826 1
0 0.751202 1
0.128206 0.743343 1
0.31252 0.747143 1
0.4795 0.753994 1
0.636805 0.761425 1
0.786542 0.768078 1
0.931716 0.77348 1
1 0.77409 1
1 0.7682 1
0 0.934615 1
0.148486 0.922271 1
0.327337 0.920592 1
0.488106 0.921218 1
0.638346 0.921569 1
0.780407 0.920455 1
0.91516 0.917067 1
1 0.909483 1
1 0.891783 1
0 1 1
0.147082 1 1
0.317494 1 1
0.468376 1 1
0.608591 1 1
0.742016 1 1
0.870314 1 1
0.994614 1 1
1 0.99765 1
0 1 1
0.113603 1 1
0.275898 1 1
0.421057 1 1
0.557382 1 1
0.688167 1 1
0.814954 1 1
0.939147 1 1
1 1 1
0 0 1
0.126848 0 1
0.290181 0 1
0.438895 0 1
0.582696 0 1
0.726314 0 1
0.866041 0 1
1 0 1
1 0 1
0 0.108202 1
0.0931716 0.080415 1
0.259083 0.0659648 1
0.411185 0.0577554 1
0.559335 0.0534829 1
0.70901 0.0522927 1
0.859449 0.0534066 1
1 0.0574197 1
1 0.0632029 1
0 0.231998 1
0.0717632 0.211322 1
0.246372 0.205524 1
0.40766 0.206836 1
0.563333 0.212039 1
0.71783 0.219028 1
0.874937 0.227146 1
1 0.23682 1
1 0.247044 1
0 0.385168 1
0.0782788 0.372564 1
0.259922 0.373739 1
0.427298 0.381109 1
0.587839 0.391897 1
0.744381 0.403891 1
0.902129 0.41561 1
1 0.42652 1
1 0.436225 1
0 0.561929 1
0.103319 0.553933 1
0.288869 0.558999 1
0.458473 0.568566 1
0.619379 0.57966 1
0.774044 0.591241 1
0.925933 0.601694 1
1 0.608911 1
1 0.613519 1
0 0.750134 1
0.133822 0.742061 1
0.317723 0.745464 1
0.484108 0.751736 1
0.640406 0.758175 1
0.789822 0.764538 1
0.933471 0.769772 1
1 0.77116 1
1 0.76817 1
0 0.931975 1
0.152316 0.919188 1
0.330388 0.916732 1
0.490425 0.916655 1
0.639796 0.916121 1
0.78085 0.914046 1
0.914488 0.90956 1
1 0.902724 1
1 0.891508 1
0 1 1
0.147997 1 1
0.317266 1 1
0.467353 1 1
0.606973 1 1
0.739879 1 1
0.867811 1 1
0.991791 1 1
1 0.999817 1
0 1 1
0.111635 1 1
0.273564 1 1
0.418311 1 1
0.554543 1 1
0.685206 1 1
0.811963 1 1
0.935775 1 1
1 1 1
