EA 50 Cinematic Luts Pack/EA_Cinematic Lut (19).CUBE
#Created by: Adobe Photoshop Export Color Lookup Plugin
#Copyright: (C) Copyright 2018 Navpreet Singh
TITLE "Orange and Teal 2"
#LUT size
LUT_3D_SIZE 32
#data domain
DOMAIN_MIN 0.0 0.0 0.0
DOMAIN_MAX 1.0 1.0 1.0
#LUT data points
0.000000 0.000000 0.000000
0.020477 0.002625 0.000000
0.042603 0.005280 0.000000
0.066376 0.007965 0.000000
0.091858 0.010712 0.000000
0.118988 0.013458 0.000000
0.147766 0.016235 0.000000
0.178223 0.019043 0.000000
0.210358 0.021881 0.000000
0.244141 0.024750 0.000000
0.279602 0.027649 0.000000
0.316742 0.030579 0.000000
0.355530 0.033539 0.000000
0.395966 0.036530 0.000000
0.438080 0.039551 0.000000
0.481903 0.042572 0.000000
0.526794 0.045654 0.000000
0.570496 0.048767 0.000000
0.612579 0.051910 0.000000
0.653046 0.055084 0.000000
0.691833 0.058289 0.000000
0.728912 0.061493 0.000000
0.764191 0.064758 0.000000
0.797699 0.068024 0.000000
0.829376 0.071350 0.000000
0.859222 0.074677 0.000000
0.887238 0.078064 0.000000
0.913391 0.081451 0.000000
0.937744 0.084869 0.000000
0.960266 0.088348 0.000000
0.980988 0.091827 0.000000
1.000000 0.095367 0.000000
0.000000 0.020477 0.020477
0.020477 0.020477 0.020477
0.066376 0.007965 0.000000
0.091858 0.010712 0.000000
0.118988 0.013458 0.000000
0.147766 0.016235 0.000000
0.178223 0.019043 0.000000
0.210358 0.021881 0.000000
0.244141 0.024750 0.000000
0.279602 0.027649 0.000000
0.316742 0.030579 0.000000
0.355530 0.033539 0.000000
0.395966 0.036530 0.000000
0.438080 0.039551 0.000000
0.481903 0.042572 0.000000
0.526764 0.045654 0.000000
0.570496 0.048767 0.000000
0.612579 0.051910 0.000000
0.653046 0.055084 0.000000
0.691833 0.058289 0.000000
0.728912 0.061493 0.000000
0.764191 0.064758 0.000000
0.797699 0.068024 0.000000
0.829376 0.071350 0.000000
0.859222 0.074677 0.000000
0.887238 0.078064 0.000000
0.913391 0.081451 0.000000
0.937744 0.084869 0.000000
0.960266 0.088348 0.000000
0.980988 0.091827 0.000000
1.000000 0.095367 0.000000
1.000000 0.118958 0.020477
0.000000 0.042603 0.042603
0.000000 0.066376 0.066376
0.042603 0.042603 0.042603
0.118988 0.013458 0.000000
0.147766 0.016235 0.000000
0.178223 0.019043 0.000000
0.210358 0.021881 0.000000
0.244141 0.024750 0.000000
0.279602 0.027649 0.000000
0.316742 0.030579 0.000000
0.355530 0.033539 0.000000
0.395966 0.036530 0.000000
0.438080 0.039551 0.000000
0.481903 0.042572 0.000000
0.526764 0.045654 0.000000
0.570435 0.048767 0.000000
0.612579 0.051910 0.000000
0.653046 0.055084 0.000000
0.691833 0.058289 0.000000
0.728912 0.061493 0.000000
0.764191 0.064758 0.000000
0.797699 0.068024 0.000000
0.829376 0.071350 0.000000
0.859222 0.074677 0.000000
0.887238 0.078064 0.000000
0.913391 0.081451 0.000000
0.937744 0.084869 0.000000
0.960266 0.088348 0.000000
0.980988 0.091827 0.000000
1.000000 0.095367 0.000000
1.000000 0.118958 0.020477
1.000000 0.143799 0.042603
0.000000 0.066376 0.066376
0.000000 0.091858 0.091858
0.000000 0.118988 0.118988
0.066376 0.066376 0.066376
0.153168 0.032074 0.016632
0.210358 0.021881 0.000000
0.244141 0.024750 0.000000
0.279602 0.027649 0.000000
0.316742 0.030579 0.000000
0.355530 0.033539 0.000000
0.395966 0.036530 0.000000
0.438080 0.039551 0.000000
0.481903 0.042572 0.000000
0.526764 0.045654 0.000000
0.570435 0.048767 0.000000
0.612549 0.051910 0.000000
0.653046 0.055084 0.000000
0.691833 0.058289 0.000000
0.728912 0.061493 0.000000
0.764191 0.064758 0.000000
0.797699 0.068024 0.000000
0.829376 0.071350 0.000000
0.859222 0.074677 0.000000
0.887238 0.078064 0.000000
0.913391 0.081451 0.000000
0.937744 0.084869 0.000000
0.960266 0.088348 0.000000
0.980988 0.091827 0.000000
1.000000 0.095367 0.000000
1.000000 0.118958 0.020477
1.000000 0.143799 0.042603
1.000000 0.169922 0.066376
0.000000 0.091858 0.091858
0.000000 0.118988 0.118988
0.000000 0.147766 0.147766
0.004456 0.171234 0.171234
0.091858 0.091858 0.091858
0.183960 0.055115 0.038452
0.279602 0.027649 0.000000
0.316742 0.030579 0.000000
0.355530 0.033539 0.000000
0.395966 0.036530 0.000000
0.438080 0.039551 0.000000
0.481903 0.042572 0.000000
0.526764 0.045654 0.000000
0.570435 0.048767 0.000000
0.612549 0.051910 0.000000
0.653015 0.055084 0.000000
0.691833 0.058289 0.000000
0.728912 0.061493 0.000000
0.764191 0.064758 0.000000
0.797699 0.068024 0.000000
0.829376 0.071350 0.000000
0.859222 0.074677 0.000000
0.887238 0.078064 0.000000
0.913391 0.081451 0.000000
0.937744 0.084869 0.000000
0.960266 0.088348 0.000000
0.980988 0.091827 0.000000
1.000000 0.095367 0.000000
1.000000 0.118958 0.020477
1.000000 0.143799 0.042603
1.000000 0.169922 0.066376
1.000000 0.197266 0.091858
0.000000 0.118988 0.118988
0.000000 0.147766 0.147766
0.000000 0.178223 0.178223
0.000000 0.210358 0.210358
0.025299 0.202972 0.202972
0.118988 0.118988 0.118988
0.216370 0.079773 0.061951
0.330627 0.044128 0.012848
0.395966 0.036530 0.000000
0.438080 0.039551 0.000000
0.481903 0.042572 0.000000
0.526764 0.045654 0.000000
0.570435 0.048767 0.000000
0.612549 0.051910 0.000000
0.653015 0.055084 0.000000
0.691803 0.058289 0.000000
0.728912 0.061493 0.000000
0.764191 0.064758 0.000000
0.797699 0.068024 0.000000
0.829376 0.071350 0.000000
0.859222 0.074677 0.000000
0.887238 0.078064 0.000000
0.913391 0.081451 0.000000
0.937744 0.084869 0.000000
0.960266 0.088348 0.000000
0.980988 0.091827 0.000000
1.000000 0.095367 0.000000
1.000000 0.118958 0.020477
1.000000 0.143799 0.042603
1.000000 0.169922 0.066376
1.000000 0.197266 0.091858
1.000000 0.225922 0.118988
0.000000 0.147766 0.147766
0.000000 0.178223 0.178223
0.000000 0.210358 0.210358
0.000000 0.244141 0.244141
0.000000 0.279602 0.279602
0.047791 0.236389 0.236389
0.147766 0.147766 0.147766
0.250458 0.106110 0.087128
0.370026 0.068024 0.034363
0.481903 0.042572 0.000000
0.526764 0.045654 0.000000
0.570435 0.048767 0.000000
0.612549 0.051910 0.000000
0.653015 0.055084 0.000000
0.691803 0.058289 0.000000
0.728882 0.061493 0.000000
0.764191 0.064758 0.000000
0.797699 0.068024 0.000000
0.829376 0.071350 0.000000
0.859222 0.074677 0.000000
0.887238 0.078064 0.000000
0.913391 0.081451 0.000000
0.937744 0.084869 0.000000
0.960266 0.088348 0.000000
0.980988 0.091827 0.000000
1.000000 0.095367 0.000000
1.000000 0.118958 0.020477
1.000000 0.143799 0.042603
1.000000 0.169922 0.066376
1.000000 0.197266 0.091858
1.000000 0.225922 0.118988
1.000000 0.255768 0.147766
0.000000 0.178223 0.178223
0.000000 0.210358 0.210358
0.000000 0.244141 0.244141
0.000000 0.279602 0.279602
0.000000 0.316742 0.316742
0.000000 0.355530 0.355530
0.071960 0.271484 0.271484
0.178223 0.178223 0.178223
0.286224 0.134155 0.113922
0.411072 0.093597 0.057556
0.550751 0.056671 0.009125
0.612549 0.051910 0.000000
0.653015 0.055084 0.000000
0.691803 0.058289 0.000000
0.728882 0.061493 0.000000
0.764160 0.064758 0.000000
0.797699 0.068024 0.000000
0.829376 0.071350 0.000000
0.859222 0.074677 0.000000
0.887238 0.078064 0.000000
0.913391 0.081451 0.000000
0.937744 0.084869 0.000000
0.960266 0.088348 0.000000
0.980988 0.091827 0.000000
1.000000 0.095367 0.000000
1.000000 0.118958 0.020477
1.000000 0.143799 0.042603
1.000000 0.169922 0.066376
1.000000 0.197266 0.091858
1.000000 0.225922 0.118988
1.000000 0.255768 0.147766
1.000000 0.286896 0.178223
0.000000 0.210358 0.210358
0.000000 0.244141 0.244141
0.000000 0.279602 0.279602
0.000000 0.316742 0.316742
0.000000 0.355530 0.355530
0.000000 0.395966 0.395966
0.009003 0.418976 0.418976
0.097809 0.308228 0.308228
0.210358 0.210358 0.210358
0.323639 0.163818 0.142426
0.453796 0.120850 0.082428
0.593567 0.081451 0.030334
0.691803 0.058289 0.000000
0.728882 0.061493 0.000000
0.764160 0.064758 0.000000
0.797668 0.068024 0.000000
0.829376 0.071350 0.000000
0.859222 0.074677 0.000000
0.887238 0.078064 0.000000
0.913391 0.081451 0.000000
0.937744 0.084869 0.000000
0.960266 0.088348 0.000000
0.980988 0.091827 0.000000
1.000000 0.095367 0.000000
1.000000 0.118958 0.020477
1.000000 0.143799 0.042603
1.000000 0.169922 0.066376
1.000000 0.197266 0.091858
1.000000 0.225922 0.118988
1.000000 0.255768 0.147766
1.000000 0.286896 0.178223
1.000000 0.319244 0.210358
0.000000 0.244141 0.244141
0.000000 0.279602 0.279602
0.000000 0.316742 0.316742
0.000000 0.355530 0.355530
0.000000 0.395966 0.395966
0.000000 0.438080 0.438080
0.000000 0.481903 0.481903
0.030212 0.462006 0.462006
0.125305 0.346649 0.346649
0.244141 0.244141 0.244141
0.362732 0.195160 0.172577
0.498199 0.149750 0.108917
0.634796 0.107910 0.053223
0.754700 0.069702 0.005432
0.797668 0.068024 0.000000
0.829346 0.071350 0.000000
0.859222 0.074677 0.000000
0.887238 0.078064 0.000000
0.913391 0.081451 0.000000
0.937744 0.084869 0.000000
0.960266 0.088348 0.000000
0.980988 0.091827 0.000000
1.000000 0.095367 0.000000
1.000000 0.118958 0.020477
1.000000 0.143799 0.042603
1.000000 0.169922 0.066376
1.000000 0.197266 0.091858
1.000000 0.225922 0.118988
1.000000 0.255768 0.147766
1.000000 0.286896 0.178223
1.000000 0.319244 0.210358
1.000000 0.352844 0.244141
0.000000 0.279602 0.279602
0.000000 0.316742 0.316742
0.000000 0.355530 0.355530
0.000000 0.395966 0.395966
0.000000 0.438080 0.438080
0.000000 0.481903 0.481903
0.000000 0.526764 0.526764
0.000000 0.570435 0.570435
0.053101 0.506683 0.506683
0.154480 0.386719 0.386719
0.279602 0.279602 0.279602
0.403503 0.228180 0.204407
0.542816 0.180298 0.137115
0.674347 0.136047 0.077789
0.788696 0.095398 0.026367
0.859192 0.074677 0.000000
0.887238 0.078064 0.000000
0.913391 0.081451 0.000000
0.937744 0.084869 0.000000
0.960266 0.088348 0.000000
0.980988 0.091827 0.000000
1.000000 0.095367 0.000000
1.000000 0.118958 0.020477
1.000000 0.143799 0.042603
1.000000 0.169922 0.066376
1.000000 0.197266 0.091858
1.000000 0.225922 0.118988
1.000000 0.255768 0.147766
1.000000 0.286896 0.178223
1.000000 0.319244 0.210358
1.000000 0.352844 0.244141
1.000000 0.387726 0.279602
0.000000 0.316742 0.316742
0.000000 0.355530 0.355530
0.000000 0.395966 0.395966
0.000000 0.438080 0.438080
0.000000 0.481903 0.481903
0.000000 0.526764 0.526764
0.000000 0.570435 0.570435
0.000000 0.612549 0.612549
0.000000 0.653015 0.653015
0.077637 0.550995 0.550995
0.185303 0.428467 0.428467
0.316742 0.316742 0.316742
0.445923 0.262878 0.237885
0.585907 0.212555 0.166992
0.712219 0.165833 0.103973
0.820862 0.122742 0.048920
0.911102 0.083160 0.001770
0.937744 0.084869 0.000000
0.960266 0.088348 0.000000
0.980988 0.091827 0.000000
1.000000 0.095367 0.000000
1.000000 0.118958 0.020477
1.000000 0.143799 0.042603
1.000000 0.169922 0.066376
1.000000 0.197266 0.091858
1.000000 0.225922 0.118988
1.000000 0.255768 0.147766
1.000000 0.286896 0.178223
1.000000 0.319244 0.210358
1.000000 0.352844 0.244141
1.000000 0.387726 0.279602
1.000000 0.423828 0.316742
0.000000 0.355530 0.355530
0.000000 0.395966 0.395966
0.000000 0.438080 0.438080
0.000000 0.481903 0.481903
0.000000 0.526764 0.526764
0.000000 0.570435 0.570435
0.000000 0.612549 0.612549
0.000000 0.653015 0.653015
0.000000 0.691803 0.691803
0.013611 0.704102 0.704102
0.103821 0.593811 0.593811
0.217804 0.471863 0.471863
0.355530 0.355530 0.355530
0.490021 0.299225 0.273041
0.627441 0.246460 0.198486
0.748322 0.197296 0.131866
0.851318 0.151703 0.073151
0.935638 0.109711 0.022400
0.980988 0.091827 0.000000
1.000000 0.095367 0.000000
1.000000 0.118958 0.020477
1.000000 0.143799 0.042603
1.000000 0.169922 0.066376
1.000000 0.197266 0.091858
1.000000 0.225922 0.118988
1.000000 0.255768 0.147766
1.000000 0.286896 0.178223
1.000000 0.319244 0.210358
1.000000 0.352844 0.244141
1.000000 0.387726 0.279602
1.000000 0.423828 0.316742
1.000000 0.461212 0.355530
0.000000 0.395966 0.395966
0.000000 0.438080 0.438080
0.000000 0.481903 0.481903
0.000000 0.526764 0.526764
0.000000 0.570435 0.570435
0.000000 0.612549 0.612549
0.000000 0.653015 0.653015
0.000000 0.691803 0.691803
0.000000 0.728882 0.728882
0.000000 0.764160 0.764160
0.035187 0.740601 0.740601
0.131714 0.635010 0.635010
0.251953 0.516754 0.516754
0.395966 0.395966 0.395966
0.534821 0.337219 0.309845
0.667297 0.282013 0.231689
0.782745 0.230408 0.161377
0.879822 0.182373 0.099060
0.958282 0.137970 0.044678
1.000000 0.118958 0.020477
1.000000 0.143799 0.042603
1.000000 0.169922 0.066376
1.000000 0.197266 0.091858
1.000000 0.225922 0.118988
1.000000 0.255768 0.147766
1.000000 0.286896 0.178223
1.000000 0.319244 0.210358
1.000000 0.352844 0.244141
1.000000 0.387726 0.279602
1.000000 0.423828 0.316742
1.000000 0.461212 0.355530
1.000000 0.499817 0.395966
0.000000 0.438080 0.438080
0.000000 0.481903 0.481903
0.000000 0.526764 0.526764
0.000000 0.570435 0.570435
0.000000 0.612549 0.612549
0.000000 0.653015 0.653015
0.000000 0.691803 0.691803
0.000000 0.728882 0.728882
0.000000 0.764160 0.764160
0.000000 0.797668 0.797668
0.000000 0.829346 0.829346
0.058472 0.775299 0.775299
0.161255 0.674561 0.674561
0.287781 0.560730 0.560730
0.438080 0.438080 0.438080
0.578186 0.376892 0.348358
0.705566 0.319214 0.266479
0.815247 0.265167 0.192596
0.906464 0.214722 0.126648
0.979218 0.167847 0.068634
1.000000 0.169922 0.066376
1.000000 0.197266 0.091858
1.000000 0.225922 0.118988
1.000000 0.255768 0.147766
1.000000 0.286896 0.178223
1.000000 0.319244 0.210358
1.000000 0.352844 0.244141
1.000000 0.387726 0.279602
1.000000 0.423828 0.316742
1.000000 0.461212 0.355530
1.000000 0.499817 0.395966
1.000000 0.538513 0.438080
0.000000 0.481903 0.481903
0.000000 0.526764 0.526764
0.000000 0.570435 0.570435
0.000000 0.612549 0.612549
0.000000 0.653015 0.653015
0.000000 0.691803 0.691803
0.000000 0.728882 0.728882
0.000000 0.764160 0.764160
0.000000 0.797668 0.797668
0.000000 0.829346 0.829346
0.000000 0.859192 0.859192
0.000000 0.887207 0.887207
0.083374 0.808197 0.808197
0.192474 0.712433 0.712433
0.325287 0.603210 0.603210
0.481903 0.481903 0.481903
0.620117 0.418182 0.388428
0.742004 0.358093 0.302979
0.845917 0.301636 0.225464
0.931305 0.248718 0.155884
0.998383 0.199432 0.094238
1.000000 0.225922 0.118988
1.000000 0.255768 0.147766
1.000000 0.286896 0.178223
1.000000 0.319244 0.210358
1.000000 0.352844 0.244141
1.000000 0.387726 0.279602
1.000000 0.423828 0.316742
1.000000 0.461212 0.355530
1.000000 0.499817 0.395966
1.000000 0.538513 0.438080
1.000000 0.576141 0.481903
0.000000 0.526794 0.526794
0.000000 0.570496 0.570496
0.000000 0.612579 0.612579
0.000000 0.653046 0.653046
0.000000 0.691833 0.691833
0.000000 0.728912 0.728912
0.000000 0.764191 0.764191
0.000000 0.797699 0.797699
0.000000 0.829376 0.829376
0.000000 0.859222 0.859222
0.000000 0.887238 0.887238
0.000000 0.913391 0.913391
0.018250 0.916016 0.916016
0.109863 0.839386 0.839386
0.225250 0.748657 0.748657
0.364349 0.644196 0.644196
0.526794 0.526794 0.526794
0.660217 0.461304 0.430359
0.776581 0.398743 0.341278
0.874725 0.339844 0.260101
0.954285 0.284485 0.186890
1.000000 0.255768 0.147797
1.000000 0.286926 0.178253
1.000000 0.319275 0.210388
1.000000 0.352905 0.244171
1.000000 0.387787 0.279633
1.000000 0.423889 0.316772
1.000000 0.461273 0.355560
1.000000 0.499847 0.396027
1.000000 0.538574 0.438141
1.000000 0.576141 0.481934
1.000000 0.612549 0.526794
0.000000 0.570496 0.570496
0.000000 0.612579 0.612579
0.000000 0.653046 0.653046
0.000000 0.691833 0.691833
0.000000 0.728912 0.728912
0.000000 0.764191 0.764191
0.000000 0.797699 0.797699
0.000000 0.829376 0.829376
0.000000 0.859222 0.859222
0.000000 0.887238 0.887238
0.000000 0.913391 0.913391
0.000000 0.937744 0.937744
0.000000 0.960266 0.960266
0.040222 0.940155 0.940155
0.138123 0.868591 0.868591
0.259766 0.782959 0.782959
0.405304 0.683258 0.683258
0.570496 0.570496 0.570496
0.698700 0.505951 0.473846
0.809418 0.440979 0.381134
0.901703 0.379639 0.296356
0.975525 0.321838 0.219452
1.000000 0.319275 0.210388
1.000000 0.352905 0.244171
1.000000 0.387787 0.279633
1.000000 0.423889 0.316772
1.000000 0.461273 0.355560
1.000000 0.499847 0.396027
1.000000 0.538574 0.438141
1.000000 0.576141 0.481934
1.000000 0.612549 0.526794
1.000000 0.647736 0.570496
0.000000 0.612579 0.612579
0.000000 0.653046 0.653046
0.000000 0.691833 0.691833
0.000000 0.728912 0.728912
0.000000 0.764191 0.764191
0.000000 0.797699 0.797699
0.000000 0.829376 0.829376
0.000000 0.859222 0.859222
0.000000 0.887238 0.887238
0.000000 0.913391 0.913391
0.000000 0.937744 0.937744
0.000000 0.960266 0.960266
0.000000 0.980988 0.980988
0.000000 1.000000 1.000000
0.063843 0.962524 0.962524
0.168030 0.896027 0.896027
0.296143 0.815369 0.815369
0.447815 0.720703 0.720703
0.612579 0.612579 0.612579
0.735443 0.550293 0.518707
0.840424 0.484863 0.422638
0.926880 0.421082 0.334198
0.994965 0.360870 0.253693
1.000000 0.387787 0.279633
1.000000 0.423889 0.316772
1.000000 0.461273 0.355560
1.000000 0.499847 0.396027
1.000000 0.538574 0.438141
1.000000 0.576141 0.481934
1.000000 0.612549 0.526794
1.000000 0.647736 0.570496
1.000000 0.681641 0.612579
0.000000 0.653046 0.653046
0.000000 0.691833 0.691833
0.000000 0.728912 0.728912
0.000000 0.764191 0.764191
0.000000 0.797699 0.797699
0.000000 0.829376 0.829376
0.000000 0.859222 0.859222
0.000000 0.887238 0.887238
0.000000 0.913391 0.913391
0.000000 0.937744 0.937744
0.000000 0.960266 0.960266
0.000000 0.980988 0.980988
0.000000 1.000000 1.000000
0.020477 1.000000 1.000000
0.042603 1.000000 1.000000
0.089142 0.983063 0.983063
0.199738 0.921539 0.921539
0.333984 0.846039 0.846039
0.491974 0.756409 0.756409
0.653046 0.653046 0.653046
0.770416 0.593140 0.562653
0.869598 0.529755 0.465820
0.950226 0.464172 0.373779
1.000000 0.423889 0.316772
1.000000 0.461273 0.355560
1.000000 0.499847 0.396027
1.000000 0.538574 0.438141
1.000000 0.576141 0.481934
1.000000 0.612549 0.526794
1.000000 0.647736 0.570496
1.000000 0.681641 0.612579
1.000000 0.714294 0.653046
0.000000 0.691833 0.691833
0.000000 0.728912 0.728912
0.000000 0.764191 0.764191
0.000000 0.797699 0.797699
0.000000 0.829376 0.829376
0.000000 0.859222 0.859222
0.000000 0.887238 0.887238
0.000000 0.913391 0.913391
0.000000 0.937744 0.937744
0.000000 0.960266 0.960266
0.000000 0.980988 0.980988
0.000000 1.000000 1.000000
0.020477 1.000000 1.000000
0.042603 1.000000 1.000000
0.066376 1.000000 1.000000
0.091858 1.000000 1.000000
0.119019 1.000000 1.000000
0.232971 0.945282 0.945282
0.373535 0.874878 0.874878
0.536743 0.790314 0.790314
0.691833 0.691833 0.691833
0.803589 0.634369 0.605042
0.896942 0.573303 0.510590
0.971802 0.508942 0.414978
1.000000 0.499847 0.396027
1.000000 0.538574 0.438141
1.000000 0.576141 0.481934
1.000000 0.612549 0.526794
1.000000 0.647736 0.570496
1.000000 0.681641 0.612579
1.000000 0.714294 0.653046
1.000000 0.745575 0.691833
0.000000 0.728912 0.728912
0.000000 0.764191 0.764191
0.000000 0.797699 0.797699
0.000000 0.829376 0.829376
0.000000 0.859222 0.859222
0.000000 0.887238 0.887238
0.000000 0.913391 0.913391
0.000000 0.937744 0.937744
0.000000 0.960266 0.960266
0.000000 0.980988 0.980988
0.000000 1.000000 1.000000
0.020477 1.000000 1.000000
0.042603 1.000000 1.000000
0.066376 1.000000 1.000000
0.091858 1.000000 1.000000
0.118988 1.000000 1.000000
0.147797 1.000000 1.000000
0.178253 1.000000 1.000000
0.267883 0.967224 0.967224
0.414734 0.901855 0.901855
0.580048 0.822418 0.822418
0.728912 0.728912 0.728912
0.834930 0.673950 0.645813
0.922455 0.615295 0.554810
0.991577 0.553192 0.457855
1.000000 0.576141 0.481934
1.000000 0.612549 0.526794
1.000000 0.647736 0.570496
1.000000 0.681641 0.612579
1.000000 0.714294 0.653046
1.000000 0.745575 0.691833
1.000000 0.775543 0.728912
0.000000 0.764191 0.764191
0.000000 0.797699 0.797699
0.000000 0.829376 0.829376
0.000000 0.859222 0.859222
0.000000 0.887238 0.887238
0.000000 0.913391 0.913391
0.000000 0.937744 0.937744
0.000000 0.960266 0.960266
0.000000 0.980988 0.980988
0.000000 1.000000 1.000000
0.020477 1.000000 1.000000
0.042603 1.000000 1.000000
0.066376 1.000000 1.000000
0.091858 1.000000 1.000000
0.118988 1.000000 1.000000
0.147766 1.000000 1.000000
0.178253 1.000000 1.000000
0.210388 1.000000 1.000000
0.244171 1.000000 1.000000
0.304474 0.987396 0.987396
0.457611 0.927032 0.927032
0.621796 0.852661 0.852661
0.764191 0.764191 0.764191
0.864441 0.711823 0.684906
0.946136 0.655670 0.597473
1.000000 0.612549 0.526794
1.000000 0.647736 0.570496
1.000000 0.681641 0.612579
1.000000 0.714294 0.653046
1.000000 0.745575 0.691833
1.000000 0.775543 0.728912
1.000000 0.804169 0.764191
0.000000 0.797699 0.797699
0.000000 0.829376 0.829376
0.000000 0.859222 0.859222
0.000000 0.887238 0.887238
0.000000 0.913391 0.913391
0.000000 0.937744 0.937744
0.000000 0.960266 0.960266
0.000000 0.980988 0.980988
0.000000 1.000000 1.000000
0.020477 1.000000 1.000000
0.042603 1.000000 1.000000
0.066376 1.000000 1.000000
0.091858 1.000000 1.000000
0.118988 1.000000 1.000000
0.147766 1.000000 1.000000
0.178223 1.000000 1.000000
0.210388 1.000000 1.000000
0.244171 1.000000 1.000000
0.279633 1.000000 1.000000
0.316772 1.000000 1.000000
0.355560 1.000000 1.000000
0.502136 0.950348 0.950348
0.661896 0.881073 0.881073
0.797699 0.797699 0.797699
0.892120 0.747955 0.722321
0.968018 0.694336 0.638519
1.000000 0.681641 0.612579
1.000000 0.714294 0.653046
1.000000 0.745575 0.691833
1.000000 0.775543 0.728912
1.000000 0.804169 0.764191
1.000000 0.831421 0.797699
0.000000 0.829376 0.829376
0.000000 0.859222 0.859222
0.000000 0.887238 0.887238
0.000000 0.913391 0.913391
0.000000 0.937744 0.937744
0.000000 0.960266 0.960266
0.000000 0.980988 0.980988
0.000000 1.000000 1.000000
0.020477 1.000000 1.000000
0.042603 1.000000 1.000000
0.066376 1.000000 1.000000
0.091858 1.000000 1.000000
0.118988 1.000000 1.000000
0.147766 1.000000 1.000000
0.178223 1.000000 1.000000
0.210358 1.000000 1.000000
0.244171 1.000000 1.000000
0.279633 1.000000 1.000000
0.316772 1.000000 1.000000
0.355560 1.000000 1.000000
0.396027 1.000000 1.000000
0.438141 1.000000 1.000000
0.546631 0.971924 0.971924
0.700287 0.907654 0.907654
0.829376 0.829376 0.829376
0.917938 0.782288 0.757935
0.988098 0.731323 0.677948
1.000000 0.745575 0.691833
1.000000 0.775543 0.728912
1.000000 0.804169 0.764191
1.000000 0.831421 0.797699
1.000000 0.857269 0.829376
0.000000 0.859222 0.859222
0.000000 0.887238 0.887238
0.000000 0.913391 0.913391
0.000000 0.937744 0.937744
0.000000 0.960266 0.960266
0.000000 0.980988 0.980988
0.000000 1.000000 1.000000
0.020477 1.000000 1.000000
0.042603 1.000000 1.000000
0.066376 1.000000 1.000000
0.091858 1.000000 1.000000
0.118988 1.000000 1.000000
0.147766 1.000000 1.000000
0.178223 1.000000 1.000000
0.210358 1.000000 1.000000
0.244141 1.000000 1.000000
0.279633 1.000000 1.000000
0.316772 1.000000 1.000000
0.355560 1.000000 1.000000
0.396027 1.000000 1.000000
0.438141 1.000000 1.000000
0.481934 1.000000 1.000000
0.526794 1.000000 1.000000
0.589600 0.991669 0.991669
0.736969 0.932404 0.932404
0.859222 0.859222 0.859222
0.941956 0.814819 0.791748
1.000000 0.775543 0.728912
1.000000 0.804169 0.764191
1.000000 0.831421 0.797699
1.000000 0.857269 0.829376
1.000000 0.881744 0.859222
0.000000 0.887238 0.887238
0.000000 0.913391 0.913391
0.000000 0.937744 0.937744
0.000000 0.960266 0.960266
0.000000 0.980988 0.980988
0.000000 1.000000 1.000000
0.020477 1.000000 1.000000
0.042603 1.000000 1.000000
0.066376 1.000000 1.000000
0.091858 1.000000 1.000000
0.118988 1.000000 1.000000
0.147766 1.000000 1.000000
0.178223 1.000000 1.000000
0.210358 1.000000 1.000000
0.244141 1.000000 1.000000
0.279602 1.000000 1.000000
0.316772 1.000000 1.000000
0.355560 1.000000 1.000000
0.396027 1.000000 1.000000
0.438141 1.000000 1.000000
0.481934 1.000000 1.000000
0.526794 1.000000 1.000000
0.570496 1.000000 1.000000
0.612579 1.000000 1.000000
0.653046 1.000000 1.000000
0.771881 0.955353 0.955353
0.887238 0.887238 0.887238
0.964172 0.845520 0.823761
1.000000 0.831421 0.797699
1.000000 0.857269 0.829376
1.000000 0.881744 0.859222
1.000000 0.904846 0.887238
0.000000 0.913391 0.913391
0.000000 0.937744 0.937744
0.000000 0.960266 0.960266
0.000000 0.980988 0.980988
0.000000 1.000000 1.000000
0.020477 1.000000 1.000000
0.042603 1.000000 1.000000
0.066376 1.000000 1.000000
0.091858 1.000000 1.000000
0.118988 1.000000 1.000000
0.147766 1.000000 1.000000
0.178223 1.000000 1.000000
0.210358 1.000000 1.000000
0.244141 1.000000 1.000000
0.279602 1.000000 1.000000
0.316742 1.000000 1.000000
