EA 50 Cinematic Luts Pack/EA_Cinematic Lut (4).cube
TITLE "Generated by Resolve"
LUT_3D_SIZE 5
0.115496 0.0875105 0.280446
0.188952 0.108553 0.290043
0.29749 0.119265 0.296071
0.44744 0.117922 0.2972
0.613809 0.119692 0.298329
0.140887 0.225956 0.2925
0.229648 0.255451 0.302815
0.379889 0.284108 0.311376
0.556542 0.312322 0.318624
0.732433 0.345418 0.327489
0.164508 0.459876 0.30309
0.299474 0.505531 0.320302
0.472694 0.542916 0.334371
0.654856 0.578622 0.348653
0.817838 0.618402 0.366506
0.233936 0.735592 0.345769
0.398749 0.773434 0.367239
0.580835 0.802823 0.384482
0.752667 0.830289 0.401373
0.886915 0.861997 0.422019
0.357961 0.971984 0.425025
0.532235 0.987945 0.442573
0.70193 0.994919 0.454932
0.842802 1 0.468605
0.951476 1 0.486412
0.122484 0.0976272 0.324056
0.197009 0.118944 0.334447
0.308965 0.127535 0.340459
0.462104 0.127001 0.344137
0.632197 0.133318 0.351827
0.148302 0.238743 0.341955
0.243503 0.272618 0.35938
0.397971 0.302861 0.375311
0.575692 0.331975 0.389975
0.750988 0.36585 0.406485
0.177417 0.48188 0.37792
0.317082 0.526787 0.401801
0.492134 0.563607 0.421485
0.673579 0.598627 0.440085
0.832471 0.638132 0.461509
0.250935 0.755459 0.439353
0.417639 0.791547 0.463752
0.598596 0.819272 0.483207
0.767712 0.845075 0.502281
0.89659 0.873701 0.524269
0.374716 0.984527 0.528466
0.547112 0.99675 0.545724
0.713985 1 0.558038
0.850278 1 0.572274
0.958221 1 0.590158
0.128954 0.106188 0.384649
0.203571 0.126558 0.401862
0.319783 0.133471 0.414405
0.476081 0.134676 0.425025
0.649958 0.146334 0.439292
0.154482 0.250355 0.42501
0.25687 0.288579 0.448905
0.414527 0.319844 0.468589
0.593683 0.34992 0.486671
0.767865 0.385046 0.506706
0.189563 0.501976 0.476295
0.333684 0.546258 0.502907
0.51017 0.582666 0.524651
0.69041 0.61738 0.544915
0.846021 0.656443 0.567681
0.26743 0.774105 0.546166
0.435065 0.808133 0.570321
0.615503 0.834089 0.589639
0.781201 0.858305 0.607675
0.904845 0.884062 0.627985
0.390677 0.995605 0.635508
0.561074 1 0.649592
0.724971 1 0.658991
0.857893 1 0.671305
0.965576 1 0.686748
0.134813 0.112856 0.475288
0.208988 0.131792 0.494896
0.33022 0.138415 0.509972
0.490654 0.142718 0.523888
0.668055 0.159716 0.542321
0.161807 0.263462 0.525902
0.270115 0.304234 0.552331
0.430991 0.336706 0.573816
0.611185 0.368048 0.592874
0.784543 0.404334 0.613642
0.201633 0.52166 0.583276
0.350149 0.565347 0.60972
0.527993 0.601434 0.630488
0.707576 0.635996 0.649775
0.859098 0.674937 0.671061
0.283696 0.792142 0.651438
0.452735 0.824338 0.673091
0.631922 0.848753 0.689128
0.794232 0.871046 0.70341
0.913924 0.894591 0.718532
0.405997 1 0.730938
0.575158 1 0.738384
0.737148 1 0.742229
0.866835 1 0.749569
0.975174 1 0.760952
0.139727 0.117998 0.576928
0.214633 0.136233 0.597055
0.341024 0.143511 0.612406
0.506798 0.153094 0.628107
0.686458 0.173724 0.647349
0.169787 0.278523 0.630365
0.283925 0.320668 0.656565
0.447822 0.354086 0.676555
0.629374 0.386542 0.694286
0.801328 0.424125 0.71284
0.214939 0.542306 0.684504
0.367666 0.585534 0.707759
0.546822 0.621241 0.724559
0.724895 0.655314 0.738491
0.873304 0.694011 0.755016
0.301045 0.811109 0.739986
0.471397 0.841779 0.755688
0.650156 0.864546 0.765972
0.807858 0.884276 0.774975
0.923796 0.90573 0.786175
0.422049 1 0.802075
0.590433 1 0.805508
0.750271 1 0.807187
0.877104 1 0.814298
0.985107 1 0.825376
