EA 50 Cinematic Luts Pack/EA_Cinematic Lut (52).cube
TITLE "A very warm, uniform and sharp grade that gives your footage an extra contrast between the shadows and highlights."
LUT_3D_SIZE 5
0.0000 0.0000 0.0000
0.1307 0.0967 0.0911
0.2887 0.2219 0.2150
0.4518 0.3470 0.3513
0.6150 0.4720 0.4841
0.1547 0.2324 0.1646
0.2338 0.2519 0.1785
0.3651 0.3098 0.2801
0.5060 0.4033 0.3960
0.6573 0.5103 0.5122
0.3343 0.4688 0.3661
0.3585 0.4820 0.3623
0.4839 0.5037 0.3937
0.6167 0.5494 0.4938
0.7588 0.6234 0.5856
0.5174 0.7034 0.5571
0.5267 0.7127 0.5503
0.5886 0.7320 0.5608
0.7410 0.7529 0.5910
0.8633 0.7944 0.7028
0.7946 0.8976 0.7738
0.8048 0.9022 0.7769
0.8418 0.9147 0.7911
0.9075 0.9359 0.8228
0.9664 0.9710 0.8652
0.0407 0.0467 0.0684
0.1467 0.1154 0.1515
0.2982 0.2298 0.2462
0.4591 0.3512 0.3706
0.6202 0.4748 0.4960
0.1490 0.2421 0.2355
0.2368 0.2578 0.2554
0.3681 0.3159 0.3172
0.5074 0.4083 0.4183
0.6684 0.5104 0.5223
0.3373 0.4720 0.4002
0.3657 0.4829 0.4147
0.4799 0.5074 0.4385
0.6201 0.5517 0.5114
0.7716 0.6224 0.5922
0.5200 0.7051 0.5753
0.5310 0.7132 0.5786
0.5844 0.7347 0.5838
0.7372 0.7556 0.6106
0.8667 0.7957 0.7086
0.7980 0.8987 0.7793
0.8084 0.9032 0.7822
0.8435 0.9163 0.7943
0.9085 0.9376 0.8247
0.9675 0.9725 0.8667
0.1164 0.1316 0.1707
0.1719 0.1742 0.2302
0.3185 0.2553 0.3388
0.4704 0.3687 0.4295
0.6329 0.4847 0.5326
0.2170 0.2606 0.3157
0.2576 0.2819 0.3453
0.3839 0.3324 0.4111
0.5227 0.4200 0.4744
0.6825 0.5183 0.5610
0.3233 0.4858 0.4963
0.3665 0.4935 0.5059
0.4892 0.5139 0.5289
0.6228 0.5611 0.5718
0.8158 0.6160 0.6218
0.5205 0.7123 0.6270
0.5341 0.7200 0.6275
0.6051 0.7349 0.6543
0.7361 0.7605 0.6760
0.8793 0.7992 0.7278
0.8074 0.9024 0.7949
0.8183 0.9067 0.7979
0.8501 0.9207 0.8065
0.9111 0.9434 0.8303
0.9710 0.9772 0.8717
0.1949 0.2160 0.2826
0.2300 0.2434 0.3265
0.3315 0.3113 0.4182
0.4952 0.3956 0.5232
0.6456 0.5072 0.5974
0.2717 0.3069 0.3936
0.2997 0.3260 0.4200
0.3886 0.3759 0.4872
0.5387 0.4442 0.5650
0.6906 0.5394 0.6281
0.4068 0.4949 0.5724
0.4290 0.5048 0.5853
0.5046 0.5323 0.6148
0.6385 0.5757 0.6574
0.8205 0.6306 0.7011
0.5017 0.7284 0.7147
0.5271 0.7329 0.7189
0.6061 0.7465 0.7322
0.7504 0.7676 0.7502
0.9104 0.8013 0.7708
0.8188 0.9111 0.8190
0.8302 0.9151 0.8219
0.8645 0.9280 0.8307
0.9185 0.9527 0.8451
0.9775 0.9862 0.8808
0.2750 0.2997 0.3978
0.2998 0.3192 0.4317
0.3755 0.3737 0.5012
0.5026 0.4512 0.5910
0.6750 0.5344 0.6832
0.3349 0.3680 0.4789
0.3559 0.3829 0.5053
0.4245 0.4261 0.5654
0.5440 0.4910 0.6373
0.7161 0.5649 0.7141
0.4623 0.5257 0.6338
0.4773 0.5349 0.6505
0.5303 0.5599 0.7063
0.6514 0.6010 0.7517
0.8306 0.6504 0.7906
0.5941 0.7327 0.7752
0.6045 0.7391 0.7831
0.6520 0.7563 0.8020
0.7648 0.7803 0.8271
0.9094 0.8177 0.8375
0.8326 0.9250 0.8517
0.8436 0.9290 0.8540
0.8769 0.9416 0.8614
0.9306 0.9649 0.8748
0.9877 0.9999 0.8945
