EA 50 Cinematic Luts Pack/EA_Cinematic Lut (41).cube
TITLE "A classic, yet very dynamic grade that instantly adds some action to every video or image."
LUT_3D_SIZE 5
0.0000 0.0000 0.0000
0.1502 0.0594 0.0471
0.3488 0.1534 0.1326
0.5471 0.2480 0.2181
0.7463 0.3460 0.3056
0.0788 0.2024 0.0532
0.2164 0.2130 0.0121
0.4096 0.2422 0.1585
0.5947 0.3054 0.2437
0.7813 0.3882 0.3254
0.2194 0.4230 0.1437
0.2825 0.4321 0.0898
0.4702 0.4450 0.0650
0.6700 0.4679 0.2502
0.8566 0.5161 0.3592
0.3606 0.6779 0.2349
0.3990 0.6847 0.2048
0.5178 0.7015 0.1094
0.7232 0.7150 0.1202
0.9241 0.7373 0.3169
0.5509 0.9530 0.4069
0.5699 0.9590 0.3874
0.6281 0.9782 0.3028
0.7753 0.9955 0.2850
0.9740 0.9968 0.6272
0.0053 0.0282 0.0859
0.1630 0.0713 0.1581
0.3800 0.1446 0.1928
0.5899 0.2299 0.2383
0.7731 0.3356 0.3175
0.1087 0.2005 0.2116
0.2257 0.2112 0.2162
0.4147 0.2439 0.2371
0.5963 0.3087 0.2878
0.8088 0.3778 0.3336
0.2020 0.4272 0.2270
0.3070 0.4277 0.2508
0.4779 0.4419 0.2550
0.6763 0.4652 0.3385
0.8819 0.5067 0.3783
0.3295 0.6847 0.2703
0.4179 0.6811 0.3110
0.5280 0.6990 0.2547
0.7275 0.7130 0.2690
0.9354 0.7355 0.3301
0.5698 0.9493 0.4714
0.5854 0.9558 0.4544
0.6402 0.9753 0.3874
0.7767 0.9959 0.3442
0.9757 0.9973 0.6522
0.0861 0.0974 0.2036
0.1656 0.1281 0.2548
0.3714 0.1745 0.3363
0.5916 0.2441 0.3742
0.8058 0.3268 0.4124
0.1679 0.2133 0.3257
0.2404 0.2263 0.3446
0.4164 0.2572 0.3763
0.6284 0.3053 0.3957
0.8685 0.3515 0.4177
0.2738 0.4195 0.4413
0.3301 0.4269 0.4385
0.4873 0.4415 0.4513
0.6819 0.4686 0.4688
0.9353 0.4876 0.4465
0.3809 0.6783 0.4682
0.4179 0.6844 0.4615
0.5588 0.6913 0.4798
0.7395 0.7079 0.4942
0.9483 0.7312 0.4984
0.6305 0.9376 0.6220
0.6404 0.9447 0.6143
0.6822 0.9649 0.5844
0.7848 0.9951 0.5053
0.9810 0.9990 0.7275
0.1662 0.1660 0.3227
0.2154 0.1857 0.3624
0.3560 0.2336 0.4350
0.5809 0.2798 0.5295
0.8028 0.3494 0.5733
0.2311 0.2471 0.4237
0.2777 0.2601 0.4454
0.4057 0.2950 0.4961
0.6128 0.3347 0.5611
0.8579 0.3737 0.6058
0.3336 0.4258 0.5973
0.3760 0.4336 0.5985
0.4969 0.4534 0.6133
0.6807 0.4820 0.6351
0.9336 0.4956 0.6607
0.4394 0.6715 0.7033
0.4749 0.6766 0.7012
0.5799 0.6907 0.6969
0.7476 0.7085 0.7193
0.9638 0.7277 0.7189
0.7236 0.9204 0.8022
0.7363 0.9259 0.8043
0.7733 0.9439 0.8081
0.8290 0.9818 0.7820
0.9911 1.0000 0.8529
0.2459 0.2346 0.4467
0.2798 0.2485 0.4815
0.3833 0.2894 0.5488
0.5563 0.3440 0.6384
0.7903 0.3896 0.7473
0.2971 0.2959 0.5317
0.3253 0.3041 0.5794
0.4286 0.3343 0.6412
0.6015 0.3788 0.7074
0.8355 0.4142 0.7967
0.3939 0.4508 0.7042
0.4135 0.4570 0.7409
0.4965 0.4621 0.8933
0.6992 0.4865 0.8871
0.9096 0.5234 0.8816
0.5019 0.6743 0.8920
0.5291 0.6793 0.8973
0.6041 0.6959 0.9130
0.7501 0.7170 0.9430
0.9488 0.7447 0.9362
0.7907 0.9179 0.9375
0.8035 0.9227 0.9416
0.8428 0.9379 0.9546
0.9115 0.9659 0.9785
1.0000 1.0000 1.0000
