EA 50 Cinematic Luts Pack/EA_Cinematic Lut (22).CUBE
#Created by: Adobe Photoshop Export Color Lookup Plugin
#Copyright: (C) Copyright 2018 Navpreet Singh
TITLE "Orange and Teal 5"
#LUT size
LUT_3D_SIZE 5
#data domain
#LUT data points
DOMAIN_MIN 0.000000 0.000000 0.000000
DOMAIN_MAX 0.903226 0.903226 0.903226
0.000000 0.000000 0.000000
0.247803 0.038208 0.000000
0.495575 0.076447 0.000000
0.743408 0.114655 0.000000
0.975708 0.162170 0.015472
0.000000 0.225800 0.202362
0.225800 0.225800 0.169128
0.534637 0.268097 0.113556
0.826874 0.279694 0.069183
0.975708 0.355072 0.168121
0.000000 0.451599 0.404724
0.194427 0.482971 0.360443
0.451599 0.451599 0.338257
0.762360 0.507751 0.280792
0.975708 0.554810 0.320801
0.000000 0.677429 0.607117
0.130676 0.772552 0.608215
0.451599 0.677429 0.507385
0.677429 0.677429 0.507416
0.975708 0.734955 0.459747
0.000000 0.903229 0.809509
0.153320 0.975708 0.806702
0.388824 0.966003 0.720917
0.677429 0.903229 0.676544
0.903229 0.903229 0.676544
0.000000 0.000000 0.056671
0.247070 0.000000 0.025208
0.495575 0.028473 0.014221
0.743408 0.066620 0.014221
0.975708 0.116119 0.029694
0.000000 0.191986 0.225800
0.225800 0.225800 0.225800
0.517975 0.237366 0.181396
0.810211 0.248932 0.136993
0.975708 0.336548 0.219299
0.000000 0.426422 0.437378
0.161713 0.515686 0.485260
0.451599 0.451599 0.394928
0.760468 0.493896 0.339355
0.975708 0.534515 0.371918
0.000000 0.660828 0.648987
0.097595 0.805603 0.744781
0.420227 0.708801 0.586273
0.677429 0.677429 0.564087
0.975708 0.733582 0.519104
0.000000 0.895294 0.860565
0.153320 0.975708 0.897522
0.379120 0.975708 0.821777
0.677429 0.903229 0.733215
0.903229 0.903229 0.733215
0.000000 0.000000 0.113342
0.236023 0.000000 0.101807
0.494141 0.000000 0.050385
0.743408 0.018768 0.028442
0.975708 0.070099 0.043915
0.000000 0.183502 0.282471
0.225800 0.225800 0.282471
0.516296 0.182373 0.212555
0.810211 0.178680 0.151215
0.975708 0.287415 0.233521
0.000000 0.383972 0.451599
0.160736 0.456848 0.516663
0.451599 0.451599 0.451599
0.743805 0.463165 0.407196
0.975708 0.510925 0.423096
0.000000 0.618469 0.663208
0.095642 0.763000 0.793365
0.387512 0.741516 0.711121
0.677429 0.677429 0.620758
0.975708 0.721832 0.575775
0.000000 0.852844 0.874786
0.153320 0.954376 0.947266
0.379120 0.975708 0.920959
0.646057 0.934601 0.812073
0.903229 0.903229 0.789886
0.000000 0.000000 0.170013
0.225800 0.000000 0.170013
0.483063 0.000000 0.128967
0.741241 0.000000 0.075592
0.975708 0.024078 0.058136
0.000000 0.182678 0.339142
0.225800 0.225800 0.339142
0.484802 0.202789 0.323395
0.806793 0.138947 0.199341
0.975708 0.238464 0.247742
0.000000 0.375458 0.508270
0.144379 0.425446 0.589661
0.451599 0.451599 0.508270
0.742126 0.408142 0.438354
0.975708 0.455811 0.437317
0.000000 0.575958 0.677429
0.095642 0.687897 0.807587
0.386505 0.682678 0.742493
0.677429 0.677429 0.677429
0.969604 0.688995 0.633026
0.000000 0.810394 0.889008
0.153320 0.899902 0.961487
0.379120 0.939728 0.961487
0.613342 0.967316 0.936890
0.903229 0.903229 0.846558
0.000000 0.000000 0.226685
0.225800 0.000000 0.226685
0.472046 0.000000 0.203583
0.730194 0.000000 0.154816
0.975708 0.012573 0.111877
0.000000 0.186737 0.395813
0.225800 0.225800 0.395813
0.451599 0.225800 0.395813
0.776306 0.158386 0.318817
0.975708 0.217102 0.293701
0.000000 0.366943 0.564941
0.142944 0.407837 0.647766
0.451599 0.451599 0.564941
0.710632 0.428589 0.549225
0.975708 0.421661 0.475494
0.000000 0.567505 0.734100
0.079315 0.656464 0.880585
0.370178 0.651276 0.815521
0.677429 0.677429 0.734100
0.967926 0.634003 0.664185
0.000000 0.767944 0.903229
0.153320 0.845245 0.975708
0.379120 0.879089 0.975708
0.612366 0.908478 0.968292
0.903229 0.903229 0.903229
