EA 50 Cinematic Luts Pack/EA_Cinematic Lut (50).cube
TITLE "If you need a gloomy and shadowy brisk cinematic look this grade is what you are looking for. "
LUT_3D_SIZE 25
0.0000 0.0000 0.0000
0.0106 0.0053 0.0025
0.0256 0.0126 0.0064
0.0447 0.0237 0.0140
0.0638 0.0385 0.0278
0.0829 0.0539 0.0434
0.1022 0.0695 0.0600
0.1218 0.0852 0.0777
0.1416 0.1009 0.0961
0.1617 0.1166 0.1152
0.1821 0.1323 0.1349
0.2031 0.1481 0.1555
0.2246 0.1641 0.1767
0.2468 0.1802 0.1985
0.2696 0.1964 0.2206
0.2932 0.2129 0.2427
0.3179 0.2297 0.2652
0.3436 0.2467 0.2877
0.3707 0.2640 0.3103
0.3998 0.2815 0.3329
0.4305 0.2992 0.3556
0.4623 0.3172 0.3783
0.4938 0.3354 0.4010
0.5250 0.3538 0.4236
0.5558 0.3726 0.4465
0.0009 0.0311 0.0045
0.0141 0.0335 0.0211
0.0430 0.0366 0.0129
0.0598 0.0448 0.0235
0.0775 0.0549 0.0367
0.0954 0.0667 0.0510
0.1138 0.0797 0.0665
0.1319 0.0937 0.0835
0.1505 0.1082 0.1015
0.1695 0.1230 0.1202
0.1892 0.1380 0.1396
0.2095 0.1532 0.1598
0.2306 0.1687 0.1807
0.2523 0.1844 0.2023
0.2749 0.2003 0.2241
0.2982 0.2165 0.2461
0.3228 0.2330 0.2683
0.3483 0.2499 0.2906
0.3753 0.2669 0.3130
0.4044 0.2843 0.3355
0.4350 0.3018 0.3580
0.4665 0.3197 0.3806
0.4977 0.3377 0.4031
0.5286 0.3561 0.4257
0.5593 0.3748 0.4485
0.0031 0.0625 0.0127
0.0138 0.0662 0.0090
0.0341 0.0661 0.0536
0.0714 0.0678 0.0323
0.0876 0.0750 0.0466
0.1050 0.0839 0.0607
0.1230 0.0942 0.0757
0.1413 0.1058 0.0917
0.1600 0.1184 0.1086
0.1793 0.1315 0.1264
0.1985 0.1454 0.1454
0.2181 0.1600 0.1653
0.2386 0.1748 0.1860
0.2598 0.1900 0.2073
0.2819 0.2055 0.2288
0.3050 0.2213 0.2505
0.3293 0.2376 0.2724
0.3546 0.2541 0.2945
0.3816 0.2710 0.3167
0.4107 0.2881 0.3389
0.4412 0.3055 0.3613
0.4722 0.3231 0.3836
0.5031 0.3410 0.4060
0.5336 0.3592 0.4284
0.5639 0.3779 0.4511
0.0081 0.0936 0.0309
0.0166 0.0969 0.0191
0.0369 0.0986 0.0330
0.0570 0.0985 0.0897
0.1018 0.0996 0.0440
0.1166 0.1058 0.0728
0.1336 0.1141 0.0874
0.1516 0.1233 0.1031
0.1703 0.1337 0.1196
0.1891 0.1452 0.1368
0.2085 0.1575 0.1550
0.2287 0.1706 0.1740
0.2497 0.1841 0.1937
0.2710 0.1984 0.2143
0.2925 0.2133 0.2355
0.3153 0.2286 0.2568
0.3391 0.2444 0.2785
0.3642 0.2606 0.3002
0.3913 0.2770 0.3220
0.4202 0.2938 0.3440
0.4504 0.3109 0.3661
0.4808 0.3283 0.3881
0.5111 0.3460 0.4103
0.5411 0.3640 0.4325
0.5708 0.3825 0.4551
0.0176 0.1246 0.0529
0.0261 0.1272 0.0436
0.0389 0.1300 0.0386
0.0633 0.1307 0.0672
0.0807 0.1310 0.1290
0.1331 0.1316 0.0542
0.1465 0.1370 0.1013
0.1635 0.1446 0.1160
0.1813 0.1534 0.1324
0.2003 0.1630 0.1496
0.2200 0.1736 0.1674
0.2399 0.1853 0.1860
0.2606 0.1977 0.2053
0.2820 0.2107 0.2250
0.3045 0.2244 0.2450
0.3281 0.2388 0.2654
0.3525 0.2537 0.2862
0.3776 0.2693 0.3076
0.4047 0.2853 0.3291
0.4333 0.3017 0.3507
0.4630 0.3184 0.3725
0.4925 0.3354 0.3942
0.5220 0.3528 0.4160
0.5514 0.3706 0.4381
0.5801 0.3888 0.4604
0.0324 0.1556 0.0768
0.0392 0.1577 0.0694
0.0480 0.1603 0.0603
0.0639 0.1627 0.0646
0.0900 0.1626 0.1053
0.1049 0.1634 0.1706
0.1653 0.1636 0.0637
0.1775 0.1684 0.1305
0.1950 0.1756 0.1474
0.2131 0.1841 0.1639
0.2319 0.1934 0.1816
0.2524 0.2035 0.2001
0.2735 0.2144 0.2189
0.2948 0.2264 0.2380
0.3173 0.2392 0.2575
0.3407 0.2526 0.2773
0.3653 0.2666 0.2973
0.3920 0.2811 0.3177
0.4204 0.2962 0.3382
0.4500 0.3116 0.3589
0.4786 0.3279 0.3802
0.5072 0.3445 0.4016
0.5358 0.3615 0.4232
0.5643 0.3791 0.4451
0.5917 0.3970 0.4670
0.0488 0.1867 0.1025
0.0540 0.1883 0.0968
0.0607 0.1906 0.0883
0.0715 0.1935 0.0817
0.0901 0.1955 0.0964
0.1171 0.1949 0.1461
0.1299 0.1962 0.2145
0.1990 0.1960 0.0732
0.2114 0.2006 0.1517
0.2280 0.2074 0.1807
0.2466 0.2156 0.1974
0.2662 0.2246 0.2155
0.2868 0.2346 0.2339
0.3090 0.2453 0.2527
0.3320 0.2568 0.2717
0.3554 0.2692 0.2909
0.3805 0.2823 0.3104
0.4074 0.2961 0.3301
0.4358 0.3104 0.3501
0.4650 0.3252 0.3703
0.4941 0.3404 0.3906
0.5232 0.3561 0.4110
0.5522 0.3724 0.4318
0.5796 0.3895 0.4533
0.6057 0.4071 0.4747
0.0660 0.2181 0.1302
0.0700 0.2195 0.1257
0.0754 0.2214 0.1182
0.0835 0.2242 0.1087
0.0967 0.2270 0.1097
0.1176 0.2285 0.1340
0.1449 0.2277 0.1894
0.1560 0.2295 0.2588
0.2312 0.2292 0.1067
0.2472 0.2335 0.1712
0.2630 0.2399 0.2157
0.2826 0.2480 0.2327
0.3030 0.2571 0.2502
0.3244 0.2670 0.2685
0.3471 0.2776 0.2871
0.3716 0.2888 0.3059
0.3979 0.3007 0.3249
0.4251 0.3136 0.3442
0.4534 0.3271 0.3636
0.4818 0.3412 0.3831
0.5103 0.3557 0.4029
0.5385 0.3709 0.4229
0.5667 0.3866 0.4433
0.5938 0.4029 0.4640
0.6204 0.4197 0.4843
0.0836 0.2500 0.1594
0.0868 0.2513 0.1560
0.0913 0.2530 0.1495
0.0981 0.2555 0.1407
0.1077 0.2586 0.1325
0.1232 0.2612 0.1417
0.1461 0.2622 0.1749
0.1735 0.2613 0.2348
0.1833 0.2638 0.3034
0.2620 0.2633 0.1628
0.2857 0.2676 0.1909
0.3005 0.2738 0.2508
0.3212 0.2817 0.2685
0.3424 0.2907 0.2855
0.3650 0.3005 0.3035
0.3893 0.3110 0.3218
0.4158 0.3221 0.3405
0.4439 0.3339 0.3593
0.4725 0.3464 0.3783
0.5003 0.3596 0.3974
0.5280 0.3734 0.4167
0.5556 0.3880 0.4363
0.5825 0.4032 0.4563
0.6085 0.4190 0.4761
0.6346 0.4353 0.4960
0.1018 0.2829 0.1902
0.1046 0.2840 0.1873
0.1084 0.2855 0.1820
0.1141 0.2879 0.1739
0.1220 0.2909 0.1647
0.1337 0.2940 0.1633
0.1511 0.2965 0.1774
0.1761 0.2970 0.2204
0.2034 0.2963 0.2811
0.2120 0.2993 0.3485
0.2951 0.2986 0.2166
0.3267 0.3028 0.2106
0.3418 0.3087 0.2777
0.3623 0.3165 0.3044
0.3857 0.3254 0.3213
0.4103 0.3352 0.3386
0.4365 0.3457 0.3569
0.4635 0.3569 0.3752
0.4913 0.3685 0.3938
0.5191 0.3807 0.4126
0.5468 0.3937 0.4316
0.5737 0.4076 0.4509
0.5992 0.4222 0.4702
0.6246 0.4374 0.4894
0.6502 0.4531 0.5088
0.1207 0.3168 0.2224
0.1231 0.3179 0.2199
0.1263 0.3192 0.2157
0.1313 0.3214 0.2085
0.1381 0.3242 0.1996
0.1472 0.3277 0.1907
0.1612 0.3306 0.1973
0.1808 0.3328 0.2190
0.2073 0.3330 0.2662
0.2344 0.3325 0.3272
0.2420 0.3360 0.3939
0.3302 0.3350 0.2673
0.3708 0.3391 0.2295
0.3874 0.3450 0.3010
0.4081 0.3525 0.3403
0.4336 0.3614 0.3572
0.4595 0.3712 0.3742
0.4856 0.3816 0.3919
0.5119 0.3927 0.4101
0.5381 0.4045 0.4284
0.5653 0.4169 0.4472
0.5913 0.4300 0.4662
0.6167 0.4437 0.4849
0.6419 0.4582 0.5037
0.6671 0.4730 0.5226
0.1398 0.3519 0.2547
0.1419 0.3529 0.2525
0.1448 0.3541 0.2493
0.1491 0.3561 0.2429
0.1551 0.3588 0.2349
0.1630 0.3621 0.2259
0.1740 0.3655 0.2227
0.1898 0.3685 0.2332
0.2117 0.3703 0.2614
0.2397 0.3703 0.3118
0.2666 0.3700 0.3733
0.2734 0.3739 0.4398
0.3677 0.3726 0.3183
0.4201 0.3768 0.2476
0.4381 0.3827 0.3234
0.4576 0.3900 0.3761
0.4834 0.3988 0.3930
0.5089 0.4085 0.4098
0.5340 0.4191 0.4269
0.5597 0.4303 0.4452
0.5845 0.4424 0.4636
0.6089 0.4550 0.4817
0.6340 0.4678 0.5001
0.6592 0.4811 0.5185
0.6846 0.4951 0.5370
0.1591 0.3883 0.2869
0.1610 0.3892 0.2849
0.1635 0.3903 0.2825
0.1674 0.3922 0.2768
0.1728 0.3947 0.2696
0.1798 0.3979 0.2609
0.1889 0.4016 0.2525
0.2020 0.4050 0.2561
0.2197 0.4080 0.2698
0.2439 0.4094 0.3041
0.2733 0.4092 0.3571
0.3001 0.4091 0.4196
0.3061 0.4134 0.4856
0.4088 0.4116 0.3697
0.4725 0.4160 0.2646
0.4904 0.4218 0.3445
0.5088 0.4289 0.4043
0.5325 0.4377 0.4287
0.5575 0.4476 0.4456
0.5815 0.4584 0.4627
0.6049 0.4696 0.4800
0.6285 0.4813 0.4978
0.6522 0.4937 0.5157
0.6767 0.5065 0.5337
0.7020 0.5198 0.5522
0.1785 0.4263 0.3189
0.1802 0.4271 0.3173
0.1824 0.4282 0.3150
0.1860 0.4299 0.3103
0.1909 0.4324 0.3036
0.1973 0.4354 0.2956
0.2053 0.4391 0.2869
0.2160 0.4429 0.2822
0.2311 0.4463 0.2902
0.2510 0.4492 0.3085
0.2774 0.4503 0.3476
0.3084 0.4499 0.4025
0.3351 0.4501 0.4661
0.3402 0.4546 0.5311
0.4525 0.4525 0.4200
0.5243 0.4567 0.2800
0.5418 0.4626 0.3643
0.5595 0.4697 0.4281
0.5801 0.4782 0.4645
0.6032 0.4878 0.4810
0.6260 0.4983 0.4974
0.6489 0.5095 0.5140
0.6724 0.5212 0.5317
0.6960 0.5335 0.5496
0.7199 0.5466 0.5675
0.1978 0.4658 0.3507
0.1993 0.4666 0.3492
0.2015 0.4676 0.3472
0.2047 0.4692 0.3434
0.2092 0.4715 0.3371
0.2150 0.4743 0.3296
0.2224 0.4778 0.3212
0.2315 0.4817 0.3127
0.2443 0.4855 0.3140
0.2613 0.4888 0.3247
0.2837 0.4913 0.3489
0.3125 0.4921 0.3920
0.3449 0.4917 0.4479
0.3716 0.4918 0.5116
0.3764 0.4969 0.5773
0.4960 0.4941 0.4694
0.5745 0.4985 0.2935
0.5908 0.5042 0.3825
0.6071 0.5113 0.4503
0.6246 0.5194 0.4991
0.6475 0.5291 0.5155
0.6703 0.5395 0.5318
0.6932 0.5509 0.5483
0.7164 0.5629 0.5655
0.7403 0.5754 0.5833
0.2169 0.5061 0.3821
0.2183 0.5068 0.3808
0.2202 0.5078 0.3789
0.2233 0.5093 0.3757
0.2274 0.5114 0.3699
0.2329 0.5142 0.3629
0.2396 0.5175 0.3547
0.2480 0.5214 0.3460
0.2587 0.5256 0.3398
0.2736 0.5292 0.3461
0.2926 0.5326 0.3594
0.3178 0.5347 0.3895
0.3489 0.5352 0.4365
0.3835 0.5346 0.4926
0.4112 0.5351 0.5574
0.4156 0.5407 0.6232
0.5381 0.5367 0.5167
0.6168 0.5419 0.3339
0.6377 0.5477 0.3990
0.6537 0.5547 0.4708
0.6701 0.5625 0.5262
0.6918 0.5722 0.5497
0.7148 0.5829 0.5662
0.7379 0.5943 0.5826
0.7611 0.6064 0.5989
0.2357 0.5481 0.4134
0.2370 0.5488 0.4121
0.2388 0.5498 0.4103
0.2416 0.5512 0.4077
0.2456 0.5534 0.4024
0.2506 0.5561 0.3956
0.2570 0.5594 0.3878
0.2648 0.5633 0.3791
0.2743 0.5676 0.3707
0.2871 0.5718 0.3699
0.3040 0.5757 0.3785
0.3253 0.5791 0.3945
0.3534 0.5808 0.4304
0.3879 0.5808 0.4807
0.4253 0.5801 0.5371
0.4529 0.5812 0.6037
0.4565 0.5871 0.6685
0.5788 0.5823 0.5640
0.6557 0.5875 0.3886
0.6842 0.5930 0.4131
0.7001 0.5997 0.4889
0.7162 0.6075 0.5496
0.7364 0.6170 0.5837
0.7597 0.6276 0.6000
0.7831 0.6389 0.6160
0.2541 0.5925 0.4444
0.2553 0.5932 0.4432
0.2570 0.5941 0.4415
0.2597 0.5955 0.4392
0.2634 0.5975 0.4344
0.2682 0.6001 0.4281
0.2741 0.6033 0.4204
0.2814 0.6071 0.4118
0.2903 0.6114 0.4029
0.3012 0.6160 0.3949
0.3164 0.6201 0.4001
0.3354 0.6238 0.4109
0.3596 0.6268 0.4328
0.3913 0.6281 0.4713
0.4293 0.6275 0.5240
0.4680 0.6269 0.5825
0.4935 0.6280 0.6486
0.4962 0.6342 0.7121
0.6166 0.6292 0.6104
0.6945 0.6342 0.4401
0.7309 0.6395 0.4246
0.7467 0.6461 0.5049
0.7630 0.6538 0.5698
0.7813 0.6629 0.6169
0.7967 0.6752 0.6467
0.2717 0.6381 0.4747
0.2728 0.6387 0.4735
0.2745 0.6396 0.4721
0.2769 0.6410 0.4697
0.2805 0.6429 0.4658
0.2850 0.6454 0.4596
0.2907 0.6484 0.4523
0.2975 0.6520 0.4437
0.3058 0.6561 0.4346
0.3159 0.6607 0.4255
0.3289 0.6652 0.4227
0.3460 0.6692 0.4297
0.3675 0.6730 0.4429
0.3959 0.6754 0.4706
0.4314 0.6761 0.5121
0.4714 0.6754 0.5674
0.5092 0.6746 0.6273
0.5327 0.6761 0.6923
0.5346 0.6826 0.7548
0.6536 0.6775 0.6549
0.7332 0.6819 0.4892
0.7779 0.6872 0.4334
0.7939 0.6936 0.5188
0.8089 0.7014 0.5927
0.8129 0.7127 0.6735
0.2880 0.6845 0.5037
0.2892 0.6851 0.5027
0.2907 0.6859 0.5012
0.2930 0.6872 0.4990
0.2964 0.6890 0.4955
0.3008 0.6914 0.4898
0.3062 0.6944 0.4827
0.3127 0.6980 0.4745
0.3206 0.7021 0.4655
0.3301 0.7066 0.4561
0.3414 0.7115 0.4469
0.3570 0.7157 0.4500
0.3768 0.7197 0.4591
0.4016 0.7233 0.4746
0.4342 0.7250 0.5077
0.4722 0.7253 0.5537
0.5123 0.7244 0.6105
0.5490 0.7237 0.6711
0.5705 0.7256 0.7352
0.5716 0.7323 0.7970
0.6940 0.7250 0.7049
0.7720 0.7305 0.5362
0.8260 0.7358 0.4390
0.8420 0.7420 0.5336
0.8417 0.7512 0.6603
0.3033 0.7320 0.5320
0.3043 0.7326 0.5310
0.3058 0.7334 0.5296
0.3081 0.7346 0.5274
0.3113 0.7363 0.5246
0.3155 0.7386 0.5190
0.3207 0.7414 0.5121
0.3270 0.7448 0.5042
0.3346 0.7488 0.4952
0.3436 0.7532 0.4856
0.3542 0.7581 0.4759
0.3679 0.7629 0.4710
0.3863 0.7671 0.4767
0.4093 0.7709 0.4879
0.4376 0.7741 0.5076
0.4728 0.7753 0.5449
0.5119 0.7752 0.5953
0.5518 0.7743 0.6526
0.5975 0.7707 0.7181
0.6248 0.7710 0.7785
0.6364 0.7760 0.8319
0.7419 0.7699 0.7618
0.8112 0.7800 0.5876
0.8763 0.7854 0.4413
0.8740 0.7916 0.6312
0.3173 0.7805 0.5602
0.3184 0.7811 0.5592
0.3198 0.7818 0.5579
0.3220 0.7830 0.5557
0.3250 0.7846 0.5528
0.3290 0.7867 0.5476
0.3341 0.7894 0.5408
0.3402 0.7926 0.5330
0.3475 0.7964 0.5240
0.3561 0.8007 0.5143
0.3664 0.8054 0.5042
0.3789 0.8105 0.4945
0.3957 0.8150 0.4952
0.4170 0.8191 0.5029
0.4427 0.8228 0.5161
0.4741 0.8253 0.5420
0.5345 0.8205 0.6018
0.5916 0.8149 0.6665
0.6390 0.8107 0.7238
0.6766 0.8088 0.7755
0.6988 0.8115 0.8220
0.7112 0.8178 0.8640
0.7917 0.8158 0.8147
0.8464 0.8260 0.7116
0.9081 0.8338 0.5707
0.3300 0.8298 0.5878
0.3310 0.8304 0.5868
0.3324 0.8311 0.5854
0.3345 0.8322 0.5833
0.3374 0.8337 0.5806
0.3413 0.8357 0.5760
0.3462 0.8382 0.5693
0.3521 0.8413 0.5615
0.3592 0.8448 0.5525
0.3677 0.8489 0.5425
0.3777 0.8534 0.5319
0.3897 0.8584 0.5215
0.4059 0.8632 0.5154
0.4567 0.8616 0.5433
0.5072 0.8594 0.5758
0.5559 0.8572 0.6119
0.6022 0.8543 0.6562
0.6455 0.8513 0.7016
0.6860 0.8485 0.7485
0.7220 0.8472 0.7901
0.7513 0.8481 0.8291
0.7702 0.8528 0.8643
0.7835 0.8600 0.8963
0.8440 0.8618 0.8648
0.8852 0.8722 0.8080
0.3411 0.8798 0.6145
0.3421 0.8803 0.6135
0.3434 0.8810 0.6122
0.3455 0.8821 0.6102
0.3483 0.8835 0.6075
0.3521 0.8854 0.6035
0.3676 0.8861 0.6019
0.3907 0.8863 0.6027
0.4171 0.8864 0.6043
0.4463 0.8867 0.6073
0.4773 0.8869 0.6118
0.5091 0.8870 0.6184
0.5415 0.8871 0.6277
0.5749 0.8870 0.6451
0.6078 0.8865 0.6677
0.6410 0.8859 0.6928
0.6742 0.8853 0.7202
0.7081 0.8841 0.7534
0.7408 0.8834 0.7868
0.7719 0.8833 0.8205
0.8000 0.8847 0.8509
0.8238 0.8881 0.8798
0.8413 0.8944 0.9056
0.8561 0.9024 0.9287
0.8979 0.9076 0.9132
0.4944 0.9071 0.6933
0.4977 0.9071 0.6937
0.5020 0.9071 0.6942
0.5086 0.9071 0.6950
0.5174 0.9072 0.6963
0.5285 0.9072 0.6980
0.5421 0.9074 0.6991
0.5578 0.9077 0.7010
0.5750 0.9081 0.7035
0.5931 0.9086 0.7070
0.6124 0.9092 0.7118
0.6329 0.9099 0.7180
0.6544 0.9108 0.7260
0.6769 0.9117 0.7365
0.7011 0.9121 0.7529
0.7260 0.9126 0.7711
0.7515 0.9133 0.7909
0.7775 0.9141 0.8130
0.8037 0.9150 0.8375
0.8297 0.9165 0.8623
0.8548 0.9190 0.8864
0.8775 0.9229 0.9082
0.8966 0.9285 0.9286
0.9116 0.9362 0.9463
0.9246 0.9450 0.9614
0.0001 0.0024 0.0040
0.0110 0.0052 0.0235
0.0290 0.0138 0.0119
0.0474 0.0248 0.0215
0.0661 0.0394 0.0344
0.0849 0.0545 0.0490
0.1040 0.0699 0.0650
0.1232 0.0855 0.0819
0.1429 0.1011 0.0998
0.1628 0.1168 0.1185
0.1831 0.1325 0.1379
0.2040 0.1483 0.1581
0.2254 0.1643 0.1791
0.2475 0.1804 0.2007
0.2703 0.1966 0.2226
0.2939 0.2131 0.2446
0.3186 0.2298 0.2668
0.3443 0.2469 0.2892
0.3713 0.2641 0.3116
0.4004 0.2816 0.3342
0.4311 0.2993 0.3568
0.4629 0.3173 0.3794
0.4943 0.3355 0.4020
0.5254 0.3539 0.4246
0.5563 0.3727 0.4475
0.0000 0.0321 0.0219
0.0146 0.0345 0.0371
0.0439 0.0378 0.0242
0.0600 0.0461 0.0334
0.0767 0.0566 0.0447
0.0939 0.0686 0.0579
0.1117 0.0817 0.0727
0.1300 0.0955 0.0888
0.1489 0.1097 0.1061
0.1682 0.1242 0.1242
0.1881 0.1391 0.1432
0.2086 0.1542 0.1630
0.2297 0.1696 0.1836
0.2516 0.1852 0.2049
0.2742 0.2010 0.2265
0.2976 0.2171 0.2481
0.3222 0.2336 0.2702
0.3477 0.2504 0.2923
0.3748 0.2674 0.3146
0.4039 0.2847 0.3369
0.4346 0.3023 0.3594
0.4661 0.3201 0.3818
0.4973 0.3381 0.4043
0.5283 0.3565 0.4268
0.5597 0.3750 0.4494
0.0000 0.0631 0.0389
0.0152 0.0649 0.0467
0.0465 0.0654 0.0470
0.0717 0.0687 0.0433
0.0887 0.0756 0.0544
0.1059 0.0845 0.0669
0.1236 0.0948 0.0808
0.1418 0.1064 0.0960
0.1600 0.1191 0.1126
0.1783 0.1325 0.1304
0.1973 0.1465 0.1491
0.2171 0.1609 0.1686
0.2376 0.1757 0.1890
0.2590 0.1908 0.2099
0.2812 0.2062 0.2311
0.3044 0.2220 0.2526
0.3287 0.2382 0.2743
0.3540 0.2547 0.2963
0.3811 0.2715 0.3183
0.4102 0.2886 0.3404
0.4407 0.3059 0.3626
0.4718 0.3236 0.3849
0.5027 0.3414 0.4072
0.5332 0.3596 0.4295
0.5643 0.3780 0.4521
0.0000 0.0949 0.0512
0.0244 0.0947 0.0602
0.0420 0.0971 0.0623
0.0650 0.0982 0.0862
0.1012 0.1001 0.0601
0.1172 0.1064 0.0787
0.1344 0.1145 0.0926
0.1524 0.1237 0.1075
0.1706 0.1342 0.1233
0.1894 0.1457 0.1401
0.2089 0.1580 0.1579
0.2291 0.1709 0.1766
0.2494 0.1847 0.1965
0.2701 0.1991 0.2171
0.2918 0.2139 0.2379
0.3146 0.2293 0.2590
0.3385 0.2450 0.2804
0.3636 0.2611 0.3020
0.3908 0.2775 0.3237
0.4197 0.2943 0.3455
0.4499 0.3114 0.3675
0.4804 0.3288 0.3894
0.5107 0.3464 0.4115
0.5407 0.3644 0.4337
0.5712 0.3826 0.4560
0.0103 0.1256 0.0683
0.0344 0.1254 0.0780
0.0476 0.1279 0.0730
0.0667 0.1297 0.0890
0.0860 0.1310 0.1266
0.1323 0.1318 0.0730
0.1468 0.1374 0.1061
0.1641 0.1449 0.1206
0.1819 0.1537 0.1363
0.2010 0.1632 0.1530
0.2203 0.1740 0.1704
0.2402 0.1856 0.1887
0.2609 0.1980 0.2076
0.2824 0.2111 0.2271
0.3048 0.2247 0.2469
0.3284 0.2391 0.2672
0.3518 0.2542 0.2882
0.3769 0.2698 0.3094
0.4040 0.2858 0.3307
0.4327 0.3021 0.3522
0.4625 0.3189 0.3739
0.4920 0.3358 0.3955
0.5216 0.3532 0.4172
0.5510 0.3710 0.4393
0.5805 0.3890 0.4614
0.0259 0.1564 0.0891
0.0464 0.1562 0.0978
0.0559 0.1585 0.0923
0.0705 0.1611 0.0918
0.0922 0.1620 0.1209
0.1083 0.1634 0.1701
0.1647 0.1637 0.0814
0.1776 0.1688 0.1359
0.1953 0.1760 0.1509
0.2136 0.1843 0.1675
0.2326 0.1936 0.1847
0.2530 0.2037 0.2028
0.2737 0.2147 0.2213
0.2951 0.2267 0.2401
0.3176 0.2395 0.2594
0.3410 0.2529 0.2790
0.3656 0.2669 0.2989
0.3923 0.2814 0.3191
0.4207 0.2964 0.3395
0.4494 0.3121 0.3605
0.4781 0.3283 0.3817
0.5068 0.3449 0.4030
0.5353 0.3619 0.4244
0.5639 0.3794 0.4462
0.5920 0.3971 0.4679
0.0444 0.1873 0.1125
0.0599 0.1871 0.1203
0.0672 0.1891 0.1152
0.0782 0.1919 0.1097
0.0951 0.1942 0.1188
0.1185 0.1945 0.1576
0.1319 0.1963 0.2156
0.1984 0.1962 0.0899
0.2111 0.2008 0.1599
0.2283 0.2077 0.1838
0.2470 0.2158 0.2004
0.2666 0.2248 0.2182
0.2873 0.2348 0.2363
0.3095 0.2455 0.2548
0.3323 0.2571 0.2736
0.3557 0.2695 0.2926
0.3808 0.2826 0.3120
0.4077 0.2963 0.3316
0.4360 0.3106 0.3514
0.4653 0.3254 0.3715
0.4944 0.3406 0.3917
0.5235 0.3563 0.4121
0.5521 0.3727 0.4330
0.5792 0.3899 0.4545
0.6061 0.4072 0.4756
0.0627 0.2186 0.1384
0.0748 0.2185 0.1452
0.0805 0.2203 0.1407
0.0893 0.2228 0.1346
0.1018 0.2258 0.1306
0.1212 0.2275 0.1517
0.1457 0.2275 0.1987
0.1568 0.2297 0.2613
0.2331 0.2292 0.1038
0.2469 0.2337 0.1801
0.2632 0.2402 0.2185
0.2829 0.2483 0.2351
0.3034 0.2573 0.2526
0.3248 0.2672 0.2707
0.3476 0.2777 0.2890
0.3721 0.2889 0.3077
0.3983 0.3010 0.3265
0.4254 0.3138 0.3456
0.4537 0.3273 0.3649
0.4821 0.3414 0.3844
0.5105 0.3559 0.4041
0.5387 0.3711 0.4240
0.5670 0.3868 0.4443
0.5940 0.4031 0.4649
0.6213 0.4196 0.4849
0.0810 0.2505 0.1664
0.0909 0.2504 0.1724
0.0956 0.2520 0.1685
0.1027 0.2543 0.1627
0.1126 0.2574 0.1546
0.1272 0.2602 0.1591
0.1489 0.2614 0.1893
0.1739 0.2612 0.2426
0.1831 0.2640 0.3071
0.2641 0.2635 0.1574
0.2853 0.2677 0.1994
0.3006 0.2740 0.2539
0.3214 0.2819 0.2706
0.3427 0.2910 0.2874
0.3654 0.3006 0.3054
0.3897 0.3112 0.3236
0.4163 0.3223 0.3421
0.4444 0.3341 0.3608
0.4728 0.3465 0.3796
0.5005 0.3598 0.3986
0.5282 0.3736 0.4178
0.5558 0.3882 0.4374
0.5827 0.4034 0.4573
0.6087 0.4192 0.4770
0.6355 0.4352 0.4966
0.0998 0.2833 0.1962
0.1080 0.2833 0.2017
0.1119 0.2847 0.1982
0.1179 0.2869 0.1932
0.1263 0.2898 0.1846
0.1376 0.2931 0.1797
0.1546 0.2956 0.1929
0.1781 0.2966 0.2303
0.2035 0.2963 0.2874
0.2117 0.2995 0.3519
0.2968 0.2987 0.2126
0.3264 0.3029 0.2184
0.3417 0.3089 0.2820
0.3626 0.3167 0.3063
0.3859 0.3256 0.3230
0.4107 0.3354 0.3404
0.4369 0.3458 0.3585
0.4639 0.3571 0.3767
0.4917 0.3686 0.3951
0.5195 0.3808 0.4138
0.5472 0.3938 0.4327
0.5739 0.4078 0.4519
0.5994 0.4224 0.4712
0.6248 0.4376 0.4903
0.6511 0.4531 0.5094
0.1190 0.3172 0.2274
0.1260 0.3172 0.2324
0.1293 0.3185 0.2293
0.1345 0.3205 0.2251
0.1417 0.3233 0.2169
0.1511 0.3266 0.2087
0.1645 0.3298 0.2113
0.1836 0.3321 0.2317
0.2089 0.3327 0.2738
0.2343 0.3325 0.3325
0.2418 0.3361 0.3969
0.3318 0.3351 0.2644
0.3705 0.3392 0.2369
0.3872 0.3452 0.3061
0.4084 0.3527 0.3420
0.4338 0.3616 0.3587
0.4597 0.3714 0.3756
0.4859 0.3818 0.3934
0.5122 0.3928 0.4114
0.5384 0.4046 0.4297
0.5656 0.4170 0.4484
0.5916 0.4301 0.4672
0.6171 0.4438 0.4859
0.6421 0.4583 0.5046
0.6679 0.4730 0.5232
