EA 50 Cinematic Luts Pack/EA_Cinematic Lut (17).cube
TITLE "Generated by Resolve"
LUT_3D_SIZE 9
0 0 0
0.0237736 0 0.0399786
0.196384 0 0.0610971
0.382742 0 0.0768292
0.560204 0 0.0951095
0.746624 0 0.112108
0.939452 0 0.127398
1 0 0.141222
1 0 0.153765
0 0.0583352 0.00468452
0.0163729 0.0862135 0.0469062
0.141924 0.0873732 0.0201877
0.332021 0.064622 0.0100099
0.510491 0.0424201 0.0258793
0.697887 0.0205844 0.0423896
0.891524 0 0.0578012
1 0 0.0718547
1 0 0.0847181
0.00115969 0.195346 0
0.03682 0.214588 0.0299229
0.118837 0.228458 0.012192
0.273854 0.218601 0
0.453727 0.195468 0
0.644465 0.171023 0
0.840909 0.14638 0
1 0.120958 0.0093843
1 0.0946975 0.021149
0.0181735 0.329473 0
0.0456855 0.350759 0
0.118029 0.364248 0
0.245151 0.361807 0
0.403342 0.347555 0
0.586984 0.325322 0
0.783917 0.299611 0
0.987106 0.272511 0
1 0.24477 0
0.0546273 0.455726 0
0.0775006 0.477699 0
0.131411 0.494682 0.00195315
0.242649 0.496925 0
0.382071 0.489921 0
0.5458 0.474861 0
0.730907 0.452918 0
0.93022 0.426581 0
1 0.398123 0
0.0911421 0.581018 0
0.111925 0.603357 0
0.154803 0.622492 0
0.250111 0.629114 0.00483711
0.379736 0.625834 0
0.52842 0.61619 0
0.696696 0.600061 0
0.883192 0.578042 0
1 0.551598 0
0.128176 0.706096 0
0.147814 0.728527 0
0.183551 0.748867 0
0.267185 0.758312 0.00807202
0.384833 0.758862 0.00175479
0.52578 0.752224 0
0.681697 0.740536 0
0.854093 0.7234 0
1 0.701137 0
0.165576 0.831022 0
0.184237 0.853574 0
0.215625 0.874556 0
0.290517 0.885817 0.0055848
0.397055 0.889448 0.00956741
0.530083 0.885588 0
0.678874 0.876631 0
0.840742 0.863279 0
1 0.845212 0
0.20325 0.955856 0
0.221637 0.978347 0
0.249775 0.999832 0
0.317998 1 0
0.415946 1 0.0126497
0.538796 1 0.00614939
0.68249 1 0
0.837781 0.99942 0
1 0.984634 0
0 0 0.0886091
0 0 0.12549
0.156909 0 0.223438
0.358785 0 0.261158
0.536904 0 0.280827
0.724056 0 0.298878
0.917601 0 0.315145
1 0 0.329885
1 0 0.343297
0 0.0818189 0.015671
0.0171664 0.0895094 0.146487
0.112001 0.0938125 0.188495
0.304601 0.0678721 0.200244
0.498726 0.0398413 0.209918
0.68249 0.016907 0.224689
0.874998 0 0.240055
1 0 0.253956
1 0 0.266606
0.0252232 0.196414 0.00665293
0.0933394 0.197742 0.162066
0.113222 0.225345 0.204028
0.259815 0.218219 0.169009
0.457771 0.189487 0.15285
0.641627 0.162875 0.164309
0.834577 0.138857 0.178653
1 0.114366 0.192477
1 0.0888228 0.205249
0.0476387 0.328267 0
0.102754 0.334462 0.110887
0.13666 0.353323 0.190036
0.240711 0.359884 0.164996
0.404395 0.344869 0.122881
0.589517 0.317174 0.118563
0.785092 0.289845 0.125063
0.986038 0.263264 0.135348
1 0.236286 0.146105
0.0938582 0.452186 0
0.12192 0.468711 0.0694438
0.147601 0.489525 0.144793
0.242237 0.495979 0.15349
0.378851 0.489204 0.132998
0.542824 0.470954 0.108492
0.731029 0.445533 0.095491
0.932036 0.417426 0.0937057
1 0.388464 0.0977035
0.135241 0.576013 0
0.159731 0.594873 0.0466621
0.180957 0.616556 0.130541
0.257298 0.626657 0.158785
0.37847 0.624994 0.148592
0.5243 0.614588 0.123766
0.69276 0.596536 0.0971542
0.881727 0.572015 0.0778515
1 0.543542 0.0680095
0.174655 0.700191 0
0.197055 0.719844 0.0233768
0.216327 0.742061 0.112306
0.281834 0.754467 0.155383
0.387396 0.757504 0.159213
0.523827 0.751247 0.141192
0.677546 0.738903 0.114183
0.849805 0.720302 0.0857099
1 0.696086 0.062211
0.213519 0.824521 0
0.234745 0.844663 0.00047303
0.252949 0.867048 0.0924849
0.311406 0.880751 0.146059
0.405463 0.886809 0.16347
0.530205 0.884642 0.154437
0.676463 0.875563 0.132219
0.836561 0.861601 0.103517
1 0.842374 0.0735485
0.25214 0.948943 0
0.272694 0.969375 0
0.289982 0.991913 0.0721141
0.344152 1 0.133181
0.429572 1 0.161746
0.543374 1 0.16318
0.681895 1 0.147066
0.83505 0.998245 0.121965
1 0.98294 0.0918593
0 0 0.254932
0.016083 0 0.250202
0.124239 0 0.306981
0.327855 0 0.400595
0.50927 0 0.43566
0.696162 0 0.458793
0.890486 0 0.478004
1 0 0.494499
1 0 0.509056
0 0.114855 0.138659
0.00953689 0.0985122 0.221759
0.0806744 0.110689 0.257588
0.266972 0.0782788 0.345922
0.476493 0.0429999 0.377447
0.660105 0.0178378 0.392798
0.853193 0 0.409049
1 0 0.424033
1 0 0.437629
0 0.23769 0.0478676
0.0581979 0.222873 0.156161
0.115587 0.230228 0.286656
0.23209 0.226871 0.321004
0.432456 0.194873 0.326696
0.631174 0.161624 0.331151
0.819623 0.135622 0.342855
1 0.111925 0.356847
1 0.0869459 0.369574
0 0.354742 0.0155947
0.128389 0.337118 0.150195
0.194507 0.337789 0.304967
0.236927 0.358618 0.340154
0.39237 0.346502 0.300145
0.59501 0.312657 0.278874
0.78262 0.282048 0.286351
0.980117 0.256138 0.298772
1 0.230274 0.311238
0.0742199 0.469596 0
0.153017 0.469154 0.120562
0.206073 0.474647 0.25594
0.262394 0.486595 0.328191
0.376257 0.489128 0.299123
0.545434 0.46981 0.252705
0.734188 0.437995 0.244282
0.933593 0.408042 0.248157
1 0.379721 0.256687
0.137072 0.58706 0
0.200748 0.593118 0.1019
0.226978 0.609171 0.216251
0.274968 0.622995 0.284581
0.379721 0.625711 0.289555
0.522652 0.615442 0.265568
0.690791 0.593622 0.237491
0.882551 0.565316 0.221607
1 0.534997 0.217609
0.190555 0.706691 0
0.242893 0.716594 0.0809033
0.265904 0.735332 0.194583
0.309636 0.750195 0.271641
0.396231 0.756695 0.2963
0.524147 0.751995 0.283055
0.674769 0.738628 0.255268
0.846937 0.717845 0.225925
1 0.690959 0.204257
0.238773 0.827955 0
0.282902 0.840436 0.059617
0.303883 0.860044 0.171954
0.34583 0.875593 0.254231
0.421744 0.884581 0.293889
0.534386 0.884901 0.294987
0.67602 0.876081 0.274418
0.833753 0.861311 0.244984
1 0.840436 0.214221
0.283803 0.95021 0
0.322271 0.964508 0.0382391
0.342123 0.984634 0.149615
0.383093 1 0.235035
0.452033 1 0.285283
0.553368 1 0.30016
0.683574 1 0.288853
0.834104 0.998642 0.264469
0.997696 0.982605 0.233692
0 0 0.405158
0.031342 0 0.41854
0.13228 0 0.42266
0.273686 0 0.467262
0.470939 0 0.545739
0.667475 0 0.59379
0.863172 0 0.623072
1 0 0.644312
1 0 0.662013
0 0.124666 0.319142
0 0.101991 0.382742
0.109361 0.10782 0.377829
0.236789 0.0964675 0.424536
0.446311 0.0516518 0.510231
0.632959 0.0231937 0.540703
0.825498 0 0.561761
1 0 0.57969
1 0 0.595056
0 0.274968 0.163455
0 0.257557 0.273396
0.109194 0.240452 0.355734
0.202075 0.245045 0.383978
0.395911 0.206332 0.466026
0.609873 0.165713 0.492195
0.797345 0.136675 0.503685
0.995346 0.111955 0.518395
1 0.0867933 0.53228
0 0.393133 0.0756085
0.0274357 0.379675 0.185275
0.16022 0.363775 0.2925
0.240055 0.364263 0.416129
0.366049 0.356542 0.446113
0.571008 0.319341 0.446601
0.772702 0.281331 0.446296
0.964797 0.252552 0.455207
1 0.227665 0.468025
0 0.504234 0.0352178
0.102464 0.496712 0.155032
0.232471 0.47808 0.288624
0.32076 0.47158 0.436225
0.373526 0.488914 0.467918
0.53463 0.472648 0.423774
0.740322 0.434119 0.397818
0.930663 0.399817 0.401587
1 0.372198 0.412299
0.0847639 0.615228 0.00952163
0.182147 0.611582 0.135653
0.258915 0.610452 0.260792
0.334051 0.608713 0.388937
0.400595 0.617029 0.457557
0.521096 0.616403 0.42533
0.694148 0.593225 0.375051
0.885496 0.557565 0.362768
1 0.525185 0.364218
0.159625 0.728634 0
0.245716 0.728649 0.117678
0.307912 0.734569 0.243397
0.356451 0.743618 0.350729
0.414588 0.753719 0.415366
0.526253 0.753567 0.417456
0.673884 0.740261 0.390433
0.845167 0.715129 0.35906
1 0.684108 0.340459
0.224887 0.844663 0
0.299718 0.847852 0.0991379
0.350683 0.85774 0.223026
0.396368 0.869825 0.330037
0.450416 0.881178 0.403586
0.544076 0.884932 0.425498
0.677119 0.877623 0.409644
0.831495 0.86157 0.379187
1 0.838239 0.347295
0.28307 0.962768 0
0.348363 0.96878 0.0801862
0.391165 0.981277 0.202213
0.434897 0.994308 0.307988
0.487327 1 0.386892
0.570474 1 0.423972
0.688563 1 0.422797
0.834379 0.999878 0.399954
0.995422 0.982849 0.368261
0 0 0.52755
0.0268254 0 0.544991
0.139086 0 0.546883
0.258305 0 0.552209
0.416342 0 0.602258
0.622049 0 0.682063
0.829725 0 0.739544
1 0 0.776104
1 0 0.801419
0 0.128939 0.457938
0 0.106752 0.530144
0.126482 0.102525 0.543343
0.249531 0.104128 0.54023
0.396017 0.0817426 0.576104
0.595911 0.038529 0.64741
0.797177 0.00642405 0.69247
0.997879 0 0.720272
1 0 0.740368
0 0.292714 0.309911
0 0.2692 0.451026
0.0979171 0.245792 0.513909
0.233509 0.244923 0.502297
0.367987 0.226795 0.542229
0.580255 0.174929 0.620859
0.770489 0.142321 0.647196
0.967681 0.116106 0.666453
1 0.0903182 0.683268
0 0.427695 0.171893
0 0.418433 0.297673
0.0599222 0.399924 0.406516
0.234714 0.375525 0.481575
0.337133 0.37583 0.505531
0.535317 0.33167 0.582116
0.752132 0.286152 0.603403
0.942443 0.253513 0.611276
1 0.227436 0.624643
0 0.542748 0.0948959
0.00865187 0.536248 0.211505
0.132616 0.521721 0.320104
0.287114 0.498192 0.41973
0.377234 0.495125 0.539788
0.509514 0.483909 0.566278
0.717433 0.441932 0.56199
0.92108 0.39942 0.557183
1 0.368032 0.5635
0 0.652415 0.0516365
0.106737 0.64712 0.172335
0.209247 0.638911 0.291463
0.361044 0.612711 0.417517
0.459266 0.602335 0.561242
0.519219 0.617044 0.590295
0.684352 0.597086 0.542443
0.892088 0.554147 0.512078
1 0.51632 0.512337
0.0896315 0.762005 0.0225376
0.194202 0.757595 0.14725
0.29015 0.753872 0.27332
0.389044 0.745541 0.391241
0.474067 0.739849 0.515435
0.547662 0.745403 0.581308
0.673182 0.742061 0.546349
0.849073 0.715282 0.492485
1 0.675975 0.476539
0.172396 0.87332 0.00062562
0.269505 0.870512 0.127779
0.354299 0.870588 0.255909
0.43917 0.869871 0.374975
0.497841 0.875196 0.478599
0.562921 0.882445 0.540383
0.679881 0.87985 0.540032
0.831189 0.863767 0.510231
1 0.835538 0.475761
0.246525 0.986816 0
0.335164 0.98616 0.110109
0.408698 0.989425 0.237781
0.48246 0.992767 0.355123
0.538613 1 0.458778
0.599817 1 0.529671
0.698894 1 0.549279
0.836057 1 0.53109
0.9935 0.983444 0.498131
0 0 0.647044
0.0195773 0 0.667384
0.141878 0 0.670085
0.264927 0 0.667521
0.397177 0 0.679133
0.567819 0 0.73286
0.77908 0 0.812131
0.99556 0 0.876051
1 0 0.919631
0 0.132891 0.586084
0 0.112734 0.650095
0.123278 0.106783 0.667704
0.258473 0.107103 0.663218
0.386114 0.102922 0.663142
0.545998 0.073228 0.705211
0.753811 0.0287327 0.779385
0.965087 0 0.834043
1 0 0.869017
0 0.300679 0.459266
0 0.2748 0.587747
0.0878309 0.252338 0.659709
0.252384 0.241382 0.666178
0.385351 0.239063 0.659159
0.533761 0.208804 0.687144
0.734661 0.158862 0.75172
0.939651 0.124025 0.794049
1 0.0961471 0.820569
0 0.451499 0.300114
0 0.437446 0.441993
0.0210727 0.413306 0.582513
0.225208 0.38265 0.638148
0.371221 0.378378 0.623117
0.50959 0.354314 0.65713
0.722972 0.295827 0.729137
0.915785 0.259358 0.751598
1 0.231525 0.769238
0 0.577508 0.181872
0 0.571801 0.305394
0.0251316 0.561868 0.430503
0.18819 0.535729 0.531731
0.372808 0.507332 0.602777
0.481621 0.504204 0.623316
0.682521 0.455024 0.694881
0.901152 0.404883 0.711543
1 0.368826 0.715999
0 0.690822 0.110674
0.0101167 0.68632 0.229297
0.116487 0.679484 0.345602
0.262165 0.657343 0.446601
0.426184 0.629511 0.541894
0.523384 0.623728 0.659251
0.660349 0.609445 0.682673
0.870237 0.562982 0.673899
1 0.516167 0.66479
0 0.80032 0.0662547
0.10808 0.795407 0.186603
0.215549 0.790219 0.307408
0.340169 0.774777 0.419318
0.501549 0.74435 0.541131
0.606561 0.730938 0.681819
0.672053 0.74345 0.70869
0.840192 0.720058 0.657404
1 0.672908 0.622827
0.092546 0.909407 0.0348211
0.200122 0.904494 0.157916
0.303487 0.900236 0.282795
0.422141 0.889906 0.402258
0.530968 0.877668 0.516274
0.622721 0.868879 0.637385
0.701701 0.872129 0.700923
0.831235 0.866331 0.663523
1 0.836149 0.606256
0.180407 1 0.0106508
0.283238 1 0.136355
0.37911 1 0.263661
0.486778 1 0.385321
0.582132 1 0.50103
0.64773 1 0.601801
0.718135 1 0.661173
0.839399 1 0.658656
0.993667 0.98613 0.626276
0 0 0.764446
0.0110781 0 0.786923
0.140902 0 0.791592
0.27129 0 0.78706
0.400763 0 0.784222
0.545495 0 0.803693
0.725856 0 0.859663
0.941512 0 0.937881
1 0 1
0 0.137209 0.708766
0 0.118029 0.767117
0.116335 0.110719 0.787762
0.261738 0.108324 0.784222
0.395056 0.10808 0.778119
0.531899 0.0973831 0.784512
0.703761 0.0643473 0.831724
0.91664 0.0186923 0.906157
1 0 0.9673
0 0.305272 0.600534
0 0.279072 0.713573
0.0780804 0.25922 0.77789
0.250446 0.246906 0.789151
0.396384 0.244129 0.781567
0.529274 0.235416 0.776944
0.689372 0.198184 0.811505
0.898253 0.148318 0.880293
1 0.108827 0.932311
0 0.46598 0.44361
0 0.445838 0.589166
0.0130159 0.420157 0.717845
0.216846 0.390921 0.783001
0.391806 0.376532 0.786053
0.531518 0.37116 0.775967
0.680217 0.33344 0.796506
0.881102 0.277043 0.854627
1 0.239673 0.894423
0 0.605234 0.296284
0 0.596017 0.431388
0 0.582086 0.573373
0.151019 0.55079 0.706752
0.365026 0.516182 0.758434
0.518303 0.509346 0.740856
0.65893 0.479805 0.769375
0.872404 0.414969 0.835035
1 0.374823 0.853834
0 0.726406 0.192203
0 0.721462 0.314015
0.0237736 0.715969 0.437781
0.156024 0.698833 0.555688
0.328573 0.66836 0.652567
0.51986 0.63682 0.720485
0.633417 0.630716 0.738033
0.836027 0.576791 0.804852
1 0.52221 0.817075
0 0.838834 0.124895
0.0101472 0.834257 0.243442
0.11957 0.83006 0.362371
0.248402 0.816358 0.471809
0.403601 0.789914 0.56849
0.573968 0.758618 0.660334
0.676646 0.750561 0.775418
0.817258 0.733486 0.796048
1 0.682719 0.782971
0 0.948241 0.0796979
0.109117 0.943297 0.199481
0.217929 0.938613 0.320058
0.348318 0.927016 0.434455
0.482841 0.907652 0.542443
0.650629 0.873808 0.660853
0.760784 0.857832 0.798962
0.830808 0.868421 0.823911
1 0.841794 0.76939
0.0946517 1 0.0464485
0.203861 1 0.168383
0.310292 1 0.291691
0.436606 1 0.410208
0.565789 1 0.526345
0.681361 1 0.637324
0.778195 0.996246 0.755779
0.861585 0.997436 0.817258
0.994415 0.98938 0.777615
0 0 0.880217
0.00190738 0 0.904311
0.137484 0 0.911208
0.27512 0 0.906065
0.408865 0 0.900496
0.545602 0 0.900282
0.701213 0 0.926009
0.889433 0 0.983383
1 0 1
0 0.141909 0.828016
0 0.123461 0.882521
0.108003 0.115084 0.905287
0.260914 0.110246 0.903731
0.402121 0.109331 0.896193
0.538048 0.105943 0.889998
0.68571 0.0895857 0.904662
0.867033 0.0541238 0.955154
1 0.00766003 1
0 0.309178 0.733974
0 0.283528 0.834257
0.0669108 0.264668 0.892912
0.243778 0.251118 0.907332
0.400076 0.245792 0.900847
0.540505 0.242847 0.892042
0.680308 0.22739 0.893675
0.852354 0.188083 0.93463
1 0.137804 1
0 0.474739 0.589303
0 0.450614 0.728435
0.00363165 0.42472 0.841779
0.20795 0.398642 0.899886
0.391089 0.383276 0.908095
0.544579 0.378256 0.898253
0.681117 0.365438 0.88954
0.840406 0.320958 0.916838
1 0.265919 0.980468
0 0.625254 0.42948
0 0.610697 0.572885
0 0.590875 0.718791
0.144198 0.558862 0.841154
0.358358 0.526131 0.902815
0.540566 0.509178 0.903288
0.685374 0.501167 0.890593
0.833356 0.456291 0.903944
1 0.393622 0.95581
0 0.756695 0.296757
0 0.749447 0.426535
0 0.740551 0.561975
0.104189 0.720226 0.697566
0.293065 0.685069 0.827085
0.513771 0.647364 0.875654
0.672663 0.638407 0.85597
0.814527 0.603677 0.879286
1 0.532662 0.938796
0 0.874983 0.202457
0 0.870161 0.323125
0.0228122 0.865553 0.445258
0.156603 0.853742 0.562722
0.298772 0.8327 0.676722
0.477638 0.798733 0.770123
0.673976 0.764508 0.83534
0.791257 0.755673 0.850172
0.994873 0.697215 0.912444
0 0.986847 0.137865
0.0106661 0.982177 0.256321
0.120409 0.97789 0.375158
0.252918 0.967453 0.487861
0.392035 0.950195 0.593729
0.553582 0.920272 0.686961
0.728664 0.885969 0.775784
0.835782 0.875914 0.888869
0.97937 0.856245 0.906889
0 1 0.0920577
0.110292 1 0.21149
0.21973 1 0.331548
0.351583 1 0.445838
0.492683 1 0.557122
0.633936 1 0.662028
0.8065 1 0.777493
0.920806 0.983276 0.913283
0.994659 0.992142 0.936507
0 0 0.99469
0 0 1
0.132403 0 1
0.276173 0 1
0.415305 0 1
0.553414 0 1
0.698039 0 1
0.86302 0 1
1 0 1
0 0.146883 0.9449
0 0.128985 0.996612
0.09897 0.119829 1
0.257633 0.113069 1
0.406165 0.110201 1
0.547234 0.108263 1
0.688396 0.101061 1
0.846052 0.0800946 1
1 0.0427405 1
0 0.3131 0.861448
0 0.28838 0.951812
0.0558328 0.270222 1
0.235569 0.255604 1
0.39939 0.247852 1
0.548241 0.24477 1
0.688991 0.238468 0.999878
0.83856 0.217594 1
1 0.176822 1
0 0.480674 0.730709
0 0.454658 0.860166
0 0.429313 0.960784
0.196902 0.404227 1
0.38468 0.387747 1
0.548699 0.380331 1
0.694606 0.375143 1
0.836362 0.355169 1
1 0.309804 1
0 0.639048 0.571054
0 0.619608 0.716945
0 0.595804 0.856397
0.135058 0.563684 0.963531
0.350286 0.534676 1
0.541039 0.517113 1
0.700465 0.510292 1
0.839612 0.493645 1
0.997406 0.4421 1
0 0.780667 0.419806
0 0.76965 0.558099
0 0.755428 0.701839
0.0761425 0.729397 0.841535
0.287434 0.694347 0.960861
0.508766 0.658976 1
0.696574 0.639902 1
0.845487 0.629541 1
0.992035 0.577676 1
0 0.90695 0.299718
0 0.900679 0.426093
0 0.893767 0.556191
0.0827192 0.878676 0.685435
0.248081 0.855222 0.817929
0.443748 0.81709 0.944442
0.669535 0.776699 0.990356
0.833051 0.765927 0.968826
0.975448 0.726162 0.987121
0 1 0.21239
0 1 0.332326
0.0227512 1 0.453315
0.156497 1 0.569253
0.301106 0.988449 0.683696
0.450019 0.964355 0.794644
0.6336 0.927352 0.884993
0.833936 0.8907 0.947799
0.954253 0.879332 0.960098
0 1 0.149767
0.0115663 1 0.268147
0.12163 1 0.386908
0.254459 1 0.499519
0.397864 1 0.609277
0.544076 1 0.712428
0.710338 1 0.80264
0.889113 1 0.888716
1 1 1
