EA 50 Cinematic Luts Pack/EA_Cinematic Lut (9).cube
TITLE "Generated by Resolve"
LUT_3D_SIZE 9
0 0.00956741 0
0.136736 0 0
0.283268 0 0
0.42562 0.00370794 0
0.562554 0.00805676 0
0.695155 0.0117189 0
0.825666 0.0160983 0
0.955108 0.0218967 0
1 0.029099 0
0.0396887 0.0849622 0.0407874
0.138491 0.0922408 0.0125734
0.290547 0.0972457 0
0.440497 0.107805 0
0.584253 0.117968 0
0.719753 0.123827 0
0.854459 0.13193 0
0.989456 0.142702 0
1 0.15613 0
0.0873884 0.164385 0.0982681
0.163485 0.179889 0.1037
0.297627 0.201282 0.039826
0.455406 0.222293 0
0.610559 0.242588 0
0.755245 0.256474 0
0.897826 0.271504 0
1 0.288334 0
1 0.306752 0
0.143938 0.254597 0.163531
0.222309 0.277638 0.189181
0.330922 0.316594 0.159625
0.491341 0.354879 0.111421
0.653025 0.386892 0.0559854
0.804974 0.408164 0
0.95349 0.428351 0
1 0.449104 0
1 0.470253 0
0.222202 0.367407 0.24979
0.304372 0.396124 0.287449
0.405371 0.439551 0.281117
0.542947 0.491402 0.252323
0.70425 0.533669 0.207996
0.860044 0.565103 0.151293
1 0.591134 0.0942855
1 0.614527 0.0393225
1 0.636332 0
0.315557 0.495903 0.350607
0.399283 0.526925 0.394263
0.493904 0.569802 0.399802
0.609476 0.62211 0.383581
0.75671 0.672343 0.350591
0.913588 0.713146 0.304952
1 0.74519 0.248829
1 0.770535 0.189136
1 0.791943 0.129793
0.415183 0.631128 0.457282
0.498054 0.661631 0.502785
0.585855 0.701106 0.513497
0.68893 0.747356 0.503105
0.806455 0.798795 0.476661
0.955947 0.842451 0.437675
1 0.878294 0.387411
1 0.905943 0.327138
1 0.927123 0.262058
0.510582 0.762493 0.55938
0.589837 0.789517 0.603067
0.670207 0.823651 0.614557
0.761044 0.862257 0.605524
0.864668 0.905898 0.58204
0.982116 0.950134 0.544533
1 0.983612 0.495583
1 1 0.43473
1 1 0.364431
0.592966 0.881148 0.648173
0.666484 0.902922 0.687831
0.73843 0.929519 0.6963
0.815335 0.957443 0.68365
0.901534 0.988144 0.655558
0.997101 1 0.615488
1 1 0.564538
1 1 0.506127
1 1 0.440253
0 0.0452888 0
0.103029 0.00791943 0.0282597
0.256321 0.00526436 0
0.400549 0.00874342 0
0.540307 0.0139925 0
0.673915 0.0175784 0
0.805386 0.0222171 0
0.935653 0.0281071 0
1 0.0354467 0
0 0.110842 0.04094
0.123934 0.0936294 0.0991226
0.271977 0.0950179 0.0270695
0.420554 0.105867 0
0.567163 0.119875 0
0.705592 0.129366 0
0.840513 0.13814 0
0.976043 0.149798 0
1 0.163882 0
0.0694133 0.178927 0.10695
0.164584 0.178027 0.169741
0.275898 0.196048 0.118776
0.434638 0.215671 0.05832
0.594903 0.241703 0.010605
0.7476 0.264393 0
0.890043 0.279988 0
1 0.297261 0
1 0.315847 0
0.142321 0.265644 0.180743
0.229831 0.277287 0.244129
0.316899 0.309895 0.236698
0.468467 0.348699 0.18941
0.637339 0.385809 0.141543
0.800763 0.418067 0.0970779
0.949767 0.439063 0.044007
1 0.459663 0
1 0.48069 0
0.228489 0.377569 0.272679
0.314992 0.397116 0.337316
0.400107 0.43476 0.351827
0.52285 0.487221 0.331792
0.69163 0.53785 0.296345
0.857771 0.578134 0.249439
1 0.60383 0.194766
1 0.626139 0.140917
1 0.647242 0.0876631
0.325704 0.505684 0.377081
0.411902 0.529213 0.441657
0.495705 0.568292 0.466423
0.603265 0.61973 0.462821
0.746471 0.678523 0.440635
0.908782 0.725185 0.401236
1 0.758129 0.346288
1 0.782574 0.287388
1 0.802853 0.228931
0.427085 0.640238 0.48571
0.511345 0.664286 0.548119
0.590784 0.700191 0.574929
0.685267 0.744533 0.57644
0.800275 0.797955 0.560021
0.945769 0.848844 0.528038
1 0.888182 0.481514
1 0.916732 0.422187
1 0.936858 0.357
0.522591 0.770169 0.588266
0.602396 0.791333 0.645869
0.676066 0.822019 0.670848
0.75906 0.858488 0.673045
0.857603 0.901686 0.657816
0.969558 0.94931 0.627588
1 0.986557 0.582544
1 1 0.524453
1 1 0.455055
0.603922 0.886748 0.676356
0.677729 0.902953 0.727596
0.743435 0.925933 0.74725
0.812833 0.95108 0.744289
0.892851 0.98024 0.723751
0.985443 1 0.690364
1 1 0.645182
1 1 0.591287
1 1 0.528435
0 0.0805219 0.0153048
0.0125124 0.0364233 0.107866
0.210056 0.0140383 0.0655222
0.363287 0.0137331 0
0.505882 0.0195163 0
0.642008 0.0238499 0
0.775814 0.0286564 0
0.908095 0.0347448 0
1 0.042298 0
0 0.149432 0.0498817
0.0394903 0.123812 0.143236
0.235676 0.09897 0.13579
0.387503 0.106249 0.0626383
0.536889 0.120119 0.00492866
0.681361 0.133745 0
0.818723 0.143862 0
0.955917 0.156451 0
1 0.171313 0
0 0.213275 0.104845
0.133272 0.196612 0.183932
0.258259 0.193286 0.210452
0.411261 0.208347 0.152346
0.571099 0.235584 0.1066
0.730007 0.265522 0.0636606
0.877394 0.286778 0.0121157
1 0.30454 0
1 0.323919 0
0.0932021 0.292607 0.182055
0.230869 0.287831 0.268894
0.31426 0.306096 0.314214
0.44181 0.338186 0.270497
0.611536 0.3738 0.226703
0.782895 0.414572 0.19382
0.943313 0.447776 0.15407
1 0.46836 0.101869
1 0.489708 0.0505684
0.20238 0.39913 0.281163
0.325216 0.405447 0.36788
0.40502 0.431998 0.415747
0.501961 0.475334 0.411093
0.663447 0.526162 0.376181
0.839612 0.57435 0.339559
1 0.613642 0.302022
1 0.63624 0.250507
1 0.656764 0.197787
0.314076 0.523674 0.391546
0.424933 0.5364 0.474876
0.504097 0.566262 0.522957
0.593271 0.609644 0.536171
0.721614 0.669367 0.522438
0.893996 0.727016 0.494606
1 0.770123 0.450629
1 0.793912 0.393759
1 0.81268 0.336141
0.423819 0.65536 0.504143
0.525246 0.670466 0.582498
0.600977 0.698741 0.627161
0.683116 0.738231 0.645899
0.790051 0.790646 0.641688
0.932097 0.851316 0.621683
1 0.897536 0.582437
1 0.927352 0.524575
1 0.946136 0.459663
0.523812 0.782238 0.608576
0.615778 0.795972 0.680079
0.686275 0.819989 0.719295
0.75993 0.85243 0.736599
0.849454 0.893309 0.732708
0.958358 0.942458 0.712169
1 0.98732 0.674556
1 1 0.620981
1 1 0.55288
0.606851 0.895781 0.697383
0.689357 0.905196 0.760372
0.751461 0.921462 0.790997
0.813367 0.942824 0.800885
0.885023 0.969421 0.791074
0.972412 1 0.766094
1 1 0.729458
1 1 0.681865
1 1 0.623392
0 0.115785 0.0420539
0 0.0728161 0.147158
0.12578 0.0371405 0.163333
0.307668 0.022858 0.108522
0.461372 0.0230716 0.0359808
0.602991 0.0273594 0
0.739422 0.0337377 0
0.873304 0.0412909 0
1 0.0495766 0
0 0.186801 0.0686046
0 0.158038 0.169238
0.148455 0.122972 0.226825
0.336629 0.110185 0.181827
0.493629 0.119753 0.115068
0.642893 0.13576 0.0490578
0.785061 0.149081 0
0.92578 0.163088 0
1 0.178836 0
0 0.252995 0.112413
0.030869 0.236301 0.196185
0.178225 0.2215 0.276112
0.373205 0.210056 0.262135
0.534737 0.232914 0.2047
0.697185 0.263523 0.163806
0.852964 0.291218 0.119661
0.99736 0.310628 0.066865
1 0.330999 0.0148928
0.00463874 0.331746 0.183032
0.157733 0.323339 0.270344
0.292439 0.324254 0.339284
0.421973 0.332921 0.363455
0.583703 0.361883 0.319448
0.75491 0.40412 0.288808
0.923583 0.446632 0.258518
1 0.475227 0.214389
1 0.496986 0.16347
0.136538 0.434089 0.282231
0.288426 0.43151 0.37499
0.411841 0.441566 0.447883
0.495186 0.467979 0.490043
0.630457 0.509224 0.45391
0.807141 0.55552 0.420905
0.98471 0.605295 0.397055
1 0.643977 0.362814
1 0.664652 0.31078
0.268498 0.553491 0.396262
0.409613 0.555718 0.488991
0.516487 0.572808 0.557961
0.594659 0.603265 0.600916
0.694255 0.650828 0.598169
0.858686 0.708186 0.570367
1 0.760464 0.537728
1 0.801373 0.501579
1 0.821088 0.44712
0.393118 0.679973 0.512428
0.520714 0.684871 0.600977
0.61384 0.702968 0.662486
0.687633 0.732021 0.702113
0.774731 0.774777 0.712215
0.900816 0.835462 0.699809
1 0.894606 0.674174
1 0.936751 0.629252
1 0.954696 0.566094
0.502739 0.801938 0.619379
0.61677 0.806546 0.700954
0.698405 0.822217 0.754101
0.766186 0.846525 0.787823
0.842283 0.881468 0.799435
0.941985 0.92842 0.789853
1 0.983719 0.765133
1 1 0.720363
1 1 0.654307
0.592157 0.910903 0.709575
0.692027 0.912016 0.781872
0.761288 0.920684 0.823713
0.818158 0.934768 0.846448
0.879988 0.956878 0.850813
0.958495 0.988296 0.837156
1 1 0.811215
1 1 0.77319
1 1 0.721157
0 0.151186 0.0695354
0 0.109361 0.177844
0.0204471 0.0705882 0.227573
0.223774 0.0436561 0.210986
0.398505 0.032639 0.154177
0.552102 0.0322728 0.084123
0.695399 0.0369879 0.0118715
0.83357 0.0444495 0
0.969726 0.0545815 0
0 0.223178 0.0918593
0 0.192447 0.195895
0.0412146 0.158755 0.272633
0.250645 0.130556 0.28127
0.432776 0.124758 0.23267
0.593027 0.135088 0.170748
0.742809 0.150011 0.106645
0.887877 0.166949 0.0421607
1 0.185443 0
0 0.292454 0.127474
0 0.27396 0.218936
0.0831617 0.257984 0.304707
0.287541 0.233646 0.358557
0.480919 0.234653 0.32401
0.650248 0.260105 0.27364
0.811704 0.290883 0.222889
0.961975 0.314687 0.170947
1 0.33695 0.122072
0 0.374578 0.192721
0.0553902 0.365988 0.281544
0.191348 0.366735 0.35552
0.344747 0.361852 0.438575
0.543374 0.361791 0.429694
0.714199 0.397467 0.385092
0.886137 0.440421 0.356481
1 0.477577 0.321935
1 0.501823 0.274067
0.0454414 0.476799 0.286641
0.202487 0.472328 0.377874
0.342107 0.478096 0.451621
0.476097 0.486213 0.519814
0.607141 0.50042 0.545464
0.773114 0.537301 0.509468
0.950118 0.588129 0.487511
1 0.637903 0.464561
1 0.669596 0.42359
0.193194 0.592737 0.398413
0.348653 0.590097 0.491691
0.483345 0.597818 0.566857
0.601999 0.611383 0.635004
0.683635 0.639261 0.674723
0.817502 0.683131 0.641978
0.994278 0.73254 0.611765
1 0.785641 0.591241
1 0.82533 0.558068
0.333257 0.714107 0.514946
0.480018 0.71194 0.606729
0.599954 0.719448 0.67689
0.698497 0.735668 0.736889
0.771679 0.7635 0.773648
0.866514 0.808408 0.768994
1 0.866789 0.743008
1 0.919234 0.710216
1 0.95697 0.670542
0.455558 0.830213 0.622889
0.589578 0.827024 0.709606
0.693843 0.833204 0.772122
0.776364 0.846998 0.821653
0.841886 0.869841 0.851728
0.919158 0.904402 0.853559
1 0.95845 0.835828
1 1 0.806638
1 1 0.756542
0.554513 0.933288 0.713863
0.672953 0.926207 0.791791
0.759854 0.926177 0.842252
0.82594 0.931716 0.878004
0.880537 0.944747 0.897231
0.945693 0.970123 0.898741
1 1 0.884749
1 1 0.861463
1 1 0.820768
0 0.186603 0.0974289
0 0.145724 0.206882
0 0.107424 0.27274
0.120989 0.074052 0.288518
0.31371 0.0527047 0.258488
0.484916 0.0438087 0.202304
0.639597 0.0438697 0.135439
0.785092 0.0492409 0.0662394
0.926345 0.058732 0
0 0.259724 0.117891
0 0.227466 0.223499
0 0.195529 0.305669
0.143893 0.162951 0.34789
0.345922 0.143893 0.334554
0.525887 0.142306 0.287419
0.688121 0.152697 0.228977
0.841245 0.168856 0.16878
0.98967 0.188067 0.108675
0 0.331914 0.148531
0 0.310994 0.245365
0 0.294347 0.333532
0.180667 0.271031 0.409003
0.393851 0.25539 0.424735
0.58555 0.263127 0.390158
0.757046 0.286702 0.342351
0.916289 0.31284 0.290013
1 0.338796 0.235004
0 0.418051 0.208713
0 0.408057 0.301152
0.0928664 0.406577 0.381994
0.249683 0.400732 0.470008
0.456611 0.385977 0.527276
0.655848 0.396399 0.50312
0.833478 0.431998 0.463798
1 0.472496 0.423316
1 0.502708 0.376455
0 0.522118 0.298299
0.100725 0.51696 0.3897
0.239628 0.522103 0.464561
0.374929 0.529854 0.537942
0.52903 0.530388 0.6215
0.72845 0.534127 0.618448
0.903075 0.575616 0.579858
1 0.625376 0.557656
1 0.667063 0.527764
0.100069 0.637156 0.404654
0.257771 0.633341 0.496544
0.39704 0.638727 0.569924
0.531945 0.6477 0.638926
0.662379 0.656931 0.703517
0.788907 0.669123 0.729488
0.952209 0.706157 0.693751
1 0.75967 0.67454
1 0.811505 0.653712
0.251133 0.754971 0.517403
0.405554 0.749813 0.60824
0.538613 0.752178 0.678721
0.66453 0.758862 0.744884
0.776272 0.769284 0.805463
0.851804 0.791608 0.840024
0.976684 0.832532 0.806928
1 0.880125 0.774243
1 0.930007 0.750423
0.384833 0.86595 0.623484
0.530495 0.857801 0.710552
0.652293 0.857267 0.776226
0.760632 0.860548 0.834257
0.848798 0.869505 0.882872
0.910475 0.886717 0.908309
0.992706 0.921401 0.896254
1 0.974075 0.86566
1 1 0.828321
0.493797 0.962905 0.713359
0.625513 0.949065 0.792447
0.730022 0.941711 0.847547
0.817426 0.937774 0.892241
0.885756 0.940093 0.926436
0.940368 0.95288 0.945357
1 0.98175 0.943053
1 1 0.926726
1 1 0.903502
0 0.222232 0.125841
0 0.181949 0.235676
0 0.144945 0.309575
0.011841 0.109438 0.347051
0.213153 0.0814984 0.343542
0.39939 0.0643015 0.307973
0.568978 0.0572824 0.253498
0.725383 0.0583963 0.190173
0.874388 0.0656901 0.125185
0 0.296178 0.14522
0 0.263279 0.252125
0 0.232776 0.336416
0.0349432 0.200229 0.395529
0.242206 0.174395 0.41297
0.438804 0.162249 0.391333
0.61796 0.163622 0.346578
0.782834 0.175082 0.292226
0.939116 0.192233 0.235569
0 0.37113 0.173205
0 0.348852 0.274388
0 0.331487 0.363424
0.0776379 0.310445 0.445747
0.287968 0.289876 0.493797
0.496635 0.282734 0.491798
0.685695 0.292226 0.457343
0.857221 0.312886 0.410376
1 0.338125 0.359945
0 0.461234 0.229648
0 0.450065 0.326848
0 0.44564 0.411414
0.155474 0.43917 0.501076
0.349981 0.424796 0.579248
0.565484 0.417029 0.602213
0.763088 0.431998 0.577279
0.941909 0.463691 0.538857
1 0.495857 0.493202
0 0.567712 0.314626
0 0.562203 0.408545
0.136889 0.565026 0.485924
0.276417 0.57026 0.565713
0.433341 0.56965 0.653529
0.63714 0.558099 0.712551
0.838102 0.570611 0.694575
1 0.6103 0.660639
1 0.654521 0.624491
0 0.683436 0.416983
0.156527 0.6795 0.509285
0.294041 0.683391 0.581979
0.427848 0.691325 0.651759
0.559167 0.699718 0.721096
0.705959 0.699107 0.7991
0.901076 0.69868 0.799771
1 0.739635 0.761837
1 0.790478 0.739345
0.155444 0.799435 0.523903
0.310918 0.793393 0.613565
0.445548 0.794156 0.682292
0.575601 0.798245 0.746426
0.702419 0.8038 0.807324
0.824765 0.80827 0.863783
0.942611 0.813321 0.889693
1 0.844144 0.847807
1 0.892515 0.823514
0.296864 0.906615 0.625208
0.446876 0.896345 0.710903
0.575494 0.892836 0.775616
0.695918 0.890303 0.833249
0.809537 0.888975 0.886763
0.909194 0.888808 0.934081
0.973663 0.898512 0.95903
1 0.929335 0.920394
1 0.971099 0.880919
0.413916 0.998169 0.711528
0.552468 0.980255 0.789349
0.667247 0.968048 0.844617
0.771359 0.957275 0.892149
0.865141 0.949737 0.93492
0.94316 0.949416 0.972076
0.998978 0.960266 0.992233
1 0.991485 0.981094
1 1 0.956069
0 0.258061 0.154696
0 0.218067 0.264775
0 0.182422 0.342748
0 0.146777 0.393744
0.105119 0.115541 0.411673
0.300343 0.0923781 0.397711
0.482597 0.0784161 0.35996
0.652232 0.0738231 0.308248
0.811704 0.077348 0.249683
0 0.332586 0.173327
0 0.299336 0.281254
0 0.2701 0.366644
0 0.239033 0.434745
0.133333 0.211017 0.473335
0.337865 0.192309 0.477119
0.531106 0.185321 0.452476
0.710445 0.189349 0.41059
0.877409 0.201602 0.359762
0 0.410117 0.200076
0 0.387259 0.304799
0 0.370047 0.394965
0 0.350851 0.48011
0.180789 0.329931 0.544472
0.392966 0.315145 0.571023
0.596262 0.312734 0.560372
0.783475 0.32311 0.526619
0.955917 0.342489 0.481666
0 0.504112 0.254337
0 0.492027 0.356008
0 0.486183 0.443717
0.0620279 0.478706 0.533547
0.247623 0.465812 0.617746
0.458274 0.452049 0.670146
0.670039 0.451057 0.676143
0.864485 0.466316 0.650156
1 0.491432 0.609293
0 0.613138 0.335164
0 0.606989 0.432517
0.037583 0.608362 0.513771
0.180301 0.610285 0.596551
0.338384 0.608179 0.684932
0.52903 0.596628 0.76228
0.742138 0.590265 0.78909
0.941009 0.606027 0.768902
1 0.638361 0.732937
0 0.729992 0.433158
0.053254 0.725475 0.526665
0.190661 0.728603 0.601312
0.323735 0.733623 0.672999
0.458412 0.738735 0.747707
0.608347 0.736461 0.829313
0.802991 0.722393 0.887007
1 0.729809 0.87068
1 0.766827 0.836027
0.0532692 0.845304 0.535637
0.207919 0.838651 0.62504
0.341955 0.839048 0.693919
0.469688 0.841031 0.756802
0.59472 0.844892 0.817792
0.717876 0.848539 0.878859
0.85275 0.843046 0.947463
1 0.831525 0.949386
1 0.86305 0.903868
0.198032 0.94992 0.630777
0.348501 0.938857 0.715419
0.477791 0.934295 0.77882
0.598886 0.929427 0.833982
0.715114 0.924407 0.884291
0.828138 0.919509 0.93138
0.937041 0.913085 0.97435
1 0.90518 0.998123
1 0.926207 0.946502
0.319875 1 0.711101
0.460639 1 0.787091
0.578943 1 0.840787
0.689418 0.98854 0.88719
0.7953 0.975952 0.930068
0.898695 0.967163 0.972885
0.993103 0.96199 1
1 0.967147 1
1 0.99762 1
0 0.293965 0.18378
0 0.254261 0.29395
0 0.219547 0.374151
0 0.184802 0.433814
0 0.152407 0.467384
0.193591 0.125628 0.472663
0.384695 0.106493 0.453071
0.565576 0.0963455 0.4159
0.73669 0.0949569 0.368002
0 0.369055 0.20209
0 0.335592 0.310735
0 0.307225 0.396674
0 0.278126 0.470237
0.0245212 0.250401 0.522545
0.230793 0.228458 0.54696
0.432212 0.215518 0.54316
0.623423 0.212512 0.517754
0.802762 0.218326 0.478202
0 0.448936 0.228367
0 0.425864 0.335973
0 0.409094 0.427222
0 0.39147 0.513909
0.076524 0.37174 0.586923
0.285237 0.35404 0.632883
0.494835 0.344518 0.646143
0.694286 0.345495 0.631418
0.879957 0.356222 0.598398
0 0.54667 0.281651
0 0.533715 0.386969
0 0.527199 0.47718
0 0.519692 0.567712
0.149798 0.508202 0.654261
0.351675 0.493492 0.72134
0.56492 0.484123 0.753719
0.770748 0.486091 0.750011
0.960845 0.49926 0.721813
0 0.658259 0.359243
0 0.651331 0.460105
0 0.651728 0.545037
0.0865492 0.651911 0.630274
0.244465 0.648005 0.717876
0.426078 0.637369 0.800061
0.63238 0.624857 0.853468
0.841779 0.623255 0.86244
1 0.636728 0.838376
0 0.776394 0.452842
0 0.771389 0.548699
0.0888228 0.773648 0.626169
0.223239 0.776333 0.700664
0.359808 0.77705 0.77702
0.510872 0.773007 0.85893
0.692149 0.758923 0.931548
0.897169 0.747478 0.957763
1 0.757702 0.937469
0 0.891188 0.550362
0.103258 0.88426 0.640726
0.236805 0.88397 0.710582
0.363653 0.884382 0.774578
0.487419 0.884794 0.836835
0.613245 0.884764 0.902556
0.751797 0.876631 0.974105
0.929717 0.853193 1
1 0.847471 1
0.0933547 0.994079 0.640635
0.243336 0.982712 0.725246
0.371572 0.977279 0.788144
0.491234 0.971191 0.842618
0.604227 0.963149 0.890745
0.71516 0.956222 0.937606
0.824353 0.948653 0.984543
0.943038 0.934005 1
1 0.911452 1
0.21651 1 0.713863
0.357092 1 0.788632
0.475563 1 0.841199
0.586618 1 0.886351
0.693584 1 0.927367
0.800336 1 0.968185
0.907179 0.991958 1
1 0.983932 1
1 0.974227 1
