EA 50 Cinematic Luts Pack/EA_Cinematic Lut (31).cube
TITLE "A very gloomy grade that will freeze your footage into a bluish, horror-like composition of hues."
LUT_3D_SIZE 9
0.0000 0.0000 0.0000
0.0569 0.0304 0.0243
0.1252 0.0931 0.0761
0.1961 0.1581 0.1304
0.2697 0.2222 0.1842
0.3476 0.2857 0.2379
0.4381 0.3494 0.2923
0.5390 0.4116 0.3462
0.6506 0.4721 0.4001
0.0406 0.1350 0.0701
0.0885 0.1449 0.0703
0.1492 0.1688 0.1220
0.2156 0.2086 0.1620
0.2858 0.2585 0.2069
0.3619 0.3135 0.2555
0.4517 0.3712 0.3062
0.5515 0.4292 0.3576
0.6622 0.4858 0.4096
0.0969 0.2730 0.1578
0.1216 0.2802 0.1421
0.1806 0.2892 0.1577
0.2421 0.3085 0.2153
0.3119 0.3384 0.2571
0.3901 0.3775 0.2965
0.4799 0.4229 0.3397
0.5791 0.4708 0.3854
0.6902 0.5190 0.4328
0.1543 0.4074 0.2449
0.1606 0.4153 0.2222
0.2136 0.4202 0.2226
0.2782 0.4300 0.2452
0.3437 0.4471 0.3083
0.4239 0.4712 0.3519
0.5150 0.5006 0.3921
0.6164 0.5348 0.4307
0.7338 0.5737 0.4718
0.2140 0.5327 0.3325
0.2187 0.5376 0.3177
0.2526 0.5434 0.3038
0.3129 0.5497 0.3049
0.3860 0.5589 0.3328
0.4660 0.5727 0.4011
0.5548 0.5930 0.4444
0.6574 0.6174 0.4854
0.7840 0.6459 0.5231
0.2764 0.6490 0.4197
0.2803 0.6525 0.4093
0.2953 0.6600 0.3847
0.3533 0.6636 0.3856
0.4267 0.6705 0.3893
0.5148 0.6788 0.4199
0.6066 0.6903 0.4911
0.7059 0.7089 0.5335
0.8334 0.7301 0.5778
0.3417 0.7593 0.5045
0.3451 0.7620 0.4968
0.3523 0.7693 0.4731
0.4009 0.7734 0.4648
0.4742 0.7778 0.4648
0.5597 0.7838 0.4721
0.6598 0.7908 0.5039
0.7763 0.7993 0.5786
0.8544 0.8160 0.6700
0.4141 0.8437 0.5878
0.4173 0.8450 0.5815
0.4244 0.8487 0.5630
0.4531 0.8532 0.5409
0.5256 0.8548 0.5412
0.6115 0.8585 0.5410
0.7145 0.8638 0.5525
0.8413 0.8687 0.6260
0.9097 0.8784 0.7859
0.6487 0.9021 0.7603
0.6552 0.9029 0.7609
0.6713 0.9051 0.7622
0.6989 0.9094 0.7645
0.7528 0.9137 0.7773
0.8181 0.9206 0.7963
0.8852 0.9314 0.8229
0.9422 0.9479 0.8643
0.9809 0.9732 0.9237
0.0000 0.0187 0.0291
0.0687 0.0304 0.0989
0.1357 0.0919 0.1082
0.2081 0.1528 0.1460
0.2802 0.2171 0.1947
0.3591 0.2799 0.2441
0.4495 0.3444 0.2966
0.5493 0.4077 0.3497
0.6601 0.4692 0.4030
0.0116 0.1442 0.1348
0.0880 0.1496 0.1211
0.1550 0.1713 0.1353
0.2195 0.2109 0.1706
0.2886 0.2604 0.2135
0.3643 0.3151 0.2606
0.4538 0.3725 0.3104
0.5534 0.4303 0.3610
0.6729 0.4827 0.4099
0.0900 0.2762 0.1949
0.1244 0.2806 0.1840
0.1837 0.2905 0.1792
0.2465 0.3093 0.2232
0.3157 0.3391 0.2620
0.3933 0.3783 0.3003
0.4825 0.4236 0.3430
0.5813 0.4716 0.3884
0.7013 0.5163 0.4331
0.1510 0.4090 0.2697
0.1729 0.4122 0.2616
0.2143 0.4210 0.2464
0.2801 0.4308 0.2592
0.3462 0.4480 0.3138
0.4271 0.4716 0.3559
0.5180 0.5009 0.3949
0.6191 0.5352 0.4331
0.7448 0.5715 0.4719
0.2119 0.5337 0.3503
0.2277 0.5357 0.3442
0.2513 0.5444 0.3214
0.3132 0.5503 0.3227
0.3876 0.5594 0.3425
0.4681 0.5733 0.4050
0.5576 0.5933 0.4477
0.6601 0.6176 0.4879
0.7935 0.6444 0.5234
0.2748 0.6497 0.4331
0.2872 0.6512 0.4283
0.2965 0.6601 0.4004
0.3539 0.6640 0.3977
0.4276 0.6708 0.4005
0.5162 0.6792 0.4268
0.6084 0.6907 0.4942
0.7085 0.7091 0.5361
0.8363 0.7300 0.5818
0.3403 0.7598 0.5147
0.3509 0.7609 0.5110
0.3593 0.7678 0.4906
0.3999 0.7738 0.4749
0.4746 0.7780 0.4743
0.5605 0.7839 0.4802
0.6611 0.7910 0.5091
0.7782 0.7995 0.5812
0.8559 0.8162 0.6725
0.4129 0.8440 0.5963
0.4228 0.8446 0.5933
0.4307 0.8481 0.5767
0.4518 0.8535 0.5490
0.5260 0.8549 0.5489
0.6118 0.8586 0.5495
0.7154 0.8639 0.5592
0.8423 0.8688 0.6341
0.9105 0.8787 0.7872
0.6487 0.9024 0.7637
0.6551 0.9033 0.7641
0.6717 0.9054 0.7656
0.6998 0.9097 0.7678
0.7522 0.9143 0.7793
0.8181 0.9211 0.7980
0.8856 0.9319 0.8242
0.9426 0.9484 0.8655
0.9813 0.9738 0.9248
0.0000 0.0642 0.0863
0.0236 0.0938 0.1315
0.1460 0.0935 0.2066
0.2112 0.1623 0.2030
0.2907 0.2173 0.2312
0.3727 0.2769 0.2673
0.4637 0.3410 0.3150
0.5647 0.4035 0.3643
0.6789 0.4640 0.4138
0.0000 0.1617 0.1824
0.0628 0.1723 0.1807
0.1440 0.1886 0.1995
0.2310 0.2111 0.2206
0.3079 0.2533 0.2431
0.3839 0.3079 0.2826
0.4752 0.3645 0.3258
0.5771 0.4218 0.3716
0.7002 0.4743 0.4177
0.0399 0.2882 0.2672
0.0961 0.2917 0.2603
0.1796 0.2969 0.2436
0.2495 0.3147 0.2514
0.3223 0.3424 0.2767
0.3991 0.3814 0.3123
0.4877 0.4263 0.3529
0.5860 0.4738 0.3966
0.7331 0.5079 0.4336
0.1352 0.4149 0.3215
0.1614 0.4173 0.3170
0.2139 0.4236 0.3010
0.2859 0.4326 0.2902
0.3535 0.4496 0.3279
0.4350 0.4727 0.3661
0.5250 0.5021 0.4025
0.6251 0.5365 0.4396
0.7754 0.5648 0.4718
0.2034 0.5368 0.3902
0.2217 0.5383 0.3863
0.2601 0.5432 0.3730
0.3158 0.5515 0.3581
0.3919 0.5607 0.3654
0.4736 0.5746 0.4154
0.5645 0.5940 0.4558
0.6669 0.6183 0.4942
0.8195 0.6399 0.5239
0.2693 0.6517 0.4646
0.2830 0.6530 0.4611
0.3142 0.6565 0.4503
0.3524 0.6656 0.4278
0.4292 0.6717 0.4302
0.5195 0.6801 0.4455
0.6131 0.6916 0.5019
0.7152 0.7096 0.5428
0.8441 0.7299 0.5916
0.3363 0.7610 0.5396
0.3475 0.7620 0.5366
0.3746 0.7649 0.5278
0.3967 0.7751 0.4976
0.4754 0.7785 0.4982
0.5620 0.7843 0.5024
0.6641 0.7915 0.5234
0.7831 0.8001 0.5878
0.8605 0.8166 0.6795
0.4094 0.8447 0.6176
0.4197 0.8452 0.6149
0.4448 0.8467 0.6073
0.4581 0.8531 0.5764
0.5251 0.8555 0.5698
0.6124 0.8590 0.5704
0.7198 0.8637 0.5856
0.8444 0.8689 0.6546
0.9126 0.8794 0.7907
0.6486 0.9033 0.7725
0.6551 0.9042 0.7728
0.6718 0.9063 0.7737
0.7016 0.9104 0.7760
0.7504 0.9158 0.7843
0.8179 0.9225 0.8022
0.8864 0.9333 0.8278
0.9438 0.9499 0.8684
0.9823 0.9753 0.9280
0.0000 0.1169 0.1445
0.0137 0.1388 0.1760
0.0850 0.1709 0.2415
0.2264 0.1581 0.3141
0.2892 0.2335 0.2976
0.3759 0.2863 0.3237
0.4773 0.3415 0.3542
0.5858 0.3995 0.3893
0.6996 0.4612 0.4354
0.0000 0.1900 0.2189
0.0455 0.2018 0.2252
0.1052 0.2245 0.2644
0.2186 0.2332 0.3016
0.3043 0.2683 0.3110
0.3913 0.3132 0.3343
0.4916 0.3632 0.3618
0.5952 0.4194 0.3992
0.7204 0.4718 0.4413
0.0000 0.3031 0.3234
0.0408 0.3104 0.3279
0.1522 0.3174 0.3088
0.2333 0.3325 0.3148
0.3340 0.3438 0.3368
0.4241 0.3755 0.3541
0.5193 0.4165 0.3823
0.6200 0.4640 0.4189
0.7721 0.4980 0.4544
0.0725 0.4283 0.3986
0.1159 0.4303 0.3942
0.1857 0.4351 0.3844
0.2768 0.4406 0.3662
0.3517 0.4571 0.3699
0.4410 0.4776 0.3900
0.5334 0.5055 0.4184
0.6329 0.5397 0.4532
0.8383 0.5482 0.4719
0.1778 0.5441 0.4498
0.1972 0.5458 0.4471
0.2433 0.5494 0.4393
0.3114 0.5556 0.4199
0.3989 0.5629 0.4056
0.4834 0.5768 0.4335
0.5764 0.5954 0.4695
0.6777 0.6198 0.5062
0.8716 0.6290 0.5235
0.2544 0.6559 0.5120
0.2691 0.6570 0.5095
0.3037 0.6600 0.5026
0.3586 0.6655 0.4864
0.4325 0.6734 0.4730
0.5264 0.6814 0.4751
0.6214 0.6932 0.5162
0.7273 0.7106 0.5546
0.8585 0.7293 0.6089
0.3261 0.7641 0.5805
0.3382 0.7649 0.5782
0.3682 0.7671 0.5719
0.4158 0.7718 0.5570
0.4738 0.7800 0.5370
0.5665 0.7851 0.5345
0.6704 0.7924 0.5459
0.7919 0.8012 0.5994
0.8697 0.8170 0.6929
0.4011 0.8462 0.6526
0.4122 0.8467 0.6504
0.4393 0.8479 0.6446
0.4834 0.8503 0.6319
0.5304 0.8555 0.6115
0.6248 0.8579 0.6177
0.7302 0.8627 0.6369
0.8479 0.8692 0.6870
0.9164 0.8808 0.7970
0.6474 0.9052 0.7870
0.6541 0.9060 0.7875
0.6715 0.9080 0.7885
0.7029 0.9120 0.7901
0.7474 0.9185 0.7935
0.8173 0.9251 0.8096
0.8876 0.9359 0.8341
0.9457 0.9525 0.8736
0.9842 0.9779 0.9342
0.0000 0.1702 0.2033
0.0090 0.1865 0.2269
0.0615 0.2178 0.2735
0.1512 0.2445 0.3562
0.3111 0.2222 0.4201
0.3800 0.2975 0.4051
0.4767 0.3553 0.4183
0.5893 0.4084 0.4457
0.7178 0.4621 0.4757
0.0000 0.2260 0.2609
0.0338 0.2368 0.2692
0.0815 0.2602 0.3057
0.1655 0.2829 0.3675
0.3048 0.2797 0.4108
0.3876 0.3301 0.4060
0.4897 0.3766 0.4266
0.6023 0.4257 0.4525
0.7430 0.4708 0.4801
0.0000 0.3242 0.3576
0.0120 0.3323 0.3677
0.1281 0.3423 0.3581
0.1946 0.3614 0.3897
0.3021 0.3753 0.4020
0.4140 0.3926 0.4225
0.5197 0.4262 0.4448
0.6324 0.4666 0.4673
0.8068 0.4917 0.4880
0.0000 0.4422 0.4611
0.0000 0.4484 0.4674
0.1369 0.4535 0.4578
0.2476 0.4593 0.4342
0.3332 0.4730 0.4327
0.4540 0.4799 0.4511
0.5623 0.5013 0.4660
0.6782 0.5292 0.4865
0.8894 0.5330 0.5065
0.1058 0.5566 0.5266
0.1399 0.5578 0.5236
0.2001 0.5612 0.5166
0.2812 0.5662 0.5053
0.3838 0.5710 0.4865
0.4728 0.5858 0.4859
0.5756 0.6020 0.5036
0.6889 0.6236 0.5253
0.9039 0.6234 0.5487
0.2202 0.6639 0.5752
0.2365 0.6650 0.5733
0.2740 0.6679 0.5682
0.3384 0.6716 0.5579
0.4231 0.6780 0.5360
0.5315 0.6840 0.5213
0.6343 0.6954 0.5368
0.7454 0.7122 0.5714
0.8859 0.7269 0.6294
0.3048 0.7696 0.6350
0.3177 0.7704 0.6331
0.3487 0.7724 0.6282
0.4012 0.7760 0.6183
0.4767 0.7812 0.5990
0.5685 0.7870 0.5859
0.6807 0.7937 0.5814
0.8002 0.8029 0.6257
0.8848 0.8174 0.7129
0.3845 0.8489 0.7000
0.3956 0.8493 0.6983
0.4236 0.8505 0.6936
0.4725 0.8525 0.6846
0.5649 0.8517 0.6850
0.6418 0.8563 0.6848
0.7446 0.8619 0.6943
0.8542 0.8698 0.7270
0.9223 0.8827 0.8066
0.6431 0.9085 0.8072
0.6501 0.9092 0.8077
0.6685 0.9111 0.8089
0.7019 0.9147 0.8109
0.7508 0.9208 0.8135
0.8142 0.9294 0.8218
0.8890 0.9399 0.8445
0.9485 0.9565 0.8816
0.9871 0.9819 0.9447
0.0000 0.2228 0.2616
0.0052 0.2356 0.2804
0.0492 0.2618 0.3185
0.1206 0.2944 0.3784
0.2331 0.3148 0.4481
0.4056 0.2862 0.5235
0.4882 0.3597 0.5104
0.5880 0.4234 0.5105
0.7160 0.4741 0.5351
0.0000 0.2667 0.3071
0.0251 0.2762 0.3158
0.0669 0.2977 0.3480
0.1334 0.3260 0.3967
0.2335 0.3479 0.4592
0.4007 0.3310 0.5172
0.4939 0.3866 0.5110
0.5997 0.4402 0.5173
0.7401 0.4825 0.5420
0.0000 0.3514 0.3933
0.0000 0.3593 0.4041
0.1109 0.3704 0.4015
0.1657 0.3920 0.4374
0.2560 0.4094 0.4891
0.3891 0.4187 0.5032
0.5078 0.4457 0.5107
0.6268 0.4796 0.5328
0.8019 0.5024 0.5576
0.0000 0.4591 0.4959
0.0000 0.4646 0.5028
0.1066 0.4724 0.5030
0.2205 0.4804 0.4865
0.2936 0.4959 0.5118
0.4076 0.5080 0.5151
0.5455 0.5169 0.5325
0.6693 0.5402 0.5557
0.9014 0.5342 0.5768
0.0000 0.5693 0.5942
0.0000 0.5733 0.5985
0.1267 0.5775 0.5934
0.2350 0.5823 0.5804
0.3507 0.5871 0.5543
0.4540 0.5985 0.5484
0.5914 0.6042 0.5600
0.7250 0.6204 0.5763
0.9208 0.6229 0.6045
0.1396 0.6765 0.6552
0.1672 0.6774 0.6528
0.2214 0.6797 0.6472
0.2937 0.6838 0.6380
0.3887 0.6883 0.6249
0.5115 0.6924 0.6046
0.6121 0.7059 0.6010
0.7727 0.7123 0.6099
0.9253 0.7217 0.6562
0.2619 0.7783 0.7021
0.2759 0.7791 0.7006
0.3092 0.7810 0.6968
0.3636 0.7843 0.6895
0.4510 0.7875 0.6769
0.5528 0.7924 0.6520
0.6825 0.7968 0.6353
0.8135 0.8049 0.6610
0.9082 0.8172 0.7394
0.3551 0.8531 0.7570
0.3670 0.8535 0.7557
0.3968 0.8546 0.7523
0.4478 0.8565 0.7458
0.5455 0.8557 0.7411
0.6446 0.8579 0.7380
0.7484 0.8638 0.7400
0.8618 0.8719 0.7573
0.9309 0.8853 0.8200
0.6331 0.9138 0.8334
0.6406 0.9145 0.8338
0.6596 0.9163 0.8349
0.6948 0.9196 0.8369
0.7483 0.9251 0.8402
0.8149 0.9340 0.8442
0.8893 0.9459 0.8589
0.9521 0.9622 0.8925
0.9909 0.9873 0.9607
0.0000 0.2750 0.3196
0.0012 0.2851 0.3351
0.0403 0.3072 0.3668
0.1005 0.3389 0.4146
0.1848 0.3689 0.4853
0.3214 0.3806 0.5462
0.5161 0.3497 0.6274
0.6103 0.4205 0.6155
0.7137 0.4898 0.6011
0.0000 0.3103 0.3564
0.0182 0.3186 0.3650
0.0565 0.3376 0.3928
0.1132 0.3653 0.4358
0.1951 0.3930 0.4974
0.3202 0.4092 0.5490
0.5118 0.3854 0.6223
0.6147 0.4427 0.6158
0.7368 0.4974 0.6108
0.0000 0.3833 0.4319
0.0000 0.3904 0.4415
0.0968 0.4022 0.4443
0.1442 0.4240 0.4786
0.2182 0.4475 0.5223
0.3265 0.4650 0.5687
0.5000 0.4606 0.6096
0.6254 0.4918 0.6156
0.7947 0.5166 0.6327
0.0000 0.4802 0.5285
0.0000 0.4851 0.5355
0.0912 0.4934 0.5403
0.1964 0.5037 0.5313
0.2592 0.5212 0.5631
0.3558 0.5349 0.6050
0.4960 0.5483 0.5992
0.6447 0.5625 0.6127
0.8881 0.5487 0.6643
0.0000 0.5829 0.6321
0.0000 0.5866 0.6371
0.0675 0.5940 0.6438
0.2002 0.5999 0.6325
0.3202 0.6061 0.6101
0.4050 0.6196 0.6313
0.5316 0.6315 0.6270
0.6949 0.6375 0.6437
0.9123 0.6322 0.6896
0.0000 0.6890 0.7281
0.0000 0.6919 0.7311
0.1253 0.6950 0.7277
0.2283 0.6993 0.7185
0.3373 0.7040 0.7035
0.4721 0.7081 0.6758
0.5964 0.7165 0.6650
0.7744 0.7177 0.6820
0.9355 0.7238 0.7214
0.1739 0.7895 0.7793
0.1968 0.7900 0.7776
0.2451 0.7914 0.7734
0.3120 0.7941 0.7664
0.4005 0.7974 0.7566
0.5166 0.8004 0.7428
0.6568 0.8032 0.7247
0.8115 0.8086 0.7289
0.9494 0.8141 0.7654
0.3005 0.8599 0.8185
0.3129 0.8603 0.8175
0.3432 0.8615 0.8149
0.3951 0.8635 0.8101
0.4896 0.8644 0.8017
0.6170 0.8637 0.7961
0.7350 0.8685 0.7886
0.8697 0.8752 0.7871
0.9445 0.8877 0.8400
0.6107 0.9224 0.8673
0.6188 0.9230 0.8676
0.6395 0.9247 0.8683
0.6780 0.9276 0.8699
0.7351 0.9328 0.8726
0.8101 0.9409 0.8770
0.8887 0.9534 0.8835
0.9558 0.9696 0.9082
0.9958 0.9942 0.9823
0.0000 0.3264 0.3772
0.0000 0.3349 0.3901
0.0324 0.3536 0.4170
0.0881 0.3818 0.4588
0.1587 0.4146 0.5140
0.2540 0.4413 0.5939
0.4226 0.4434 0.6504
0.6394 0.4123 0.7318
0.7565 0.4785 0.7218
0.0000 0.3557 0.4075
0.0121 0.3629 0.4159
0.0482 0.3795 0.4398
0.0996 0.4052 0.4782
0.1677 0.4356 0.5275
0.2626 0.4600 0.6023
0.4204 0.4672 0.6501
0.6355 0.4415 0.7276
0.7774 0.4868 0.7319
0.0000 0.4190 0.4736
0.0000 0.4253 0.4819
0.0858 0.4367 0.4873
0.1282 0.4572 0.5189
0.1914 0.4814 0.5606
0.2826 0.5021 0.6205
0.4157 0.5180 0.6520
0.6242 0.5033 0.7165
0.8286 0.5073 0.7552
0.0000 0.5047 0.5632
0.0000 0.5093 0.5699
0.0727 0.5180 0.5779
0.1790 0.5286 0.5736
0.2325 0.5474 0.6074
0.3130 0.5667 0.6460
0.4366 0.5802 0.6835
0.6090 0.5864 0.7013
0.9027 0.5441 0.7880
0.0000 0.6003 0.6656
0.0000 0.6038 0.6705
0.0000 0.6125 0.6832
0.1786 0.6185 0.6746
0.2921 0.6270 0.6592
0.3631 0.6426 0.6879
0.4753 0.6552 0.7201
0.6316 0.6661 0.7121
0.9138 0.6352 0.7952
0.0000 0.7006 0.7663
0.0000 0.7033 0.7697
0.0000 0.7101 0.7780
0.1824 0.7145 0.7709
0.2996 0.7205 0.7581
0.4114 0.7281 0.7516
0.5282 0.7364 0.7679
0.6952 0.7425 0.7556
0.9287 0.7309 0.8049
0.0000 0.8000 0.8465
0.0000 0.8017 0.8485
0.1240 0.8036 0.8461
0.2280 0.8060 0.8394
0.3320 0.8092 0.8293
0.4184 0.8155 0.8318
0.5846 0.8161 0.8150
0.7639 0.8192 0.7933
0.9522 0.8174 0.8270
0.2086 0.8685 0.8937
0.2281 0.8689 0.8922
0.2714 0.8698 0.8884
0.3343 0.8716 0.8821
0.4414 0.8723 0.8694
0.5648 0.8731 0.8603
0.6818 0.8775 0.8575
0.8576 0.8803 0.8493
0.9753 0.8866 0.8678
0.5591 0.9376 0.9153
0.5690 0.9382 0.9153
0.5936 0.9396 0.9153
0.6358 0.9423 0.9155
0.6995 0.9465 0.9162
0.7852 0.9536 0.9183
0.8814 0.9635 0.9231
0.9581 0.9791 0.9356
0.9999 0.9999 0.9998
0.0000 0.3774 0.4343
0.0000 0.3845 0.4451
0.0244 0.4008 0.4687
0.0784 0.4258 0.5046
0.1405 0.4568 0.5521
0.2230 0.4862 0.6183
0.3285 0.5080 0.7060
0.5406 0.4999 0.7549
0.7907 0.4728 0.8257
0.0000 0.4022 0.4599
0.0000 0.4087 0.4694
0.0127 0.4240 0.4930
0.0754 0.4467 0.5271
0.1417 0.4748 0.5731
0.2267 0.5015 0.6363
0.3350 0.5207 0.7219
0.5522 0.5106 0.7678
0.8113 0.4800 0.8372
0.0000 0.4568 0.5171
0.0000 0.4622 0.5245
0.0000 0.4752 0.5445
0.0580 0.4939 0.5797
0.1399 0.5162 0.6222
0.2328 0.5380 0.6786
0.3498 0.5520 0.7583
0.5795 0.5369 0.7983
0.8606 0.4976 0.8662
0.0000 0.5320 0.6005
0.0000 0.5361 0.6068
0.0000 0.5465 0.6232
0.0000 0.5637 0.6541
0.1172 0.5813 0.6980
0.2313 0.5979 0.7438
0.3688 0.6037 0.8124
0.6206 0.5818 0.8486
0.9049 0.5475 0.8954
0.0000 0.6208 0.6993
0.0000 0.6240 0.7046
0.0000 0.6319 0.7183
0.0000 0.6455 0.7424
0.0000 0.6642 0.7800
0.1995 0.6752 0.8246
0.3774 0.6744 0.8808
0.6374 0.6621 0.8661
0.9188 0.6360 0.9044
0.0000 0.7156 0.7968
0.0000 0.7181 0.8006
0.0000 0.7243 0.8105
0.0000 0.7352 0.8284
0.0000 0.7505 0.8575
0.0000 0.7692 0.9088
0.3894 0.7615 0.9166
0.6537 0.7524 0.8812
0.9363 0.7301 0.9169
0.0000 0.8079 0.8869
0.0000 0.8093 0.8904
0.0000 0.8130 0.8995
0.0000 0.8193 0.9172
0.0000 0.8280 0.9525
0.1450 0.8365 1.0000
0.3619 0.8388 1.0000
0.7008 0.8273 0.9136
0.9564 0.8181 0.9352
0.0735 0.8776 0.9999
0.1125 0.8781 1.0000
0.1772 0.8792 1.0000
0.2559 0.8811 1.0000
0.3442 0.8841 1.0000
0.4463 0.8885 1.0000
0.5653 0.8939 0.9997
0.7141 0.8996 0.9998
0.9786 0.8892 0.9658
0.6192 0.9365 0.9676
0.6263 0.9375 0.9681
0.6443 0.9399 0.9694
0.6771 0.9443 0.9719
0.7295 0.9512 0.9755
0.8014 0.9608 0.9806
0.8847 0.9736 0.9870
0.9614 0.9893 0.9948
0.9999 0.9999 0.9999
