EA 50 Cinematic Luts Pack/EA_Cinematic Lut (37).cube
TITLE "A classic “film noir” look with a modern twist that will give your editing material a comic look that cannot go unnoticed. "
LUT_3D_SIZE 5
0.0000 0.0000 0.0000
0.1116 0.1041 0.1014
0.2664 0.2289 0.2182
0.4389 0.3475 0.3237
0.7479 0.4011 0.3440
0.2126 0.2107 0.2073
0.2440 0.2406 0.2365
0.3242 0.3157 0.3082
0.4416 0.4163 0.4027
0.6862 0.4891 0.4448
0.4344 0.4274 0.4191
0.4490 0.4413 0.4326
0.4914 0.4818 0.4722
0.6324 0.5273 0.4983
0.8018 0.5873 0.5397
0.6497 0.6434 0.6301
0.6582 0.6517 0.6379
0.6850 0.6773 0.6617
0.7325 0.7225 0.7031
0.9996 0.7182 0.6589
0.8663 0.8603 0.7985
0.8723 0.8661 0.8004
0.8913 0.8841 0.8056
0.9258 0.9171 0.8122
0.9766 0.9651 0.8155
0.0474 0.0473 0.0466
0.1271 0.1264 0.1246
0.2576 0.2436 0.2367
0.7160 0.1435 0.1438
0.8954 0.2859 0.2473
0.2238 0.2214 0.2178
0.2547 0.2496 0.2449
0.3859 0.3062 0.2875
0.6485 0.3356 0.2866
0.7779 0.4523 0.3961
0.4395 0.4322 0.4237
0.4540 0.4459 0.4371
0.4957 0.4857 0.4761
0.5644 0.5508 0.5379
0.6552 0.6380 0.6215
0.6523 0.6463 0.6332
0.6608 0.6545 0.6409
0.6873 0.6800 0.6647
0.7345 0.7250 0.7059
0.9184 0.7539 0.7066
0.8683 0.8623 0.7992
0.8744 0.8680 0.8010
0.8932 0.8860 0.8061
0.9274 0.9189 0.8126
0.9779 0.9668 0.8154
0.1320 0.1314 0.1296
0.1786 0.1773 0.1748
0.2780 0.2735 0.2690
0.3996 0.3898 0.3816
0.6476 0.4743 0.4363
0.2556 0.2523 0.2484
0.2816 0.2772 0.2728
0.3514 0.3437 0.3379
0.4506 0.4394 0.4298
0.7899 0.4639 0.4100
0.4549 0.4471 0.4387
0.4689 0.4602 0.4513
0.5113 0.4974 0.4867
0.6242 0.5484 0.5261
0.9333 0.5451 0.4815
0.6616 0.6552 0.6416
0.6701 0.6633 0.6492
0.6962 0.6883 0.6725
0.7425 0.7327 0.7132
0.8086 0.7950 0.7640
0.8746 0.8685 0.8014
0.8804 0.8742 0.8031
0.8990 0.8921 0.8077
0.9327 0.9248 0.8135
0.9825 0.9724 0.8150
0.2166 0.2147 0.2116
0.2470 0.2442 0.2406
0.3244 0.3186 0.3135
0.4305 0.4213 0.4135
0.5447 0.5346 0.5245
0.3058 0.3011 0.2964
0.3274 0.3218 0.3167
0.3877 0.3796 0.3734
0.4763 0.4668 0.4584
0.5791 0.5691 0.5583
0.4805 0.4736 0.4656
0.4932 0.4853 0.4770
0.5301 0.5209 0.5120
0.5926 0.5827 0.5728
0.6756 0.6652 0.6502
0.6780 0.6718 0.6577
0.6864 0.6796 0.6649
0.7122 0.7038 0.6870
0.7600 0.7463 0.7248
0.8524 0.7997 0.7632
0.8866 0.8802 0.8048
0.8924 0.8858 0.8062
0.9108 0.9034 0.8101
0.9442 0.9354 0.8147
0.9932 0.9823 0.8138
0.3015 0.2973 0.2928
0.3234 0.3184 0.3134
0.3839 0.3769 0.3707
0.4734 0.4649 0.4568
0.5765 0.5675 0.5574
0.3689 0.3627 0.3569
0.3864 0.3795 0.3734
0.4365 0.4284 0.4214
0.5129 0.5043 0.4958
0.6088 0.5998 0.5890
0.5177 0.5102 0.5017
0.5287 0.5210 0.5124
0.5627 0.5545 0.5452
0.6213 0.6127 0.6020
0.6995 0.6903 0.6750
0.7024 0.6966 0.6813
0.7102 0.7041 0.6881
0.7344 0.7273 0.7094
0.7781 0.7687 0.7465
0.8385 0.8281 0.7855
0.9040 0.8980 0.8091
0.9097 0.9034 0.8102
0.9277 0.9205 0.8130
0.9610 0.9517 0.8157
0.9998 0.9980 0.8110
