EA 50 Cinematic Luts Pack/EA_Cinematic Lut (4).cube
TITLE "Generated by Resolve"
LUT_3D_SIZE 33
0.115496 0.0875105 0.280446
0.124315 0.0901656 0.281666
0.13315 0.0928206 0.282887
0.142672 0.0952773 0.284062
0.151904 0.0978256 0.285222
0.160906 0.100328 0.286366
0.16997 0.102953 0.287556
0.179294 0.105791 0.288808
0.188952 0.108553 0.290043
0.199161 0.111269 0.291264
0.209903 0.113542 0.292332
0.221607 0.115389 0.293263
0.234684 0.116777 0.294041
0.24889 0.117815 0.294697
0.264576 0.11841 0.295216
0.280613 0.118929 0.295674
0.29749 0.119265 0.296071
0.314565 0.119387 0.296376
0.33225 0.119356 0.296605
0.350439 0.119234 0.296788
0.369039 0.119051 0.296925
0.388144 0.118776 0.297032
0.407507 0.118441 0.297093
0.427375 0.11812 0.297139
0.44744 0.117922 0.2972
0.467872 0.117678 0.297246
0.48838 0.11751 0.297292
0.509102 0.117327 0.297307
0.529854 0.117311 0.297383
0.550896 0.11754 0.297505
0.571862 0.118212 0.29778
0.593103 0.118853 0.298024
0.613809 0.119692 0.298329
0.118288 0.104662 0.281559
0.127199 0.107286 0.282811
0.1364 0.109621 0.284031
0.146014 0.112367 0.285298
0.15523 0.115236 0.286595
0.16437 0.118135 0.287816
0.173526 0.120943 0.289067
0.18291 0.123629 0.290074
0.192615 0.126146 0.29131
0.202838 0.128344 0.292302
0.213901 0.130282 0.293294
0.226184 0.131838 0.294163
0.240024 0.132906 0.294896
0.255177 0.133593 0.295491
0.271015 0.134066 0.29601
0.2878 0.134386 0.296437
0.304921 0.134676 0.296864
0.322499 0.134798 0.2972
0.340749 0.134768 0.297444
0.359152 0.134722 0.297658
0.378363 0.134539 0.297795
0.39765 0.134524 0.297978
0.417731 0.134569 0.298161
0.437858 0.134569 0.298329
0.458351 0.134478 0.298451
0.479042 0.1346 0.298604
0.50016 0.134905 0.298817
0.521355 0.135409 0.299092
0.542687 0.135943 0.299351
0.563989 0.136721 0.299718
0.585779 0.138125 0.300191
0.60737 0.139834 0.300816
0.629175 0.141741 0.301488
0.121218 0.122072 0.282811
0.130266 0.124987 0.284108
0.139895 0.127703 0.285359
0.149187 0.130419 0.286641
0.158297 0.133074 0.287739
0.167346 0.135622 0.289006
0.176577 0.138079 0.290257
0.18613 0.140536 0.291554
0.196262 0.142794 0.292683
0.206882 0.144778 0.293782
0.218738 0.146395 0.294728
0.231937 0.147616 0.295537
0.246647 0.14847 0.296208
0.262318 0.149081 0.296788
0.278965 0.149645 0.297368
0.295872 0.150042 0.297765
0.31342 0.150256 0.298131
0.331609 0.150423 0.298451
0.350072 0.150683 0.298787
0.369329 0.150851 0.299062
0.388632 0.151034 0.299336
0.408698 0.151141 0.299565
0.429007 0.15169 0.299916
0.449836 0.152178 0.300221
0.470802 0.152773 0.300542
0.492088 0.153384 0.300847
0.513512 0.154269 0.301228
0.535439 0.15555 0.301747
0.557565 0.157305 0.302464
0.579873 0.159304 0.303181
0.601984 0.161242 0.303914
0.623957 0.1635 0.304707
0.645991 0.166079 0.305623
0.124727 0.13991 0.284489
0.134142 0.142412 0.285695
0.143496 0.144839 0.286961
0.152621 0.147326 0.288273
0.161685 0.149813 0.28957
0.170809 0.152239 0.290852
0.180285 0.154711 0.29218
0.190112 0.156924 0.293339
0.200412 0.158999 0.294484
0.211978 0.160769 0.295491
0.224445 0.162341 0.296437
0.238849 0.163394 0.297169
0.254185 0.164202 0.297795
0.270527 0.164813 0.29839
0.287556 0.165545 0.298894
0.304952 0.166171 0.299382
0.32311 0.166659 0.299809
0.341482 0.167132 0.300206
0.360662 0.167575 0.300572
0.380148 0.168246 0.300999
0.400504 0.169009 0.301518
0.420951 0.169955 0.30193
0.441932 0.170718 0.302358
0.463111 0.171862 0.302815
0.484977 0.173342 0.30341
0.507012 0.175128 0.304097
0.529274 0.176944 0.304768
0.551522 0.178927 0.305501
0.574182 0.18143 0.306386
0.596674 0.183978 0.307332
0.61915 0.186694 0.308278
0.641474 0.189487 0.309255
0.663432 0.192477 0.310292
0.128466 0.156619 0.286397
0.137957 0.158968 0.287678
0.147127 0.161379 0.289006
0.156222 0.163775 0.290303
0.16527 0.166201 0.291585
0.174594 0.168597 0.292866
0.184283 0.171069 0.294133
0.194446 0.173312 0.295323
0.205554 0.175326 0.296376
0.217441 0.177142 0.297353
0.231357 0.178485 0.298146
0.246357 0.179675 0.298894
0.262608 0.180743 0.299611
0.279545 0.18172 0.300221
0.296818 0.182559 0.300832
0.3149 0.183429 0.301289
0.333349 0.184497 0.301869
0.352697 0.185534 0.302403
0.372168 0.186603 0.302907
0.392447 0.187686 0.303456
0.413245 0.189395 0.304112
0.43476 0.191135 0.304875
0.456397 0.193088 0.305608
0.478447 0.19501 0.306325
0.50071 0.197086 0.307088
0.52314 0.199451 0.307912
0.545876 0.201999 0.308858
0.568582 0.204944 0.309758
0.591241 0.207736 0.310689
0.613626 0.210681 0.311604
0.636057 0.213733 0.312566
0.658167 0.216983 0.313619
0.680125 0.220295 0.314641
0.132296 0.172976 0.288426
0.141573 0.175326 0.289693
0.150668 0.177783 0.29099
0.159747 0.180285 0.292287
0.169024 0.182895 0.29366
0.178576 0.185458 0.294865
0.188586 0.187839 0.296101
0.199237 0.190173 0.297169
0.210941 0.192386 0.298253
0.224109 0.194278 0.299214
0.238666 0.195834 0.300008
0.254566 0.197131 0.300725
0.271458 0.198672 0.301488
0.288899 0.200137 0.302296
0.306996 0.201556 0.302907
0.325383 0.202991 0.303563
0.344778 0.204486 0.304204
0.364492 0.206424 0.304967
0.385229 0.208499 0.305806
0.40621 0.210941 0.306661
0.42768 0.213123 0.307469
0.449317 0.215503 0.308232
0.47155 0.218036 0.309102
0.49398 0.220737 0.310033
0.516579 0.223453 0.310903
0.539376 0.226169 0.311803
0.56202 0.229435 0.312734
0.584649 0.232486 0.313603
0.606973 0.235706 0.314427
0.629175 0.238987 0.315251
0.651179 0.242405 0.316167
0.673045 0.246006 0.317113
0.694591 0.249775 0.318257
0.135851 0.189548 0.290272
0.144976 0.192126 0.291524
0.154009 0.194751 0.29276
0.163119 0.197421 0.294057
0.172671 0.200336 0.295323
0.182574 0.203098 0.296666
0.193011 0.205814 0.297826
0.20441 0.208301 0.298985
0.216815 0.210697 0.300038
0.231205 0.212848 0.300984
0.246708 0.214939 0.301946
0.263478 0.216999 0.302724
0.280735 0.21886 0.303548
0.298756 0.220951 0.30428
0.317479 0.223346 0.305211
0.337163 0.225818 0.306157
0.356954 0.228351 0.307057
0.377615 0.230808 0.307912
0.398581 0.233814 0.308888
0.420157 0.236652 0.309819
0.44181 0.239628 0.310628
0.463722 0.242573 0.311406
0.486 0.245502 0.3122
0.508263 0.248585 0.312993
0.530953 0.251652 0.313848
0.553399 0.254994 0.314672
0.576226 0.258305 0.315618
0.598428 0.261723 0.316396
0.620737 0.265248 0.317235
0.642847 0.268894 0.318181
0.664668 0.272648 0.319097
0.686259 0.276524 0.320165
0.707774 0.280797 0.321233
0.138766 0.206928 0.291676
0.14786 0.209842 0.292912
0.157 0.212894 0.29424
0.166384 0.216114 0.295521
0.175982 0.219165 0.296834
0.186252 0.222309 0.298009
0.197391 0.225498 0.299336
0.209583 0.228595 0.300542
0.223285 0.231342 0.301595
0.238376 0.233921 0.302632
0.255131 0.236835 0.303624
0.272557 0.239765 0.304723
0.290654 0.242771 0.305608
0.309117 0.245731 0.306523
0.32845 0.248692 0.307424
0.348165 0.251865 0.30837
0.368811 0.255039 0.309438
0.389624 0.258427 0.310369
0.4112 0.261646 0.311391
0.432776 0.264851 0.312154
0.454505 0.268147 0.312978
0.476799 0.271351 0.313771
0.498833 0.274678 0.314534
0.521385 0.277913 0.315312
0.543816 0.281575 0.316197
0.566613 0.285069 0.317159
0.588846 0.288701 0.317952
0.611353 0.292271 0.318898
0.633402 0.296056 0.319799
0.655451 0.299962 0.320775
0.677287 0.304006 0.321889
0.698756 0.308202 0.322911
0.720287 0.312703 0.324285
0.140887 0.225956 0.2925
0.150011 0.229221 0.293767
0.159319 0.232975 0.295125
0.169009 0.236683 0.296529
0.178943 0.240482 0.297734
0.189609 0.24416 0.299001
0.201373 0.247883 0.300206
0.214496 0.251759 0.301503
0.229648 0.255451 0.302815
0.246052 0.259113 0.30399
0.263386 0.262608 0.305211
0.281392 0.266056 0.306188
0.29987 0.269703 0.307301
0.31928 0.273304 0.30837
0.338811 0.276905 0.309377
0.359167 0.280339 0.310399
0.379889 0.284108 0.311376
0.401236 0.287602 0.312413
0.422629 0.291096 0.313222
0.444511 0.294469 0.314153
0.466575 0.297887 0.314916
0.488655 0.301442 0.31577
0.511284 0.304906 0.316732
0.533593 0.308537 0.317525
0.556542 0.312322 0.318624
0.578897 0.316106 0.319478
0.601556 0.31986 0.320485
0.623774 0.323812 0.321447
0.646006 0.327794 0.322454
0.667918 0.331899 0.323598
0.689723 0.336233 0.324773
0.711376 0.340856 0.326253
0.732433 0.345418 0.327489
0.141817 0.247395 0.2925
0.151019 0.251575 0.293812
0.160708 0.255726 0.295293
0.170596 0.260197 0.296666
0.181537 0.264866 0.298253
0.193225 0.269657 0.299794
0.205997 0.27422 0.301244
0.220523 0.278462 0.302632
0.236561 0.282856 0.304021
0.25388 0.286976 0.305425
0.271855 0.291005 0.3066
0.290333 0.294926 0.307897
0.309453 0.298772 0.308934
0.328939 0.302663 0.310033
0.349203 0.306432 0.311162
0.369757 0.310185 0.312123
0.390997 0.314076 0.313313
0.412436 0.317723 0.314168
0.43418 0.321401 0.315267
0.456275 0.325063 0.316136
0.47834 0.32874 0.317082
0.500969 0.332311 0.31809
0.523415 0.336202 0.31902
0.546441 0.340124 0.32018
0.568887 0.34403 0.321065
0.591562 0.347875 0.322118
0.613901 0.351904 0.32311
0.63624 0.356023 0.324208
0.658396 0.360235 0.325536
0.680293 0.364569 0.326696
0.702068 0.369116 0.328222
0.72343 0.373892 0.329595
0.744411 0.378622 0.331106
0.142367 0.27187 0.292195
0.152407 0.276982 0.293996
0.162554 0.282261 0.295659
0.173495 0.287373 0.297459
0.184863 0.292638 0.299107
0.197589 0.297826 0.300816
0.211643 0.302892 0.302617
0.227375 0.307637 0.304067
0.24445 0.312261 0.305699
0.262196 0.316548 0.306935
0.280644 0.32076 0.308354
0.299611 0.324926 0.309514
0.318975 0.329 0.31075
0.339101 0.332921 0.311879
0.359686 0.336996 0.313008
0.380789 0.341085 0.314321
0.402152 0.344961 0.315297
0.423789 0.348775 0.316457
0.445808 0.352575 0.317372
0.467887 0.356466 0.318425
0.490578 0.360265 0.319493
0.512963 0.364187 0.320455
0.536004 0.368139 0.321645
0.558602 0.372305 0.322698
0.58146 0.376287 0.323873
0.603906 0.380453 0.324971
0.626322 0.384634 0.326162
0.648737 0.38883 0.327504
0.670619 0.393286 0.328756
0.692821 0.397986 0.330343
0.714183 0.402747 0.331731
0.73547 0.407431 0.333349
0.755978 0.41239 0.334874
0.144472 0.299611 0.292897
0.154711 0.305303 0.294728
0.165743 0.311086 0.296818
0.177218 0.31696 0.298741
0.189776 0.322545 0.30074
0.203143 0.327977 0.302586
0.21854 0.33315 0.304234
0.235111 0.338125 0.306004
0.25272 0.342687 0.307332
0.270985 0.347066 0.308812
0.289693 0.351446 0.310063
0.309102 0.355749 0.311406
0.329 0.359991 0.312764
0.349371 0.364157 0.313909
0.370382 0.368368 0.315312
0.39173 0.372549 0.316426
0.413397 0.376577 0.317708
0.435386 0.380606 0.3187
0.45742 0.384634 0.319814
0.480034 0.38854 0.320912
0.502434 0.392599 0.322011
0.525628 0.396826 0.323384
0.548226 0.401007 0.324514
0.571206 0.40502 0.325811
0.593652 0.409262 0.326955
0.616236 0.41352 0.328206
0.638727 0.417853 0.329595
0.660792 0.422339 0.330877
0.682979 0.42681 0.332418
0.704616 0.431815 0.333974
0.726116 0.43653 0.335729
0.746868 0.441489 0.337362
0.767346 0.446525 0.3393
0.147463 0.329702 0.294194
0.158404 0.33576 0.296407
0.169696 0.341848 0.298421
0.181918 0.347799 0.300572
0.195056 0.353597 0.302541
0.209598 0.359045 0.304326
0.225818 0.364248 0.306203
0.243214 0.369177 0.307729
0.261433 0.373846 0.309361
0.279957 0.378515 0.31075
0.29926 0.382971 0.312215
0.318868 0.387411 0.313634
0.339178 0.39176 0.314885
0.360159 0.396353 0.316457
0.381384 0.400626 0.317632
0.402945 0.404776 0.318975
0.424842 0.408927 0.320073
0.446891 0.413123 0.321324
0.469505 0.417197 0.322637
0.491905 0.421393 0.323781
0.51487 0.425467 0.325139
0.537774 0.429938 0.326421
0.560769 0.434089 0.32781
0.583459 0.438376 0.329
0.606226 0.442649 0.330434
0.628687 0.447028 0.331731
0.650813 0.45156 0.333165
0.673213 0.456168 0.334905
0.694911 0.461112 0.336553
0.716594 0.465782 0.338399
0.737438 0.470741 0.340124
0.75819 0.4757 0.342092
0.778164 0.480919 0.344106
0.151217 0.360952 0.29604
0.162341 0.367361 0.298177
0.174319 0.373526 0.30042
0.18706 0.379553 0.302464
0.200946 0.385412 0.304463
0.216953 0.391058 0.306584
0.233783 0.396216 0.308248
0.251743 0.401068 0.310002
0.270207 0.405875 0.311482
0.289372 0.41059 0.313085
0.308919 0.415274 0.314595
0.329046 0.419821 0.315953
0.349691 0.424338 0.31751
0.370993 0.428977 0.318883
0.392477 0.433341 0.320394
0.414359 0.437659 0.321645
0.4365 0.441886 0.323125
0.4589 0.446113 0.324422
0.4813 0.450401 0.325673
0.504402 0.454704 0.327169
0.527199 0.45919 0.328466
0.550256 0.463371 0.3299
0.573114 0.467674 0.331167
0.59585 0.472007 0.332753
0.618463 0.476432 0.334279
0.640711 0.480964 0.33579
0.663066 0.485466 0.337575
0.685069 0.490471 0.339361
0.706874 0.49514 0.341253
0.727871 0.500069 0.342992
0.748898 0.504982 0.344976
0.769024 0.510124 0.34696
0.788495 0.515465 0.349065
0.155016 0.393194 0.297932
0.166918 0.399619 0.300343
0.179309 0.406012 0.302632
0.192767 0.412131 0.304723
0.208026 0.417853 0.306889
0.224491 0.423545 0.308812
0.24239 0.428641 0.310704
0.260563 0.433738 0.312322
0.279683 0.43856 0.314076
0.298985 0.443412 0.315618
0.318959 0.448157 0.317143
0.339635 0.452964 0.318914
0.360739 0.457679 0.320409
0.382086 0.46215 0.322026
0.403861 0.466575 0.323384
0.425956 0.470954 0.324971
0.448356 0.475319 0.326314
0.470848 0.479652 0.327718
0.49369 0.483909 0.329183
0.516701 0.488548 0.330663
0.539742 0.492821 0.33228
0.562585 0.497185 0.3337
0.585443 0.501518 0.335424
0.608148 0.505928 0.337026
0.630457 0.51046 0.338643
0.652949 0.514946 0.340459
0.675074 0.519905 0.34226
0.697002 0.524575 0.344198
0.718212 0.529427 0.345983
0.739376 0.534249 0.348028
0.759701 0.539315 0.350149
0.779629 0.544503 0.352178
0.798474 0.549935 0.354696
0.159625 0.426169 0.30042
0.171664 0.432761 0.302815
0.184909 0.439124 0.305058
0.199573 0.44538 0.307485
0.215625 0.45124 0.309499
0.233036 0.45655 0.311513
0.251011 0.461814 0.313252
0.270039 0.466835 0.31516
0.289174 0.471901 0.31696
0.309209 0.476738 0.318669
0.329427 0.481544 0.320394
0.35053 0.486564 0.322087
0.371847 0.491173 0.323842
0.39353 0.49575 0.325277
0.415534 0.500221 0.32694
0.437858 0.504646 0.328374
0.460441 0.50901 0.329931
0.483162 0.513405 0.331594
0.506294 0.518044 0.333227
0.529229 0.522362 0.335012
0.552148 0.526726 0.336538
0.575021 0.531075 0.338354
0.597803 0.535485 0.339971
0.620218 0.540002 0.34165
0.642832 0.544442 0.343496
0.665034 0.549401 0.345357
0.687114 0.553948 0.347356
0.708446 0.55874 0.349203
0.729778 0.563485 0.351354
0.750347 0.568444 0.35346
0.770459 0.573495 0.35552
0.789776 0.578698 0.357977
0.808255 0.58436 0.360357
0.164508 0.459876 0.30309
0.177447 0.466453 0.305653
0.191272 0.472816 0.308019
0.206989 0.479118 0.310307
0.223957 0.484749 0.312551
0.241794 0.490211 0.314473
0.260594 0.495369 0.316548
0.279545 0.500557 0.318441
0.299474 0.505531 0.320302
0.31957 0.510567 0.322179
0.340551 0.515663 0.323949
0.36173 0.520363 0.325795
0.383291 0.525017 0.327367
0.405249 0.52958 0.329213
0.427497 0.534081 0.330907
0.449958 0.538537 0.332601
0.472694 0.542916 0.334371
0.495827 0.547601 0.336126
0.518761 0.551934 0.337987
0.541726 0.556298 0.339559
0.56466 0.560647 0.341421
0.587488 0.565042 0.343069
0.61001 0.569482 0.344854
0.632685 0.573877 0.346777
0.654856 0.578622 0.348653
0.677241 0.583246 0.35079
0.698634 0.587961 0.352697
0.720134 0.592569 0.354849
0.740826 0.597406 0.356924
0.761364 0.602274 0.359121
0.781079 0.60734 0.361395
0.799741 0.61294 0.363806
0.817838 0.618402 0.366506
0.170092 0.494026 0.306294
0.183749 0.500694 0.308904
0.198688 0.507286 0.311452
0.215259 0.513085 0.313832
0.232731 0.51873 0.315923
0.251362 0.524071 0.318151
0.270237 0.529412 0.320134
0.289982 0.534524 0.322148
0.30988 0.53959 0.324102
0.330785 0.544839 0.326055
0.351873 0.54963 0.328084
0.373312 0.554391 0.32987
0.39527 0.558953 0.331884
0.417288 0.563531 0.33373
0.439841 0.567987 0.335531
0.462409 0.572442 0.337423
0.485405 0.577005 0.339162
0.508446 0.581476 0.341146
0.531441 0.585809 0.342794
0.554376 0.590127 0.344747
0.577249 0.594461 0.346563
0.600031 0.59881 0.348455
0.622599 0.603204 0.350362
0.644999 0.607935 0.352331
0.667338 0.61236 0.354452
0.688884 0.616953 0.356344
0.710567 0.621469 0.358511
0.731426 0.6262 0.360555
0.752132 0.630884 0.362768
0.772015 0.635752 0.365011
0.790875 0.64094 0.3673
0.809537 0.646418 0.370077
0.826703 0.651957 0.372595
0.17644 0.528603 0.310018
0.190829 0.5355 0.312795
0.207034 0.541573 0.315358
0.224002 0.547448 0.317617
0.242466 0.552911 0.319951
0.261158 0.558343 0.322057
0.280751 0.563546 0.324285
0.300542 0.568734 0.326452
0.321172 0.573953 0.328542
0.342168 0.578927 0.330846
0.363546 0.583703 0.332769
0.385473 0.588312 0.33489
0.40734 0.592966 0.336812
0.429938 0.597406 0.338766
0.452323 0.601907 0.340673
0.47538 0.606546 0.34255
0.498299 0.610895 0.344594
0.521309 0.615198 0.346349
0.544274 0.619471 0.348424
0.567208 0.623743 0.350301
0.590005 0.628 0.352255
0.612634 0.632288 0.354177
0.635019 0.636683 0.3561
0.657557 0.641291 0.358282
0.679393 0.645716 0.360174
0.700984 0.650111 0.362356
0.722087 0.654627 0.364462
0.742931 0.659205 0.366644
0.763073 0.66392 0.368887
0.782437 0.668925 0.371176
0.801175 0.674083 0.373831
0.818555 0.679393 0.376287
0.835752 0.684688 0.37908
0.183612 0.563714 0.314336
0.19913 0.570108 0.317128
0.215732 0.576165 0.31957
0.233921 0.581765 0.322118
0.252415 0.58732 0.324544
0.271885 0.592584 0.326909
0.291524 0.597833 0.329244
0.312032 0.60322 0.331563
0.332952 0.608133 0.333913
0.354086 0.612985 0.335943
0.37586 0.617639 0.338155
0.397696 0.622293 0.340139
0.420172 0.626719 0.342229
0.442496 0.631205 0.344259
0.465461 0.635569 0.346242
0.488411 0.640162 0.348424
0.511376 0.644404 0.350256
0.534356 0.648585 0.352361
0.557305 0.652766 0.354253
0.580163 0.656962 0.356283
0.602914 0.661158 0.358221
0.625422 0.665522 0.36022
0.647944 0.669856 0.362341
0.669764 0.674174 0.364248
0.691554 0.678447 0.366461
0.712871 0.682811 0.368566
0.733745 0.68719 0.370733
0.75407 0.691661 0.37293
0.773739 0.696315 0.375113
0.792752 0.701305 0.377752
0.81062 0.706462 0.380224
0.827878 0.711513 0.382956
0.844175 0.716793 0.385702
0.191775 0.598657 0.319326
0.208057 0.604837 0.322011
0.225757 0.610605 0.324819
0.244068 0.616205 0.327398
0.263401 0.621546 0.329931
0.282933 0.626841 0.332387
0.303243 0.632013 0.334813
0.324086 0.637217 0.33724
0.344961 0.642145 0.339391
0.36669 0.646769 0.341726
0.388327 0.651423 0.343938
0.410758 0.655848 0.34609
0.433005 0.660304 0.348241
0.455985 0.664714 0.350378
0.478782 0.669139 0.352544
0.501717 0.673335 0.354406
0.524697 0.677455 0.356558
0.547662 0.681575 0.35845
0.570596 0.685603 0.36051
0.593317 0.689662 0.362493
0.6159 0.693736 0.364446
0.638483 0.698009 0.366644
0.660578 0.702266 0.368612
0.682353 0.706355 0.370794
0.703731 0.710521 0.372824
0.724712 0.714763 0.375021
0.745312 0.719066 0.377203
0.765133 0.723491 0.37937
0.784588 0.728206 0.381964
0.80264 0.733028 0.38436
0.820142 0.737896 0.387121
0.836728 0.742947 0.389838
0.85301 0.747951 0.392554
0.200824 0.633417 0.32491
0.218067 0.639323 0.327916
0.236194 0.645014 0.330602
0.255299 0.650416 0.333272
0.274632 0.655756 0.335851
0.294942 0.661006 0.338445
0.315496 0.666148 0.340963
0.336294 0.671046 0.343282
0.357824 0.675715 0.345739
0.379355 0.680354 0.348058
0.401663 0.684733 0.350301
0.423804 0.689128 0.352529
0.446616 0.693324 0.354635
0.469429 0.697765 0.356893
0.492424 0.701946 0.358846
0.515343 0.705959 0.361028
0.538293 0.709926 0.363027
0.561212 0.713893 0.365057
0.584009 0.717845 0.367086
0.606806 0.721736 0.369024
0.629313 0.725917 0.371267
0.651484 0.729885 0.373175
0.673381 0.733852 0.375387
0.69485 0.737865 0.377401
0.715953 0.741863 0.379583
0.736614 0.745907 0.381735
0.756741 0.750088 0.383963
0.776333 0.754421 0.386328
0.794766 0.759197 0.3888
0.812543 0.763729 0.39147
0.829252 0.768505 0.394095
0.845701 0.773312 0.396841
0.861463 0.778241 0.399634
0.211048 0.667872 0.331319
0.22884 0.67364 0.334112
0.247639 0.679088 0.33698
0.266957 0.684382 0.339696
0.286809 0.68954 0.342367
0.307332 0.694759 0.345098
0.328069 0.699718 0.347585
0.349386 0.704341 0.350118
0.370794 0.708934 0.352468
0.392966 0.713298 0.354803
0.41503 0.717662 0.357092
0.437781 0.721798 0.359274
0.460517 0.726177 0.361608
0.483406 0.730159 0.363577
0.50634 0.734096 0.365835
0.529305 0.737957 0.36788
0.552239 0.741741 0.369909
0.574975 0.745525 0.371923
0.597787 0.749249 0.373907
0.620188 0.753155 0.376013
0.642664 0.757122 0.378012
0.664546 0.760845 0.380209
0.686107 0.764614 0.382284
0.707393 0.768444 0.384421
0.728176 0.772335 0.386603
0.748531 0.776226 0.388785
0.768338 0.780331 0.391104
0.787106 0.78471 0.3935
0.805158 0.789044 0.396063
0.822003 0.793622 0.398627
0.838621 0.798108 0.401343
0.854337 0.802747 0.404105
0.869978 0.807385 0.406867
0.221973 0.702007 0.338201
0.240528 0.7075 0.341146
0.259648 0.71281 0.344015
0.279316 0.717998 0.346838
0.299733 0.723201 0.34966
0.320211 0.728038 0.352209
0.341436 0.732647 0.354818
0.362722 0.737209 0.357214
0.38471 0.741482 0.35964
0.406638 0.745724 0.361959
0.429267 0.749767 0.364202
0.451774 0.753918 0.366506
0.474784 0.758007 0.368643
0.497765 0.76173 0.370871
0.520562 0.765469 0.372915
0.543679 0.7691 0.375006
0.566354 0.772793 0.377066
0.589212 0.776318 0.379049
0.611627 0.780072 0.38117
0.634195 0.783719 0.38323
0.656016 0.787366 0.385351
0.677729 0.790936 0.387442
0.699001 0.794522 0.389532
0.71989 0.798123 0.391653
0.740429 0.801785 0.39382
0.760327 0.805585 0.396078
0.779706 0.809735 0.398459
0.797848 0.813748 0.400931
0.814969 0.817975 0.40351
0.831754 0.822278 0.406134
0.847654 0.826703 0.408881
0.863279 0.831022 0.411582
0.878355 0.83537 0.414343
0.233936 0.735592 0.345769
0.252796 0.740871 0.348714
0.272282 0.745983 0.351583
0.292363 0.751049 0.354421
0.312871 0.756039 0.357153
0.333898 0.76054 0.359823
0.355001 0.765011 0.362387
0.376913 0.769238 0.364828
0.398749 0.773434 0.367239
0.421225 0.777356 0.369512
0.443687 0.78143 0.371878
0.466682 0.785245 0.374075
0.489357 0.788968 0.376257
0.51223 0.792569 0.378286
0.535317 0.795987 0.380392
0.5579 0.799451 0.382467
0.580835 0.802823 0.384482
0.60322 0.806271 0.386572
0.625956 0.809873 0.388724
0.647791 0.813245 0.390784
0.66952 0.816587 0.392782
0.690913 0.820005 0.394919
0.712001 0.823407 0.397024
0.732555 0.826825 0.399161
0.752667 0.830289 0.401373
0.772351 0.834089 0.403723
0.790845 0.837858 0.40621
0.808454 0.841733 0.408713
0.825147 0.845685 0.411261
0.841199 0.849714 0.413886
0.85687 0.853788 0.416556
0.872007 0.857862 0.419303
0.886915 0.861997 0.422019
0.246555 0.768597 0.353796
0.265827 0.773648 0.356725
0.28574 0.778729 0.359686
0.306096 0.783505 0.362509
0.326848 0.788037 0.365209
0.347799 0.792447 0.367834
0.369543 0.796521 0.370321
0.391211 0.800565 0.372763
0.413581 0.80441 0.375097
0.43592 0.808194 0.377401
0.4589 0.812085 0.379767
0.481559 0.815564 0.381918
0.50425 0.818998 0.384085
0.527291 0.822309 0.38613
0.549905 0.825666 0.388251
0.572839 0.828794 0.390265
0.595224 0.832029 0.39237
0.618021 0.83534 0.394476
0.640024 0.83856 0.396582
0.661845 0.841703 0.39855
0.683314 0.8448 0.400671
0.704402 0.847913 0.402747
0.725124 0.851102 0.404898
0.74551 0.854307 0.407111
0.765423 0.857786 0.409461
0.784314 0.861051 0.411841
0.802136 0.86453 0.414298
0.819257 0.868162 0.416892
0.835599 0.871794 0.419516
0.851133 0.875334 0.422049
0.866102 0.878782 0.424613
0.880888 0.882353 0.427237
0.895354 0.885878 0.429908
0.259846 0.80087 0.362249
0.279438 0.805692 0.365209
0.299794 0.81059 0.368215
0.320272 0.815 0.370947
0.341161 0.819242 0.373617
0.362615 0.823316 0.376135
0.384161 0.827283 0.378653
0.406424 0.830945 0.381018
0.428779 0.834577 0.383383
0.451514 0.838254 0.385779
0.474235 0.841627 0.388022
0.496864 0.844907 0.390249
0.519799 0.848005 0.392279
0.542367 0.851087 0.394385
0.565347 0.854063 0.396414
0.587793 0.857084 0.39855
0.610773 0.860182 0.400717
0.632807 0.863066 0.402838
0.654841 0.865888 0.404944
0.676555 0.868772 0.407065
0.697871 0.871641 0.409232
0.718837 0.874418 0.411322
0.739132 0.877256 0.413489
0.759304 0.880262 0.415732
0.778561 0.883345 0.418097
0.796582 0.886381 0.420401
0.813687 0.889357 0.422812
0.829923 0.892393 0.425269
0.845563 0.895537 0.427771
0.860731 0.89868 0.430335
0.875502 0.90193 0.432914
0.889723 0.904906 0.435401
0.903609 0.907835 0.437903
0.273899 0.832349 0.371221
0.29395 0.837095 0.374258
0.314351 0.841428 0.377081
0.335103 0.845579 0.379812
0.356329 0.849485 0.382391
0.377783 0.853254 0.384939
0.399847 0.856825 0.387396
