EA 50 Cinematic Luts Pack/EA_Cinematic Lut (5).cube
TITLE "Generated by Resolve"
LUT_3D_SIZE 5
0.196597 0.0667277 0.247471
0.262181 0.0899825 0.258289
0.359991 0.103624 0.266926
0.496208 0.105974 0.271916
0.647532 0.111818 0.277073
0.21117 0.208774 0.255604
0.290639 0.240848 0.267948
0.425635 0.273671 0.280095
0.585077 0.306584 0.291493
0.744564 0.344152 0.304372
0.223835 0.446403 0.26183
0.344884 0.495827 0.282612
0.501015 0.537835 0.301213
0.666133 0.578134 0.320165
0.814557 0.621836 0.342229
0.279438 0.726299 0.303761
0.428 0.76849 0.330083
0.593042 0.802441 0.352361
0.749691 0.833951 0.373846
0.872511 0.868696 0.398199
0.386908 0.967224 0.386984
0.544976 0.987488 0.409567
0.699886 0.998383 0.42652
0.829084 1 0.443961
0.929015 1 0.46482
0.202274 0.0768902 0.294499
0.268849 0.100435 0.306264
0.36994 0.111971 0.315068
0.508995 0.115221 0.32285
0.663447 0.125734 0.334966
0.217441 0.22153 0.308965
0.302541 0.258137 0.328969
0.441352 0.292607 0.34905
0.601846 0.32639 0.368338
0.760891 0.364645 0.389227
0.234958 0.468376 0.342229
0.360296 0.517143 0.370138
0.518166 0.558572 0.394629
0.682765 0.598123 0.417945
0.827527 0.641428 0.443412
0.294469 0.746105 0.403754
0.444816 0.786572 0.43299
0.608942 0.818799 0.457374
0.763226 0.848569 0.480858
0.881209 0.880095 0.506233
0.401953 0.97966 0.496406
0.558434 0.996139 0.518471
0.710842 1 0.535149
0.835889 1 0.55288
0.935164 1 0.573541
0.207691 0.0852979 0.359655
0.274449 0.10782 0.378775
0.379553 0.117678 0.394751
0.52137 0.122744 0.409949
0.678981 0.138766 0.42884
0.22266 0.232822 0.397894
0.314122 0.274006 0.424643
0.455833 0.30959 0.448569
0.617685 0.344335 0.47126
0.775769 0.383825 0.495521
0.245472 0.488334 0.446738
0.374899 0.536583 0.477348
0.534157 0.577646 0.503761
0.697749 0.616861 0.528542
0.839597 0.659632 0.554986
0.309102 0.764721 0.51635
0.460365 0.803159 0.545083
0.62414 0.833585 0.569055
0.775402 0.861692 0.591119
0.88867 0.890257 0.614374
0.416342 0.990738 0.608133
0.57113 1 0.626719
0.720897 1 0.640177
0.842847 1 0.65565
0.941909 1 0.673533
0.212802 0.0915847 0.456352
0.279286 0.112612 0.477867
0.388968 0.122316 0.496544
0.53434 0.130617 0.515053
0.694881 0.152178 0.537942
0.228916 0.24567 0.504555
0.325673 0.289601 0.533715
0.470283 0.326482 0.559335
0.633127 0.362554 0.582757
0.790539 0.403189 0.607401
0.256016 0.507958 0.558877
0.389441 0.555749 0.58912
0.550011 0.596536 0.614252
0.713115 0.635569 0.637705
0.851286 0.678157 0.662211
0.323583 0.782864 0.625879
0.476219 0.819501 0.65182
0.638972 0.848371 0.672175
0.787213 0.874464 0.690105
0.896925 0.900725 0.707744
0.430213 1 0.70663
0.583978 1 0.718273
0.732036 1 0.725902
0.851041 1 0.736049
0.950698 1 0.74966
0.217227 0.0963302 0.56347
0.284428 0.11667 0.585336
0.398733 0.127169 0.604227
0.548608 0.141054 0.624292
0.711086 0.166384 0.647639
0.235752 0.260624 0.613489
0.337743 0.306111 0.642206
0.485115 0.34406 0.666072
0.649256 0.381277 0.687861
0.805432 0.423194 0.70988
0.267674 0.52874 0.663661
0.404944 0.576196 0.690455
0.566796 0.616632 0.71133
0.728634 0.655161 0.729015
0.864027 0.697444 0.748348
0.339055 0.802121 0.717021
0.492943 0.837278 0.736751
0.655421 0.864485 0.751064
0.799573 0.887907 0.763424
0.905913 0.911986 0.776898
0.444724 1 0.779461
0.597864 1 0.786969
0.74403 1 0.792294
0.860426 1 0.80209
0.959823 1 0.815259
