EA 50 Cinematic Luts Pack/EA_Cinematic Lut (43).cube
TITLE "A very warm, dreamlike color grade that smoothens the contrast of shadows and highlights."
LUT_3D_SIZE 25
0.0005 0.0000 0.0000
0.0185 0.0018 0.0000
0.0450 0.0046 0.0000
0.0764 0.0085 0.0000
0.1143 0.0120 0.0000
0.1499 0.0185 0.0000
0.1945 0.0211 0.0000
0.2445 0.0190 0.0000
0.2951 0.0153 0.0000
0.3455 0.0111 0.0000
0.3943 0.0083 0.0000
0.4427 0.0060 0.0000
0.4884 0.0067 0.0000
0.5339 0.0073 0.0000
0.5808 0.0079 0.0000
0.6279 0.0087 0.0000
0.6752 0.0102 0.0000
0.7224 0.0119 0.0000
0.7694 0.0145 0.0000
0.8126 0.0290 0.0012
0.8547 0.0459 0.0052
0.8961 0.0625 0.0102
0.9360 0.0789 0.0174
0.9734 0.0951 0.0274
1.0000 0.1134 0.0387
0.0070 0.0190 0.0007
0.0328 0.0203 0.0000
0.0618 0.0223 0.0000
0.0898 0.0270 0.0000
0.1212 0.0330 0.0000
0.1575 0.0383 0.0000
0.2020 0.0396 0.0000
0.2481 0.0399 0.0000
0.2973 0.0374 0.0000
0.3486 0.0313 0.0000
0.3967 0.0285 0.0000
0.4438 0.0271 0.0000
0.4895 0.0278 0.0000
0.5349 0.0286 0.0000
0.5817 0.0295 0.0000
0.6286 0.0306 0.0000
0.6759 0.0324 0.0000
0.7231 0.0345 0.0000
0.7701 0.0368 0.0000
0.8148 0.0449 0.0002
0.8567 0.0597 0.0043
0.8980 0.0747 0.0093
0.9377 0.0897 0.0161
0.9748 0.1049 0.0261
1.0000 0.1223 0.0381
0.0131 0.0484 0.0081
0.0401 0.0495 0.0054
0.0690 0.0509 0.0003
0.1004 0.0529 0.0000
0.1337 0.0559 0.0000
0.1696 0.0592 0.0000
0.2096 0.0617 0.0000
0.2533 0.0629 0.0000
0.3002 0.0619 0.0000
0.3494 0.0587 0.0000
0.4001 0.0534 0.0000
0.4454 0.0542 0.0000
0.4908 0.0547 0.0000
0.5362 0.0553 0.0000
0.5828 0.0561 0.0000
0.6298 0.0570 0.0000
0.6770 0.0584 0.0000
0.7241 0.0601 0.0000
0.7709 0.0621 0.0000
0.8175 0.0641 0.0000
0.8595 0.0764 0.0031
0.9005 0.0898 0.0081
0.9400 0.1034 0.0146
0.9767 0.1176 0.0239
1.0000 0.1339 0.0362
0.0224 0.0824 0.0256
0.0475 0.0833 0.0235
0.0733 0.0845 0.0192
0.1056 0.0858 0.0124
0.1422 0.0875 0.0000
0.1816 0.0880 0.0000
0.2212 0.0893 0.0000
0.2631 0.0901 0.0000
0.3077 0.0898 0.0000
0.3549 0.0880 0.0000
0.4022 0.0861 0.0000
0.4473 0.0867 0.0001
0.4927 0.0870 0.0000
0.5379 0.0874 0.0000
0.5845 0.0880 0.0000
0.6314 0.0889 0.0000
0.6785 0.0900 0.0000
0.7255 0.0914 0.0000
0.7723 0.0929 0.0000
0.8188 0.0946 0.0000
0.8637 0.0987 0.0005
0.9044 0.1103 0.0057
0.9434 0.1224 0.0119
0.9797 0.1355 0.0211
1.0000 0.1502 0.0343
0.0324 0.1198 0.0505
0.0577 0.1201 0.0482
0.0832 0.1207 0.0449
0.1131 0.1217 0.0396
0.1460 0.1232 0.0326
0.1791 0.1262 0.0158
0.2278 0.1241 0.0004
0.2710 0.1236 0.0000
0.3154 0.1229 0.0000
0.3605 0.1221 0.0000
0.4046 0.1224 0.0010
0.4495 0.1229 0.0030
0.4941 0.1234 0.0051
0.5393 0.1236 0.0038
0.5861 0.1240 0.0025
0.6332 0.1247 0.0013
0.6803 0.1254 0.0004
0.7273 0.1263 0.0000
0.7740 0.1276 0.0000
0.8204 0.1289 0.0000
0.8664 0.1303 0.0002
0.9096 0.1354 0.0025
0.9481 0.1459 0.0089
0.9836 0.1576 0.0172
1.0000 0.1708 0.0304
0.0530 0.1578 0.0681
0.0738 0.1580 0.0665
0.0965 0.1583 0.0644
0.1245 0.1589 0.0611
0.1554 0.1600 0.0557
0.1887 0.1617 0.0489
0.2224 0.1645 0.0372
0.2705 0.1631 0.0128
0.3176 0.1615 0.0049
0.3629 0.1608 0.0027
0.4072 0.1608 0.0041
0.4521 0.1610 0.0058
0.4965 0.1613 0.0074
0.5411 0.1618 0.0095
0.5878 0.1624 0.0091
0.6348 0.1629 0.0076
0.6819 0.1634 0.0061
0.7289 0.1641 0.0049
0.7757 0.1648 0.0035
0.8222 0.1656 0.0025
0.8683 0.1666 0.0012
0.9133 0.1678 0.0013
0.9539 0.1728 0.0046
0.9885 0.1834 0.0125
1.0000 0.1951 0.0248
0.0724 0.1965 0.0877
0.0900 0.1967 0.0864
0.1103 0.1969 0.0846
0.1362 0.1974 0.0821
0.1660 0.1981 0.0785
0.1984 0.1993 0.0737
0.2324 0.2010 0.0668
0.2669 0.2038 0.0560
0.3137 0.2033 0.0302
0.3621 0.2018 0.0173
0.4091 0.2007 0.0108
0.4547 0.2005 0.0090
0.4992 0.2007 0.0112
0.5439 0.2011 0.0138
0.5900 0.2017 0.0174
0.6365 0.2023 0.0183
0.6836 0.2028 0.0158
0.7306 0.2032 0.0136
0.7773 0.2038 0.0118
0.8238 0.2044 0.0100
0.8698 0.2052 0.0084
0.9149 0.2060 0.0068
0.9576 0.2069 0.0053
0.9938 0.2127 0.0083
1.0000 0.2224 0.0177
0.0909 0.2360 0.1097
0.1061 0.2361 0.1085
0.1242 0.2363 0.1070
0.1483 0.2367 0.1050
0.1767 0.2373 0.1022
0.2082 0.2381 0.0987
0.2418 0.2394 0.0940
0.2768 0.2411 0.0883
0.3121 0.2439 0.0788
0.3564 0.2447 0.0544
0.4068 0.2430 0.0397
0.4555 0.2419 0.0292
0.5012 0.2415 0.0234
0.5468 0.2415 0.0208
0.5928 0.2419 0.0252
0.6390 0.2425 0.0300
0.6853 0.2431 0.0335
0.7323 0.2435 0.0301
0.7790 0.2439 0.0267
0.8254 0.2444 0.0233
0.8714 0.2449 0.0207
0.9164 0.2456 0.0180
0.9584 0.2470 0.0165
0.9946 0.2518 0.0215
1.0000 0.2576 0.0284
0.1077 0.2762 0.1325
0.1213 0.2763 0.1317
0.1380 0.2765 0.1307
0.1606 0.2767 0.1291
0.1880 0.2771 0.1272
0.2184 0.2778 0.1244
0.2513 0.2787 0.1209
0.2859 0.2802 0.1165
0.3220 0.2821 0.1111
0.3582 0.2849 0.1031
0.4002 0.2870 0.0800
0.4521 0.2853 0.0648
0.5010 0.2839 0.0537
0.5477 0.2834 0.0473
0.5949 0.2833 0.0427
0.6418 0.2834 0.0398
0.6880 0.2839 0.0448
0.7340 0.2845 0.0497
0.7807 0.2848 0.0468
0.8271 0.2852 0.0431
0.8730 0.2856 0.0400
0.9179 0.2861 0.0365
0.9587 0.2885 0.0377
0.9949 0.2927 0.0423
1.0000 0.2973 0.0473
0.1248 0.3170 0.1548
0.1371 0.3171 0.1542
0.1524 0.3172 0.1534
0.1736 0.3175 0.1521
0.1994 0.3179 0.1504
0.2292 0.3184 0.1485
0.2618 0.3191 0.1462
0.2959 0.3203 0.1429
0.3316 0.3218 0.1387
0.3683 0.3239 0.1334
0.4054 0.3266 0.1271
0.4409 0.3309 0.1090
0.4966 0.3279 0.0908
0.5464 0.3264 0.0792
0.5952 0.3257 0.0718
0.6427 0.3256 0.0670
0.6899 0.3256 0.0634
0.7367 0.3258 0.0607
0.7826 0.3263 0.0651
0.8287 0.3267 0.0645
0.8746 0.3270 0.0607
0.9191 0.3277 0.0577
0.9587 0.3307 0.0608
0.9950 0.3342 0.0642
1.0000 0.3382 0.0684
0.1424 0.3583 0.1766
0.1536 0.3584 0.1761
0.1677 0.3585 0.1754
0.1875 0.3587 0.1743
0.2120 0.3591 0.1729
0.2404 0.3595 0.1710
0.2721 0.3602 0.1690
0.3061 0.3610 0.1668
0.3417 0.3621 0.1639
0.3781 0.3637 0.1598
0.4154 0.3658 0.1547
0.4530 0.3685 0.1490
0.4858 0.3734 0.1370
0.5422 0.3703 0.1152
0.5928 0.3693 0.1048
0.6426 0.3684 0.0965
0.6903 0.3682 0.0917
0.7376 0.3682 0.0879
0.7842 0.3682 0.0851
0.8305 0.3685 0.0831
0.8761 0.3688 0.0824
0.9188 0.3706 0.0827
0.9585 0.3732 0.0846
0.9949 0.3763 0.0871
1.0000 0.3796 0.0905
0.1603 0.3997 0.1980
0.1705 0.3998 0.1976
0.1836 0.3999 0.1970
0.2021 0.4001 0.1960
0.2254 0.4004 0.1948
0.2526 0.4008 0.1932
0.2831 0.4014 0.1912
0.3162 0.4021 0.1890
0.3515 0.4029 0.1868
0.3881 0.4041 0.1842
0.4254 0.4057 0.1804
0.4630 0.4079 0.1755
0.5000 0.4103 0.1699
0.5343 0.4145 0.1609
0.5889 0.4130 0.1387
0.6395 0.4121 0.1294
0.6898 0.4111 0.1207
0.7376 0.4109 0.1159
0.7848 0.4108 0.1121
0.8313 0.4108 0.1092
0.8762 0.4116 0.1075
0.9189 0.4131 0.1074
0.9580 0.4159 0.1093
0.9946 0.4186 0.1109
1.0000 0.4216 0.1131
0.1771 0.4421 0.2187
0.1866 0.4422 0.2184
0.1991 0.4423 0.2179
0.2167 0.4424 0.2173
0.2392 0.4426 0.2164
0.2655 0.4429 0.2151
0.2949 0.4434 0.2134
0.3271 0.4441 0.2112
0.3614 0.4450 0.2089
0.3977 0.4459 0.2066
0.4350 0.4472 0.2039
0.4728 0.4489 0.2007
0.5099 0.4510 0.1958
0.5473 0.4537 0.1903
0.5835 0.4580 0.1825
0.6351 0.4577 0.1614
0.6872 0.4563 0.1515
0.7363 0.4557 0.1445
0.7844 0.4552 0.1392
0.8306 0.4555 0.1358
0.8753 0.4564 0.1337
0.9186 0.4577 0.1324
0.9594 0.4592 0.1318
0.9951 0.4624 0.1336
1.0000 0.4660 0.1360
0.1939 0.4871 0.2396
0.2028 0.4871 0.2394
0.2144 0.4872 0.2389
0.2311 0.4873 0.2383
0.2525 0.4875 0.2375
0.2780 0.4877 0.2365
0.3069 0.4881 0.2352
0.3385 0.4886 0.2336
0.3720 0.4894 0.2313
0.4073 0.4904 0.2288
0.4443 0.4915 0.2264
0.4817 0.4928 0.2236
0.5192 0.4943 0.2202
0.5573 0.4966 0.2160
0.5956 0.4996 0.2106
0.6324 0.5037 0.2034
0.6799 0.5050 0.1839
0.7341 0.5028 0.1729
0.7824 0.5025 0.1665
0.8283 0.5031 0.1625
0.8737 0.5037 0.1595
0.9176 0.5047 0.1573
0.9587 0.5061 0.1558
0.9961 0.5075 0.1550
1.0000 0.5101 0.1557
0.2107 0.5342 0.2611
0.2191 0.5342 0.2609
0.2299 0.5343 0.2605
0.2457 0.5344 0.2600
0.2661 0.5346 0.2592
0.2906 0.5348 0.2582
0.3186 0.5351 0.2570
0.3495 0.5356 0.2556
0.3827 0.5362 0.2539
0.4178 0.5369 0.2519
0.4538 0.5380 0.2491
0.4907 0.5391 0.2466
0.5280 0.5404 0.2437
0.5665 0.5424 0.2403
0.6054 0.5449 0.2362
0.6440 0.5480 0.2310
0.6810 0.5524 0.2244
0.7209 0.5566 0.2086
0.7783 0.5531 0.1952
0.8267 0.5528 0.1885
0.8721 0.5536 0.1846
0.9156 0.5547 0.1821
0.9571 0.5556 0.1796
0.9949 0.5569 0.1779
0.9998 0.5584 0.1769
0.2279 0.5845 0.2838
0.2356 0.5845 0.2835
0.2459 0.5846 0.2832
0.2608 0.5847 0.2827
0.2803 0.5848 0.2819
0.3038 0.5850 0.2810
0.3309 0.5853 0.2799
0.3609 0.5858 0.2785
0.3935 0.5863 0.2769
0.4280 0.5870 0.2750
0.4640 0.5878 0.2730
0.5001 0.5887 0.2704
0.5372 0.5898 0.2676
0.5758 0.5916 0.2646
0.6146 0.5937 0.2612
0.6533 0.5964 0.2573
0.6915 0.5997 0.2528
0.7287 0.6040 0.2466
0.7610 0.6111 0.2352
0.8219 0.6062 0.2178
0.8704 0.6055 0.2103
0.9153 0.6059 0.2056
0.9555 0.6076 0.2037
0.9935 0.6089 0.2015
0.9998 0.6102 0.1996
0.2458 0.6361 0.3083
0.2530 0.6361 0.3080
0.2625 0.6362 0.3075
0.2764 0.6364 0.3068
0.2948 0.6365 0.3060
0.3174 0.6368 0.3050
0.3436 0.6370 0.3040
0.3728 0.6374 0.3026
0.4046 0.6379 0.3011
0.4384 0.6385 0.2993
0.4736 0.6391 0.2973
0.5094 0.6398 0.2949
0.5461 0.6409 0.2925
0.5841 0.6425 0.2902
0.6227 0.6444 0.2873
0.6615 0.6466 0.2839
0.7002 0.6492 0.2798
0.7385 0.6523 0.2749
0.7755 0.6564 0.2695
0.8084 0.6629 0.2593
0.8645 0.6600 0.2407
0.9128 0.6591 0.2323
0.9561 0.6593 0.2266
0.9934 0.6609 0.2245
0.9999 0.6630 0.2233
0.2628 0.6885 0.3329
0.2697 0.6886 0.3327
0.2788 0.6886 0.3323
0.2922 0.6887 0.3318
0.3098 0.6889 0.3311
0.3314 0.6891 0.3303
0.3564 0.6894 0.3293
0.3846 0.6897 0.3281
0.4154 0.6902 0.3267
0.4484 0.6908 0.3251
0.4825 0.6913 0.3233
0.5177 0.6919 0.3212
0.5543 0.6927 0.3188
0.5922 0.6939 0.3162
0.6303 0.6955 0.3139
0.6688 0.6973 0.3112
0.7077 0.6995 0.3076
0.7465 0.7020 0.3033
0.7849 0.7050 0.2979
0.8218 0.7090 0.2931
0.8564 0.7145 0.2837
0.9063 0.7140 0.2640
0.9530 0.7130 0.2550
0.9933 0.7131 0.2488
0.9999 0.7145 0.2457
0.2792 0.7408 0.3588
0.2856 0.7408 0.3585
0.2942 0.7409 0.3583
0.3070 0.7409 0.3577
0.3238 0.7411 0.3572
0.3445 0.7412 0.3563
0.3688 0.7414 0.3554
0.3961 0.7417 0.3542
0.4254 0.7421 0.3534
0.4576 0.7426 0.3520
0.4909 0.7429 0.3502
0.5256 0.7433 0.3481
0.5621 0.7441 0.3458
0.5998 0.7452 0.3434
0.6381 0.7464 0.3406
0.6766 0.7480 0.3381
0.7148 0.7499 0.3360
0.7537 0.7520 0.3323
0.7924 0.7545 0.3279
0.8308 0.7575 0.3225
0.8678 0.7612 0.3174
0.9025 0.7662 0.3094
0.9465 0.7675 0.2880
0.9900 0.7665 0.2789
1.0000 0.7665 0.2719
0.2949 0.7919 0.3853
0.3010 0.7919 0.3851
0.3092 0.7920 0.3848
0.3215 0.7921 0.3843
0.3376 0.7922 0.3837
0.3576 0.7923 0.3830
0.3811 0.7925 0.3821
0.4077 0.7927 0.3809
0.4369 0.7930 0.3795
0.4679 0.7935 0.3785
0.4998 0.7938 0.3775
0.5337 0.7942 0.3759
0.5699 0.7949 0.3737
0.6073 0.7958 0.3714
0.6454 0.7968 0.3688
0.6840 0.7981 0.3660
0.7227 0.7996 0.3632
0.7610 0.8015 0.3610
0.7994 0.8036 0.3582
0.8380 0.8061 0.3536
0.8762 0.8089 0.3482
0.9127 0.8124 0.3425
0.9462 0.8170 0.3357
0.9822 0.8205 0.3149
1.0000 0.8187 0.3038
0.3106 0.8415 0.4124
0.3165 0.8416 0.4122
0.3243 0.8416 0.4120
0.3360 0.8417 0.4116
0.3516 0.8418 0.4110
0.3708 0.8419 0.4103
0.3936 0.8421 0.4094
0.4194 0.8423 0.4083
0.4480 0.8426 0.4070
0.4784 0.8428 0.4055
0.5101 0.8430 0.4041
0.5432 0.8434 0.4030
0.5783 0.8441 0.4019
0.6149 0.8450 0.4002
0.6527 0.8459 0.3977
0.6910 0.8469 0.3950
0.7298 0.8482 0.3921
0.7687 0.8496 0.3889
0.8069 0.8515 0.3868
0.8450 0.8536 0.3842
0.8831 0.8559 0.3802
0.9204 0.8586 0.3746
0.9555 0.8620 0.3688
0.9869 0.8662 0.3623
1.0000 0.8728 0.3483
0.3264 0.8891 0.4401
0.3321 0.8891 0.4400
0.3396 0.8892 0.4398
0.3508 0.8892 0.4393
0.3657 0.8893 0.4388
0.3843 0.8894 0.4381
0.4063 0.8896 0.4372
0.4314 0.8898 0.4362
0.4592 0.8900 0.4350
0.4888 0.8901 0.4335
0.5201 0.8902 0.4319
0.5535 0.8905 0.4302
0.5880 0.8912 0.4291
0.6237 0.8919 0.4280
0.6603 0.8928 0.4267
0.6981 0.8937 0.4247
0.7366 0.8948 0.4219
0.7754 0.8960 0.4188
0.8144 0.8974 0.4155
0.8526 0.8993 0.4133
0.8904 0.9014 0.4107
0.9272 0.9038 0.4077
0.9626 0.9064 0.4024
0.9949 0.9095 0.3962
1.0000 0.9133 0.3899
0.3426 0.9335 0.4678
0.3479 0.9335 0.4677
0.3549 0.9336 0.4676
0.3656 0.9337 0.4672
0.3800 0.9338 0.4668
0.3979 0.9341 0.4661
0.4192 0.9342 0.4653
0.4435 0.9344 0.4644
0.4705 0.9346 0.4633
0.4993 0.9346 0.4619
0.5301 0.9346 0.4603
0.5632 0.9349 0.4586
0.5980 0.9354 0.4568
0.6333 0.9361 0.4557
0.6695 0.9369 0.4545
0.7065 0.9379 0.4533
0.7440 0.9389 0.4519
0.7825 0.9400 0.4495
0.8213 0.9413 0.4464
0.8602 0.9427 0.4430
0.8980 0.9444 0.4406
0.9345 0.9463 0.4380
0.9691 0.9485 0.4350
1.0000 0.9510 0.4309
1.0000 0.9537 0.4242
0.3601 0.9745 0.4944
0.3651 0.9746 0.4943
0.3719 0.9746 0.4941
0.3820 0.9747 0.4939
0.3957 0.9748 0.4936
0.4127 0.9749 0.4932
0.4330 0.9751 0.4927
0.4563 0.9754 0.4923
0.4821 0.9756 0.4913
0.5102 0.9756 0.4900
0.5405 0.9757 0.4886
0.5733 0.9761 0.4871
0.6077 0.9765 0.4854
0.6432 0.9771 0.4837
0.6792 0.9778 0.4823
0.7157 0.9786 0.4812
0.7529 0.9795 0.4799
0.7904 0.9805 0.4785
0.8282 0.9816 0.4769
0.8668 0.9827 0.4742
0.9051 0.9840 0.4707
0.9415 0.9856 0.4681
0.9757 0.9873 0.4657
1.0000 0.9893 0.4626
1.0000 0.9915 0.4591
0.3779 1.0000 0.5211
0.3828 1.0000 0.5211
0.3893 1.0000 0.5209
0.3990 1.0000 0.5208
0.4121 1.0000 0.5205
0.4285 1.0000 0.5201
0.4481 1.0000 0.5197
0.4704 1.0000 0.5192
0.4951 0.9999 0.5185
0.5221 0.9996 0.5178
0.5516 0.9995 0.5169
0.5837 0.9996 0.5156
0.6175 0.9996 0.5140
0.6525 0.9997 0.5123
0.6886 0.9997 0.5104
0.7251 0.9997 0.5089
0.7618 0.9998 0.5077
0.7990 0.9998 0.5064
0.8365 0.9998 0.5051
0.8741 0.9999 0.5034
0.9114 0.9999 0.5015
0.9480 1.0000 0.4981
0.9820 1.0000 0.4953
1.0000 1.0000 0.4929
1.0000 1.0000 0.4898
0.0000 0.0010 0.0170
0.0189 0.0013 0.0269
0.0552 0.0025 0.0189
0.1000 0.0015 0.0113
0.1392 0.0021 0.0057
0.1794 0.0028 0.0017
0.2204 0.0040 0.0000
0.2645 0.0036 0.0000
0.3073 0.0047 0.0028
0.3514 0.0057 0.0057
0.3961 0.0068 0.0087
0.4415 0.0080 0.0119
0.4867 0.0094 0.0153
0.5319 0.0108 0.0174
0.5787 0.0118 0.0176
0.6258 0.0133 0.0178
0.6731 0.0153 0.0178
0.7205 0.0176 0.0180
0.7676 0.0201 0.0181
0.8107 0.0353 0.0233
0.8528 0.0514 0.0305
0.8944 0.0673 0.0381
0.9345 0.0830 0.0461
0.9720 0.0988 0.0545
1.0000 0.1145 0.0631
0.0046 0.0194 0.0276
0.0289 0.0212 0.0219
0.0681 0.0209 0.0119
0.1073 0.0206 0.0024
0.1448 0.0216 0.0000
0.1797 0.0255 0.0000
0.2205 0.0269 0.0000
0.2674 0.0233 0.0000
0.3095 0.0251 0.0026
0.3528 0.0267 0.0071
0.3974 0.0281 0.0100
0.4426 0.0297 0.0131
0.4877 0.0314 0.0164
0.5329 0.0328 0.0178
0.5796 0.0341 0.0180
0.6266 0.0355 0.0181
0.6739 0.0375 0.0181
0.7212 0.0397 0.0183
0.7683 0.0421 0.0184
0.8130 0.0501 0.0215
0.8550 0.0644 0.0288
0.8963 0.0789 0.0366
0.9362 0.0935 0.0448
0.9735 0.1083 0.0534
1.0000 0.1231 0.0622
0.0127 0.0489 0.0298
0.0393 0.0500 0.0266
0.0681 0.0514 0.0200
0.1090 0.0512 0.0023
0.1453 0.0523 0.0000
0.1790 0.0558 0.0000
0.2233 0.0547 0.0000
0.2689 0.0527 0.0000
0.3124 0.0525 0.0012
0.3551 0.0538 0.0068
0.3990 0.0551 0.0117
0.4441 0.0563 0.0147
0.4889 0.0576 0.0180
0.5342 0.0586 0.0184
0.5808 0.0596 0.0185
0.6278 0.0608 0.0185
0.6750 0.0624 0.0186
0.7222 0.0642 0.0187
0.7692 0.0661 0.0189
0.8159 0.0681 0.0191
0.8578 0.0805 0.0263
0.8989 0.0935 0.0345
0.9385 0.1069 0.0430
0.9756 0.1205 0.0518
1.0000 0.1344 0.0608
0.0229 0.0828 0.0443
0.0478 0.0838 0.0417
0.0741 0.0849 0.0371
0.1062 0.0864 0.0268
0.1454 0.0872 0.0066
0.1892 0.0860 0.0000
0.2292 0.0864 0.0000
0.2738 0.0848 0.0000
0.3157 0.0852 0.0006
0.3584 0.0859 0.0050
0.4018 0.0870 0.0110
0.4461 0.0883 0.0170
0.4909 0.0891 0.0192
0.5360 0.0899 0.0193
0.5825 0.0907 0.0192
0.6295 0.0918 0.0192
0.6766 0.0931 0.0193
0.7237 0.0945 0.0194
0.7706 0.0960 0.0196
0.8172 0.0977 0.0198
0.8621 0.1021 0.0223
0.9028 0.1136 0.0310
0.9420 0.1255 0.0400
0.9786 0.1378 0.0492
1.0000 0.1507 0.0586
0.0346 0.1202 0.0615
0.0588 0.1206 0.0595
0.0838 0.1212 0.0568
0.1135 0.1222 0.0526
0.1462 0.1237 0.0467
0.1825 0.1257 0.0268
0.2287 0.1243 0.0116
0.2752 0.1223 0.0041
0.3178 0.1222 0.0064
0.3606 0.1226 0.0102
0.4043 0.1231 0.0147
0.4486 0.1239 0.0200
0.4931 0.1246 0.0233
0.5383 0.1250 0.0211
0.5849 0.1256 0.0202
0.6318 0.1265 0.0202
0.6788 0.1276 0.0203
0.7257 0.1287 0.0205
0.7724 0.1299 0.0207
0.8189 0.1313 0.0209
0.8650 0.1328 0.0213
0.9081 0.1381 0.0257
0.9467 0.1485 0.0355
0.9827 0.1594 0.0453
1.0000 0.1712 0.0554
0.0533 0.1581 0.0804
0.0738 0.1583 0.0790
0.0963 0.1587 0.0770
0.1238 0.1594 0.0737
0.1547 0.1606 0.0688
0.1882 0.1622 0.0628
0.2222 0.1650 0.0506
0.2706 0.1635 0.0288
0.3175 0.1620 0.0179
0.3628 0.1612 0.0167
0.4066 0.1615 0.0212
0.4512 0.1618 0.0246
0.4955 0.1622 0.0277
0.5401 0.1629 0.0311
0.5868 0.1634 0.0302
0.6339 0.1640 0.0277
0.6810 0.1646 0.0254
0.7280 0.1653 0.0231
0.7747 0.1662 0.0222
0.8211 0.1673 0.0225
0.8670 0.1685 0.0229
0.9121 0.1698 0.0233
0.9526 0.1749 0.0288
0.9878 0.1846 0.0397
1.0000 0.1954 0.0508
0.0706 0.1969 0.1005
0.0883 0.1971 0.0994
0.1087 0.1973 0.0979
0.1347 0.1978 0.0957
0.1646 0.1985 0.0926
0.1969 0.1998 0.0877
0.2312 0.2016 0.0815
0.2661 0.2043 0.0712
0.3141 0.2035 0.0467
0.3625 0.2020 0.0347
0.4091 0.2010 0.0280
0.4539 0.2011 0.0305
0.4983 0.2014 0.0335
0.5431 0.2019 0.0369
0.5891 0.2026 0.0408
0.6357 0.2032 0.0414
0.6828 0.2037 0.0386
0.7298 0.2042 0.0360
0.7765 0.2048 0.0334
0.8231 0.2055 0.0310
0.8691 0.2062 0.0286
0.9142 0.2071 0.0262
0.9568 0.2082 0.0259
0.9939 0.2126 0.0316
1.0000 0.2227 0.0444
0.0878 0.2364 0.1222
0.1031 0.2366 0.1211
0.1216 0.2368 0.1199
0.1460 0.2371 0.1180
0.1746 0.2377 0.1155
0.2062 0.2386 0.1122
0.2400 0.2399 0.1079
0.2752 0.2418 0.1017
0.3109 0.2444 0.0924
0.3571 0.2447 0.0682
0.4071 0.2431 0.0551
0.4556 0.2421 0.0460
0.5012 0.2418 0.0409
0.5461 0.2421 0.0441
0.5921 0.2425 0.0478
0.6382 0.2431 0.0518
0.6846 0.2438 0.0544
0.7315 0.2442 0.0513
0.7783 0.2447 0.0483
0.8247 0.2452 0.0455
0.8708 0.2458 0.0429
0.9158 0.2464 0.0403
0.9584 0.2472 0.0378
0.9971 0.2484 0.0360
1.0000 0.2544 0.0420
0.1047 0.2766 0.1433
0.1185 0.2767 0.1426
0.1354 0.2768 0.1416
0.1581 0.2771 0.1400
0.1854 0.2776 0.1380
0.2161 0.2783 0.1354
0.2493 0.2793 0.1321
0.2842 0.2807 0.1280
0.3206 0.2826 0.1230
0.3571 0.2854 0.1146
0.4002 0.2872 0.0927
0.4524 0.2854 0.0778
0.5012 0.2840 0.0677
0.5477 0.2836 0.0618
0.5948 0.2836 0.0577
0.6411 0.2839 0.0599
0.6873 0.2844 0.0640
0.7333 0.2851 0.0685
0.7800 0.2855 0.0654
0.8264 0.2858 0.0621
0.8724 0.2863 0.0591
0.9173 0.2868 0.0563
0.9599 0.2874 0.0535
0.9971 0.2899 0.0545
1.0000 0.2945 0.0591
0.1218 0.3173 0.1638
0.1343 0.3174 0.1632
0.1498 0.3176 0.1624
0.1712 0.3178 0.1612
0.1973 0.3182 0.1596
0.2274 0.3187 0.1579
0.2598 0.3196 0.1554
0.2941 0.3207 0.1522
0.3300 0.3223 0.1482
0.3670 0.3243 0.1433
0.4043 0.3270 0.1367
0.4435 0.3302 0.1172
0.4969 0.3280 0.1016
0.5466 0.3265 0.0908
0.5952 0.3259 0.0840
0.6426 0.3258 0.0796
0.6898 0.3259 0.0763
0.7362 0.3262 0.0772
0.7820 0.3268 0.0817
0.8281 0.3272 0.0807
0.8741 0.3275 0.0772
0.9189 0.3279 0.0739
0.9612 0.3285 0.0712
0.9971 0.3320 0.0745
1.0000 0.3360 0.0783
0.1396 0.3586 0.1843
0.1509 0.3587 0.1838
0.1653 0.3588 0.1832
0.1852 0.3590 0.1821
0.2100 0.3594 0.1808
0.2385 0.3599 0.1790
0.2704 0.3605 0.1771
0.3046 0.3613 0.1750
0.3401 0.3625 0.1719
0.3767 0.3641 0.1679
0.4142 0.3662 0.1630
0.4520 0.3688 0.1575
0.4851 0.3737 0.1450
0.5417 0.3706 0.1251
0.5930 0.3694 0.1145
0.6426 0.3685 0.1067
0.6903 0.3684 0.1021
0.7375 0.3683 0.0986
0.7841 0.3685 0.0960
0.8302 0.3688 0.0956
0.8756 0.3692 0.0968
0.9205 0.3695 0.0931
0.9608 0.3715 0.0935
0.9969 0.3745 0.0959
1.0000 0.3778 0.0988
