EA 50 Cinematic Luts Pack/EA_Cinematic Lut (35).cube
TITLE "Crisp contrast and cold, subdued hues will extract the essence and stress the mood of every action footage. "
LUT_3D_SIZE 25
0.0000 0.0000 0.0000
0.0169 0.0070 0.0043
0.0401 0.0166 0.0102
0.0687 0.0312 0.0190
0.0974 0.0505 0.0314
0.1261 0.0703 0.0470
0.1548 0.0902 0.0632
0.1836 0.1102 0.0795
0.2123 0.1301 0.0957
0.2409 0.1498 0.1118
0.2693 0.1695 0.1278
0.2977 0.1892 0.1438
0.3261 0.2089 0.1598
0.3545 0.2285 0.1759
0.3829 0.2481 0.1918
0.4113 0.2678 0.2078
0.4400 0.2877 0.2240
0.4685 0.3075 0.2402
0.4966 0.3273 0.2563
0.5245 0.3471 0.2724
0.5529 0.3669 0.2885
0.5816 0.3868 0.3047
0.6104 0.4067 0.3210
0.6391 0.4266 0.3372
0.6678 0.4465 0.3533
0.0107 0.0365 0.0221
0.0394 0.0416 0.0113
0.0668 0.0476 0.0181
0.0923 0.0581 0.0276
0.1168 0.0720 0.0406
0.1421 0.0877 0.0552
0.1682 0.1047 0.0703
0.1950 0.1224 0.0855
0.2222 0.1406 0.1009
0.2495 0.1589 0.1163
0.2769 0.1775 0.1318
0.3045 0.1963 0.1474
0.3322 0.2153 0.1630
0.3600 0.2343 0.1788
0.3880 0.2534 0.1945
0.4159 0.2726 0.2103
0.4443 0.2921 0.2263
0.4724 0.3117 0.2423
0.5001 0.3311 0.2582
0.5279 0.3506 0.2743
0.5561 0.3703 0.2903
0.5847 0.3900 0.3064
0.6132 0.4097 0.3225
0.6418 0.4294 0.3386
0.6704 0.4491 0.3547
0.0254 0.0760 0.0513
0.0464 0.0810 0.0325
0.0802 0.0833 0.0266
0.1083 0.0884 0.0368
0.1340 0.0972 0.0501
0.1592 0.1087 0.0634
0.1837 0.1226 0.0776
0.2088 0.1378 0.0922
0.2343 0.1540 0.1070
0.2602 0.1708 0.1219
0.2864 0.1881 0.1369
0.3131 0.2058 0.1520
0.3401 0.2238 0.1673
0.3673 0.2421 0.1826
0.3946 0.2605 0.1981
0.4221 0.2792 0.2136
0.4500 0.2982 0.2293
0.4776 0.3173 0.2451
0.5050 0.3363 0.2609
0.5324 0.3555 0.2767
0.5605 0.3748 0.2926
0.5888 0.3943 0.3086
0.6171 0.4137 0.3246
0.6455 0.4332 0.3405
0.6739 0.4527 0.3566
0.0473 0.1155 0.0833
0.0580 0.1205 0.0656
0.0874 0.1225 0.0568
0.1210 0.1250 0.0494
0.1496 0.1298 0.0606
0.1757 0.1375 0.0740
0.2012 0.1474 0.0870
0.2261 0.1593 0.1004
0.2504 0.1729 0.1146
0.2750 0.1876 0.1289
0.3001 0.2032 0.1435
0.3256 0.2195 0.1582
0.3515 0.2363 0.1731
0.3776 0.2536 0.1881
0.4041 0.2711 0.2032
0.4311 0.2891 0.2184
0.4584 0.3073 0.2338
0.4853 0.3257 0.2493
0.5122 0.3442 0.2648
0.5392 0.3629 0.2804
0.5670 0.3817 0.2961
0.5949 0.4007 0.3118
0.6229 0.4198 0.3276
0.6509 0.4390 0.3435
0.6791 0.4582 0.3593
0.0711 0.1552 0.1155
0.0802 0.1587 0.1034
0.0933 0.1629 0.0860
0.1283 0.1642 0.0817
0.1619 0.1669 0.0738
0.1907 0.1713 0.0843
0.2173 0.1779 0.0973
0.2426 0.1868 0.1105
0.2677 0.1973 0.1235
0.2924 0.2094 0.1371
0.3166 0.2230 0.1512
0.3411 0.2375 0.1656
0.3660 0.2528 0.1800
0.3913 0.2687 0.1946
0.4170 0.2851 0.2094
0.4431 0.3022 0.2245
0.4693 0.3195 0.2396
0.4953 0.3371 0.2548
0.5216 0.3548 0.2700
0.5484 0.3729 0.2853
0.5757 0.3911 0.3007
0.6031 0.4096 0.3162
0.6307 0.4282 0.3318
0.6583 0.4469 0.3474
0.6861 0.4656 0.3631
0.0947 0.1946 0.1475
0.1022 0.1973 0.1380
0.1099 0.2013 0.1232
0.1348 0.2039 0.1114
0.1689 0.2055 0.1062
0.2023 0.2082 0.0977
0.2313 0.2124 0.1077
0.2582 0.2185 0.1209
0.2837 0.2266 0.1341
0.3090 0.2362 0.1471
0.3341 0.2471 0.1600
0.3586 0.2595 0.1737
0.3828 0.2731 0.1879
0.4073 0.2875 0.2023
0.4324 0.3027 0.2168
0.4577 0.3185 0.2315
0.4829 0.3347 0.2462
0.5081 0.3513 0.2611
0.5336 0.3682 0.2761
0.5599 0.3855 0.2912
0.5864 0.4031 0.3064
0.6133 0.4209 0.3217
0.6404 0.4389 0.3370
0.6676 0.4570 0.3523
0.6948 0.4750 0.3678
0.1182 0.2337 0.1792
0.1245 0.2359 0.1715
0.1317 0.2390 0.1607
0.1394 0.2443 0.1386
0.1756 0.2449 0.1360
0.2093 0.2467 0.1306
0.2426 0.2495 0.1217
0.2719 0.2536 0.1309
0.2989 0.2593 0.1444
0.3249 0.2668 0.1575
0.3502 0.2757 0.1706
0.3754 0.2858 0.1836
0.4007 0.2972 0.1967
0.4252 0.3099 0.2106
0.4496 0.3236 0.2250
0.4740 0.3380 0.2393
0.4983 0.3529 0.2538
0.5229 0.3684 0.2683
0.5480 0.3843 0.2830
0.5737 0.4007 0.2979
0.5997 0.4175 0.3128
0.6259 0.4345 0.3279
0.6522 0.4519 0.3430
0.6787 0.4692 0.3582
0.7053 0.4865 0.3734
0.1418 0.2729 0.2110
0.1471 0.2747 0.2047
0.1535 0.2772 0.1957
0.1612 0.2814 0.1799
0.1812 0.2849 0.1646
0.2162 0.2859 0.1604
0.2497 0.2879 0.1547
0.2830 0.2908 0.1456
0.3125 0.2947 0.1541
0.3396 0.3002 0.1679
0.3663 0.3072 0.1808
0.3916 0.3157 0.1944
0.4171 0.3254 0.2074
0.4425 0.3361 0.2204
0.4677 0.3477 0.2336
0.4914 0.3605 0.2477
0.5153 0.3741 0.2619
0.5393 0.3883 0.2762
0.5642 0.4032 0.2907
0.5893 0.4185 0.3053
0.6147 0.4344 0.3200
0.6403 0.4505 0.3348
0.6660 0.4669 0.3496
0.6919 0.4833 0.3646
0.7179 0.4999 0.3796
0.1652 0.3120 0.2427
0.1699 0.3135 0.2374
0.1755 0.3157 0.2297
0.1831 0.3191 0.2178
0.1901 0.3244 0.1957
0.2223 0.3257 0.1898
0.2566 0.3270 0.1846
0.2901 0.3292 0.1788
0.3235 0.3322 0.1696
0.3533 0.3362 0.1776
0.3808 0.3416 0.1916
0.4076 0.3483 0.2047
0.4332 0.3563 0.2182
0.4589 0.3654 0.2313
0.4838 0.3754 0.2442
0.5084 0.3862 0.2573
0.5331 0.3980 0.2705
0.5572 0.4110 0.2846
0.5817 0.4247 0.2989
0.6063 0.4389 0.3133
0.6311 0.4537 0.3278
0.6561 0.4687 0.3423
0.6813 0.4839 0.3569
0.7066 0.4995 0.3716
0.7322 0.5154 0.3864
0.1888 0.3513 0.2746
0.1929 0.3526 0.2700
0.1979 0.3545 0.2633
0.2050 0.3574 0.2534
0.2127 0.3618 0.2371
0.2274 0.3663 0.2175
0.2635 0.3670 0.2146
0.2975 0.3686 0.2096
0.3309 0.3710 0.2033
0.3644 0.3740 0.1939
0.3943 0.3780 0.2011
0.4219 0.3832 0.2154
0.4489 0.3895 0.2286
0.4749 0.3969 0.2415
0.4996 0.4055 0.2551
0.5245 0.4149 0.2680
0.5495 0.4253 0.2810
0.5749 0.4366 0.2941
0.6000 0.4486 0.3075
0.6243 0.4617 0.3218
0.6486 0.4750 0.3360
0.6731 0.4889 0.3503
0.6978 0.5032 0.3648
0.7227 0.5178 0.3792
0.7477 0.5329 0.3938
0.2125 0.3909 0.3067
0.2162 0.3920 0.3027
0.2207 0.3937 0.2969
0.2272 0.3963 0.2881
0.2349 0.3999 0.2753
0.2420 0.4052 0.2536
0.2693 0.4075 0.2436
0.3045 0.4085 0.2396
0.3383 0.4103 0.2344
0.3718 0.4127 0.2277
0.4052 0.4158 0.2181
0.4354 0.4197 0.2247
0.4631 0.4247 0.2390
0.4895 0.4306 0.2524
0.5155 0.4376 0.2651
0.5402 0.4458 0.2789
0.5658 0.4549 0.2919
0.5913 0.4648 0.3049
0.6166 0.4753 0.3179
0.6419 0.4864 0.3310
0.6667 0.4983 0.3445
0.6909 0.5111 0.3587
0.7152 0.5244 0.3730
0.7397 0.5382 0.3873
0.7645 0.5528 0.4018
0.2363 0.4304 0.3388
0.2395 0.4315 0.3353
0.2437 0.4330 0.3302
0.2495 0.4353 0.3222
0.2569 0.4384 0.3114
0.2647 0.4429 0.2947
0.2739 0.4484 0.2706
0.3108 0.4488 0.2691
0.3455 0.4501 0.2644
0.3792 0.4520 0.2592
0.4126 0.4545 0.2520
0.4460 0.4576 0.2424
0.4760 0.4613 0.2484
0.5031 0.4660 0.2625
0.5296 0.4716 0.2761
0.5561 0.4782 0.2889
0.5819 0.4859 0.3023
0.6073 0.4944 0.3157
0.6328 0.5037 0.3287
0.6581 0.5137 0.3417
0.6834 0.5243 0.3547
0.7086 0.5357 0.3679
0.7335 0.5480 0.3816
0.7578 0.5612 0.3958
0.7822 0.5748 0.4101
0.2600 0.4699 0.3709
0.2630 0.4708 0.3678
0.2667 0.4720 0.3633
0.2720 0.4740 0.3560
0.2790 0.4768 0.3465
0.2869 0.4805 0.3329
0.2940 0.4856 0.3116
0.3160 0.4888 0.2970
0.3520 0.4895 0.2940
0.3862 0.4909 0.2888
0.4198 0.4929 0.2837
0.4532 0.4954 0.2763
0.4861 0.4983 0.2664
0.5157 0.5018 0.2718
0.5431 0.5063 0.2859
0.5703 0.5119 0.2997
0.5972 0.5183 0.3127
0.6236 0.5255 0.3255
0.6486 0.5339 0.3394
0.6742 0.5429 0.3524
0.6997 0.5528 0.3655
0.7251 0.5633 0.3785
0.7505 0.5744 0.3916
0.7758 0.5862 0.4048
0.8005 0.5987 0.4186
0.2837 0.5084 0.4029
0.2863 0.5092 0.4000
0.2898 0.5104 0.3960
0.2947 0.5122 0.3895
0.3011 0.5147 0.3807
0.3087 0.5179 0.3691
0.3164 0.5223 0.3520
0.3228 0.5282 0.3261
0.3576 0.5289 0.3228
0.3929 0.5299 0.3186
0.4269 0.5315 0.3134
0.4604 0.5335 0.3081
0.4930 0.5359 0.3001
0.5256 0.5388 0.2905
0.5558 0.5425 0.2953
0.5840 0.5472 0.3094
0.6113 0.5527 0.3233
0.6383 0.5591 0.3366
0.6650 0.5662 0.3493
0.6903 0.5745 0.3631
0.7159 0.5833 0.3763
0.7415 0.5927 0.3894
0.7669 0.6029 0.4024
0.7922 0.6135 0.4154
0.8173 0.6246 0.4284
0.3073 0.5472 0.4348
0.3097 0.5480 0.4322
0.3129 0.5491 0.4286
0.3175 0.5507 0.4229
0.3234 0.5531 0.4146
0.3307 0.5561 0.4044
0.3386 0.5600 0.3904
0.3458 0.5653 0.3692
0.3624 0.5696 0.3500
0.3991 0.5700 0.3483
0.4339 0.5712 0.3437
0.4676 0.5729 0.3384
0.5002 0.5749 0.3326
0.5328 0.5774 0.3240
0.5661 0.5805 0.3147
0.5968 0.5843 0.3189
0.6251 0.5888 0.3329
0.6525 0.5943 0.3470
0.6796 0.6004 0.3604
0.7064 0.6074 0.3733
0.7324 0.6151 0.3864
0.7575 0.6237 0.4002
0.7829 0.6327 0.4131
0.8082 0.6423 0.4260
0.8334 0.6525 0.4389
0.3311 0.5868 0.4668
0.3333 0.5875 0.4645
0.3362 0.5885 0.4613
0.3405 0.5900 0.4561
0.3460 0.5922 0.4485
0.3529 0.5949 0.4392
0.3606 0.5984 0.4269
0.3683 0.6030 0.4095
0.3749 0.6089 0.3845
0.4044 0.6107 0.3763
0.4404 0.6114 0.3734
0.4745 0.6127 0.3684
0.5074 0.6142 0.3631
0.5401 0.6163 0.3570
0.5735 0.6191 0.3480
0.6070 0.6223 0.3389
0.6378 0.6260 0.3426
0.6662 0.6305 0.3565
0.6937 0.6358 0.3707
0.7207 0.6417 0.3841
0.7474 0.6483 0.3970
0.7738 0.6555 0.4096
0.7985 0.6639 0.4237
0.8240 0.6726 0.4367
0.8494 0.6818 0.4496
0.3548 0.6262 0.4981
0.3568 0.6268 0.4960
0.3595 0.6277 0.4930
0.3635 0.6292 0.4884
0.3687 0.6312 0.4818
0.3751 0.6338 0.4732
0.3827 0.6371 0.4626
0.3906 0.6411 0.4480
0.3978 0.6463 0.4270
0.4089 0.6517 0.4031
0.4462 0.6519 0.4022
0.4810 0.6527 0.3979
0.5144 0.6540 0.3928
0.5474 0.6557 0.3878
0.5809 0.6581 0.3814
0.6143 0.6609 0.3721
0.6477 0.6640 0.3631
0.6785 0.6676 0.3662
0.7069 0.6719 0.3798
0.7343 0.6769 0.3941
0.7614 0.6827 0.4076
0.7881 0.6891 0.4206
0.8146 0.6961 0.4332
0.8400 0.7040 0.4467
0.8651 0.7126 0.4602
0.3784 0.6655 0.5294
0.3803 0.6661 0.5275
0.3828 0.6670 0.5248
0.3866 0.6683 0.5205
0.3915 0.6701 0.5144
0.3974 0.6726 0.5062
0.4047 0.6756 0.4967
0.4125 0.6793 0.4842
0.4203 0.6841 0.4670
0.4270 0.6899 0.4427
0.4511 0.6928 0.4297
0.4870 0.6930 0.4276
0.5210 0.6938 0.4228
0.5544 0.6952 0.4170
0.5881 0.6971 0.4123
0.6214 0.6995 0.4056
0.6547 0.7022 0.3958
0.6881 0.7053 0.3871
0.7190 0.7089 0.3896
0.7474 0.7131 0.4031
0.7749 0.7180 0.4174
0.8020 0.7237 0.4311
0.8289 0.7299 0.4442
0.8554 0.7367 0.4569
0.8814 0.7442 0.4695
0.4021 0.7049 0.5612
0.4038 0.7055 0.5594
0.4062 0.7062 0.5568
0.4096 0.7074 0.5527
0.4142 0.7090 0.5470
0.4198 0.7112 0.5391
0.4266 0.7140 0.5302
0.4342 0.7173 0.5189
0.4422 0.7215 0.5043
0.4494 0.7268 0.4839
0.4557 0.7333 0.4565
0.4919 0.7332 0.4554
0.5269 0.7336 0.4522
0.5611 0.7347 0.4474
0.5949 0.7364 0.4417
0.6284 0.7383 0.4367
0.6618 0.7407 0.4297
0.6951 0.7435 0.4195
0.7285 0.7466 0.4111
0.7594 0.7501 0.4130
0.7880 0.7543 0.4264
0.8155 0.7592 0.4407
0.8427 0.7647 0.4545
0.8695 0.7707 0.4675
0.8961 0.7773 0.4800
0.4256 0.7441 0.5930
0.4272 0.7446 0.5913
0.4294 0.7453 0.5889
0.4326 0.7464 0.5851
0.4370 0.7479 0.5798
0.4423 0.7499 0.5726
0.4486 0.7524 0.5638
0.4560 0.7554 0.5533
0.4638 0.7591 0.5399
0.4713 0.7638 0.5225
0.4779 0.7696 0.4992
0.4961 0.7735 0.4816
0.5321 0.7735 0.4802
0.5673 0.7743 0.4762
0.6017 0.7757 0.4715
0.6354 0.7775 0.4663
0.6689 0.7795 0.4610
0.7022 0.7819 0.4539
0.7354 0.7848 0.4433
0.7688 0.7878 0.4350
0.7998 0.7914 0.4364
0.8285 0.7955 0.4496
0.8561 0.8003 0.4639
0.8832 0.8056 0.4775
0.9070 0.8117 0.5063
0.4490 0.7832 0.6247
0.4506 0.7837 0.6231
0.4526 0.7843 0.6209
0.4557 0.7853 0.6174
0.4598 0.7868 0.6124
0.4647 0.7886 0.6058
0.4705 0.7910 0.5972
0.4774 0.7937 0.5877
0.4849 0.7970 0.5756
0.4927 0.8011 0.5603
0.4996 0.8062 0.5393
0.5058 0.8125 0.5129
0.5367 0.8135 0.5068
0.5730 0.8140 0.5047
0.6079 0.8151 0.5000
0.6420 0.8166 0.4952
0.6757 0.8184 0.4902
0.7091 0.8206 0.4847
0.7424 0.8231 0.4776
0.7757 0.8261 0.4668
0.8091 0.8291 0.4590
0.8402 0.8326 0.4598
0.8691 0.8368 0.4727
0.8968 0.8416 0.4868
0.9135 0.8466 0.5649
0.4722 0.8222 0.6564
0.4736 0.8227 0.6549
0.4755 0.8233 0.6528
0.4783 0.8242 0.6495
0.4821 0.8255 0.6449
0.4868 0.8272 0.6387
0.4923 0.8294 0.6307
0.4988 0.8320 0.6216
0.5061 0.8351 0.6105
0.5138 0.8388 0.5967
0.5212 0.8434 0.5788
0.5278 0.8489 0.5553
0.5406 0.8539 0.5325
0.5780 0.8540 0.5319
0.6138 0.8547 0.5289
0.6484 0.8559 0.5242
0.6823 0.8575 0.5187
0.7160 0.8594 0.5141
0.7494 0.8617 0.5084
0.7829 0.8644 0.5011
0.8162 0.8675 0.4901
0.8498 0.8707 0.4826
0.8811 0.8743 0.4830
0.9072 0.8774 0.5270
0.9223 0.8810 0.6289
0.4951 0.8612 0.6881
0.4964 0.8616 0.6866
0.4982 0.8622 0.6847
0.5009 0.8630 0.6815
0.5044 0.8642 0.6773
0.5089 0.8658 0.6715
0.5142 0.8679 0.6640
0.5203 0.8704 0.6551
0.5274 0.8732 0.6450
0.5350 0.8767 0.6325
0.5503 0.8794 0.6218
0.5714 0.8814 0.6128
0.5914 0.8842 0.6026
0.6190 0.8857 0.5997
0.6503 0.8866 0.6000
0.6801 0.8882 0.5974
0.7097 0.8902 0.5943
0.7391 0.8927 0.5901
0.7693 0.8951 0.5890
0.7992 0.8980 0.5862
0.8292 0.9013 0.5820
0.8591 0.9054 0.5708
0.8898 0.9090 0.5693
0.9168 0.9120 0.6058
0.9338 0.9144 0.7000
0.5408 0.8962 0.7260
0.5440 0.8962 0.7254
0.5484 0.8963 0.7246
0.5550 0.8963 0.7233
0.5636 0.8965 0.7216
0.5743 0.8967 0.7195
0.5866 0.8971 0.7169
0.6005 0.8977 0.7140
0.6160 0.8984 0.7119
0.6322 0.8994 0.7096
0.6489 0.9007 0.7072
0.6654 0.9026 0.7041
0.6815 0.9051 0.7003
0.6974 0.9082 0.6966
0.7215 0.9094 0.7010
0.7450 0.9111 0.7045
0.7678 0.9136 0.7067
0.7911 0.9163 0.7103
0.8142 0.9195 0.7141
0.8377 0.9229 0.7203
0.8609 0.9268 0.7265
0.8840 0.9311 0.7337
0.9066 0.9361 0.7392
0.9290 0.9411 0.7522
0.9486 0.9462 0.7820
0.6604 0.9169 0.7873
0.6626 0.9170 0.7870
0.6655 0.9171 0.7867
0.6699 0.9173 0.7862
0.6758 0.9175 0.7855
0.6831 0.9179 0.7847
0.6917 0.9184 0.7838
0.7016 0.9192 0.7829
0.7127 0.9200 0.7825
0.7248 0.9212 0.7825
0.7375 0.9226 0.7827
0.7506 0.9244 0.7830
0.7636 0.9267 0.7831
0.7766 0.9296 0.7834
0.7922 0.9321 0.7866
0.8107 0.9341 0.7930
0.8289 0.9368 0.7992
0.8470 0.9399 0.8057
0.8652 0.9434 0.8136
0.8835 0.9472 0.8228
0.9017 0.9515 0.8340
0.9195 0.9562 0.8464
0.9367 0.9615 0.8609
0.9531 0.9674 0.8764
0.9683 0.9736 0.8977
0.0013 0.0033 0.0052
0.0182 0.0095 0.0175
0.0497 0.0168 0.0198
0.0799 0.0297 0.0261
0.1056 0.0495 0.0381
0.1323 0.0695 0.0526
0.1597 0.0897 0.0678
0.1876 0.1097 0.0833
0.2157 0.1297 0.0989
0.2439 0.1495 0.1146
0.2719 0.1692 0.1302
0.3000 0.1889 0.1460
0.3282 0.2086 0.1617
0.3564 0.2283 0.1776
0.3846 0.2480 0.1934
0.4129 0.2677 0.2093
0.4414 0.2875 0.2254
0.4699 0.3074 0.2414
0.4977 0.3272 0.2574
0.5257 0.3470 0.2735
0.5540 0.3668 0.2895
0.5827 0.3867 0.3057
0.6113 0.4066 0.3218
0.6400 0.4265 0.3380
0.6687 0.4464 0.3541
0.0039 0.0409 0.0415
0.0195 0.0475 0.0479
0.0697 0.0486 0.0366
0.0934 0.0596 0.0436
0.1176 0.0734 0.0536
0.1427 0.0891 0.0656
0.1686 0.1059 0.0787
0.1953 0.1234 0.0926
0.2225 0.1415 0.1070
0.2498 0.1597 0.1215
0.2772 0.1782 0.1364
0.3047 0.1970 0.1515
0.3324 0.2158 0.1667
0.3602 0.2348 0.1820
0.3881 0.2539 0.1975
0.4161 0.2731 0.2130
0.4444 0.2926 0.2288
0.4726 0.3120 0.2446
0.5003 0.3315 0.2604
0.5280 0.3510 0.2763
0.5563 0.3706 0.2922
0.5848 0.3902 0.3081
0.6133 0.4099 0.3241
0.6419 0.4296 0.3402
0.6714 0.4490 0.3554
0.0133 0.0792 0.0708
0.0432 0.0816 0.0685
0.0809 0.0838 0.0541
0.1110 0.0888 0.0537
0.1357 0.0979 0.0632
0.1597 0.1097 0.0743
0.1841 0.1235 0.0865
0.2091 0.1387 0.0996
0.2346 0.1548 0.1132
0.2605 0.1715 0.1272
0.2867 0.1887 0.1416
0.3134 0.2064 0.1561
0.3403 0.2243 0.1709
0.3675 0.2426 0.1859
0.3948 0.2610 0.2011
0.4223 0.2796 0.2164
0.4502 0.2986 0.2319
0.4778 0.3176 0.2475
0.5051 0.3367 0.2631
0.5326 0.3558 0.2787
0.5606 0.3751 0.2945
0.5889 0.3945 0.3103
0.6172 0.4140 0.3262
0.6456 0.4335 0.3421
0.6749 0.4526 0.3572
0.0315 0.1179 0.1021
0.0635 0.1192 0.0954
0.0827 0.1240 0.0773
0.1206 0.1256 0.0734
0.1522 0.1299 0.0730
0.1774 0.1378 0.0843
0.2025 0.1478 0.0955
0.2265 0.1600 0.1080
0.2506 0.1736 0.1210
0.2753 0.1883 0.1344
0.3003 0.2038 0.1483
0.3258 0.2201 0.1624
0.3517 0.2368 0.1768
0.3778 0.2540 0.1914
0.4043 0.2715 0.2062
0.4313 0.2895 0.2212
0.4586 0.3077 0.2364
0.4854 0.3260 0.2516
0.5123 0.3445 0.2670
0.5393 0.3632 0.2824
0.5671 0.3820 0.2980
0.5950 0.4010 0.3136
0.6230 0.4201 0.3293
0.6511 0.4392 0.3450
0.6801 0.4581 0.3600
0.0607 0.1568 0.1298
0.0850 0.1577 0.1244
0.0963 0.1624 0.1080
0.1261 0.1650 0.0988
0.1608 0.1674 0.0945
0.1926 0.1713 0.0942
0.2185 0.1782 0.1060
0.2437 0.1870 0.1177
0.2687 0.1975 0.1296
0.2926 0.2099 0.1427
0.3168 0.2235 0.1561
0.3413 0.2380 0.1699
0.3662 0.2532 0.1839
0.3915 0.2691 0.1981
0.4171 0.2855 0.2125
0.4433 0.3025 0.2273
0.4695 0.3199 0.2422
0.4955 0.3374 0.2572
0.5218 0.3551 0.2722
0.5485 0.3732 0.2873
0.5758 0.3914 0.3026
0.6032 0.4099 0.3180
0.6308 0.4284 0.3335
0.6584 0.4471 0.3490
0.6871 0.4655 0.3637
0.0872 0.1958 0.1590
0.1059 0.1966 0.1545
0.1155 0.2002 0.1418
0.1308 0.2050 0.1234
0.1675 0.2060 0.1207
0.2014 0.2086 0.1145
0.2328 0.2125 0.1159
0.2597 0.2186 0.1276
0.2846 0.2268 0.1403
0.3099 0.2364 0.1523
0.3349 0.2474 0.1647
0.3588 0.2599 0.1782
0.3830 0.2735 0.1918
0.4075 0.2879 0.2058
0.4326 0.3031 0.2200
0.4579 0.3188 0.2344
0.4830 0.3350 0.2489
0.5082 0.3516 0.2635
0.5337 0.3685 0.2783
0.5600 0.3858 0.2933
0.5865 0.4034 0.3084
0.6134 0.4212 0.3235
0.6405 0.4391 0.3387
0.6677 0.4572 0.3540
0.6958 0.4748 0.3684
0.1124 0.2347 0.1887
0.1274 0.2354 0.1850
0.1355 0.2383 0.1745
0.1450 0.2432 0.1570
0.1734 0.2455 0.1472
0.2083 0.2471 0.1430
0.2420 0.2498 0.1356
0.2731 0.2536 0.1379
0.3002 0.2594 0.1502
0.3256 0.2669 0.1630
0.3510 0.2758 0.1753
0.3761 0.2860 0.1877
0.4012 0.2974 0.2004
0.4254 0.3103 0.2142
0.4498 0.3239 0.2282
0.4742 0.3383 0.2422
0.4985 0.3532 0.2564
0.5230 0.3686 0.2708
0.5481 0.3846 0.2853
0.5738 0.4010 0.3000
0.5998 0.4177 0.3148
0.6260 0.4348 0.3297
0.6523 0.4521 0.3447
0.6788 0.4694 0.3598
0.7063 0.4863 0.3740
0.1370 0.2737 0.2189
0.1494 0.2743 0.2158
0.1565 0.2767 0.2072
0.1654 0.2806 0.1933
0.1777 0.2857 0.1728
0.2147 0.2864 0.1698
0.2489 0.2882 0.1656
0.2824 0.2910 0.1574
0.3134 0.2948 0.1605
0.3407 0.3003 0.1730
0.3671 0.3072 0.1854
0.3923 0.3159 0.1985
0.4177 0.3255 0.2111
0.4431 0.3362 0.2238
0.4680 0.3479 0.2368
0.4916 0.3608 0.2507
0.5154 0.3743 0.2646
0.5394 0.3885 0.2787
0.5643 0.4034 0.2930
0.5894 0.4188 0.3074
0.6148 0.4346 0.3220
0.6404 0.4507 0.3366
0.6661 0.4671 0.3514
0.6920 0.4835 0.3662
0.7188 0.4998 0.3802
0.1613 0.3127 0.2495
0.1718 0.3132 0.2468
0.1780 0.3153 0.2396
0.1861 0.3186 0.2280
0.1948 0.3235 0.2095
0.2202 0.3262 0.1977
0.2556 0.3274 0.1934
0.2895 0.3295 0.1883
0.3230 0.3325 0.1798
0.3530 0.3365 0.1862
0.3816 0.3417 0.1961
0.4085 0.3483 0.2086
0.4338 0.3564 0.2220
0.4594 0.3655 0.2346
0.4843 0.3755 0.2473
0.5089 0.3864 0.2600
0.5333 0.3982 0.2732
0.5574 0.4112 0.2872
0.5818 0.4249 0.3013
0.6064 0.4391 0.3155
0.6312 0.4539 0.3298
0.6562 0.4689 0.3442
0.6814 0.4841 0.3587
0.7067 0.4997 0.3733
0.7330 0.5153 0.3870
0.1854 0.3518 0.2805
0.1945 0.3523 0.2782
0.2000 0.3541 0.2719
0.2073 0.3570 0.2618
0.2160 0.3612 0.2473
0.2245 0.3670 0.2235
0.2620 0.3674 0.2219
0.2967 0.3689 0.2174
0.3304 0.3712 0.2116
0.3640 0.3742 0.2028
0.3940 0.3782 0.2089
0.4227 0.3832 0.2194
0.4497 0.3895 0.2321
0.4754 0.3970 0.2450
0.5001 0.4056 0.2581
0.5249 0.4150 0.2708
0.5499 0.4254 0.2836
0.5753 0.4366 0.2965
0.6001 0.4488 0.3099
0.6244 0.4619 0.3240
0.6487 0.4752 0.3381
0.6732 0.4891 0.3523
0.6979 0.5033 0.3665
0.7227 0.5180 0.3809
0.7486 0.5328 0.3944
0.2096 0.3913 0.3119
0.2176 0.3918 0.3098
0.2224 0.3934 0.3044
0.2290 0.3959 0.2954
0.2373 0.3995 0.2833
0.2457 0.4044 0.2645
0.2673 0.4080 0.2493
0.3034 0.4089 0.2456
0.3377 0.4105 0.2415
0.3713 0.4129 0.2349
0.4048 0.4160 0.2260
0.4351 0.4199 0.2316
0.4637 0.4247 0.2426
0.4902 0.4307 0.2556
0.5161 0.4376 0.2679
0.5406 0.4459 0.2816
0.5662 0.4550 0.2944
0.5917 0.4649 0.3072
0.6170 0.4753 0.3201
0.6422 0.4865 0.3331
0.6668 0.4985 0.3466
0.6910 0.5113 0.3607
0.7153 0.5246 0.3748
0.7398 0.5384 0.3890
0.7653 0.5527 0.4024
