EA 50 Cinematic Luts Pack/EA_Cinematic Lut (15).cube
TITLE "Generated by Resolve"
LUT_3D_SIZE 5
0 0 0
0.249683 0 0
0.630686 0 0
0.98909 0 0
1 0 0
0 0.22121 0
0.189456 0.222919 0
0.541512 0.185306 0
0.907851 0.141848 0
1 0.100725 0
0.00891127 0.481621 0
0.201953 0.489189 0
0.469795 0.479774 0
0.797787 0.448402 0
1 0.404181 0
0.0765545 0.73434 0
0.248188 0.745724 0
0.466636 0.75108 0
0.742672 0.738384 0
1 0.709545 0
0.142016 0.987915 0
0.304814 1 0
0.488136 1 0
0.733867 1 0
1 0.996872 0
0 0 0.282506
0.164584 0 0.303166
0.566781 0 0.427207
0.927169 0 0.475181
1 0 0.516793
0 0.250584 0.0927443
0.17322 0.211719 0.30013
0.507271 0.17174 0.335546
0.873594 0.11812 0.357336
1 0.0800183 0.394629
0.0155337 0.482521 0.0395819
0.263645 0.456168 0.269368
0.450996 0.466026 0.307912
0.788098 0.420508 0.258686
1 0.372793 0.281666
0.125963 0.721981 0
0.317556 0.719219 0.20209
0.465064 0.735958 0.299168
0.722759 0.723507 0.263767
1 0.686397 0.223316
0.209598 0.969314 0
0.384192 0.972335 0.147524
0.511269 0.993881 0.278553
0.721981 0.998581 0.287755
0.996963 0.981872 0.243153
0 0 0.564401
0.178698 0 0.552346
0.473121 0 0.603067
0.865675 0 0.745983
1 0 0.818418
0 0.304891 0.36405
0.154833 0.226581 0.536675
0.442084 0.202945 0.560357
0.823758 0.124086 0.670939
1 0.0826581 0.717571
0 0.554955 0.148974
0.189471 0.502525 0.342794
0.451255 0.47129 0.557839
0.770626 0.423728 0.585672
1 0.360403 0.597742
0.0243229 0.776562 0.0706951
0.341085 0.737026 0.290089
0.542184 0.718379 0.527581
0.720455 0.726223 0.564126
1 0.670695 0.504875
0.171603 1 0.0205539
0.45005 0.97641 0.244953
0.597131 0.983856 0.461326
0.736584 0.999619 0.557443
0.99205 0.981994 0.516869
0 0 0.79411
0.181079 0 0.789868
0.458106 0 0.777859
0.762371 0 0.85893
1 0 1
0 0.318013 0.647501
0.135561 0.240558 0.793469
0.471031 0.220829 0.792508
0.743191 0.180514 0.828077
1 0.101732 0.959457
0 0.61799 0.343191
0.0295415 0.563455 0.588891
0.439612 0.492912 0.769314
0.712673 0.462165 0.785885
1 0.367742 0.880903
0 0.853956 0.165896
0.171069 0.813779 0.371984
0.472267 0.768994 0.573465
0.724483 0.735271 0.786007
1 0.677989 0.804135
0.0202945 1 0.0778363
0.352193 1 0.291691
0.624857 1 0.521721
0.816434 0.984787 0.756771
0.993515 0.988479 0.789181
0 0.0055848 1
0.17348 0 1
0.473548 0 0.999207
0.735439 0 1
1 0 1
0 0.326741 0.896849
0.114214 0.252461 1
0.474937 0.225452 1
0.743709 0.221698 1
1 0.170611 1
0 0.652705 0.606394
0 0.578058 0.860349
0.425772 0.512306 1
0.755108 0.493553 1
1 0.435935 1
0 0.922957 0.329137
0 0.878386 0.554238
0.317647 0.835218 0.811322
0.718273 0.76231 0.98938
0.985046 0.722332 0.996719
0 1 0.169604
0.164431 1 0.375341
0.457832 1 0.593072
0.749462 1 0.792065
1 1 1
