EA 50 Cinematic Luts Pack/EA_Cinematic Lut (45).cube
TITLE "This cold, low-key grading will add a bit of nobleness and drama to regular, plain shots."
LUT_3D_SIZE 5
0.0000 0.0000 0.0000
0.2519 0.0000 0.0594
0.5691 0.0000 0.1280
0.8006 0.0000 0.1859
0.9935 0.0000 0.2454
0.0680 0.2384 0.1612
0.2543 0.2474 0.1299
0.6197 0.2135 0.0000
0.8660 0.1384 0.0000
1.0000 0.2357 0.2491
0.1434 0.4837 0.2841
0.1945 0.5000 0.2277
0.5752 0.4954 0.2033
0.8594 0.4658 0.0000
1.0000 0.4911 0.2985
0.1298 0.7344 0.3961
0.1908 0.7439 0.3632
0.4601 0.7624 0.2574
0.8108 0.7445 0.2377
1.0000 0.7367 0.3917
0.0000 0.9841 0.5150
0.0000 0.9929 0.4838
0.5246 0.9932 0.4609
0.8188 0.9788 0.5500
0.9932 0.9831 0.5823
0.0376 0.0000 0.1999
0.2557 0.0000 0.2304
0.5715 0.0000 0.2408
0.8020 0.0000 0.2702
0.9943 0.0000 0.3095
0.0147 0.2450 0.2586
0.2568 0.2501 0.2302
0.5997 0.2263 0.2561
0.8868 0.0000 0.2397
1.0000 0.2380 0.3098
0.0967 0.4876 0.3357
0.2784 0.4924 0.3090
0.5701 0.4979 0.2802
0.8902 0.4456 0.1045
1.0000 0.4927 0.3405
0.0742 0.7365 0.4358
0.2678 0.7398 0.4106
0.4620 0.7628 0.3152
0.8078 0.7458 0.3063
1.0000 0.7378 0.4214
0.0000 0.9839 0.5529
0.0000 0.9928 0.5200
0.5015 0.9966 0.4814
0.8165 0.9808 0.5650
0.9936 0.9840 0.6063
0.1327 0.0000 0.3662
0.2838 0.0000 0.3997
0.5733 0.0000 0.4194
0.8058 0.0000 0.4230
0.9968 0.0000 0.4455
0.0000 0.1662 0.6518
0.3375 0.1836 0.5447
0.6476 0.1600 0.4812
0.8818 0.0000 0.4542
1.0000 0.2433 0.4476
0.0000 0.4920 0.4797
0.2325 0.4956 0.4705
0.5773 0.4991 0.4207
0.8468 0.4708 0.4544
1.0000 0.4964 0.4567
0.0000 0.7389 0.5481
0.1745 0.7441 0.5356
0.5433 0.7510 0.4695
0.8015 0.7486 0.4540
0.9998 0.7414 0.5052
0.0000 0.9840 0.6967
0.0000 0.9922 0.6688
0.4710 0.9999 0.5919
0.8056 0.9882 0.6185
0.9948 0.9869 0.6877
0.2511 0.0000 0.5445
0.3682 0.0000 0.5770
0.5825 0.0000 0.6432
0.8066 0.0000 0.6697
0.9998 0.0035 0.6730
0.2607 0.0000 0.9355
0.4342 0.0000 0.9159
0.6602 0.0000 0.8581
0.8692 0.0000 0.7783
0.9999 0.2509 0.6746
0.0000 0.4505 0.9804
0.2219 0.4485 1.0000
0.6236 0.4519 0.8906
0.8962 0.4088 0.8287
0.9998 0.5000 0.6769
0.0000 0.7379 0.8212
0.0000 0.7465 0.8359
0.5383 0.7475 0.7719
0.8105 0.7474 0.6716
0.9996 0.7466 0.6929
0.0000 0.9857 0.9093
0.0000 0.9928 0.9039
0.4560 1.0000 0.8715
0.7793 0.9997 0.7845
0.9971 0.9923 0.8296
0.3916 0.0000 0.8309
0.4644 0.0000 0.8643
0.6163 0.0000 0.9380
0.8122 0.0000 0.9873
1.0000 0.0116 0.9996
0.4277 0.1505 1.0000
0.4958 0.1635 1.0000
0.6417 0.1933 0.9999
0.8196 0.2327 1.0000
1.0000 0.2529 0.9996
0.4928 0.4503 1.0000
0.5358 0.4571 1.0000
0.6530 0.4736 1.0000
0.8231 0.4913 0.9999
1.0000 0.5005 0.9997
0.6042 0.7009 0.9995
0.6328 0.7051 0.9996
0.7124 0.7182 0.9996
0.8325 0.7392 0.9997
0.9998 0.7484 0.9997
0.7864 0.9327 0.9998
0.8012 0.9363 0.9998
0.8442 0.9477 0.9999
0.9125 0.9686 0.9999
0.9999 0.9999 0.9999
