EA 50 Cinematic Luts Pack/EA_Cinematic Lut (6).cube
TITLE "Generated by Resolve"
LUT_3D_SIZE 33
0.199695 0.0695048 0.210864
0.206897 0.0725719 0.212772
0.214054 0.0756542 0.214679
0.22179 0.0785687 0.216556
0.229236 0.0815747 0.218448
0.236454 0.084535 0.22031
0.243702 0.0876326 0.222232
0.251102 0.090959 0.224292
0.258778 0.0942245 0.226322
0.266865 0.0974899 0.228382
0.27541 0.100328 0.230274
0.284718 0.102815 0.232013
0.29514 0.104906 0.233616
0.306462 0.106722 0.235126
0.318975 0.108171 0.236515
0.331716 0.109575 0.237873
0.345113 0.110842 0.2392
0.358648 0.111925 0.240421
0.372641 0.112902 0.241596
0.386999 0.113817 0.242756
0.401648 0.114702 0.243915
0.416678 0.115541 0.245045
0.431861 0.116335 0.246159
0.447425 0.117189 0.247303
0.463096 0.118181 0.248524
0.479026 0.119173 0.249729
0.494972 0.120226 0.25095
0.51107 0.121294 0.252186
0.527138 0.12256 0.253513
0.543389 0.124071 0.254948
0.559533 0.12604 0.256596
0.57586 0.127993 0.258244
0.59173 0.130129 0.259937
0.200824 0.087068 0.212711
0.208072 0.0901198 0.214649
0.215564 0.0928969 0.216571
0.223331 0.0961166 0.218601
0.230716 0.0994583 0.220661
0.238025 0.102815 0.222614
0.245319 0.106096 0.224643
0.252781 0.1093 0.226368
0.260502 0.112306 0.228412
0.26862 0.115053 0.230167
0.27744 0.117586 0.231937
0.287221 0.119799 0.233631
0.298268 0.12163 0.235203
0.310353 0.123125 0.236652
0.322988 0.124468 0.238071
0.336309 0.125719 0.239445
0.349889 0.12697 0.240833
0.363806 0.128084 0.24213
0.37821 0.129091 0.243366
0.392706 0.130098 0.244602
0.407813 0.131044 0.245792
0.422934 0.132143 0.247059
0.438651 0.133379 0.248402
0.454353 0.134569 0.249744
0.470329 0.135714 0.251057
0.486412 0.137057 0.252461
0.502785 0.138643 0.253971
0.519173 0.140444 0.255589
0.535622 0.142306 0.257206
0.552026 0.144381 0.259007
0.568734 0.147158 0.26099
0.585229 0.15021 0.263188
0.601862 0.15349 0.265476
0.202075 0.104906 0.214679
0.209415 0.108263 0.216678
0.217212 0.111452 0.218677
0.224704 0.114641 0.220691
0.232013 0.117754 0.222492
0.239246 0.12076 0.224521
0.246616 0.12369 0.226535
0.254215 0.12665 0.228641
0.262287 0.129427 0.230549
0.270756 0.131975 0.232441
0.280201 0.134234 0.234211
0.290745 0.136172 0.235859
0.30248 0.137804 0.2374
0.314977 0.139284 0.238865
0.328191 0.140749 0.240406
0.341604 0.142107 0.241749
0.355505 0.143297 0.243076
0.369863 0.144503 0.244419
0.384405 0.14583 0.245808
0.399527 0.147112 0.247196
0.414664 0.148425 0.248569
0.430365 0.149706 0.249973
0.446189 0.151461 0.25156
0.462394 0.153185 0.253147
0.478676 0.155062 0.25478
0.495155 0.156954 0.256413
0.511696 0.159152 0.258198
0.528572 0.161791 0.260197
0.545525 0.164904 0.262501
0.5626 0.168307 0.264851
0.579492 0.171633 0.267201
0.596231 0.17528 0.269657
0.61297 0.179263 0.272282
0.2038 0.123201 0.217166
0.21146 0.126146 0.219059
0.219043 0.129046 0.221057
0.226383 0.131975 0.223117
0.233646 0.13492 0.225177
0.24094 0.137819 0.227222
0.248493 0.14078 0.229343
0.256336 0.143511 0.231281
0.26453 0.146136 0.233219
0.273762 0.148501 0.235035
0.283696 0.150744 0.236805
0.295186 0.152575 0.238422
0.307424 0.154223 0.239933
0.320409 0.155718 0.241459
0.333913 0.157412 0.242954
0.347662 0.159014 0.24445
0.362005 0.16054 0.245914
0.376471 0.162066 0.247364
0.391531 0.163622 0.248844
0.40679 0.165438 0.250446
0.422675 0.167407 0.252247
0.43859 0.169558 0.253925
0.454902 0.171572 0.255665
0.471305 0.173999 0.257481
0.488182 0.176822 0.259556
0.505135 0.179965 0.261769
0.52224 0.183154 0.263996
0.5393 0.186526 0.266316
0.556603 0.190433 0.268894
0.573754 0.1944 0.271534
0.590845 0.19855 0.27422
0.607797 0.202762 0.276936
0.62443 0.207156 0.279713
0.205798 0.140352 0.219913
0.213504 0.143145 0.221912
0.22092 0.145998 0.223972
0.228229 0.148867 0.226017
0.235477 0.151736 0.228046
0.242924 0.15462 0.230091
0.250645 0.157595 0.232151
0.258732 0.160388 0.234134
0.267582 0.162982 0.235981
0.277043 0.165438 0.237766
0.288151 0.167529 0.239429
0.300084 0.169543 0.241077
0.312993 0.171496 0.242771
0.326421 0.173419 0.244373
0.340093 0.175219 0.246021
0.354345 0.177127 0.247517
0.368841 0.179263 0.249226
0.384009 0.18143 0.250919
0.399237 0.183642 0.252628
0.415045 0.185916 0.254444
0.431189 0.188876 0.256458
0.447852 0.191913 0.258671
0.464576 0.195178 0.260868
0.481559 0.198444 0.263096
0.498695 0.201892 0.265415
0.515892 0.205646 0.267842
0.533288 0.209613 0.270466
0.550607 0.213993 0.27306
0.567864 0.218219 0.275669
0.584894 0.222583 0.278279
0.601907 0.22707 0.28098
0.618647 0.231739 0.283757
0.635248 0.236469 0.286519
0.207904 0.157137 0.222736
0.215427 0.15993 0.224735
0.222736 0.162844 0.226749
0.230015 0.16582 0.228779
0.23743 0.168887 0.230945
0.245045 0.171954 0.232898
0.25301 0.174853 0.234943
0.261479 0.177768 0.236774
0.270787 0.180606 0.238682
0.281254 0.18323 0.240513
0.292821 0.185565 0.242206
0.305455 0.187747 0.24387
0.318822 0.190234 0.24567
0.332586 0.19266 0.247562
0.346838 0.195132 0.249271
0.361273 0.197635 0.251041
0.376455 0.200259 0.252888
0.391821 0.203357 0.254932
0.40795 0.206668 0.257145
0.424186 0.210361 0.259419
0.440803 0.21384 0.261677
0.457496 0.217548 0.26392
0.474586 0.221454 0.266331
0.491814 0.225544 0.268864
0.509133 0.229664 0.271351
0.526558 0.233814 0.273915
0.543816 0.238499 0.276493
0.561059 0.243 0.279026
0.578012 0.247639 0.281483
0.594842 0.252354 0.283955
0.611505 0.257191 0.286519
0.628016 0.262211 0.289158
0.644266 0.267384 0.292042
0.209766 0.174136 0.225284
0.217105 0.177172 0.227237
0.224369 0.180255 0.229175
0.231632 0.183398 0.231205
0.239231 0.186816 0.233249
0.24712 0.190097 0.235401
0.25539 0.193378 0.237339
0.264454 0.196475 0.239322
0.274281 0.199557 0.24123
0.285695 0.202487 0.243091
0.297978 0.205447 0.24506
0.311238 0.208438 0.246845
0.324834 0.211292 0.248753
0.338994 0.214405 0.250584
0.353643 0.217899 0.252735
0.368994 0.22153 0.254978
0.384405 0.225238 0.257191
0.400443 0.228916 0.259419
0.416648 0.233204 0.26183
0.433295 0.237339 0.26424
0.449973 0.241657 0.266499
0.466819 0.245945 0.268772
0.483909 0.250278 0.271107
0.500954 0.254749 0.273442
0.518303 0.259236 0.275898
0.535409 0.264012 0.278325
0.552773 0.268772 0.280949
0.569635 0.273625 0.283299
0.586557 0.278584 0.285786
0.603281 0.283665 0.28838
0.61976 0.288838 0.290944
0.636042 0.294133 0.293706
0.652216 0.299809 0.296452
0.211032 0.191959 0.227146
0.218341 0.195331 0.229099
0.22562 0.198856 0.231144
0.233082 0.202579 0.233173
0.240696 0.206149 0.235264
0.248844 0.209842 0.237201
0.257633 0.213642 0.239368
0.267277 0.217411 0.241459
0.278111 0.22092 0.243427
0.290043 0.224338 0.245441
0.303243 0.228199 0.247501
0.31693 0.232136 0.249744
0.331106 0.236179 0.251759
0.34551 0.240223 0.253864
0.360586 0.244327 0.256001
0.375891 0.248676 0.258244
0.391897 0.253086 0.260716
0.407965 0.257755 0.26305
0.424613 0.262287 0.265553
0.441215 0.266819 0.267735
0.457908 0.271458 0.270039
0.475013 0.276066 0.272343
0.491875 0.280781 0.274601
0.509102 0.285435 0.276951
0.526192 0.290517 0.279408
0.543542 0.295476 0.282017
0.560418 0.300542 0.284398
0.577493 0.305562 0.286992
0.594171 0.31078 0.289525
0.610819 0.316121 0.292149
0.627283 0.321584 0.294957
0.643442 0.327199 0.297627
0.659586 0.33312 0.300771
0.211551 0.211429 0.228168
0.218845 0.215183 0.230137
0.226215 0.21944 0.232227
0.23389 0.223667 0.234424
0.241718 0.228016 0.236362
0.250126 0.232288 0.238422
0.259388 0.236667 0.240467
0.269703 0.241276 0.242679
0.281636 0.245838 0.245045
0.294514 0.250431 0.247288
0.30811 0.254917 0.249683
0.32221 0.259419 0.251789
0.336599 0.264164 0.254139
0.35169 0.268894 0.256474
0.366857 0.273686 0.258762
0.382635 0.27834 0.261143
0.398627 0.283375 0.263493
0.415091 0.288182 0.265995
0.43154 0.293004 0.268193
0.448356 0.297719 0.270619
0.465293 0.302525 0.272831
0.48217 0.307454 0.275212
0.499474 0.312367 0.27776
0.516472 0.317418 0.280095
0.533928 0.322652 0.282872
0.550896 0.327871 0.285298
0.568078 0.333089 0.287984
0.584894 0.338491 0.290578
0.601694 0.343923 0.293233
0.618219 0.349447 0.296071
0.634623 0.35523 0.298924
0.650874 0.361273 0.302205
0.666636 0.367239 0.305119
0.210956 0.233356 0.227939
0.218235 0.238041 0.229953
0.225895 0.24271 0.232212
0.233661 0.24773 0.234348
0.242252 0.25301 0.23682
0.251392 0.258473 0.239277
0.261402 0.263767 0.241657
0.272801 0.268833 0.244053
0.285374 0.274144 0.24654
0.298939 0.279255 0.249149
0.312978 0.284352 0.251469
0.327382 0.289342 0.254032
0.34226 0.294347 0.256291
0.357366 0.299397 0.258671
0.373068 0.304387 0.261158
0.388937 0.309407 0.263462
0.40531 0.31458 0.266133
0.421805 0.31957 0.268391
0.438514 0.324575 0.270985
0.455467 0.329625 0.273335
0.472343 0.334691 0.275807
0.489632 0.339696 0.278401
0.506737 0.345006 0.280903
0.524269 0.350393 0.283726
0.541299 0.355749 0.286198
0.558511 0.361059 0.288899
0.575418 0.366537 0.291539
0.592294 0.372107 0.294301
0.609003 0.377768 0.297368
0.625483 0.383536 0.300206
0.64184 0.389517 0.303502
0.657847 0.395712 0.3066
0.673548 0.401831 0.30985
0.209857 0.258366 0.227176
0.217746 0.264027 0.229847
0.225711 0.269886 0.232334
0.234272 0.275608 0.235065
0.243137 0.281514 0.237613
0.253101 0.287449 0.240314
0.264073 0.293309 0.243214
0.276402 0.298955 0.245731
0.289754 0.304555 0.248569
0.303624 0.309895 0.250965
0.317998 0.315175 0.253635
0.332753 0.32047 0.256031
0.347768 0.325704 0.258564
0.363363 0.330846 0.261021
0.379263 0.336172 0.263539
0.395529 0.341543 0.266331
0.411978 0.346746 0.268696
0.428595 0.351888 0.271366
0.445487 0.357076 0.273747
0.462379 0.362356 0.276326
0.479713 0.36759 0.278981
0.496788 0.37293 0.281498
0.514321 0.378347 0.284367
0.531487 0.383963 0.287022
0.548821 0.38941 0.289891
0.56582 0.395041 0.292653
0.582757 0.400671 0.295521
0.59968 0.406332 0.298604
0.616144 0.412222 0.301534
0.632822 0.418387 0.304936
0.648844 0.424567 0.308019
0.66479 0.430655 0.311421
0.68011 0.436988 0.314626
0.209812 0.286778 0.227665
0.217823 0.29305 0.23035
0.226444 0.299443 0.233433
0.235386 0.305974 0.236332
0.245182 0.312261 0.239368
0.255619 0.318471 0.242252
0.267659 0.324529 0.244999
0.280598 0.330449 0.247974
0.294362 0.336049 0.250446
0.308614 0.341497 0.253178
0.323156 0.34699 0.255634
0.338216 0.352453 0.258305
0.353628 0.3579 0.261021
0.369375 0.363302 0.263508
0.38558 0.368795 0.266392
0.402014 0.374289 0.26894
0.418647 0.37966 0.271717
0.435508 0.385061 0.274189
0.452369 0.390478 0.276814
0.469657 0.395804 0.279484
0.486748 0.401282 0.282155
0.504402 0.406973 0.285252
0.521569 0.412619 0.287999
0.53901 0.418097 0.291005
0.556008 0.423804 0.293797
0.573083 0.429526 0.296742
0.590051 0.435325 0.29987
0.606683 0.441245 0.302846
0.623362 0.447181 0.306157
0.639582 0.45362 0.309483
0.655695 0.459754 0.313039
0.671199 0.466102 0.316411
0.686488 0.47248 0.32015
0.210346 0.317601 0.22884
0.218891 0.324285 0.232044
0.22768 0.331014 0.235004
0.237201 0.337667 0.238209
0.24744 0.344213 0.241215
0.258793 0.3505 0.244068
0.271473 0.356649 0.247166
0.285054 0.362585 0.249851
0.29926 0.368307 0.252735
0.31368 0.374075 0.255375
0.328664 0.37969 0.258137
0.343847 0.385306 0.260899
0.359548 0.390906 0.263508
0.375708 0.396765 0.266575
0.392065 0.40235 0.269154
0.408621 0.407828 0.272007
0.425422 0.413352 0.274586
0.442313 0.418921 0.277378
0.459602 0.424414 0.280308
0.476677 0.43003 0.283009
0.494194 0.435569 0.286061
0.511574 0.441489 0.289006
0.52903 0.44712 0.292103
0.546227 0.452888 0.294957
0.563439 0.458625 0.298131
0.580407 0.464469 0.301137
0.597086 0.470451 0.304295
0.613931 0.476524 0.307851
0.630213 0.482902 0.311269
0.646464 0.488991 0.314946
0.662058 0.495338 0.318425
0.677562 0.501671 0.322225
0.692439 0.508217 0.325994
0.211414 0.34966 0.230625
0.220066 0.35671 0.233722
0.229404 0.363546 0.237018
0.239307 0.370321 0.240085
0.250126 0.376974 0.243153
0.262623 0.383536 0.246509
0.275761 0.389685 0.249332
0.289784 0.395575 0.252354
0.304143 0.40148 0.25507
0.31902 0.40734 0.257984
0.334173 0.413199 0.260838
0.349737 0.418967 0.263539
0.365667 0.424735 0.266545
0.382071 0.430686 0.269383
0.398566 0.436362 0.272419
0.415366 0.442054 0.275166
0.432319 0.447654 0.278248
0.449454 0.453285 0.281117
0.466545 0.459007 0.283955
0.484154 0.464775 0.287144
0.501472 0.47071 0.290105
0.51899 0.476371 0.293263
0.536309 0.482139 0.296178
0.553521 0.487953 0.29955
0.570611 0.493843 0.302815
0.587381 0.499825 0.306065
0.604212 0.505776 0.309682
0.620722 0.51223 0.313283
0.637079 0.518334 0.317021
0.652796 0.524666 0.3205
0.668513 0.530953 0.324315
0.683528 0.537453 0.328069
0.698009 0.544091 0.331914
0.212451 0.382742 0.232364
0.221714 0.389838 0.235843
0.231342 0.396948 0.2392
0.241825 0.403845 0.242344
0.253727 0.410452 0.245701
0.26656 0.41709 0.248798
0.280522 0.423224 0.251957
0.294682 0.429404 0.254826
0.309529 0.435355 0.257923
0.324483 0.441367 0.260761
0.33994 0.447318 0.263661
0.355901 0.453376 0.266926
0.372137 0.459388 0.269871
0.388556 0.465171 0.273045
0.40528 0.470939 0.275883
0.422202 0.476707 0.279088
0.439338 0.48246 0.282002
0.456519 0.488228 0.285023
0.47393 0.493919 0.288151
0.491432 0.500038 0.291325
0.508934 0.505776 0.294697
0.526253 0.511604 0.29781
0.543557 0.517418 0.30135
0.560723 0.523278 0.304723
0.577554 0.529274 0.308095
0.594507 0.53521 0.311742
0.611109 0.541634 0.315343
0.627588 0.547738 0.319142
0.643473 0.554009 0.322667
0.659312 0.56022 0.326558
0.674479 0.566644 0.33048
0.689326 0.573159 0.334279
0.703304 0.579858 0.338613
0.214099 0.416602 0.234806
0.223438 0.42388 0.238254
0.233738 0.431022 0.241566
0.245151 0.438117 0.245197
0.257664 0.444907 0.248371
0.27126 0.45124 0.251652
0.285252 0.457557 0.254627
0.300053 0.463691 0.257908
0.31487 0.469902 0.261051
0.330388 0.475944 0.264179
0.345998 0.481971 0.267338
0.362249 0.488289 0.270527
0.378653 0.494209 0.273823
0.3953 0.50013 0.276768
0.412161 0.505943 0.280034
0.429252 0.511772 0.28304
0.44651 0.517571 0.286244
0.463844 0.5234 0.289601
0.481422 0.529503 0.292943
0.498863 0.535286 0.296513
0.516258 0.5411 0.299763
0.533593 0.546914 0.303395
0.55082 0.552804 0.306783
0.567742 0.55877 0.310231
0.584787 0.564675 0.313909
0.60148 0.571084 0.317586
0.618067 0.577096 0.321447
0.634073 0.583291 0.325063
0.65005 0.589441 0.329091
0.665415 0.595758 0.333013
0.680415 0.602152 0.336843
0.694774 0.608652 0.341115
0.708461 0.615549 0.345235
0.2159 0.45124 0.2374
0.225956 0.458549 0.241077
0.236698 0.465721 0.244572
0.248936 0.472938 0.248066
0.262165 0.479545 0.251591
0.276066 0.486046 0.25478
0.290684 0.492317 0.258213
0.305379 0.498634 0.261479
0.320821 0.504784 0.264759
0.336339 0.51104 0.26807
0.352514 0.517433 0.271336
0.368811 0.523415 0.274723
0.385382 0.529397 0.277821
0.402228 0.535317 0.2813
0.419257 0.541207 0.284627
0.436423 0.547066 0.287968
0.453773 0.552865 0.291478
0.471397 0.559014 0.294972
0.488823 0.564813 0.298619
0.506264 0.570642 0.301915
0.523659 0.576455 0.305592
0.540932 0.582315 0.30901
0.557961 0.58822 0.312581
0.575067 0.594064 0.31635
0.591745 0.600259 0.320027
0.608576 0.606348 0.324086
0.624643 0.612467 0.327764
0.640757 0.618494 0.331807
0.656245 0.624704 0.335668
0.67158 0.63093 0.339696
0.686259 0.637308 0.34374
0.700099 0.64416 0.347921
0.713497 0.650843 0.352407
0.218235 0.486351 0.240604
0.22884 0.493812 0.244373
0.240436 0.501259 0.248142
0.253376 0.508019 0.25182
0.266987 0.514687 0.255161
0.281483 0.521111 0.258762
0.296132 0.527581 0.262119
0.311437 0.533852 0.265553
0.326818 0.540124 0.268956
0.342916 0.546639 0.272419
0.359167 0.552712 0.276036
0.375647 0.558785 0.279362
0.392508 0.564706 0.283055
0.409384 0.570657 0.286549
0.426627 0.576501 0.290043
0.443854 0.582376 0.293645
0.461387 0.588388 0.297108
0.47892 0.594324 0.300923
0.496391 0.600122 0.30428
0.513802 0.60589 0.308064
0.531121 0.611688 0.311696
0.548363 0.617502 0.315419
0.565393 0.623362 0.319158
0.582254 0.629541 0.322942
0.599084 0.635431 0.326955
0.615259 0.641428 0.330632
0.63154 0.647364 0.334676
0.64715 0.653468 0.338506
0.662638 0.659525 0.342565
0.677485 0.665705 0.346578
0.691508 0.67216 0.350607
0.705348 0.678889 0.355215
0.718029 0.685588 0.359396
0.221134 0.521935 0.244434
0.232303 0.529671 0.248447
0.244923 0.53666 0.252308
0.258152 0.543542 0.255818
0.272526 0.550072 0.259541
0.287053 0.556603 0.263005
0.302235 0.562966 0.266712
0.317556 0.569345 0.270359
0.333455 0.575799 0.273976
0.349645 0.582055 0.277913
0.366079 0.588129 0.281392
0.382925 0.594079 0.285206
0.399695 0.600092 0.288762
0.416999 0.60592 0.292439
0.434089 0.611826 0.29604
0.451667 0.617929 0.299672
0.469139 0.623713 0.303548
0.486625 0.62948 0.307042
0.504067 0.635203 0.310964
0.521462 0.64094 0.314672
0.53872 0.646662 0.318456
0.555825 0.652399 0.32221
0.572717 0.658244 0.325933
0.589685 0.664317 0.330037
0.606104 0.670176 0.3337
0.622324 0.675975 0.337758
0.638163 0.68188 0.34168
0.653758 0.687816 0.345678
0.668803 0.693874 0.349722
0.683238 0.700175 0.353765
0.697154 0.706584 0.358236
0.710018 0.713054 0.362341
0.722744 0.719524 0.366888
0.224659 0.558099 0.248981
0.236744 0.565408 0.253086
0.249668 0.572412 0.256809
0.263844 0.579065 0.260777
0.278218 0.585702 0.264607
0.293324 0.592111 0.268467
0.308522 0.598535 0.272312
0.324361 0.605142 0.276188
0.34049 0.611322 0.280171
0.356756 0.617456 0.283757
0.373495 0.623438 0.287663
0.390249 0.629435 0.291279
0.407477 0.635248 0.295109
0.424536 0.641123 0.298863
0.442069 0.646922 0.302617
0.459556 0.652964 0.30663
0.477043 0.658656 0.310216
0.494499 0.664286 0.314183
0.511925 0.669932 0.317876
0.529244 0.675578 0.321752
0.546456 0.681239 0.325521
0.563455 0.687053 0.329351
0.580438 0.692851 0.333364
0.596857 0.698589 0.337057
0.61326 0.70428 0.341146
0.629267 0.710033 0.345068
0.644907 0.715785 0.34905
0.660121 0.721599 0.353048
0.6748 0.72755 0.35697
0.688945 0.733806 0.361425
0.702205 0.740169 0.365591
0.714992 0.74638 0.370062
0.727031 0.752743 0.374456
0.228977 0.594156 0.254398
0.241657 0.601282 0.258396
0.255436 0.608057 0.262669
0.269688 0.614725 0.266682
0.284703 0.621195 0.270726
0.29984 0.627634 0.274678
0.315541 0.634028 0.278691
0.331624 0.640482 0.282734
0.347692 0.646677 0.286473
0.364416 0.652613 0.290501
0.381033 0.658595 0.294408
0.39823 0.664408 0.298283
0.415259 0.670237 0.302174
0.432822 0.676066 0.306111
0.450187 0.681926 0.310079
0.467674 0.687556 0.31371
0.485161 0.693141 0.317708
0.502602 0.698711 0.321401
0.519997 0.704204 0.325307
0.537209 0.709712 0.329122
0.554284 0.715236 0.332906
0.571328 0.720974 0.336996
0.587976 0.72665 0.34078
0.604379 0.732143 0.344839
0.620447 0.737713 0.348669
0.636194 0.743328 0.352682
0.651637 0.748989 0.356664
0.666453 0.754711 0.360571
0.680964 0.760723 0.364996
0.694392 0.766751 0.369085
0.707378 0.772793 0.373587
0.719646 0.778958 0.377981
0.731685 0.785046 0.382345
0.233982 0.63006 0.260594
0.247425 0.636942 0.265064
0.26154 0.643687 0.269184
0.276387 0.650187 0.273381
0.291371 0.656672 0.27747
0.307088 0.663127 0.281666
0.322972 0.669505 0.285801
0.338994 0.675654 0.289723
0.355581 0.681605 0.293904
0.372122 0.687572 0.297917
0.389242 0.693309 0.3019
0.406195 0.699062 0.305852
0.423667 0.704677 0.309743
0.441062 0.710536 0.313817
0.458595 0.716182 0.317556
0.476051 0.72163 0.321569
0.493507 0.727047 0.325399
0.510903 0.732464 0.329274
0.528191 0.737865 0.333135
0.545464 0.743206 0.336904
0.562463 0.748852 0.341039
0.579202 0.754238 0.344732
0.595697 0.759609 0.348837
0.611856 0.765042 0.352636
0.627726 0.770397 0.356649
0.643229 0.775799 0.360601
0.658305 0.781292 0.364614
0.672953 0.786923 0.368765
0.686671 0.792935 0.372946
0.699901 0.798627 0.377371
0.712276 0.804532 0.381643
0.724468 0.810437 0.386069
0.73611 0.816434 0.390494
0.239948 0.66569 0.267857
0.253788 0.67248 0.272084
0.268421 0.679011 0.276478
0.283421 0.68545 0.280735
0.298787 0.691752 0.285023
0.314656 0.698207 0.289403
0.330648 0.704402 0.293523
0.347082 0.710307 0.297765
0.363546 0.716213 0.301793
0.380575 0.72192 0.305882
0.397498 0.727626 0.309911
0.414923 0.733166 0.313863
0.432288 0.738964 0.318029
0.44976 0.744396 0.321767
0.467247 0.749752 0.325887
0.484733 0.755062 0.329747
0.502159 0.760281 0.333623
0.519417 0.765515 0.337453
0.536721 0.770703 0.341299
0.553658 0.776028 0.345235
0.570642 0.781445 0.349065
0.587152 0.786587 0.353124
0.603418 0.791745 0.357046
0.61944 0.796963 0.360998
0.63505 0.802213 0.364996
0.650324 0.807431 0.368963
0.665156 0.812833 0.373053
0.679164 0.818433 0.377172
0.692607 0.823972 0.381476
0.705119 0.829664 0.385687
0.717449 0.835264 0.390082
0.729091 0.840955 0.394461
0.740658 0.846647 0.39884
0.246464 0.70103 0.275715
0.260899 0.707591 0.280201
0.275761 0.714015 0.284627
0.291005 0.720348 0.289067
0.306798 0.726757 0.293568
0.322621 0.73283 0.297734
0.338994 0.738705 0.302052
0.355367 0.744549 0.306111
0.37229 0.750149 0.310292
0.38912 0.755749 0.314366
0.406455 0.761181 0.318379
0.423682 0.76672 0.322484
0.44126 0.772244 0.326421
0.458793 0.777386 0.33051
0.476173 0.782559 0.334356
0.493767 0.78764 0.338293
0.510994 0.792767 0.342199
0.528344 0.797742 0.346014
0.545327 0.80293 0.349996
0.562402 0.808011 0.353887
0.578882 0.813062 0.35787
0.59527 0.818051 0.361776
0.611307 0.822995 0.365682
0.627024 0.827955 0.369619
0.642451 0.832959 0.373571
0.657374 0.838041 0.3776
0.671885 0.843473 0.38175
0.68542 0.848676 0.385946
0.698161 0.854032 0.390188
0.710643 0.859449 0.394476
0.722438 0.864927 0.398856
0.73402 0.870298 0.403174
0.745174 0.875639 0.407523
0.253803 0.735866 0.28452
0.268467 0.742245 0.289021
0.283604 0.748486 0.293477
0.299153 0.754726 0.297963
0.314992 0.760937 0.302358
0.331243 0.76669 0.306722
0.347494 0.772427 0.310994
0.36437 0.777981 0.315175
0.38114 0.783505 0.319341
0.398383 0.7888 0.323384
0.415579 0.794263 0.32755
0.433188 0.799496 0.331579
0.450507 0.804639 0.335561
0.467948 0.809659 0.339391
0.485542 0.814511 0.343359
0.502724 0.819409 0.347265
0.520165 0.824231 0.351141
0.537133 0.829099 0.355062
0.554345 0.83415 0.359091
0.570886 0.838911 0.362982
0.587304 0.843656 0.366796
0.603433 0.848447 0.370748
0.619333 0.853208 0.37467
0.634806 0.857954 0.378592
0.649912 0.862715 0.382589
0.664668 0.867811 0.386725
0.678508 0.872786 0.390951
0.691646 0.877821 0.395163
0.704082 0.882872 0.399344
0.716014 0.887953 0.403601
0.727642 0.89308 0.407874
0.738872 0.898161 0.412222
0.749905 0.903288 0.41648
0.261692 0.770153 0.293904
0.276677 0.776318 0.298436
0.292088 0.782544 0.303044
0.307851 0.78854 0.30753
0.323888 0.794293 0.311925
0.340047 0.799954 0.316243
0.356802 0.805341 0.32047
0.37348 0.810697 0.324666
0.390661 0.8159 0.328771
0.407797 0.821057 0.33286
0.425376 0.826352 0.337057
0.44271 0.83125 0.341009
0.460044 0.836088 0.345006
0.477623 0.840833 0.348882
0.494835 0.845609 0.35285
0.512291 0.850172 0.35671
0.529305 0.854826 0.360647
0.546593 0.859586 0.364645
0.563256 0.864195 0.368597
0.579767 0.868742 0.372381
0.596002 0.873213 0.376333
0.611917 0.877684 0.380224
0.627527 0.882216 0.384176
0.642878 0.886717 0.38819
0.657816 0.891493 0.39234
0.672007 0.895979 0.39649
0.685344 0.900633 0.400656
0.698131 0.905379 0.404959
0.710307 0.910079 0.409216
0.721874 0.914641 0.413336
0.732998 0.919066 0.417441
0.743999 0.923613 0.421622
0.754726 0.9281 0.425834
0.27013 0.803693 0.303883
0.285344 0.809659 0.308476
0.301091 0.815763 0.313176
0.31693 0.821378 0.317586
0.333074 0.826856 0.321965
0.34963 0.832212 0.326192
0.366217 0.837491 0.330465
0.383337 0.842496 0.3346
0.400504 0.847486 0.338766
0.417914 0.852567 0.343008
0.435325 0.857328 0.347066
0.452613 0.862013 0.351141
0.47013 0.866529 0.354986
0.487343 0.871031 0.358923
0.50486 0.875425 0.362814
0.521935 0.879881 0.366796
0.539376 0.884428 0.370871
0.5561 0.888701 0.374853
0.572808 0.892912 0.378836
0.589242 0.897169 0.382818
0.605356 0.901396 0.386831
0.621195 0.905531 0.390738
0.6365 0.909667 0.394705
0.651667 0.91397 0.398764
0.666148 0.918288 0.402914
0.679667 0.922499 0.406912
0.692485 0.926574 0.410986
0.704631 0.930663 0.415061
0.716304 0.934829 0.419135
0.727611 0.938964 0.423285
0.738613 0.943175 0.42742
0.749187 0.947082 0.431418
0.759533 0.950927 0.435401
0.279194 0.8365 0.314549
0.294728 0.842405 0.31928
0.310536 0.847929 0.323796
0.326574 0.853315 0.328237
0.342977 0.858488 0.332525
0.359503 0.863539 0.336828
0.376486 0.868452 0.341054
