EA 50 Cinematic Luts Pack/EA_Cinematic Lut (10).cube
TITLE "Generated by Resolve"
LUT_3D_SIZE 9
0.0273442 0.0602731 0.0247196
0.143908 0.0496223 0
0.282673 0.0497749 0
0.42504 0.0544137 0
0.561975 0.0587625 0
0.694575 0.0624247 0
0.825086 0.066804 0
0.954528 0.0726024 0
1 0.0798047 0
0.0903944 0.092134 0.0914931
0.145663 0.0994125 0.0632792
0.289967 0.104417 0
0.439902 0.114977 0
0.583673 0.125139 0
0.719158 0.131014 0
0.853864 0.139101 0
0.988876 0.149874 0
1 0.163302 0
0.138094 0.163806 0.148974
0.170672 0.179294 0.154406
0.297047 0.200702 0.0905318
0.454826 0.221714 0.0260014
0.609979 0.242008 0
0.754665 0.255894 0
0.897231 0.270924 0
1 0.287739 0
1 0.306157 0
0.194644 0.254002 0.214237
0.229496 0.277043 0.239887
0.330327 0.316014 0.21033
0.490745 0.354284 0.162127
0.652445 0.386313 0.106691
0.804379 0.407584 0.0478676
0.952911 0.427756 0
1 0.448508 0
1 0.469657 0
0.272908 0.366827 0.300496
0.311543 0.395529 0.338155
0.404791 0.438956 0.331823
0.542367 0.490822 0.303029
0.70367 0.533089 0.258701
0.859449 0.564523 0.201999
1 0.590555 0.144991
1 0.613947 0.0900282
1 0.635737 0.0360723
0.366262 0.495308 0.401312
0.406455 0.526345 0.444968
0.493324 0.569223 0.450507
0.608881 0.621515 0.434287
0.75613 0.671763 0.401297
0.913008 0.712551 0.355657
1 0.744595 0.299535
1 0.769955 0.239841
1 0.791348 0.180499
0.465888 0.630533 0.507988
0.505226 0.661036 0.553491
0.585275 0.700511 0.564202
0.68835 0.746777 0.553811
0.805859 0.798215 0.527367
0.955352 0.841871 0.48838
1 0.877714 0.438117
1 0.905348 0.377844
1 0.926528 0.312764
0.561288 0.761898 0.610086
0.597025 0.788922 0.653773
0.669627 0.823072 0.665263
0.760449 0.861662 0.656229
0.864088 0.905303 0.632746
0.981537 0.949554 0.595239
1 0.983032 0.546288
1 1 0.485435
1 1 0.415137
0.643671 0.879973 0.698878
0.673655 0.901747 0.738537
0.737835 0.928344 0.747005
0.814755 0.956268 0.734356
0.900954 0.986969 0.706264
0.996506 1 0.666194
1 1 0.615244
1 1 0.556832
1 1 0.490959
0 0.0959945 0
0.110201 0.0586252 0.0354314
0.255726 0.0559701 0
0.399969 0.0594492 0
0.539712 0.0646982 0
0.67332 0.0682841 0
0.804807 0.0729229 0
0.935073 0.0788128 0
1 0.0861524 0
0.0361639 0.118029 0.0481117
0.131106 0.100816 0.106294
0.271382 0.102205 0.0342412
0.419974 0.113039 0
0.566583 0.127047 0
0.704997 0.136538 0
0.839918 0.145312 0
0.975448 0.156985 0
1 0.171054 0
0.120119 0.178332 0.114137
0.171756 0.177447 0.176928
0.275303 0.195453 0.125963
0.434043 0.215076 0.0654917
0.594324 0.241108 0.0177768
0.747005 0.263813 0
0.889448 0.279393 0
1 0.296666 0
1 0.315251 0
0.193027 0.265049 0.187915
0.237003 0.276692 0.251301
0.316304 0.309316 0.24387
0.467872 0.348119 0.196597
0.636759 0.385214 0.148714
0.800168 0.417487 0.10425
0.949187 0.438468 0.0511788
1 0.459068 0
1 0.48011 0
0.279179 0.376989 0.27985
0.322179 0.396521 0.344488
0.399512 0.434165 0.359014
0.522255 0.486641 0.338964
0.691035 0.53727 0.303517
0.857176 0.577539 0.256611
1 0.603235 0.201938
1 0.625559 0.148089
1 0.646662 0.0948348
0.37641 0.505089 0.384253
0.419074 0.528618 0.448829
0.495109 0.567712 0.473594
0.60267 0.619135 0.469993
0.745892 0.677943 0.447807
0.908186 0.72459 0.408408
1 0.757549 0.35346
1 0.781979 0.29456
1 0.802258 0.236118
0.477791 0.639643 0.492897
0.518517 0.663706 0.555306
0.590188 0.699596 0.582101
0.684688 0.743938 0.583627
0.799695 0.797375 0.567193
0.94519 0.848249 0.53521
1 0.887587 0.488685
1 0.916136 0.429358
1 0.936263 0.364172
0.573297 0.769589 0.595438
0.609583 0.790753 0.65304
0.675486 0.821424 0.678019
0.75848 0.857893 0.680217
0.857008 0.901091 0.665003
0.968978 0.948714 0.63476
1 0.985977 0.589715
1 1 0.53164
1 1 0.462226
0.654627 0.885573 0.683528
0.684901 0.901778 0.734768
0.742855 0.924758 0.754421
0.812253 0.949905 0.751476
0.892256 0.979065 0.730922
0.984848 1 0.697536
1 1 0.652354
1 1 0.598459
1 1 0.535607
0 0.131228 0.0147097
0.0196841 0.087129 0.107271
0.209461 0.064744 0.0649424
0.362707 0.0644388 0
0.505302 0.070222 0
0.641413 0.0745556 0
0.775219 0.0793622 0
0.9075 0.0854505 0
1 0.0930037 0
0 0.156603 0.0492866
0.0466621 0.130999 0.142641
0.23508 0.106157 0.13521
0.386908 0.113436 0.0620584
0.536294 0.127291 0.00434882
0.680781 0.140917 0
0.818128 0.151034 0
0.955337 0.163622 0
1 0.178485 0
0.0391852 0.21268 0.10425
0.140444 0.196033 0.183337
0.257679 0.192706 0.209857
0.410666 0.207752 0.151766
0.57052 0.234989 0.106004
0.729412 0.264942 0.0630808
0.876814 0.286198 0.0115358
1 0.303944 0
1 0.323323 0
0.143908 0.292012 0.18146
0.238056 0.287236 0.268315
0.313664 0.305501 0.313634
0.44123 0.337591 0.269902
0.610941 0.373205 0.226123
0.782315 0.413993 0.19324
0.942718 0.447196 0.15349
1 0.467765 0.101289
1 0.489113 0.0499733
0.253086 0.39855 0.280568
0.332403 0.404868 0.3673
0.40444 0.431418 0.415167
0.501381 0.474739 0.410513
0.662852 0.525582 0.375586
0.839033 0.573754 0.338964
1 0.613062 0.301442
1 0.63566 0.249928
1 0.656168 0.197208
0.364782 0.523095 0.390951
0.43212 0.535805 0.474281
0.503517 0.565682 0.522377
0.592691 0.609049 0.535592
0.721019 0.668772 0.521859
0.8934 0.726436 0.494026
1 0.769543 0.45005
1 0.793317 0.393164
1 0.8121 0.335561
0.474525 0.654765 0.503563
0.532418 0.669886 0.581918
0.600397 0.698146 0.626581
0.682521 0.737636 0.645304
0.789471 0.790066 0.641093
0.931517 0.850721 0.621088
1 0.896956 0.581842
1 0.926757 0.523995
1 0.945541 0.459068
0.574517 0.781643 0.607996
0.622965 0.795377 0.6795
0.685679 0.819394 0.718715
0.75935 0.85185 0.736004
0.848859 0.892729 0.732128
0.957763 0.941863 0.711589
1 0.986725 0.673976
1 1 0.620401
1 1 0.552285
0.657557 0.894606 0.696803
0.696529 0.904005 0.759793
0.750881 0.920287 0.790402
0.812787 0.941649 0.800305
0.884428 0.968246 0.790478
0.971832 1 0.765499
1 1 0.728878
1 1 0.68127
1 1 0.622797
0 0.166491 0.0414588
0 0.123522 0.146578
0.1252 0.0878462 0.162737
0.307073 0.0735637 0.107927
0.460777 0.0737774 0.0354009
0.602396 0.0780652 0
0.738827 0.0844434 0
0.872724 0.0919966 0
1 0.100282 0
0 0.193988 0.0680247
0 0.165225 0.168658
0.14786 0.130159 0.22623
0.336034 0.117357 0.181231
0.493034 0.126925 0.114473
0.642298 0.142931 0.0484779
0.784482 0.156252 0
0.9252 0.17026 0
1 0.186007 0
0 0.252415 0.111818
0.0380407 0.235721 0.195605
0.17763 0.220905 0.275517
0.372625 0.209476 0.26154
0.534157 0.232319 0.204105
0.69659 0.262943 0.163226
0.852369 0.290639 0.119081
0.996765 0.310033 0.0662699
1 0.330404 0.0142977
0.0553445 0.331151 0.182437
0.164904 0.322744 0.269749
0.291844 0.323674 0.338689
0.421378 0.332326 0.362875
0.583124 0.361303 0.318853
0.75433 0.40354 0.288212
0.922988 0.446052 0.257939
1 0.474632 0.213794
1 0.496406 0.16289
0.187243 0.433494 0.281651
0.295598 0.43093 0.374411
0.411246 0.44097 0.447288
0.494591 0.467399 0.489448
0.629862 0.508644 0.453315
0.806561 0.55494 0.42031
0.984115 0.604715 0.39646
1 0.643381 0.362234
1 0.664073 0.310201
0.319203 0.552895 0.395682
0.416785 0.555123 0.488396
0.515892 0.572213 0.557382
0.594079 0.602686 0.60032
0.693675 0.650248 0.597589
0.858106 0.707607 0.569787
1 0.759884 0.537148
1 0.800778 0.500984
1 0.820493 0.446525
0.443824 0.679377 0.511833
0.527886 0.684291 0.600397
0.61326 0.702388 0.661906
0.687037 0.731426 0.701518
0.774151 0.774197 0.711635
0.900221 0.834867 0.699214
1 0.894026 0.673579
1 0.936156 0.628656
1 0.954101 0.565515
0.553445 0.801343 0.618784
0.623957 0.805951 0.700359
0.697826 0.821637 0.753506
0.765606 0.845945 0.787228
0.841688 0.880873 0.79884
0.941405 0.92784 0.789258
1 0.983139 0.764553
1 1 0.719768
1 1 0.653712
0.642863 0.909728 0.70898
0.699199 0.910826 0.781277
0.760693 0.919493 0.823117
0.817578 0.933593 0.845869
0.879408 0.955703 0.850217
0.957916 0.987121 0.836561
1 1 0.810636
1 1 0.772595
1 1 0.720562
0 0.201892 0.0689555
0 0.160067 0.177249
0.019852 0.121294 0.226978
0.223178 0.0943618 0.210391
0.39791 0.0833448 0.153597
0.551507 0.0829786 0.0835431
0.694804 0.0876936 0.0112764
0.83299 0.0951553 0
0.968551 0.105287 0
0 0.23035 0.0912795
0 0.199619 0.1953
0.0406348 0.165927 0.272038
0.250065 0.137728 0.28069
0.432181 0.131945 0.232074
0.592432 0.142275 0.170153
0.742214 0.157183 0.10605
0.887282 0.174121 0.0415808
1 0.192615 0
0 0.291875 0.126879
0 0.273381 0.218341
0.0825818 0.257404 0.304128
0.286946 0.233066 0.357977
0.480339 0.234073 0.32343
0.649668 0.259525 0.27306
0.811109 0.290288 0.222309
0.961395 0.314092 0.170352
1 0.33637 0.121492
0 0.373983 0.192142
0.0625772 0.365408 0.280949
0.190753 0.36614 0.35494
0.344167 0.361257 0.43798
0.542794 0.361196 0.429114
0.713603 0.396872 0.384512
0.885542 0.439826 0.355901
1 0.476982 0.321355
1 0.501244 0.273487
0.0961471 0.476204 0.286046
0.209659 0.471748 0.377295
0.341512 0.477501 0.451026
0.475502 0.485618 0.519234
0.606546 0.49984 0.544869
0.772534 0.536721 0.508888
0.949523 0.587549 0.486915
1 0.637324 0.463981
1 0.669001 0.422995
0.2439 0.592157 0.397818
0.355825 0.589517 0.491096
0.482765 0.597238 0.566262
0.601404 0.610803 0.634409
0.683055 0.638682 0.674144
0.816922 0.682536 0.641398
0.993698 0.731945 0.611185
1 0.785061 0.590646
1 0.82475 0.557488
0.383963 0.713512 0.514366
0.487205 0.711345 0.606149
0.599359 0.718868 0.67631
0.697917 0.735088 0.736294
0.771084 0.762921 0.773053
0.865934 0.807813 0.768399
1 0.866209 0.742428
1 0.918639 0.709621
1 0.956374 0.669963
0.506264 0.829633 0.622309
0.59675 0.826444 0.709026
0.693263 0.832609 0.771527
0.775769 0.846418 0.821073
0.841291 0.869261 0.851133
0.918578 0.903807 0.852979
1 0.95787 0.835233
1 1 0.806058
1 1 0.755947
0.605219 0.932113 0.713283
0.680125 0.925032 0.791211
0.759274 0.925002 0.841657
0.82536 0.930541 0.877409
0.879942 0.943572 0.896651
0.945098 0.968948 0.898161
1 1 0.884153
1 1 0.860883
1 1 0.820172
0 0.237308 0.096849
0 0.196429 0.206287
0 0.158129 0.272145
0.120409 0.124758 0.287938
0.313115 0.10341 0.257908
0.484321 0.0945144 0.201709
0.639002 0.0945754 0.134859
0.784512 0.0999466 0.0656596
0.92517 0.109438 0
0 0.266896 0.117311
0 0.234638 0.222904
0 0.202701 0.305074
0.143313 0.170123 0.347311
0.345342 0.151064 0.333974
0.525292 0.149493 0.286839
0.687541 0.159869 0.228397
0.840665 0.176043 0.1682
0.988495 0.195239 0.10808
0 0.331334 0.147951
0 0.310399 0.244785
0 0.293767 0.332937
0.180072 0.270436 0.408408
0.393271 0.254795 0.42414
0.58497 0.262531 0.389563
0.756451 0.286107 0.341756
0.915709 0.312245 0.289433
1 0.338216 0.234409
0 0.417472 0.208118
0 0.407462 0.300572
0.0922713 0.405997 0.381399
0.249104 0.400153 0.469413
0.456031 0.385397 0.52668
0.655268 0.395804 0.502541
0.832898 0.431418 0.463203
1 0.471901 0.422721
1 0.502113 0.37586
0 0.521538 0.297704
0.107912 0.516365 0.389105
0.239033 0.521523 0.463981
0.37435 0.529274 0.537362
0.52845 0.529809 0.62092
0.727871 0.533547 0.617853
0.90248 0.575036 0.579278
1 0.624781 0.557061
1 0.666484 0.527169
0.150774 0.636561 0.404059
0.264942 0.632746 0.495964
0.396445 0.638148 0.569345
0.53135 0.647105 0.638346
0.661799 0.656336 0.702937
0.788327 0.668544 0.728908
0.951629 0.705562 0.693156
1 0.759091 0.673961
1 0.810925 0.653117
0.301839 0.754376 0.516808
0.412726 0.749233 0.607645
0.538018 0.751583 0.678126
0.663935 0.758267 0.744289
0.775692 0.768688 0.804868
0.851209 0.791012 0.839429
0.976104 0.831937 0.806348
1 0.87953 0.773648
1 0.929427 0.749844
0.435538 0.86537 0.622889
0.537682 0.857206 0.709972
0.651698 0.856672 0.775631
0.760052 0.859968 0.833677
0.848219 0.868925 0.882277
0.90988 0.886122 0.907713
0.992111 0.920821 0.895674
1 0.97348 0.865064
1 1 0.827741
0.544503 0.96173 0.712779
0.6327 0.94789 0.791867
0.729442 0.940536 0.846967
0.816846 0.936584 0.891661
0.885176 0.938918 0.925856
0.939788 0.951705 0.944778
1 0.980575 0.942473
1 1 0.926146
1 1 0.902922
0 0.272938 0.125261
0 0.232654 0.23508
0 0.195651 0.30898
0.0112612 0.160143 0.346456
0.212558 0.132204 0.342947
0.398795 0.115007 0.307378
0.568399 0.107988 0.252903
0.724788 0.109102 0.189578
0.873213 0.116396 0.124605
0 0.303349 0.14464
0 0.270451 0.251545
0 0.239948 0.335821
0.0343481 0.207416 0.394934
0.241627 0.181582 0.41239
0.438224 0.169436 0.390738
0.617365 0.170809 0.345983
0.782254 0.182254 0.29163
0.937942 0.19942 0.234974
0 0.370535 0.17261
0 0.348272 0.273793
0 0.330892 0.362829
0.0770428 0.30985 0.445151
0.287373 0.289296 0.493217
0.496056 0.282155 0.491203
0.685115 0.29163 0.456748
0.856641 0.312306 0.409796
1 0.33753 0.35935
0 0.460655 0.229053
0 0.44947 0.326253
0 0.445045 0.410819
0.154894 0.438575 0.500496
0.349401 0.424201 0.578668
0.564889 0.416449 0.601633
0.762493 0.431418 0.576684
0.941329 0.463096 0.538277
1 0.495277 0.492607
0 0.567132 0.314031
0.00541695 0.561624 0.40795
0.136309 0.564431 0.485328
0.275837 0.56968 0.565118
0.432761 0.569055 0.652949
0.636545 0.557504 0.711955
0.837522 0.570031 0.69398
1 0.609705 0.660044
1 0.653941 0.623896
0.0499123 0.682841 0.416388
0.163699 0.67892 0.508705
0.293462 0.682795 0.581399
0.427268 0.69073 0.651179
0.558572 0.699123 0.7205
0.705379 0.698528 0.798505
0.900481 0.698085 0.799176
1 0.739055 0.761242
1 0.789883 0.73875
0.206149 0.79884 0.523308
0.318105 0.792798 0.61297
0.444968 0.793561 0.681712
0.575021 0.79765 0.745846
0.701823 0.80322 0.806729
0.824186 0.807691 0.863188
0.942016 0.812726 0.889113
1 0.843549 0.847211
1 0.891936 0.822934
0.34757 0.906035 0.624613
0.454047 0.895766 0.710323
0.574899 0.892256 0.775021
0.695338 0.889723 0.83267
0.808942 0.888395 0.886183
0.908598 0.888212 0.933486
0.973083 0.897932 0.958434
1 0.928756 0.919814
1 0.970504 0.880323
0.464622 0.996994 0.710933
0.55964 0.97908 0.788754
0.666667 0.966873 0.844022
0.770764 0.9561 0.891569
0.864561 0.948562 0.93434
0.94258 0.948241 0.971481
0.998383 0.959091 0.991638
1 0.990311 0.980499
1 1 0.955474
0 0.308766 0.154101
0 0.268772 0.264195
0 0.233127 0.342168
0 0.197482 0.393149
0.10454 0.166247 0.411093
0.299748 0.143084 0.397131
0.482002 0.129122 0.35938
0.651652 0.124529 0.307652
0.810529 0.128054 0.249104
0 0.339757 0.172747
0 0.306508 0.280659
0 0.277272 0.366064
0 0.246204 0.434165
0.132738 0.218189 0.472755
0.33727 0.199481 0.476539
0.530526 0.192493 0.451896
0.70985 0.196521 0.41001
0.876234 0.208774 0.359182
0 0.409537 0.199496
0 0.386664 0.304219
0 0.369467 0.394385
0 0.350271 0.47953
0.180194 0.329351 0.543893
0.39237 0.314565 0.570443
0.595682 0.312139 0.559777
0.782879 0.322515 0.526024
0.954742 0.341909 0.481086
0 0.503517 0.253758
0 0.491432 0.355413
0 0.485588 0.443122
0.0614328 0.478111 0.532967
0.247044 0.465217 0.617151
0.457679 0.451453 0.669566
0.669444 0.450462 0.675547
0.863905 0.465721 0.649577
1 0.490837 0.608698
0 0.612543 0.334585
0 0.606394 0.431922
0.0369879 0.607767 0.513191
0.179721 0.609705 0.595972
0.337804 0.607599 0.684352
0.528435 0.596048 0.7617
0.741543 0.589685 0.788495
0.940429 0.605447 0.768307
1 0.637781 0.732357
0 0.729412 0.432563
0.0604257 0.724895 0.526085
0.190082 0.728008 0.600732
0.32314 0.733043 0.672404
0.457816 0.738155 0.747127
0.607752 0.735882 0.828733
0.802411 0.721798 0.886427
1 0.729213 0.870085
1 0.766247 0.835431
0.103975 0.844709 0.535042
0.215091 0.838056 0.624445
0.341375 0.838453 0.693339
0.469093 0.840452 0.756222
0.594141 0.844297 0.817212
0.717296 0.847944 0.878279
0.852155 0.842451 0.946868
1 0.83093 0.948791
1 0.86247 0.903288
0.248737 0.94934 0.630182
0.355673 0.938277 0.714824
0.477211 0.9337 0.778225
0.598291 0.928832 0.833402
0.714534 0.923812 0.883696
0.827558 0.918929 0.930785
0.936461 0.91249 0.973754
1 0.904585 0.997543
1 0.925628 0.945907
0.370581 1 0.710506
0.467811 1 0.786511
0.578347 1 0.840208
0.688838 0.987366 0.88661
0.794705 0.974777 0.929488
0.898116 0.965988 0.97229
0.992508 0.960815 1
1 0.965972 1
1 0.996445 1
0 0.344671 0.182605
0 0.304967 0.292775
0 0.270253 0.372976
0 0.235508 0.432639
0 0.203113 0.466209
0.192996 0.176333 0.471489
0.384115 0.157198 0.451896
0.564996 0.147051 0.414725
0.7355 0.145663 0.366827
0 0.376226 0.200916
0 0.342763 0.30956
0 0.314397 0.395499
0 0.285313 0.469062
0.0239261 0.257572 0.52137
0.230198 0.23563 0.545785
0.431632 0.222705 0.541985
0.622827 0.219684 0.516564
0.801587 0.225498 0.477028
0 0.448341 0.227192
0 0.425284 0.334798
0 0.408515 0.426047
0 0.390875 0.512734
0.0759442 0.371145 0.585748
0.284657 0.35346 0.631708
0.494255 0.343923 0.644968
0.693706 0.3449 0.630243
0.878782 0.355627 0.597223
0 0.546075 0.280476
0 0.53312 0.385794
0 0.526604 0.476005
0 0.519112 0.566537
0.149203 0.507622 0.653086
0.35108 0.492897 0.720165
0.564324 0.483543 0.752544
0.770169 0.485496 0.748821
0.95967 0.49868 0.720638
0 0.657679 0.358068
0 0.650736 0.45893
0 0.651148 0.543862
0.0859541 0.651331 0.629099
0.24387 0.64741 0.716686
0.425483 0.636774 0.798886
0.631785 0.624277 0.852293
0.841199 0.622675 0.861265
1 0.636149 0.837201
0 0.775799 0.451667
0 0.770794 0.547524
0.0882277 0.773068 0.624994
0.222644 0.775753 0.699489
0.359228 0.776455 0.775845
0.510292 0.772427 0.857755
0.691554 0.758328 0.930373
0.89659 0.746883 0.956588
1 0.757107 0.936294
0 0.890593 0.549187
0.110445 0.883665 0.639551
0.236225 0.883375 0.709392
0.363058 0.883787 0.773388
0.486839 0.884215 0.83566
0.612665 0.884169 0.901381
0.751202 0.876051 0.97293
0.929137 0.852598 1
1 0.846876 1
0.14406 0.9935 0.63946
0.250507 0.982132 0.724071
0.370977 0.976684 0.786969
0.490639 0.970611 0.841428
0.603632 0.962554 0.88957
0.714565 0.955642 0.936431
0.823758 0.948058 0.983368
0.942458 0.933425 1
1 0.910872 1
0.267216 1 0.712688
0.364279 1 0.787457
0.474983 1 0.840024
0.586038 1 0.885176
0.692988 1 0.926192
0.799741 0.999283 0.96701
0.906584 0.990784 1
1 0.982757 1
1 0.973053 1
