EA 50 Cinematic Luts Pack/EA_Cinematic Lut (20).CUBE
#Created by: Adobe Photoshop Export Color Lookup Plugin
#Copyright: (C) Copyright 2018 Navpreet Singh
TITLE "Orange and Teal 3"
#LUT size
LUT_3D_SIZE 8
#data domain
#LUT data points
DOMAIN_MIN 0.000000 0.000000 0.000000
DOMAIN_MAX 0.903226 0.903226 0.903226
0.000000 0.000000 0.000000
0.065002 0.000000 0.000000
0.174530 0.000000 0.000000
0.328644 0.000000 0.000000
0.526611 0.000000 0.000000
0.714081 0.000000 0.000000
0.857025 0.000000 0.000000
0.955414 0.000000 0.000000
0.000000 0.059875 0.059875
0.065002 0.065002 0.065002
0.234985 0.031738 0.031738
0.495789 0.006653 0.006653
0.714081 0.000000 0.000000
0.857025 0.000000 0.000000
0.955414 0.000000 0.000000
1.000000 0.012085 0.012085
0.000000 0.159088 0.159088
0.000000 0.318176 0.318176
0.174530 0.174530 0.174530
0.408112 0.122223 0.122223
0.689758 0.078064 0.078064
0.889404 0.042053 0.042053
0.998291 0.014221 0.014221
1.000000 0.088226 0.088226
0.000000 0.297668 0.297668
0.000000 0.501129 0.501129
0.000000 0.704102 0.704102
0.328644 0.328644 0.328644
0.612274 0.257263 0.257263
0.839111 0.194031 0.194031
0.975220 0.138977 0.138977
1.000000 0.208893 0.208893
0.000000 0.475647 0.475647
0.000000 0.683685 0.683685
0.000000 0.842255 0.842255
0.000000 0.950806 0.950806
0.526611 0.526611 0.526611
0.780670 0.436859 0.436859
0.943939 0.354614 0.354614
1.000000 0.374146 0.374146
0.000000 0.662598 0.662598
0.000000 0.826843 0.826843
0.000000 0.941040 0.941040
0.005951 1.000000 1.000000
0.082458 1.000000 1.000000
0.714081 0.714081 0.714081
0.904541 0.639313 0.639313
1.000000 0.577637 0.577637
0.000000 0.810760 0.810760
0.000000 0.930634 0.930634
0.000458 1.000000 1.000000
0.071289 1.000000 1.000000
0.192139 1.000000 1.000000
0.363068 1.000000 1.000000
0.857025 0.857025 0.857025
0.983917 0.801300 0.801300
0.000000 0.919586 0.919586
0.000000 0.995056 0.995056
0.060730 1.000000 1.000000
0.175934 1.000000 1.000000
0.341217 1.000000 1.000000
0.553558 1.000000 1.000000
0.744720 1.000000 1.000000
0.955414 0.955414 0.955414
0.000000 0.000000 0.000000
0.065002 0.000000 0.000000
0.174530 0.000000 0.000000
0.328644 0.000000 0.000000
0.526611 0.000000 0.000000
0.714081 0.000000 0.000000
0.857025 0.000000 0.000000
0.955414 0.000000 0.000000
0.000000 0.059875 0.059875
0.065002 0.065002 0.065002
0.234985 0.031738 0.031738
0.495789 0.006653 0.006653
0.714081 0.000000 0.000000
0.857025 0.000000 0.000000
0.955414 0.000000 0.000000
1.000000 0.012085 0.012085
0.000000 0.159088 0.159088
0.000000 0.318176 0.318176
0.174530 0.174530 0.174530
0.408112 0.122223 0.122223
0.689758 0.078064 0.078064
0.889404 0.042053 0.042053
0.998291 0.014221 0.014221
1.000000 0.088226 0.088226
0.000000 0.297668 0.297668
0.000000 0.501129 0.501129
0.000000 0.704102 0.704102
0.328644 0.328644 0.328644
0.612274 0.257263 0.257263
0.839111 0.194031 0.194031
0.975220 0.138977 0.138977
1.000000 0.208893 0.208893
0.000000 0.475647 0.475647
0.000000 0.683685 0.683685
0.000000 0.842255 0.842255
0.000000 0.950806 0.950806
0.526611 0.526611 0.526611
0.780670 0.436859 0.436859
0.943939 0.354614 0.354614
1.000000 0.374146 0.374146
0.000000 0.662598 0.662598
0.000000 0.826843 0.826843
0.000000 0.941040 0.941040
0.005951 1.000000 1.000000
0.082458 1.000000 1.000000
0.714081 0.714081 0.714081
0.904541 0.639313 0.639313
1.000000 0.577637 0.577637
0.000000 0.810760 0.810760
0.000000 0.930634 0.930634
0.000458 1.000000 1.000000
0.071289 1.000000 1.000000
0.192139 1.000000 1.000000
0.363068 1.000000 1.000000
0.857025 0.857025 0.857025
0.983917 0.801300 0.801300
0.000000 0.919586 0.919586
0.000000 0.995056 0.995056
0.060730 1.000000 1.000000
0.175934 1.000000 1.000000
0.341217 1.000000 1.000000
0.553558 1.000000 1.000000
0.744720 1.000000 1.000000
0.955414 0.955414 0.955414
0.000000 0.000000 0.000000
0.065002 0.000000 0.000000
0.174530 0.000000 0.000000
0.328644 0.000000 0.000000
0.526611 0.000000 0.000000
0.714081 0.000000 0.000000
0.857025 0.000000 0.000000
0.955414 0.000000 0.000000
0.000000 0.059875 0.059875
0.065002 0.065002 0.065002
0.234985 0.031738 0.031738
0.495789 0.006653 0.006653
0.714081 0.000000 0.000000
0.857025 0.000000 0.000000
0.955414 0.000000 0.000000
1.000000 0.012085 0.012085
0.000000 0.159088 0.159088
0.000000 0.318176 0.318176
0.174530 0.174530 0.174530
0.408112 0.122223 0.122223
0.689758 0.078064 0.078064
0.889404 0.042053 0.042053
0.998291 0.014221 0.014221
1.000000 0.088226 0.088226
0.000000 0.297668 0.297668
0.000000 0.501129 0.501129
0.000000 0.704102 0.704102
0.328644 0.328644 0.328644
0.612274 0.257263 0.257263
0.839111 0.194031 0.194031
0.975220 0.138977 0.138977
1.000000 0.208893 0.208893
0.000000 0.475647 0.475647
0.000000 0.683685 0.683685
0.000000 0.842255 0.842255
0.000000 0.950806 0.950806
0.526611 0.526611 0.526611
0.780670 0.436859 0.436859
0.943939 0.354614 0.354614
1.000000 0.374146 0.374146
0.000000 0.662598 0.662598
0.000000 0.826843 0.826843
0.000000 0.941040 0.941040
0.005951 1.000000 1.000000
0.082458 1.000000 1.000000
0.714081 0.714081 0.714081
0.904541 0.639313 0.639313
1.000000 0.577637 0.577637
0.000000 0.810760 0.810760
0.000000 0.930634 0.930634
0.000458 1.000000 1.000000
0.071289 1.000000 1.000000
0.192139 1.000000 1.000000
0.363068 1.000000 1.000000
0.857025 0.857025 0.857025
0.983917 0.801300 0.801300
0.000000 0.919586 0.919586
0.000000 0.995056 0.995056
0.060730 1.000000 1.000000
0.175934 1.000000 1.000000
0.341217 1.000000 1.000000
0.553558 1.000000 1.000000
0.744720 1.000000 1.000000
0.955414 0.955414 0.955414
0.000000 0.000000 0.000000
0.065002 0.000000 0.000000
0.174530 0.000000 0.000000
0.328644 0.000000 0.000000
0.526611 0.000000 0.000000
0.714081 0.000000 0.000000
0.857025 0.000000 0.000000
0.955414 0.000000 0.000000
0.000000 0.059875 0.059875
0.065002 0.065002 0.065002
0.234985 0.031738 0.031738
0.495789 0.006653 0.006653
0.714081 0.000000 0.000000
0.857025 0.000000 0.000000
0.955414 0.000000 0.000000
1.000000 0.012085 0.012085
0.000000 0.159088 0.159088
0.000000 0.318176 0.318176
0.174530 0.174530 0.174530
0.408112 0.122223 0.122223
0.689758 0.078064 0.078064
0.889404 0.042053 0.042053
0.998291 0.014221 0.014221
1.000000 0.088226 0.088226
0.000000 0.297668 0.297668
0.000000 0.501129 0.501129
0.000000 0.704102 0.704102
0.328644 0.328644 0.328644
0.612274 0.257263 0.257263
0.839111 0.194031 0.194031
0.975220 0.138977 0.138977
1.000000 0.208893 0.208893
0.000000 0.475647 0.475647
0.000000 0.683685 0.683685
0.000000 0.842255 0.842255
0.000000 0.950806 0.950806
0.526611 0.526611 0.526611
0.780670 0.436859 0.436859
0.943939 0.354614 0.354614
1.000000 0.374146 0.374146
0.000000 0.662598 0.662598
0.000000 0.826843 0.826843
0.000000 0.941040 0.941040
0.005951 1.000000 1.000000
0.082458 1.000000 1.000000
0.714081 0.714081 0.714081
0.904541 0.639313 0.639313
1.000000 0.577637 0.577637
0.000000 0.810760 0.810760
0.000000 0.930634 0.930634
0.000458 1.000000 1.000000
0.071289 1.000000 1.000000
0.192139 1.000000 1.000000
0.363068 1.000000 1.000000
0.857025 0.857025 0.857025
0.983917 0.801300 0.801300
0.000000 0.919586 0.919586
0.000000 0.995056 0.995056
0.060730 1.000000 1.000000
0.175934 1.000000 1.000000
0.341217 1.000000 1.000000
0.553558 1.000000 1.000000
0.744720 1.000000 1.000000
0.955414 0.955414 0.955414
0.000000 0.000000 0.000000
0.065002 0.000000 0.000000
0.174530 0.000000 0.000000
0.328644 0.000000 0.000000
0.526611 0.000000 0.000000
0.714081 0.000000 0.000000
0.857025 0.000000 0.000000
0.955414 0.000000 0.000000
0.000000 0.059875 0.059875
0.065002 0.065002 0.065002
0.234985 0.031738 0.031738
0.495789 0.006653 0.006653
0.714081 0.000000 0.000000
0.857025 0.000000 0.000000
0.955414 0.000000 0.000000
1.000000 0.012085 0.012085
0.000000 0.159088 0.159088
0.000000 0.318176 0.318176
0.174530 0.174530 0.174530
0.408112 0.122223 0.122223
0.689758 0.078064 0.078064
0.889404 0.042053 0.042053
0.998291 0.014221 0.014221
1.000000 0.088226 0.088226
0.000000 0.297668 0.297668
0.000000 0.501129 0.501129
0.000000 0.704102 0.704102
0.328644 0.328644 0.328644
0.612274 0.257263 0.257263
0.839111 0.194031 0.194031
0.975220 0.138977 0.138977
1.000000 0.208893 0.208893
0.000000 0.475647 0.475647
0.000000 0.683685 0.683685
0.000000 0.842255 0.842255
0.000000 0.950806 0.950806
0.526611 0.526611 0.526611
0.780670 0.436859 0.436859
0.943939 0.354614 0.354614
1.000000 0.374146 0.374146
0.000000 0.662598 0.662598
0.000000 0.826843 0.826843
0.000000 0.941040 0.941040
0.005951 1.000000 1.000000
0.082458 1.000000 1.000000
0.714081 0.714081 0.714081
0.904541 0.639313 0.639313
1.000000 0.577637 0.577637
0.000000 0.810760 0.810760
0.000000 0.930634 0.930634
0.000458 1.000000 1.000000
0.071289 1.000000 1.000000
0.192139 1.000000 1.000000
0.363068 1.000000 1.000000
0.857025 0.857025 0.857025
0.983917 0.801300 0.801300
0.000000 0.919586 0.919586
0.000000 0.995056 0.995056
0.060730 1.000000 1.000000
0.175934 1.000000 1.000000
0.341217 1.000000 1.000000
0.553558 1.000000 1.000000
0.744720 1.000000 1.000000
0.955414 0.955414 0.955414
0.000000 0.000000 0.000000
0.065002 0.000000 0.000000
0.174530 0.000000 0.000000
0.328644 0.000000 0.000000
0.526611 0.000000 0.000000
0.714081 0.000000 0.000000
0.857025 0.000000 0.000000
0.955414 0.000000 0.000000
0.000000 0.059875 0.059875
0.065002 0.065002 0.065002
0.234985 0.031738 0.031738
0.495789 0.006653 0.006653
0.714081 0.000000 0.000000
0.857025 0.000000 0.000000
0.955414 0.000000 0.000000
1.000000 0.012085 0.012085
0.000000 0.159088 0.159088
0.000000 0.318176 0.318176
0.174530 0.174530 0.174530
0.408112 0.122223 0.122223
0.689758 0.078064 0.078064
0.889404 0.042053 0.042053
0.998291 0.014221 0.014221
1.000000 0.088226 0.088226
0.000000 0.297668 0.297668
0.000000 0.501129 0.501129
0.000000 0.704102 0.704102
0.328644 0.328644 0.328644
0.612274 0.257263 0.257263
0.839111 0.194031 0.194031
0.975220 0.138977 0.138977
1.000000 0.208893 0.208893
0.000000 0.475647 0.475647
0.000000 0.683685 0.683685
0.000000 0.842255 0.842255
0.000000 0.950806 0.950806
0.526611 0.526611 0.526611
0.780670 0.436859 0.436859
0.943939 0.354614 0.354614
1.000000 0.374146 0.374146
0.000000 0.662598 0.662598
0.000000 0.826843 0.826843
0.000000 0.941040 0.941040
0.005951 1.000000 1.000000
0.082458 1.000000 1.000000
0.714081 0.714081 0.714081
0.904541 0.639313 0.639313
1.000000 0.577637 0.577637
0.000000 0.810760 0.810760
0.000000 0.930634 0.930634
0.000458 1.000000 1.000000
0.071289 1.000000 1.000000
0.192139 1.000000 1.000000
0.363068 1.000000 1.000000
0.857025 0.857025 0.857025
0.983917 0.801300 0.801300
0.000000 0.919586 0.919586
0.000000 0.995056 0.995056
0.060730 1.000000 1.000000
0.175934 1.000000 1.000000
0.341217 1.000000 1.000000
0.553558 1.000000 1.000000
0.744720 1.000000 1.000000
0.955414 0.955414 0.955414
0.000000 0.000000 0.000000
0.065002 0.000000 0.000000
0.174530 0.000000 0.000000
0.328644 0.000000 0.000000
0.526611 0.000000 0.000000
0.714081 0.000000 0.000000
0.857025 0.000000 0.000000
0.955414 0.000000 0.000000
0.000000 0.059875 0.059875
0.065002 0.065002 0.065002
0.234985 0.031738 0.031738
0.495789 0.006653 0.006653
0.714081 0.000000 0.000000
0.857025 0.000000 0.000000
0.955414 0.000000 0.000000
1.000000 0.012085 0.012085
0.000000 0.159088 0.159088
0.000000 0.318176 0.318176
0.174530 0.174530 0.174530
0.408112 0.122223 0.122223
0.689758 0.078064 0.078064
0.889404 0.042053 0.042053
0.998291 0.014221 0.014221
1.000000 0.088226 0.088226
0.000000 0.297668 0.297668
0.000000 0.501129 0.501129
0.000000 0.704102 0.704102
0.328644 0.328644 0.328644
0.612274 0.257263 0.257263
0.839111 0.194031 0.194031
0.975220 0.138977 0.138977
1.000000 0.208893 0.208893
0.000000 0.475647 0.475647
0.000000 0.683685 0.683685
0.000000 0.842255 0.842255
0.000000 0.950806 0.950806
0.526611 0.526611 0.526611
0.780670 0.436859 0.436859
0.943939 0.354614 0.354614
1.000000 0.374146 0.374146
0.000000 0.662598 0.662598
0.000000 0.826843 0.826843
0.000000 0.941040 0.941040
0.005951 1.000000 1.000000
0.082458 1.000000 1.000000
0.714081 0.714081 0.714081
0.904541 0.639313 0.639313
1.000000 0.577637 0.577637
0.000000 0.810760 0.810760
0.000000 0.930634 0.930634
0.000458 1.000000 1.000000
0.071289 1.000000 1.000000
0.192139 1.000000 1.000000
0.363068 1.000000 1.000000
0.857025 0.857025 0.857025
0.983917 0.801300 0.801300
0.000000 0.919586 0.919586
0.000000 0.995056 0.995056
0.060730 1.000000 1.000000
0.175934 1.000000 1.000000
0.341217 1.000000 1.000000
0.553558 1.000000 1.000000
0.744720 1.000000 1.000000
0.955414 0.955414 0.955414
0.000000 0.000000 0.000000
0.065002 0.000000 0.000000
0.174530 0.000000 0.000000
0.328644 0.000000 0.000000
0.526611 0.000000 0.000000
0.714081 0.000000 0.000000
0.857025 0.000000 0.000000
0.955414 0.000000 0.000000
0.000000 0.059875 0.059875
0.065002 0.065002 0.065002
0.234985 0.031738 0.031738
0.495789 0.006653 0.006653
0.714081 0.000000 0.000000
0.857025 0.000000 0.000000
0.955414 0.000000 0.000000
1.000000 0.012085 0.012085
0.000000 0.159088 0.159088
0.000000 0.318176 0.318176
0.174530 0.174530 0.174530
0.408112 0.122223 0.122223
0.689758 0.078064 0.078064
0.889404 0.042053 0.042053
0.998291 0.014221 0.014221
1.000000 0.088226 0.088226
0.000000 0.297668 0.297668
0.000000 0.501129 0.501129
0.000000 0.704102 0.704102
0.328644 0.328644 0.328644
0.612274 0.257263 0.257263
0.839111 0.194031 0.194031
0.975220 0.138977 0.138977
1.000000 0.208893 0.208893
0.000000 0.475647 0.475647
0.000000 0.683685 0.683685
0.000000 0.842255 0.842255
0.000000 0.950806 0.950806
0.526611 0.526611 0.526611
0.780670 0.436859 0.436859
0.943939 0.354614 0.354614
1.000000 0.374146 0.374146
0.000000 0.662598 0.662598
0.000000 0.826843 0.826843
0.000000 0.941040 0.941040
0.005951 1.000000 1.000000
0.082458 1.000000 1.000000
0.714081 0.714081 0.714081
0.904541 0.639313 0.639313
1.000000 0.577637 0.577637
0.000000 0.810760 0.810760
0.000000 0.930634 0.930634
0.000458 1.000000 1.000000
0.071289 1.000000 1.000000
0.192139 1.000000 1.000000
0.363068 1.000000 1.000000
0.857025 0.857025 0.857025
0.983917 0.801300 0.801300
0.000000 0.919586 0.919586
0.000000 0.995056 0.995056
0.060730 1.000000 1.000000
0.175934 1.000000 1.000000
0.341217 1.000000 1.000000
0.553558 1.000000 1.000000
0.744720 1.000000 1.000000
0.955414 0.955414 0.955414
