EA 50 Cinematic Luts Pack/EA_Cinematic Lut (24).cube
TITLE "Generated by Resolve"
LUT_3D_SIZE 5
0.011429 0.00358587 0
0.182132 0.0127871 0
0.44332 0 0
0.694759 0 0
0.919905 0 0
0.0225071 0.195377 0
0.194049 0.20737 0
0.443641 0.206531 0
0.708003 0.206607 0
0.947326 0.218051 0
0 0.453483 0
0.184619 0.473518 0
0.441962 0.483558 0
0.711284 0.491691 0
0.952407 0.50692 0
0 0.741344 0
0.192096 0.763043 0
0.449378 0.771435 0
0.712459 0.775631 0
0.94406 0.783886 0
0.00643931 1 0
0.213153 1 0
0.463066 1 0
0.718196 1 0
0.942946 1 0
0 0.014435 0.18114
0.197696 0.00433356 0.13994
0.456168 0 0.120272
0.708003 0 0.0844282
0.934142 0 0.059556
0 0.191867 0.147601
0.210864 0.204608 0.173526
0.440345 0.208469 0.153536
0.72343 0.202121 0.123323
0.963104 0.214664 0.112016
0 0.450278 0.129366
0.221592 0.467292 0.191043
0.460716 0.482734 0.19498
0.729229 0.489998 0.152926
0.96936 0.504097 0.14313
0 0.742031 0.148455
0.208042 0.762768 0.184268
0.467536 0.769238 0.186435
0.728344 0.771939 0.170413
0.958206 0.778866 0.153429
0.00593576 1 0.185489
0.225269 1 0.20827
0.477836 1 0.203555
0.732555 1 0.186191
0.956542 1 0.168704
0 0.0153201 0.513359
0.198093 0 0.489479
0.46598 0 0.405798
0.718242 0 0.365621
0.945602 0 0.342947
0 0.197894 0.370398
0.123568 0.190692 0.437934
0.455802 0.199908 0.416052
0.73785 0.193149 0.40914
0.978515 0.206714 0.400381
0 0.420294 0.372152
0.150256 0.448188 0.41323
0.480888 0.483314 0.46154
0.726528 0.492531 0.446891
0.982071 0.49688 0.427405
0 0.723781 0.385916
0.177356 0.750118 0.434409
0.501701 0.760189 0.489143
0.74287 0.766888 0.484321
0.969467 0.770459 0.43859
0 0.997314 0.429496
0.211673 1 0.46833
0.487068 1 0.481285
0.744778 1 0.470863
0.967224 1 0.454719
0 0.0189517 0.828641
0.137179 0 0.828519
0.464851 0 0.733867
0.729717 0 0.660685
0.95816 0 0.631434
0 0.204242 0.685527
0.029099 0.169619 0.75256
0.443503 0.162142 0.757275
0.750851 0.181491 0.702251
0.993118 0.198245 0.690303
0 0.439734 0.565805
0 0.427054 0.613245
0.372351 0.448157 0.709102
0.741726 0.483696 0.713527
0.994965 0.486381 0.71606
0 0.692897 0.641154
0.0298314 0.689052 0.650492
0.409369 0.720119 0.694743
0.760891 0.765316 0.753124
0.963287 0.769528 0.733471
0 0.966583 0.664347
0.11693 0.975052 0.691447
0.445243 0.98613 0.724666
0.776577 0.992401 0.775601
0.981018 1 0.77229
0 0.0255894 1
0.0701305 0 1
0.435859 0 1
0.738155 0 0.946624
0.975769 0 0.894087
0 0.215412 0.967773
0 0.180774 1
0.379492 0.153216 1
0.752773 0.165255 0.991318
1 0.191455 0.950713
0 0.46215 0.817075
0 0.439063 0.891997
0.259236 0.408438 0.963027
0.716197 0.432715 0.999496
1 0.475212 0.967605
0 0.708858 0.795773
0 0.698146 0.791745
0.18764 0.667231 0.820935
0.626902 0.704723 0.933196
0.975387 0.757595 0.954971
0 0.935882 0.883162
0 0.922133 0.882597
0.266316 0.893675 0.867308
0.66569 0.933761 0.920577
1 1 1
