EA 50 Cinematic Luts Pack/EA_Cinematic Lut (27).cube
TITLE "Generated by Resolve"
LUT_3D_SIZE 5
0 0.0127108 0
0.104768 0 0
0.411902 0 0
0.6795 0 0
0.892378 0 0
0 0.204273 0
0.140139 0.172656 0
0.430457 0.158251 0
0.708507 0.15407 0
0.936553 0.169986 0
0 0.458335 0
0.133745 0.436576 0
0.436164 0.437415 0
0.722698 0.4448 0
0.955306 0.467262 0
0 0.760571 0
0.137575 0.742641 0
0.441932 0.743832 0
0.723354 0.748425 0
0.9467 0.764172 0
0 1 0
0.156435 1 0
0.452598 1 0
0.724743 1 0
0.939986 1 0
0 0.0246433 0.183169
0.121935 0 0.100557
0.426139 0 0.0723583
0.693507 0 0.0340887
0.907057 0 0.0123598
0 0.201221 0.174151
0.156863 0.169787 0.155901
0.4271 0.160128 0.122393
0.724544 0.150195 0.0886091
0.953429 0.167697 0.0822461
0 0.456382 0.157946
0.172 0.431617 0.177829
0.45658 0.438254 0.172946
0.742428 0.444892 0.130282
0.974166 0.466346 0.12784
0 0.762844 0.171527
0.1552 0.74406 0.167819
0.461891 0.74345 0.16289
0.741024 0.746517 0.14725
0.962509 0.7608 0.137621
0 1 0.206806
0.170535 1 0.189929
0.46894 1 0.176761
0.74081 1 0.158618
0.955062 1 0.147112
0 0.0254826 0.520027
0.123125 0 0.455604
0.436271 0 0.362905
0.703395 0 0.319615
0.917617 0 0.299565
0 0.207034 0.401434
0.068452 0.154772 0.423911
0.442237 0.151232 0.389288
0.739071 0.141344 0.379232
0.969238 0.160128 0.375692
0 0.426368 0.405386
0.100862 0.412726 0.404929
0.477287 0.439368 0.444755
0.740871 0.448569 0.430106
0.988006 0.460258 0.417945
0 0.745632 0.41474
0.125978 0.73286 0.424109
0.497139 0.735485 0.471397
0.756817 0.742733 0.467124
0.974594 0.753231 0.428305
0 1 0.456397
0.157763 1 0.455528
0.478889 1 0.459937
0.753689 0.996979 0.448646
0.966613 1 0.438712
0 0.0285649 0.848173
0.0622873 0 0.808103
0.434684 0 0.703899
0.713832 0 0.62707
0.928466 0 0.599741
0 0.211917 0.728496
0 0.132052 0.750301
0.429114 0.112657 0.743084
0.751934 0.129534 0.685588
0.983688 0.151522 0.678889
0 0.445457 0.612085
0 0.391852 0.618601
0.368902 0.404364 0.705867
0.756298 0.439963 0.710369
1 0.450004 0.720241
0 0.715221 0.683833
0 0.672282 0.654078
0.405432 0.696025 0.691005
0.775219 0.741558 0.749722
0.968826 0.752697 0.737011
0 1 0.704875
0.0629892 0.977615 0.691997
0.437125 0.980224 0.716762
0.785275 0.985351 0.766552
0.980179 0.999771 0.769451
0 0.0363928 1
0 0 1
0.405798 0 1
0.722057 0 0.914794
0.945235 0 0.863554
0 0.222538 1
0 0.142535 1
0.365042 0.103685 1
0.754086 0.113512 0.976883
1 0.145296 0.941848
0 0.468467 0.865965
0 0.40473 0.900221
0.257053 0.365911 0.963058
0.732052 0.390265 0.999603
1 0.440421 0.975387
0 0.732387 0.841672
0 0.682521 0.798489
0.184939 0.644388 0.820447
0.6421 0.681819 0.932647
0.981704 0.741543 0.961273
0 0.979736 0.927001
0 0.925612 0.886061
0.259052 0.888624 0.862257
0.675227 0.927565 0.914382
1 1 1
