EA 50 Cinematic Luts Pack/EA_Cinematic Lut (21).CUBE
#Created by: Adobe Photoshop Export Color Lookup Plugin
#Copyright: (C) Copyright 2018 Navpreet Singh
TITLE "Orange and Teal 4"
#LUT size
LUT_3D_SIZE 8
#data domain
#LUT data points
DOMAIN_MIN 0.000000 0.000000 0.000000
DOMAIN_MAX 0.903226 0.903226 0.903226
0.000000 0.000000 0.000000
0.065002 0.000000 0.000000
0.174530 0.000000 0.000000
0.328644 0.000000 0.000000
0.526611 0.000000 0.000000
0.714081 0.000000 0.000000
0.857025 0.000000 0.000000
0.955414 0.000000 0.000000
0.000000 0.063141 0.063141
0.065002 0.065002 0.065002
0.195404 0.052032 0.052032
0.385193 0.040192 0.040192
0.599365 0.036438 0.036438
0.770752 0.036438 0.036438
0.897644 0.036438 0.036438
0.974396 0.043030 0.043030
0.000000 0.168884 0.168884
0.036438 0.221802 0.221802
0.174530 0.174530 0.174530
0.356354 0.154724 0.154724
0.589203 0.135986 0.135986
0.785797 0.118286 0.118286
0.923035 0.101654 0.101654
0.974396 0.140503 0.140503
0.000000 0.317291 0.317291
0.036438 0.386902 0.386902
0.091034 0.463013 0.463013
0.328644 0.328644 0.328644
0.558472 0.301941 0.301941
0.762970 0.276306 0.276306
0.908112 0.251740 0.251740
0.974396 0.282532 0.282532
0.000000 0.508331 0.508331
0.036438 0.586761 0.586761
0.091034 0.658630 0.658630
0.163849 0.724060 0.724060
0.526611 0.526611 0.526611
0.739014 0.493713 0.493713
0.892151 0.461243 0.461243
0.974396 0.469177 0.469177
0.000000 0.695953 0.695953
0.036438 0.757721 0.757721
0.091034 0.812988 0.812988
0.169922 0.856079 0.856079
0.326233 0.856079 0.856079
0.714081 0.714081 0.714081
0.875092 0.688019 0.688019
0.974396 0.667755 0.667755
0.000000 0.841003 0.841003
0.036438 0.886108 0.886108
0.091400 0.924347 0.924347
0.216675 0.924347 0.924347
0.388428 0.924347 0.924347
0.596741 0.924347 0.924347
0.857025 0.857025 0.857025
0.966644 0.837860 0.837860
0.000000 0.943390 0.943390
0.036438 0.971832 0.971832
0.127808 0.974396 0.974396
0.268524 0.974396 0.974396
0.455719 0.974396 0.974396
0.660034 0.974396 0.974396
0.819885 0.974396 0.974396
0.955414 0.955414 0.955414
0.000000 0.000000 0.000000
0.065002 0.000000 0.000000
0.174530 0.000000 0.000000
0.328644 0.000000 0.000000
0.526611 0.000000 0.000000
0.714081 0.000000 0.000000
0.857025 0.000000 0.000000
0.955414 0.000000 0.000000
0.000000 0.063141 0.063141
0.065002 0.065002 0.065002
0.195404 0.052032 0.052032
0.385193 0.040192 0.040192
0.599365 0.036438 0.036438
0.770752 0.036438 0.036438
0.897644 0.036438 0.036438
0.974396 0.043030 0.043030
0.000000 0.168884 0.168884
0.036438 0.221802 0.221802
0.174530 0.174530 0.174530
0.356354 0.154724 0.154724
0.589203 0.135986 0.135986
0.785797 0.118286 0.118286
0.923035 0.101654 0.101654
0.974396 0.140503 0.140503
0.000000 0.317291 0.317291
0.036438 0.386902 0.386902
0.091034 0.463013 0.463013
0.328644 0.328644 0.328644
0.558472 0.301941 0.301941
0.762970 0.276306 0.276306
0.908112 0.251740 0.251740
0.974396 0.282532 0.282532
0.000000 0.508331 0.508331
0.036438 0.586761 0.586761
0.091034 0.658630 0.658630
0.163849 0.724060 0.724060
0.526611 0.526611 0.526611
0.739014 0.493713 0.493713
0.892151 0.461243 0.461243
0.974396 0.469177 0.469177
0.000000 0.695953 0.695953
0.036438 0.757721 0.757721
0.091034 0.812988 0.812988
0.169922 0.856079 0.856079
0.326233 0.856079 0.856079
0.714081 0.714081 0.714081
0.875092 0.688019 0.688019
0.974396 0.667755 0.667755
0.000000 0.841003 0.841003
0.036438 0.886108 0.886108
0.091400 0.924347 0.924347
0.216675 0.924347 0.924347
0.388428 0.924347 0.924347
0.596741 0.924347 0.924347
0.857025 0.857025 0.857025
0.966644 0.837860 0.837860
0.000000 0.943390 0.943390
0.036438 0.971832 0.971832
0.127808 0.974396 0.974396
0.268524 0.974396 0.974396
0.455719 0.974396 0.974396
0.660034 0.974396 0.974396
0.819885 0.974396 0.974396
0.955414 0.955414 0.955414
0.000000 0.000000 0.000000
0.065002 0.000000 0.000000
0.174530 0.000000 0.000000
0.328644 0.000000 0.000000
0.526611 0.000000 0.000000
0.714081 0.000000 0.000000
0.857025 0.000000 0.000000
0.955414 0.000000 0.000000
0.000000 0.063141 0.063141
0.065002 0.065002 0.065002
0.195404 0.052032 0.052032
0.385193 0.040192 0.040192
0.599365 0.036438 0.036438
0.770752 0.036438 0.036438
0.897644 0.036438 0.036438
0.974396 0.043030 0.043030
0.000000 0.168884 0.168884
0.036438 0.221802 0.221802
0.174530 0.174530 0.174530
0.356354 0.154724 0.154724
0.589203 0.135986 0.135986
0.785797 0.118286 0.118286
0.923035 0.101654 0.101654
0.974396 0.140503 0.140503
0.000000 0.317291 0.317291
0.036438 0.386902 0.386902
0.091034 0.463013 0.463013
0.328644 0.328644 0.328644
0.558472 0.301941 0.301941
0.762970 0.276306 0.276306
0.908112 0.251740 0.251740
0.974396 0.282532 0.282532
0.000000 0.508331 0.508331
0.036438 0.586761 0.586761
0.091034 0.658630 0.658630
0.163849 0.724060 0.724060
0.526611 0.526611 0.526611
0.739014 0.493713 0.493713
0.892151 0.461243 0.461243
0.974396 0.469177 0.469177
0.000000 0.695953 0.695953
0.036438 0.757721 0.757721
0.091034 0.812988 0.812988
0.169922 0.856079 0.856079
0.326233 0.856079 0.856079
0.714081 0.714081 0.714081
0.875092 0.688019 0.688019
0.974396 0.667755 0.667755
0.000000 0.841003 0.841003
0.036438 0.886108 0.886108
0.091400 0.924347 0.924347
0.216675 0.924347 0.924347
0.388428 0.924347 0.924347
0.596741 0.924347 0.924347
0.857025 0.857025 0.857025
0.966644 0.837860 0.837860
0.000000 0.943390 0.943390
0.036438 0.971832 0.971832
0.127808 0.974396 0.974396
0.268524 0.974396 0.974396
0.455719 0.974396 0.974396
0.660034 0.974396 0.974396
0.819885 0.974396 0.974396
0.955414 0.955414 0.955414
0.000000 0.000000 0.000000
0.065002 0.000000 0.000000
0.174530 0.000000 0.000000
0.328644 0.000000 0.000000
0.526611 0.000000 0.000000
0.714081 0.000000 0.000000
0.857025 0.000000 0.000000
0.955414 0.000000 0.000000
0.000000 0.063141 0.063141
0.065002 0.065002 0.065002
0.195404 0.052032 0.052032
0.385193 0.040192 0.040192
0.599365 0.036438 0.036438
0.770752 0.036438 0.036438
0.897644 0.036438 0.036438
0.974396 0.043030 0.043030
0.000000 0.168884 0.168884
0.036438 0.221802 0.221802
0.174530 0.174530 0.174530
0.356354 0.154724 0.154724
0.589203 0.135986 0.135986
0.785797 0.118286 0.118286
0.923035 0.101654 0.101654
0.974396 0.140503 0.140503
0.000000 0.317291 0.317291
0.036438 0.386902 0.386902
0.091034 0.463013 0.463013
0.328644 0.328644 0.328644
0.558472 0.301941 0.301941
0.762970 0.276306 0.276306
0.908112 0.251740 0.251740
0.974396 0.282532 0.282532
0.000000 0.508331 0.508331
0.036438 0.586761 0.586761
0.091034 0.658630 0.658630
0.163849 0.724060 0.724060
0.526611 0.526611 0.526611
0.739014 0.493713 0.493713
0.892151 0.461243 0.461243
0.974396 0.469177 0.469177
0.000000 0.695953 0.695953
0.036438 0.757721 0.757721
0.091034 0.812988 0.812988
0.169922 0.856079 0.856079
0.326233 0.856079 0.856079
0.714081 0.714081 0.714081
0.875092 0.688019 0.688019
0.974396 0.667755 0.667755
0.000000 0.841003 0.841003
0.036438 0.886108 0.886108
0.091400 0.924347 0.924347
0.216675 0.924347 0.924347
0.388428 0.924347 0.924347
0.596741 0.924347 0.924347
0.857025 0.857025 0.857025
0.966644 0.837860 0.837860
0.000000 0.943390 0.943390
0.036438 0.971832 0.971832
0.127808 0.974396 0.974396
0.268524 0.974396 0.974396
0.455719 0.974396 0.974396
0.660034 0.974396 0.974396
0.819885 0.974396 0.974396
0.955414 0.955414 0.955414
0.000000 0.000000 0.000000
0.065002 0.000000 0.000000
0.174530 0.000000 0.000000
0.328644 0.000000 0.000000
0.526611 0.000000 0.000000
0.714081 0.000000 0.000000
0.857025 0.000000 0.000000
0.955414 0.000000 0.000000
0.000000 0.063141 0.063141
0.065002 0.065002 0.065002
0.195404 0.052032 0.052032
0.385193 0.040192 0.040192
0.599365 0.036438 0.036438
0.770752 0.036438 0.036438
0.897644 0.036438 0.036438
0.974396 0.043030 0.043030
0.000000 0.168884 0.168884
0.036438 0.221802 0.221802
0.174530 0.174530 0.174530
0.356354 0.154724 0.154724
0.589203 0.135986 0.135986
0.785797 0.118286 0.118286
0.923035 0.101654 0.101654
0.974396 0.140503 0.140503
0.000000 0.317291 0.317291
0.036438 0.386902 0.386902
0.091034 0.463013 0.463013
0.328644 0.328644 0.328644
0.558472 0.301941 0.301941
0.762970 0.276306 0.276306
0.908112 0.251740 0.251740
0.974396 0.282532 0.282532
0.000000 0.508331 0.508331
0.036438 0.586761 0.586761
0.091034 0.658630 0.658630
0.163849 0.724060 0.724060
0.526611 0.526611 0.526611
0.739014 0.493713 0.493713
0.892151 0.461243 0.461243
0.974396 0.469177 0.469177
0.000000 0.695953 0.695953
0.036438 0.757721 0.757721
0.091034 0.812988 0.812988
0.169922 0.856079 0.856079
0.326233 0.856079 0.856079
0.714081 0.714081 0.714081
0.875092 0.688019 0.688019
0.974396 0.667755 0.667755
0.000000 0.841003 0.841003
0.036438 0.886108 0.886108
0.091400 0.924347 0.924347
0.216675 0.924347 0.924347
0.388428 0.924347 0.924347
0.596741 0.924347 0.924347
0.857025 0.857025 0.857025
0.966644 0.837860 0.837860
0.000000 0.943390 0.943390
0.036438 0.971832 0.971832
0.127808 0.974396 0.974396
0.268524 0.974396 0.974396
0.455719 0.974396 0.974396
0.660034 0.974396 0.974396
0.819885 0.974396 0.974396
0.955414 0.955414 0.955414
0.000000 0.000000 0.000000
0.065002 0.000000 0.000000
0.174530 0.000000 0.000000
0.328644 0.000000 0.000000
0.526611 0.000000 0.000000
0.714081 0.000000 0.000000
0.857025 0.000000 0.000000
0.955414 0.000000 0.000000
0.000000 0.063141 0.063141
0.065002 0.065002 0.065002
0.195404 0.052032 0.052032
0.385193 0.040192 0.040192
0.599365 0.036438 0.036438
0.770752 0.036438 0.036438
0.897644 0.036438 0.036438
0.974396 0.043030 0.043030
0.000000 0.168884 0.168884
0.036438 0.221802 0.221802
0.174530 0.174530 0.174530
0.356354 0.154724 0.154724
0.589203 0.135986 0.135986
0.785797 0.118286 0.118286
0.923035 0.101654 0.101654
0.974396 0.140503 0.140503
0.000000 0.317291 0.317291
0.036438 0.386902 0.386902
0.091034 0.463013 0.463013
0.328644 0.328644 0.328644
0.558472 0.301941 0.301941
0.762970 0.276306 0.276306
0.908112 0.251740 0.251740
0.974396 0.282532 0.282532
0.000000 0.508331 0.508331
0.036438 0.586761 0.586761
0.091034 0.658630 0.658630
0.163849 0.724060 0.724060
0.526611 0.526611 0.526611
0.739014 0.493713 0.493713
0.892151 0.461243 0.461243
0.974396 0.469177 0.469177
0.000000 0.695953 0.695953
0.036438 0.757721 0.757721
0.091034 0.812988 0.812988
0.169922 0.856079 0.856079
0.326233 0.856079 0.856079
0.714081 0.714081 0.714081
0.875092 0.688019 0.688019
0.974396 0.667755 0.667755
0.000000 0.841003 0.841003
0.036438 0.886108 0.886108
0.091400 0.924347 0.924347
0.216675 0.924347 0.924347
0.388428 0.924347 0.924347
0.596741 0.924347 0.924347
0.857025 0.857025 0.857025
0.966644 0.837860 0.837860
0.000000 0.943390 0.943390
0.036438 0.971832 0.971832
0.127808 0.974396 0.974396
0.268524 0.974396 0.974396
0.455719 0.974396 0.974396
0.660034 0.974396 0.974396
0.819885 0.974396 0.974396
0.955414 0.955414 0.955414
0.000000 0.000000 0.000000
0.065002 0.000000 0.000000
0.174530 0.000000 0.000000
0.328644 0.000000 0.000000
0.526611 0.000000 0.000000
0.714081 0.000000 0.000000
0.857025 0.000000 0.000000
0.955414 0.000000 0.000000
0.000000 0.063141 0.063141
0.065002 0.065002 0.065002
0.195404 0.052032 0.052032
0.385193 0.040192 0.040192
0.599365 0.036438 0.036438
0.770752 0.036438 0.036438
0.897644 0.036438 0.036438
0.974396 0.043030 0.043030
0.000000 0.168884 0.168884
0.036438 0.221802 0.221802
0.174530 0.174530 0.174530
0.356354 0.154724 0.154724
0.589203 0.135986 0.135986
0.785797 0.118286 0.118286
0.923035 0.101654 0.101654
0.974396 0.140503 0.140503
0.000000 0.317291 0.317291
0.036438 0.386902 0.386902
0.091034 0.463013 0.463013
0.328644 0.328644 0.328644
0.558472 0.301941 0.301941
0.762970 0.276306 0.276306
0.908112 0.251740 0.251740
0.974396 0.282532 0.282532
0.000000 0.508331 0.508331
0.036438 0.586761 0.586761
0.091034 0.658630 0.658630
0.163849 0.724060 0.724060
0.526611 0.526611 0.526611
0.739014 0.493713 0.493713
0.892151 0.461243 0.461243
0.974396 0.469177 0.469177
0.000000 0.695953 0.695953
0.036438 0.757721 0.757721
0.091034 0.812988 0.812988
0.169922 0.856079 0.856079
0.326233 0.856079 0.856079
0.714081 0.714081 0.714081
0.875092 0.688019 0.688019
0.974396 0.667755 0.667755
0.000000 0.841003 0.841003
0.036438 0.886108 0.886108
0.091400 0.924347 0.924347
0.216675 0.924347 0.924347
0.388428 0.924347 0.924347
0.596741 0.924347 0.924347
0.857025 0.857025 0.857025
0.966644 0.837860 0.837860
0.000000 0.943390 0.943390
0.036438 0.971832 0.971832
0.127808 0.974396 0.974396
0.268524 0.974396 0.974396
0.455719 0.974396 0.974396
0.660034 0.974396 0.974396
0.819885 0.974396 0.974396
0.955414 0.955414 0.955414
0.000000 0.000000 0.000000
0.065002 0.000000 0.000000
0.174530 0.000000 0.000000
0.328644 0.000000 0.000000
0.526611 0.000000 0.000000
0.714081 0.000000 0.000000
0.857025 0.000000 0.000000
0.955414 0.000000 0.000000
0.000000 0.063141 0.063141
0.065002 0.065002 0.065002
0.195404 0.052032 0.052032
0.385193 0.040192 0.040192
0.599365 0.036438 0.036438
0.770752 0.036438 0.036438
0.897644 0.036438 0.036438
0.974396 0.043030 0.043030
0.000000 0.168884 0.168884
0.036438 0.221802 0.221802
0.174530 0.174530 0.174530
0.356354 0.154724 0.154724
0.589203 0.135986 0.135986
0.785797 0.118286 0.118286
0.923035 0.101654 0.101654
0.974396 0.140503 0.140503
0.000000 0.317291 0.317291
0.036438 0.386902 0.386902
0.091034 0.463013 0.463013
0.328644 0.328644 0.328644
0.558472 0.301941 0.301941
0.762970 0.276306 0.276306
0.908112 0.251740 0.251740
0.974396 0.282532 0.282532
0.000000 0.508331 0.508331
0.036438 0.586761 0.586761
0.091034 0.658630 0.658630
0.163849 0.724060 0.724060
0.526611 0.526611 0.526611
0.739014 0.493713 0.493713
0.892151 0.461243 0.461243
0.974396 0.469177 0.469177
0.000000 0.695953 0.695953
0.036438 0.757721 0.757721
0.091034 0.812988 0.812988
0.169922 0.856079 0.856079
0.326233 0.856079 0.856079
0.714081 0.714081 0.714081
0.875092 0.688019 0.688019
0.974396 0.667755 0.667755
0.000000 0.841003 0.841003
0.036438 0.886108 0.886108
0.091400 0.924347 0.924347
0.216675 0.924347 0.924347
0.388428 0.924347 0.924347
0.596741 0.924347 0.924347
0.857025 0.857025 0.857025
0.966644 0.837860 0.837860
0.000000 0.943390 0.943390
0.036438 0.971832 0.971832
0.127808 0.974396 0.974396
0.268524 0.974396 0.974396
0.455719 0.974396 0.974396
0.660034 0.974396 0.974396
0.819885 0.974396 0.974396
0.955414 0.955414 0.955414
